/* XPM */
static char *_02aaa7b0ea24ad7a30b3ee18ae46c5f[] = {
/* columns rows colors chars-per-pixel */
"366 192 16 1 ",
"  c None",
". c #FCBC9C",
"X c #FCB890",
"o c #FCB080",
"O c #FCA470",
"+ c #FC9C60",
"@ c #F0945C",
"# c #E88C58",
"$ c #DC8854",
"% c #D08050",
"& c #C87C4C",
"* c #BC7848",
"= c #B47044",
"- c #A86840",
"; c #9C6038",
": c #885830",
/* pixels */
"                                                                                                                                                                                                                                                                                                                                                                              ",
"                                                                                                                                                                                                                                                                                                                                                                              ",
"                                                                                                                                                                                                                                                                                                                                                                              ",
"                                                                                                                                                                                                                                                                                                                                                                              ",
"                                                                                                                                                                                                                                                                                                                                                                              ",
"                                                                                                                                                                                                                                                                                                                                                                              ",
"                                                                                                                                                                                                                                                                                                                                                                              ",
"                                                                                                                                                                                                                                                                                                                                                                              ",
"                                                                                                                                                                                                                                                                                                                                                                              ",
"                                                                                                                                                                                                                                                                                                                                                                              ",
"                                                                                                                                                                                                                                                                                                                                                                              ",
"                                                                                                                                                                                                                                                                                                                                                                              ",
"                                                                                                                                                                                                                                                                                                                                                                              ",
"                                                                                                                                                                                                                                                                                                                                                                              ",
"                                                                                                                                                                                                                                                                                                                                                                              ",
"                                                                                                                                                                                                                                                                                                                                                                              ",
"                                                                                                                                                                                                                                                                                                                                                                              ",
"                                                                                                                                                                                                                                                                                                                                                                              ",
"                                                                                                                                                                                                                                                                                                                                                                              ",
"                                                                                                                                                                                                                                                                                                                                                                              ",
"                                                                                                                                                                                                                                                                                                                                                                              ",
"                                                                                                                                                                                                                                                                                                                                                                              ",
"                                                                                                                                                                                                                                                                                                                                                                              ",
"                                                                                                                                                                                                                                                                                                                                                                              ",
"                                                                                                                                                                                                                                                                                                                                                                              ",
"                                                                                                                                                                                                                                                                                                                                                                              ",
"                                                                                                                                                                                                                                                                                                                                                                              ",
"                                                                                                                                                                                                                                                                                                                                                                              ",
"                                                                                                                                                                                                                                                                                                                                                                              ",
"                                                                                                                                                                                                                                                                                                                                                                              ",
"                                                                                                                                                                                                                                                                                                                                                                              ",
"                                                                                                                                                                                                                                                                                                                                                                              ",
"                                                                                                                                                                                                                                                                                                                                                                              ",
"                                                                                                                                                                                                                                                                                                                                                                              ",
"                                                                                                                                                                                                                                                                                                                                                                              ",
"                                                                                                                                                                                                                                                                                                                                                                              ",
"                                                                                                                                                                                                                                                                                                                                                                              ",
"                                                                                                                                                                                                                                                                                                                                                                              ",
"                                                                                                                                                                                                                                                                                                                                                                              ",
"                                                                                                                                                                                                                                                                                                                                                                              ",
"                                                                                                                                                                                                                                                                                                                                                                              ",
"                                                                                                                                                                                                                                                                                                                                                                              ",
"                                                                                                                                                                                                                                                                                                                                                                              ",
"                                                                                                                                                                                                                                                                                                                                                                              ",
"                                                                                                                                                                                                                                                                                                                                                                              ",
"                                                                                                                                                                                                                                                                                                                                                                              ",
"                                                                                                                                                                                                                                                                                                                                                                              ",
"                                                                                                                                                                                                                                                                                                                                                                              ",
"                                                                                                                                                                                                                                                                                                                                                                              ",
"                                                                                                                                                                                                                                                                                                                                                                              ",
"                                                                                                                                                                                                                                                                                                                                                                              ",
"                                                                                                                                                                                                                                                                                                                                                                              ",
"                                                                                                                                                                                                                                                                                                                                                                              ",
"                                                                                                                                                                                                                                                                                                                                                                              ",
"                                                                                                                                                                                                                                                                                                                                                                              ",
"                                                                                                                                                                                                                                                                                                                                                                              ",
"                                                                                                                                                                                                                                                                                                                                                                              ",
"                                                                                                                                                                                                                                                                                                                                                                              ",
"                                                                                                                                                                                                                                                                                                                                                                              ",
"                                                                                                                                                                                                                                                                                                                                                                              ",
"                                                                                                                                                                                                                                                                                                                                                                              ",
"                                                                                                                                                                                                                                                                                                                                                                              ",
"                                                                                                                                                                                                                                                                                                                                                                              ",
"                                                                                                                                                                                                                                                                                                                                                                              ",
"                                                                                                                                                                                                                                                                                                                                                                              ",
"                                                                                                                                                                                                                                                                                                                                                                              ",
"                                                                                                                                                                                                                                                                                                                                                                              ",
"                                                                                                                                                                                                                                                                                                                                                                              ",
"                                                                                                                                                                                                                                                                                                                                                                              ",
"                                                                                                                                                                                                                                                                                                                                                                              ",
"                                                                                                                                                                                                                                                                                                                                                                              ",
"                                                                                                                                                                                                                                                                                                                                                                              ",
"                                                                                                                                                                                                                                                                                                                                                                              ",
"                                                                                                                                                                                                                                                                                                                                                                              ",
"                                                                                                                                                                                                                                                                                                                                                                              ",
"                                                                                                                                                                                                                                                                                                                                                                              ",
"                                                                                                                                                                                                                                                                                                                                                                              ",
"                                                                                                                                                                                                                                                                                                                                                                              ",
"                                                                                                                                                                                                                                                                                                                                                                              ",
"                                                                                                                                                                                                                                                                                                                                                                              ",
"                                                                                                                                                                                                                                                                                                                                                                              ",
"                                                                                                                                                                                                                                                                                                                                                                              ",
"                                                                                                                                                                                                                                                                                                                                                                              ",
"                                                                                                                                                                                                                                                                                                                                                                              ",
"                                                                                                                                                                                                                                                                                                                                                                              ",
"                                                                                                                                                                                                                                                                                                                                                                              ",
"                                                                                                                                                                                                                                                                                                                                                                              ",
"                                                                                                                                                                                                                                                                                                                                                                              ",
"                                                                                                                                                                                                                                                                                                                                                                              ",
"                                                                                                                                                                                                                                                                                                                                                                              ",
"                                                                                                                                                                                                                                                                                                                                                                              ",
"                                                                                                                                                                                                                                                                                                                                                                              ",
"                                                                                                                                                                                                                                                                                                                                                                              ",
"                                                                                                                                                                                                                                                                                                                                                                              ",
"                                                                                                                                                                                                                                                                                                                                                                              ",
"                                                                                                                                                                                                                                                                                                                                                                              ",
"                                                                                                                                                                                                                                                                                                                                                                              ",
"                                                                                                                                                                                                                                                                                                                                                                              ",
"                                                                                                                                                                                                                                                                                                                                                                              ",
"                                                                                                                                                                                                                                                                                                                                                                              ",
"                                                                                                                                                                                                                                                                                                                                                                              ",
"                                                                                                                                                                                                                                                                                                                                                                              ",
"                                                                                                                                                                                                                                                                                                                                                                              ",
"                                                                                                                                                                                                                                                                                                                                                                              ",
"                                                                                                                                                                                                                                                                                                                                                                              ",
"                                                                                                                                                                                                                                                                                                                                                                              ",
"                                                                                                                                                                                                                                                                                                                                                                              ",
"                                                                                                                                                                                                                                                                                                                                                                              ",
"                                                                                                                                                                                                                                                                                                                                                                              ",
"                                                                                                                                                                                                                                                                                                                                                                              ",
"                                                                                                                                                                                                                                                                                                                                                                              ",
"                                                                                                                                                                                                                                                                                                                                                                              ",
"                                                                                                                                                                                                                                                                                                                                                                              ",
"                                                                                                                                                                                                                                                                                                                                                                              ",
"                                                                                                                                                                                                                                                                                                                                                                              ",
"                                                                                                                                                                                                                                                                                                                                                                              ",
"                                                                                                                                                                                                                                                                                                                                                                              ",
"                                                                                                                                                                                                                                                                                                                                                                              ",
"                                                                                                                                                                                                                                                                                                                                                                              ",
"                                                                                                                                                                                                                                                                                                                                                                              ",
"                                                                                                                                                                                                                                                                                                                                                                              ",
"                                                                                                                                                                                                                                                                                                                                                                              ",
"                                                                                                                                                                                                                                                                                                                                                                              ",
"                                                                                                                                                                                                                                                                                                                                                                              ",
"                                                                                                                                                                                                                                                                                                                                                                              ",
"                                                                                                                                                                                                                                                                                                                                                                              ",
"                                                                                                                                                                                                                                                                                                                                                                              ",
"                                                                                                                                                                                                                                                                                                                                                                              ",
"                                                                                                                                                                                                                                                                                                                                                                              ",
"                                                                                                                                                                                                                                                                                                                                                                              ",
"                                                                                                                                                                                                                                                                                                                                                                              ",
"                                                                                                                                                                                                                                                                                                                                                                              ",
"                                                                                                                                                                                                                                                                                                                                                                              ",
"                                                                                                                                                                                                                                                                                                                                                                              ",
"                                                                                                                                                                                                                                                                                                                                                                              ",
"                                                                                                                                                                                                                                                                                                                                                                              ",
"                                                                                                                                                                                                                                                                                                                                                                              ",
"                                                                                                                                                                                                                                                                                                                                                                              ",
"                                                                                                                                                                                                                                                                                                                                                                              ",
"                                                                                                                                                                                                                                                                                                                                                                              ",
"                                                                                                                                                                                                                                                                                                                                                                              ",
"                                                                                                                                                                                                                                                                                                                                                                              ",
"                                                                                                                                                                                                                                                                                                                                                                              ",
"                                                                                                                                                                                                                                                                                                                                                                              ",
"                                                                                                                                                                                                                                                                                                                                                                              ",
"                                                                                                                                                                                                                                                                                                                                                                              ",
"                                                                                                                                                                                                                                                                                                                                                                              ",
"                                                                                                                                                                                                                                                                                                                                                                              ",
"                                                                                                                                                                                                                                                                                                                                                                              ",
"                                                                                                                                                                                                                                                                                                                                                                              ",
"                                                                                                                                                                                                                                                                                                                                                                              ",
"                                                                                                                                                                                                                                                                                                                                                                              ",
"                                                                                                                                                                                                                                                                                                                                                                              ",
"                                                                                                                                                                                                                                                                                                                                                                              ",
"                                                                                                                                                                                                                                                                                                                                                                              ",
"                                                                                                                                                                                                                                                                                                                                                                              ",
"                                                                                                                                                                                                                                                                                                                                                                              ",
"                                                                                                                                                                                                                                                                                                                                                                              ",
"                                                                                                                                                                                                                                                                                                                                                                              ",
"                                                                                                                                                                                                                                                                                                                                                                              ",
"                                                                                                                                                                                                                                                                                                                                                                              ",
"                                                                                                                                                                                                                                                                                                                                                                              ",
"                                                                                                                                                                                                                                                                                                                                                                              ",
"                                                                                                                                                                                                                                                                                                                                                                              ",
"                                                                                                                                                                                                                                                                                                                                                                              ",
"                                                                                                                                                                                                                                                                                                                                                                              ",
"                                                                                                                                                                                                                                                                                                                                                                              ",
"                                                                                                                                                                                                                                                                                                                                                                              ",
"                                                                                                                                 OOOOOOOOO                                                                                                                                                                                                                                    ",
"                                                                                                                                 OOOOOOOOO                                                                                                                                                                                                                                    ",
"                                                                                                                                 OOOOOOOOO                                                                                                                                                                                                                                    ",
"                                                                                                                              OOOOOOoooXXXoooOOO$$$%%%                                                                                                                                                                                                                        ",
"                                                                                                                              OOOOOOoooXXXoooOOO$$$%%%                                                                                                                                                                                                                        ",
"                                                                                                                              OOOOOOoooXXXoooOOO$$$%%%                                                                                                                                                                                                                        ",
"                                                                                                                              OOOOOOoooooooooOOO++++++@@@@@@$$$%%%&&&%%%@@@OOOOOOOOO+++%%%&&&                                                                                                                                                                                 ",
"                                                                                                                              OOOOOOoooooooooOOO++++++@@@@@@$$$%%%&&&%%%@@@OOOOOOOOO+++%%%&&&                                                                                                                                                                                 ",
"                                                                                                                              OOOOOOoooooooooOOO++++++@@@@@@$$$%%%&&&%%%@@@OOOOOOOOO+++%%%&&&                                                                                                                                                                                 ",
"                                                                                                                              OOO+++@@@OOOoooOOOOOOOOOOOOOOO+++$$$%%%%%%$$$+++OOOOOO+++$$$%%%&&&                                                                                                                                                                              ",
"                                                                                                                              OOO+++@@@OOOoooOOOOOOOOOOOOOOO+++$$$%%%%%%$$$+++OOOOOO+++$$$%%%&&&                                                                                                                                                                              ",
"                                                                                                                              OOO+++@@@OOOoooOOOOOOOOOOOOOOO+++$$$%%%%%%$$$+++OOOOOO+++$$$%%%&&&                                                                                                                                                                              ",
"                                                                                                                                 %%%%%%$$$$$$@@@+++ooooooXXXoooOOO@@@@@@@@@+++OOOOOO+++@@@%%%&&&&&&                                                                                                                                                                           ",
"                                                                                                                                 %%%%%%$$$$$$@@@+++ooooooXXXoooOOO@@@@@@@@@+++OOOOOO+++@@@%%%&&&&&&                                                                                                                                                                           ",
"                                                                                                                                 %%%%%%$$$$$$@@@+++ooooooXXXoooOOO@@@@@@@@@+++OOOOOO+++@@@%%%&&&&&&                                                                                                                                                                           ",
"                                                                                                                              @@@&&&***&&&%%%%%%$$$+++oooXXX...ooooooOOOOOOOOOOOOOOOOOO+++$$$%%%&&&---                                                                                                                                                                        ",
"                                                                                                                              @@@&&&***&&&%%%%%%$$$+++oooXXX...ooooooOOOOOOOOOOOOOOOOOO+++$$$%%%&&&---                                                                                                                                                                        ",
"                                                                                                                              @@@&&&***&&&%%%%%%$$$+++oooXXX...ooooooOOOOOOOOOOOOOOOOOO+++$$$%%%&&&---                                                                                                                                                                        ",
"                                                                                                                           +++@@@$$$%%%&&&&&&&&&%%%###+++ooooooXXXXXXXXXXXXooooooOOOOOO+++@@@%%%&&&===;;;                                                                                                                                                                     ",
"                                                                                                                           +++@@@$$$%%%&&&&&&&&&%%%###+++ooooooXXXXXXXXXXXXooooooOOOOOO+++@@@%%%&&&===;;;                                                                                                                                                                     ",
"                                                                                                                           +++@@@$$$%%%&&&&&&&&&%%%###+++ooooooXXXXXXXXXXXXooooooOOOOOO+++@@@%%%&&&===;;;                                                                                                                                                                     ",
"                                                                                                                           ===@@@@@@@@@$$$%%%***&&&%%%$$$@@@OOOoooXXX.........XXXooooooOOO+++$$$%%%===;;;:::                                                                                                                                                                  ",
"                                                                                                                           ===@@@@@@@@@$$$%%%***&&&%%%$$$@@@OOOoooXXX.........XXXooooooOOO+++$$$%%%===;;;:::                                                                                                                                                                  ",
"                                                                                                                           ===@@@@@@@@@$$$%%%***&&&%%%$$$@@@OOOoooXXX.........XXXooooooOOO+++$$$%%%===;;;:::                                                                                                                                                                  "
};
