/* XPM */
static char *a5dc9bf5b2254e13aedf70a4db899269L8gWQp4Z36Zinu44[] = {
/* columns rows colors chars-per-pixel */
"366 192 31 1 ",
"  c None",
". c #202020",
"X c #2C2C2C",
"o c gray22",
"O c #484848",
"+ c gray33",
"@ c gray44",
"# c #7C7C7C",
"$ c #885830",
"% c #9C6038",
"& c #A86840",
"* c #B47044",
"= c #BC7848",
"- c #C87C4C",
"; c #D08050",
": c #DC8854",
"> c #E88C58",
", c #F0945C",
"< c #FC9C60",
"1 c #FCA470",
"2 c gray55",
"3 c #989898",
"4 c gray66",
"5 c #B4B4B4",
"6 c #FCB080",
"7 c #FCB890",
"8 c #FCBC9C",
"9 c #FCCCB0",
"0 c #C0C0C0",
"q c #D0D0D0",
"w c #ECECEC",
/* pixels */
"                                                                                                                                                                                                                                                                                                                                                                              ",
"                                                                                                                                                                                                                                                                                                                                                                              ",
"                                                                                                                                                                                                                                                                                                                                                                              ",
"                                                                                                                                                                                                                                                                                                                                                                              ",
"                                                                                                                                                                                                                                                                                                                                                                              ",
"                                                                                                                                                                                                                                                                                                                                                                              ",
"                                                                                                                                                                                                                                                                                                                                                                              ",
"                                                                                                                                                                                                                                                                                                                                                                              ",
"                                                                                                                                                                                                                                                                                                                                                                              ",
"                                                                                                                                                                                                                                                                                                                                                                              ",
"                                                                                                                                                                                                                                                                                                                                                                              ",
"                                                                                                                                                                                                                                                                                                                                                                              ",
"                                                                                                                                                                                                                                                                                                                                                                              ",
"                                                                                                                                                                                                                                                                                                                                                                              ",
"                                                                                                                                                                                                                                                                                                                                                                              ",
"                                                                                                                                                                                                                                                                                                                                                                              ",
"                                                                                                                                                                                                                                                                                                                                                                              ",
"                                                                                                                                                                                                                                                                                                                                                                              ",
"                                                                                                                                                                                                                                                                                                                                                                              ",
"                                                                                                                                                                                                                                                                                                                                                                              ",
"                                                                                                                                                                                                                                                                                                                                                                              ",
"                                                                                                                                                                                                                                                                                                                                                                              ",
"                                                                                                                                                                                                                                                                                                                                                                              ",
"                                                                                                                                                                                                                                                                                                                                                                              ",
"                                                                                                                                                                                                                                                                                                                                                                              ",
"                                                                                                                                                                                                                                                                                                                                                                              ",
"                                                                                                                                                                                                                                                                                                                                                                              ",
"                                                                                                                                                                                                                                                                                                                                                                              ",
"                                                                                                                                                                                                                                                                                                                                                                              ",
"                                                                                                                                                                                                                                                                                                                                                                              ",
"                                                                                                                                                                                                                                                                                                                                                                              ",
"                                                                                                                                                                                                                                                                                                                                                                              ",
"                                                                                                                                                                                                                                                                                                                                                                              ",
"                                                                                                                                                                                                                                                                                                                                                                              ",
"                                                                                                                                                                                                                                                                                                                                                                              ",
"                                                                                                                                                                                                                                                                                                                                                                              ",
"                                                                                                                                                                                                                                                                                                                                                                              ",
"                                                                                                                                                                                                                                                                                                                                                                              ",
"                                                                                                                                                                                                                                                                                                                                                                              ",
"                                                                                                                                                                                                                                                                                                                                                                              ",
"                                                                                                                                                                                                                                                                                                                                                                              ",
"                                                                                                                                                                                                                                                                                                                                                                              ",
"                                                                                                                                                                                                                                                                                                                                                                              ",
"                                                                                                                                                                                                                                                                                                                                                                              ",
"                                                                                                                                                                                                                                                                                                                                                                              ",
"                                                                                                                                                                                                                                                                                                                                                                              ",
"                                                                                                                                                                                                                                                                                                                                                                              ",
"                                                                                                                                                                                                                                                                                                                                                                              ",
"                                                                                                                                                                                                                                                                                                                                                                              ",
"                                                                                                                                                                                                                                                                                                                                                                              ",
"                                                                                                                                                                                                                                                                                                                                                                              ",
"                                                                                                                                                                                                                                                                                                                                                                              ",
"                                                                                                                                                                                                                                                                                                                                                                              ",
"                                                                                                                                                                                                                                                                                                                                                                              ",
"                                                                                                                                                                                                                                                                                                                                                                              ",
"                                                                                                                                                                                                                                                                                                                                                                              ",
"                                                                                                                                                                                                                                                                                                                                                                              ",
"                                                                                                                                                                                                                                                                                                                                                                              ",
"                                                                                                                                                                                                                                                                                                                                                                              ",
"                                                                                                                                                                                                                                                                                                                                                                              ",
"                                                                                                                                                                                                                                                                                                                                                                              ",
"                                                                                                                                                                                                                                                                                                                                                                              ",
"                                                                                                                                                                                                                                                                                                                                                                              ",
"                                                                                                                                                                                                                                                                                                                                                                              ",
"                                                                                                                                                                                                                                                                                                                                                                              ",
"                                                                                                                                                                                                                                                                                                                                                                              ",
"                                                                                                                                                                                                                                                                                                                                                                              ",
"                                                                                                                                                                                                                                                                                                                                                                              ",
"                                                                                                                                                                                                                                                                                                                                                                              ",
"                                                                                                                                                                                                                                                                                                                                                                              ",
"                                                                                                                                                                                                                                                                                                                                                                              ",
"                                                                                                                                                                                                                                                                                                                                                                              ",
"                                                                                                                                                                                                                                                                                                                                                                              ",
"                                                                                                                                                                                                                                                                                                                                                                              ",
"                                                                                                                                                                                                                                                                                                                                                                              ",
"                                                                                                                                                                                                                                                                                                                                                                              ",
"                                                                                                                                                                                                                                                                                                                                                                              ",
"                                                                                                                                                                                                                                                                                                                                                                              ",
"                                                                                                                                                                                                                                                                                                                                                                              ",
"                                                                                                                                                                                                                                                                                                                                                                              ",
"                                                                                                                                                                                                                                                                                                                                                                              ",
"                                                                                                                                                                                                                                                                                                                                                                              ",
"                                                                                                                                                                                                                                                                                                                                                                              ",
"                                                                                                                                                                                                                                                                                                                                                                              ",
"                                                                                                                                                                                                                                                                                                                                                                              ",
"                                                                                                                                                                                                                                                                                                                                                                              ",
"                                                                                                                                                                                                                                                                                                                                                                              ",
"                                                                                                                                                                                                                                                                                                                                                                              ",
"                                                                                                                                                                                                                                                                                                                                                                              ",
"                                                                                                                                                                                                                                                                                                                                                                              ",
"                                                                                                                                                                                                                                                                                                                                                                              ",
"                                                                                                                                                                                                                                                                                                                                                                              ",
"                                                                                                                                                                                                                                                                                                                                                                              ",
"                                                                                                                                                                                                                                                                                                                                                                              ",
"                                                                                                                                                                                                                                                                                                                                                                              ",
"                                                                                                                                                                                                                                                                                                                                                                              ",
"                                                                                                                                                                                                                                                                                                                                                                              ",
"                                                                                                                                                                                                                                                                                                                                                                              ",
"                                                                                                                                                                                                                                                                                                                                                                              ",
"                                                                                                                                                                                                                                                                                                                                                                              ",
"                                                                                                                                                                                                                                                                                                                                                                              ",
"                                                                                                                                                                                                                                                                                                                                                                              ",
"                                                                                                                                                                                                                                                                                                                                                                              ",
"                                                                                                                                                                                                                                                                                                                                                                              ",
"                                                                                                                                                                                                                                                                                                                                                                              ",
"                                                                                                                                                                                                                                                                                                                                                                              ",
"                                                                                                                                                                                                                                                                                                                                                                              ",
"                                                                                                                                                                                                                                                                                                                                                                              ",
"                                                                                                                                                                                                               222@@@+++                                                                                                                                                      ",
"                                                                                                                                                                                                               222@@@+++                                                                                                                                                      ",
"                                                                                                                                                                                                               222@@@+++                                                                                                                                                      ",
"                                                                                                                                                                                                               222###@@@@@@                                                                                                                                                   ",
"                                                                                                                                                                                                               222###@@@@@@                                                                                                                                                   ",
"                                                                                                                                                                                                               222###@@@@@@                                                                                                                                                   ",
"                                                                                                                                                                                                               222333222###@@@                                                                                                                                                ",
"                                                                                                                                                                                                               222333222###@@@                                                                                                                                                ",
"                                                                                                                                                                                                               222333222###@@@                                                                                                                                                ",
"                                                                                                                                                                                                                  444444333@@@@@@                                                                                                                                             ",
"                                                                                                                                                                                                                  444444333@@@@@@                                                                                                                                             ",
"                                                                                                                                                                                                                  444444333@@@@@@                                                                                                                                             ",
"                                                                                                                                                                                                                  444000555222@@@                                                                                                                                             ",
"                                                                                                                                                                                                                  444000555222@@@                                                                                                                                             ",
"                                                                                                                                                                                                                  444000555222@@@                                                                                                                                             ",
"                                                                                                                                                                                                                     qqq555222@@@@@@                                                                                                                                          ",
"                                                                                                                                                                                                                     qqq555222@@@@@@                                                                                                                                          ",
"                                                                                                                                                                                                                     qqq555222@@@@@@                                                                                                                                          ",
"                                                                                                                                                                                                                     444000333@@@@@@@@@                                                                                                                                       ",
"                                                                                                                                                                                                                     444000333@@@@@@@@@                                                                                                                                       ",
"                                                                                                                                                                                                                     444000333@@@@@@@@@                                                                                                                                       ",
"                                                                                                                                                                                                                        000444222@@@@@@@@@                                                                                                                                    ",
"                                                                                                                                                                                                                        000444222@@@@@@@@@                                                                                                                                    ",
"                                                                                                                                                                                                                        000444222@@@@@@@@@                                                                                                                                    ",
"                                                                                                                                                                                                                        000000444222@@@@@@@@@                                                                                                                                 ",
"                                                                                                                                                                                                                        000000444222@@@@@@@@@                                                                                                                                 ",
"                                                                                                                                                                                                                        000000444222@@@@@@@@@                                                                                                                                 ",
"                                                                                                                                                                                                                           555333333###@@@@@@                                                                                                                                 ",
"                                                                                                                                                                                                                           555333333###@@@@@@                                                                                                                                 ",
"                                                                                                                                                                                                                           555333333###@@@@@@                                                                                                                                 ",
"                                                                                    111111111                                                                                                                              000555333222@@@@@@@@@                                                                                                                              ",
"                                                                                    111111111                                                                                                                              000555333222@@@@@@@@@                                                                                                                              ",
"                                                                                    111111111                                                                                                                              000555333222@@@@@@@@@                                                                                                                              ",
"                                                                                 111666666666666                                                                                                                              qqq555333@@@@@@@@@@@@                                                                                                                           ",
"                                                                                 111666666666666                                                                                                                              qqq555333@@@@@@@@@@@@                                                                                                                           ",
"                                                                                 111666666666666                                                                                                                              qqq555333@@@@@@@@@@@@                                                                                                                           ",
"                                                                                 666666777777777666                                                                                                                              www333###@@@@@@@@@@@@                                                                                                                        ",
"                                                                                 666666777777777666                                                                                                                              www333###@@@@@@@@@@@@                                                                                                                        ",
"                                                                                 666666777777777666                                                                                                                              www333###@@@@@@@@@@@@                                                                                                                        ",
"                                                                           666666777777777777777666111                                                                                                                              444222###@@@@@@@@@                                                                                                                        ",
"                                                                           666666777777777777777666111                                                                                                                              444222###@@@@@@@@@                                                                                                                        ",
"                                                                           666666777777777777777666111                                                                                                                              444222###@@@@@@@@@                                                                                                                        ",
"                                                      111111111111111666666777888888666666666666111111111                                                                                                                           qqq444222###@@@@@@                                                                                                                        ",
"                                                      111111111111111666666777888888666666666666111111111                                                                                                                           qqq444222###@@@@@@                                                                                                                        ",
"                                                      111111111111111666666777888888666666666666111111111                                                                                                                           qqq444222###@@@@@@                                                                                                                        ",
"                                                ;;;<<<111111111111666666777888888666111,,,:::,,,<<<<<<111                                                                                                                           wwwqqq444222###@@@@@@                                                                                                                     ",
"                                                ;;;<<<111111111111666666777888888666111,,,:::,,,<<<<<<111                                                                                                                           wwwqqq444222###@@@@@@                                                                                                                     ",
"                                                ;;;<<<111111111111666666777888888666111,,,:::,,,<<<<<<111                                                                                                                           wwwqqq444222###@@@@@@                                                                                                                     ",
"                                             ;;;:::<<<111111111111666777888888888666:::---***---;;;>>>:::                                                                                                                              wwwqqq444222@@@@@@@@@   ......                                                                                                         ",
"                                             ;;;:::<<<111111111111666777888888888666:::---***---;;;>>>:::                                                                                                                              wwwqqq444222@@@@@@@@@   ......                                                                                                         ",
"                                             ;;;:::<<<111111111111666777888888888666:::---***---;;;>>>:::                                                                                                                              wwwqqq444222@@@@@@@@@   ......                                                                                                         ",
"                                          ---;;;,,,<<<111111111666777888999888666,,,---&&&&&&&&&***---******                                                                                                                           wwwwww000222###@@@###......XXX                                                                                                         ",
"                                          ---;;;,,,<<<111111111666777888999888666,,,---&&&&&&&&&***---******                                                                                                                           wwwwww000222###@@@###......XXX                                                                                                         ",
"                                          ---;;;,,,<<<111111111666777888999888666,,,---&&&&&&&&&***---******                                                                                                                           wwwwww000222###@@@###......XXX                                                                                                         ",
"                                       ---;;;:::<<<<<<111111666666888999888666111;;;***&&&%%%&&&&&&******;;;,,,111                                                                                                                     444qqq444444222#########...XXXXXX                                                                                                      ",
"                                       ---;;;:::<<<<<<111111666666888999888666111;;;***&&&%%%&&&&&&******;;;,,,111                                                                                                                     444qqq444444222#########...XXXXXX                                                                                                      ",
"                                       ---;;;:::<<<<<<111111666666888999888666111;;;***&&&%%%&&&&&&******;;;,,,111                                                                                                                     444qqq444444222#########...XXXXXX                                                                                                      ",
"                                       ---;;;,,,<<<111111111666777888888777111:::***%%%%%%%%%%%%&&&===:::,,,666666111                                                                                                                     444000555444444333222...oooOOO111111111                                                                                             ",
"                                       ---;;;,,,<<<111111111666777888888777111:::***%%%%%%%%%%%%&&&===:::,,,666666111                                                                                                                     444000555444444333222...oooOOO111111111                                                                                             ",
"                                       ---;;;,,,<<<111111111666777888888777111:::***%%%%%%%%%%%%&&&===:::,,,666666111                                                                                                                     444000555444444333222...oooOOO111111111                                                                                             ",
"                                       ---:::,,,111111111666777888999888666:::===&&&%%%%%%&&&***---:::111666777666666                                                                                                                        qqqqqq000444222222...oooOOO111111111111                                                                                          ",
"                                       ---:::,,,111111111666777888999888666:::===&&&%%%%%%&&&***---:::111666777666666                                                                                                                        qqqqqq000444222222...oooOOO111111111111                                                                                          ",
"                                       ---:::,,,111111111666777888999888666:::===&&&%%%%%%&&&***---:::111666777666666                                                                                                                        qqqqqq000444222222...oooOOO111111111111                                                                                          ",
"                                    ---;;;:::<<<111111666666888999999777,,,;;;&&&%%%%%%&&&---;;;,,,111666888888777666                                                                                                                        444000000444222oooXXXOOOOOOooo111111111111                                                                                       ",
"                                    ---;;;:::<<<111111666666888999999777,,,;;;&&&%%%%%%&&&---;;;,,,111666888888777666                                                                                                                        444000000444222oooXXXOOOOOOooo111111111111                                                                                       ",
"                                    ---;;;:::<<<111111666666888999999777,,,;;;&&&%%%%%%&&&---;;;,,,111666888888777666                                                                                                                        444000000444222oooXXXOOOOOOooo111111111111                                                                                       ",
"                                 ------;;;,,,<<<111111666777888999888666:::***&&&&&&***;;;,,,<<<111666666888888666                                                                                                                           222333333222oooooo+++OOOOOOooo111111111666666                                                                                    ",
"                                 ------;;;,,,<<<111111666777888999888666:::***&&&&&&***;;;,,,<<<111666666888888666                                                                                                                           222333333222oooooo+++OOOOOOooo111111111666666                                                                                    ",
"                                 ------;;;,,,<<<111111666777888999888666:::***&&&&&&***;;;,,,<<<111666666888888666                                                                                                                           222333333222oooooo+++OOOOOOooo111111111666666                                                                                    ",
"                                 ------:::,,,111111111666666888888888666:::*********;;;<<<111111111111666666                                                                                                                                 ...#########oooOOO@@@+++ooo111111111666777888666                                                                                 ",
"                                 ------:::,,,111111111666666888888888666:::*********;;;<<<111111111111666666                                                                                                                                 ...#########oooOOO@@@+++ooo111111111666777888666                                                                                 ",
"                                 ------:::,,,111111111666666888888888666:::*********;;;<<<111111111111666666                                                                                                                                 ...#########oooOOO@@@+++ooo111111111666777888666                                                                                 ",
"                              %%%***;;;:::<<<111111111111666777777666111,,,;;;;;;:::<<<111666666111111111                                                                                                                                 .........XXXoooooo+++@@@+++ooo111111666666888999888666                                                                              ",
"                              %%%***;;;:::<<<111111111111666777777666111,,,;;;;;;:::<<<111666666111111111                                                                                                                                 .........XXXoooooo+++@@@+++ooo111111666666888999888666                                                                              ",
"                              %%%***;;;:::<<<111111111111666777777666111,,,;;;;;;:::<<<111666666111111111                                                                                                                                 .........XXXoooooo+++@@@+++ooo111111666666888999888666                                                                              ",
"                              %%%***;;;,,,<<<111111111111111666666666111<<<,,,,,,<<<111111666666111111                                                                                                                                    ...XXXoooooooooOOO+++@@@+++ooo<<<111666888999999888777                                                                              ",
"                              %%%***;;;,,,<<<111111111111111666666666111<<<,,,,,,<<<111111666666111111                                                                                                                                    ...XXXoooooooooOOO+++@@@+++ooo<<<111666888999999888777                                                                              ",
"                              %%%***;;;,,,<<<111111111111111666666666111<<<,,,,,,<<<111111666666111111                                                                                                                                    ...XXXoooooooooOOO+++@@@+++ooo<<<111666888999999888777                                                                              ",
"                           $$$***---:::,,,111111111111111111111111111666666111111111111111111111111                                                                                                                                       ...XXXoooOOO++++++++++++ooo,,,<<<<<<111666888999888777                                                                              ",
"                           $$$***---:::,,,111111111111111111111111111666666111111111111111111111111                                                                                                                                       ...XXXoooOOO++++++++++++ooo,,,<<<<<<111666888999888777                                                                              ",
"                           $$$***---:::,,,111111111111111111111111111666666111111111111111111111111                                                                                                                                       ...XXXoooOOO++++++++++++ooo,,,<<<<<<111666888999888777                                                                              ",
"                           %%%***---:::,,,111111111111111111111666666666666666666111111<<<<<<111                                                                                                                                          ,,,XXXoooOOO++++++oooooo,,,::::::,,,<<<666777999888666111                                                                           ",
"                           %%%***---:::,,,111111111111111111111666666666666666666111111<<<<<<111                                                                                                                                          ,,,XXXoooOOO++++++oooooo,,,::::::,,,<<<666777999888666111                                                                           ",
"                           %%%***---:::,,,111111111111111111111666666666666666666111111<<<<<<111                                                                                                                                          ,,,XXXoooOOO++++++oooooo,,,::::::,,,<<<666777999888666111                                                                           "
};
