/* XPM */
static char *_452f7d592044084ec75ae78993cc6c0Fb0ZeXVXBvrzWge3[] = {
/* columns rows colors chars-per-pixel */
"366 192 30 1 ",
"  c None",
". c #202020",
"X c #2C2C2C",
"o c gray22",
"O c #484848",
"+ c gray33",
"@ c #7C7C7C",
"# c #885830",
"$ c #9C6038",
"% c #A86840",
"& c #B47044",
"* c #BC7848",
"= c #C87C4C",
"- c #D08050",
"; c #DC8854",
": c #F0945C",
"> c #FC9C60",
", c #FCA470",
"< c gray55",
"1 c #989898",
"2 c gray66",
"3 c #B4B4B4",
"4 c #FCB080",
"5 c #FCB890",
"6 c #FCBC9C",
"7 c #FCCCB0",
"8 c #C0C0C0",
"9 c #D0D0D0",
"0 c #ECECEC",
"q c gray99",
/* pixels */
"                                                                                                                                                                                                                                                                                                                                                                              ",
"                                                                                                                                                                                                                                                                                                                                                                              ",
"                                                                                                                                                                                                                                                                                                                                                                              ",
"                                                                                                                                                                                                                                                                                                                                                                              ",
"                                                                                                                                                                                                                                                                                                                                                                              ",
"                                                                                                                                                                                                                                                                                                                                                                              ",
"                                                                                                                                                                                                                                                                                                                                                                              ",
"                                                                                                                                                                                                                                                                                                                                                                              ",
"                                                                                                                                                                                                                                                                                                                                                                              ",
"                                                                                                                                                                                                                                                                                                                                                                              ",
"                                                                                                                                                                                                                                                                                                                                                                              ",
"                                                                                                                                                                                                                                                                                                                                                                              ",
"                                                                                                                                                                                                                                                                                                                                                                              ",
"                                                                                                                                                                                                                                                                                                                                                                              ",
"                                                                                                                                                                                                                                                                                                                                                                              ",
"                                                                                                                                                                                                                                                                                                                                                                              ",
"                                                                                                                                                                                                                                                                                                                                                                              ",
"                                                                                                                                                                                                                                                                                                                                                                              ",
"                                                                                                                                                                                                                                                                                                                                                                              ",
"                                                                                                                                                                                                                                                                                                                                                                              ",
"                                                                                                                                                                                                                                                                                                                                                                              ",
"                                                                                                                                                                                                                                                                                                                                                                              ",
"                                                                                                                                                                                                                                                                                                                                                                              ",
"                                                                                                                                                                                                                                                                                                                                                                              ",
"                                                                                                                                                                                                                                                                                                                                                                              ",
"                                                                                                                                                                                                                                                                                                                                                                              ",
"                                                                                                                                                                                                                                                                                                                                                                              ",
"                                                                                                                                                                                                                                                                                                                                                                              ",
"                                                                                                                                                                                                                                                                                                                                                                              ",
"                                                                                                                                                                                                                                                                                                                                                                              ",
"                                                                                                                                                                                                                                                                                                                                                                              ",
"                                                                                                                                                                                                                                                                                                                                                                              ",
"                                                                                                                                                                                                                                                                                                                                                                              ",
"                                                                                                                                                                                                                                                                                                                                                                              ",
"                                                                                                                                                                                                                                                                                                                                                                              ",
"                                                                                                                                                                                                                                                                                                                                                                              ",
"                                                                                                                                                                                                                                                                                                                                                                              ",
"                                                                                                                                                                                                                                                                                                                                                                              ",
"                                                                                                                                                                                                                                                                                                                                                                              ",
"                                                                                                                                                                                                                                                                                                                                                                              ",
"                                                                                                                                                                                                                                                                                                                                                                              ",
"                                                                                                                                                                                                                                                                                                                                                                              ",
"                                                                                                                                                                                                                                                                                                                                                                              ",
"                                                                                                                                                                                                                                                                                                                                                                              ",
"                                                                                                                                                                                                                                                                                                                                                                              ",
"                                                                                                                                                                                                                                                                                                                                                                              ",
"                                                                                                                                                                                                                                                                                                                                                                              ",
"                                                                                                                                                                                                                                                                                                                                                                              ",
"                                                                                                                                                                                                                                                                                                                                                                              ",
"                                                                                                                                                                                                                                                                                                                                                                              ",
"                                                                                                                                                                                                                                                                                                                                                                              ",
"                                                                                                                                                                                                                                                                                                                                                                              ",
"                                                                                                                                                                                                                                                                                                                                                                              ",
"                                                                                                                                                                                                                                                                                                                                                                              ",
"                                                                                                                                                                                                                                                                                                                                                                              ",
"                                                                                                                                                                                                                                                                                                                                                                              ",
"                                                                                                                                                                                                                                                                                                                                                                              ",
"                                                                                                                                                                                                                                                                                                                                                                              ",
"                                                                                                                                                                                                                                                                                                                                                                              ",
"                                                                                                                                                                                                                                                                                                                                                                              ",
"                                                                                                                                                                                                                                                                                                                                                                              ",
"                                                                                                                                                                                                                                                                                                                                                                              ",
"                                                                                                                                                                                                                                                                                                                                                                              ",
"                                                                                                                                                                                                                                                                                                                                                                              ",
"                                                                                                                                                                                                                                                                                                                                                                              ",
"                                                                                                                                                                                                                                                                                                                                                                              ",
"                                                                                                                                                                                                                                                                                                                                                                              ",
"                                                                                                                                                                                                                                                                                                                                                                              ",
"                                                                                                                                                                                                                                                                                                                                                                              ",
"                                                                                                                                                                                                                                                                                                                                                                              ",
"                                                                                                                                                                                                                                                                                                                                                                              ",
"                                                                                                                                                                                                                                                                                                                                                                              ",
"                                                                                                                                                                                                                                                                                                                                                                              ",
"                                                                                                                                                                                                                                                                                                                                                                              ",
"                                                                                                                                                                                                                                                                                                                                                                              ",
"                                                                                                                                                                                                                                                                                                                                                                              ",
"                                                                                                                                                                                                                                                                                                                                                                              ",
"                                                                                                                                                                                                                                                                                                                                                                              ",
"                                                                                                                                                                                                                                                                                                                                                                              ",
"                                                                                                                                                                                                                                                                                                                                                                              ",
"                                                                                                                                                                                                                                                                                                                                                                              ",
"                                                                                                                                                                                                                                                                                                                                                                              ",
"                                                                                                                                                                                                                                                                                                                                                                              ",
"                                                                                                                                                                                                                                                                                                                                                                              ",
"                                                                                                                                                                                                                                                                                                                                                                              ",
"                                                                                                                                                                                                                                                                                                                                                                              ",
"                                                                                                                                                                                                                                                                                                                                                                              ",
"                                                                                                                                                                                                                                                                                                                                                                              ",
"                                                                                                                                                                                                                                                                                                                                                                              ",
"                                                                                                                                                                                                                                                                                                                                                                              ",
"                                                                                                                                                                                                                                                                                                                                                                              ",
"                                                                                                                                                                                                                                                                                                                                                                              ",
"                                                                                                                                                                                                                                                                                                                                                                              ",
"                                                                                                                                                                                                                                                                                                                                                                              ",
"                                                                                                                                                                                                                                                                                                                                                                              ",
"                                                                                                                                                                                                                                                                                                                                                                              ",
"                                                                                                                                                                                                                                                                                                                                                                              ",
"                                                                                                                                                                                                                                                                                                                                                                              ",
"                                                                                                                                                                                                                                                                                                                                                                              ",
"                                                                                                                                                                                                                                                                                                                                                                              ",
"                                                                                                                                                                                                                                                                                                                                                                              ",
"                                                                                                                                                                                                                                                                                                                                                                              ",
"                                                                                                                                                                                                                                                                                                                                                                              ",
"                                                                                                                                                                                                                                                                                                                                                                              ",
"                                                                                                                                                                                                                                                                                                                                                                              ",
"                                                                                                                                                                                                                                                                                                                                                                              ",
"                                                                                                                                                                                                                                                                                                                                                                              ",
"                                                                                                                                                                                                                                                                                                                                                                              ",
"                                                                                                                                                                                                                                                                                                                                                                              ",
"                                                                                                                                                                                                                                                                                                                                                                              ",
"                                                                                                                                                                                                                                                                                                                                                                              ",
"                                                                                                                                                                                                                                                                                                                                                                              ",
"                                                                                                                                                                                                                                                                                                                                                                              ",
"                                                                                                                                                                                                                                                                                                                                                                              ",
"                                                                                                                                                                                                                                                                                                                                                                              ",
"                                                                                                                                                                                                                                                                                                                                                                              ",
"                                                                                                                                                                                                                                                                                                                                                                              ",
"                                                                                                                                                                                                                                                                                                                                                                              ",
"                                                                                                                                                                                                                                                                                                                                                                              ",
"                                                                                                                                                                                                                                                                                                                                                                              ",
"                                                                                                                                                                                                                                                                                                                                                                              ",
"                                                                                                                                                                                                                                                                                                                                                                              ",
"                                                                                                                                                                                                                                                                                                                                                                              ",
"                                                                                                                                                                                                                                                                                                                                                                              ",
"                                                                                                                                                                                                                                                                                                                                                                              ",
"                                                                                                                                                                                                                                                                                                                                                                              ",
"                                                                                                                                                                                                                                                                                                                                                                              ",
"                                                                                                                                                                                                                                                                                                                                                                              ",
"                                                                                                                                                                                                                                                                                                                                                                              ",
"                                                                                                                                                                                                                                                                                                                                                                              ",
"                                                                                                                                                                                                                                                                                                                                                                              ",
"                                                                                                                                                                                                                                                                                                                                                                              ",
"                                                                                                                                                                                                                                                                                                                                                                              ",
"                                                                                                                                                                                                                                                                                                                                                                              ",
"                                                                                                                                                                                                                                                                                                                                                                              ",
"                                                                                                                                                                                                                                                                                                                                                                              ",
"                                                                                                                                                                                                                                                                                                                                                                              ",
"                                                                                                                                                                                                                                                                                                                                                                              ",
"                                                                                                                                                                                                                                                                                                                                                                              ",
"                                                                                                                                                                                                                                                                                                                                                                              ",
"                                                                                                                                                                                                                                                                                                                                                                              ",
"                                                                                                                                                                                                                                                                                                                                                                              ",
"                                                                                                                                                                                                                                                                                                                                                                              ",
"                                                                                                                                                                                                                                                                                                                                                                              ",
"                                                                                                                                                                                                                                                                                                                                                                              ",
"                                                                                                                                                                                                                                                                                                                                                                              ",
"                                                                                                                                                                                                                                                                                                                                                                              ",
"                                                                                                                                                                                                         qqq                                                                                                                                                                  ",
"                                                                                                                                                                                                         qqq                                                                                                                                                                  ",
"                                                                                                                                                                                                         qqq                                                                                                                                                                  ",
"                                                                                                                                                                                                         999<<<                                                                                                                                                               ",
"                                                                                                                                                                                                         999<<<                                                                                                                                                               ",
"                                                                                                                                                                                                         999<<<                                                                                                                                                               ",
"                                                                                                                                                                                                      000222<<<<<<                                                                                                                                                            ",
"                                                                                                                                                                                                      000222<<<<<<                                                                                                                                                            ",
"                                                                                                                                                                                                      000222<<<<<<                                                                                                                                                            ",
"                                                                                                                                                                                                      000333<<<+++<<<                                                                                                                                                         ",
"                                                                                                                                                                                                      000333<<<+++<<<                                                                                                                                                         ",
"                                                                                                                                                                                                      000333<<<+++<<<                                                                                                                                                         ",
"                                                                                                                                                                                                      000888111@@@+++                                                                                                                                                         ",
"                                                                                                                                                                                                      000888111@@@+++                                                                                                                                                         ",
"                                                                                                                                                                                                      000888111@@@+++                                                                                                                                                         ",
"                                                                                                                                                                                                      888888333<<<<<<+++                                                                                                                                                      ",
"                                                                                                                                                                                                      888888333<<<<<<+++                                                                                                                                                      ",
"                                                                                                                                                                                                      888888333<<<<<<+++                                                                                                                                                      ",
"                                                                                                                                                                                                      333333333<<<@@@+++<<<                                                                                                                                                   ",
"                                                                                                                                                                                                      333333333<<<@@@+++<<<                                                                                                                                                   ",
"                                                                                                                                                                                                      333333333<<<@@@+++<<<                                                                                                                                                   ",
"                                                                                                                                                                                                      333999888111<<<@@@+++<<<                                                                                                                                                ",
"                                                                                                                                                                                                      333999888111<<<@@@+++<<<                                                                                                                                                ",
"                                                                                                                                                                                                      333999888111<<<@@@+++<<<                                                                                                                                                ",
"                                                                                                                                                                                                         999888222<<<<<<<<<+++<<<   ,,,   ,,,,,,                                                                                                                              ",
"                                                                                                                                                                                                         999888222<<<<<<<<<+++<<<   ,,,   ,,,,,,                                                                                                                              ",
"                                                                                                                                                                                                         999888222<<<<<<<<<+++<<<   ,,,   ,,,,,,                                                                                                                              ",
"                                                                                             ,,,444444444,,,                                                                                             888999888111<<<<<<<<<XXXXXX>>>,,,,,,,,,,,,,,,,,,,,,                                                                                                                  ",
"                                                                                             ,,,444444444,,,                                                                                             888999888111<<<<<<<<<XXXXXX>>>,,,,,,,,,,,,,,,,,,,,,                                                                                                                  ",
"                                                                                             ,,,444444444,,,                                                                                             888999888111<<<<<<<<<XXXXXX>>>,,,,,,,,,,,,,,,,,,,,,                                                                                                                  ",
"                                                                                    ,,,,,,,,,444444666555444,,,                                                                                          222999888222<<<XXXoooOOOooo;;;>>>>>>,,,,,,,,,444444,,,,,,                                                                                                            ",
"                                                                                    ,,,,,,,,,444444666555444,,,                                                                                          222999888222<<<XXXoooOOOooo;;;>>>>>>,,,,,,,,,444444,,,,,,                                                                                                            ",
"                                                                                    ,,,,,,,,,444444666555444,,,                                                                                          222999888222<<<XXXoooOOOooo;;;>>>>>>,,,,,,,,,444444,,,,,,                                                                                                            ",
"                                                                              ===;;;>>>,,,,,,444666777777555444,,,                                                                                          888999...XXXoooOOOOOO...===;;;:::>>>,,,444555555444,,,                                                                                                            ",
"                                                                              ===;;;>>>,,,,,,444666777777555444,,,                                                                                          888999...XXXoooOOOOOO...===;;;:::>>>,,,444555555444,,,                                                                                                            ",
"                                                                              ===;;;>>>,,,,,,444666777777555444,,,                                                                                          888999...XXXoooOOOOOO...===;;;:::>>>,,,444555555444,,,                                                                                                            ",
"                                                                        $$$======;;;:::,,,,,,444666777777666444,,,,,,                                                                                          ...XXXoooOOOOOOooo%%%&&&---;;;>>>,,,444666777666444                                                                                                            ",
"                                                                        $$$======;;;:::,,,,,,444666777777666444,,,,,,                                                                                          ...XXXoooOOOOOOooo%%%&&&---;;;>>>,,,444666777666444                                                                                                            ",
"                                                                        $$$======;;;:::,,,,,,444666777777666444,,,,,,                                                                                          ...XXXoooOOOOOOooo%%%&&&---;;;>>>,,,444666777666444                                                                                                            ",
"                                                                     $$$&&&======---:::>>>,,,444555777777666444:::;;;                                                                                       ...XXXoooooooooooo$$$%%%&&&***---:::,,,444666777777666444,,,                                                                                                      ",
"                                                                     $$$&&&======---:::>>>,,,444555777777666444:::;;;                                                                                       ...XXXoooooooooooo$$$%%%&&&***---:::,,,444666777777666444,,,                                                                                                      ",
"                                                                     $$$&&&======---:::>>>,,,444555777777666444:::;;;                                                                                       ...XXXoooooooooooo$$$%%%&&&***---:::,,,444666777777666444,,,                                                                                                      ",
"                                                                  ###$$$&&&======---;;;:::>>>,,,444555666444>>>;;;---                                                                                       ...oooooooooXXX...%%%&&&******--->>>,,,,,,444777777777666,,,                                                                                                      ",
"                                                                  ###$$$&&&======---;;;:::>>>,,,444555666444>>>;;;---                                                                                       ...oooooooooXXX...%%%&&&******--->>>,,,,,,444777777777666,,,                                                                                                      ",
"                                                                  ###$$$&&&======---;;;:::>>>,,,444555666444>>>;;;---                                                                                       ...oooooooooXXX...%%%&&&******--->>>,,,,,,444777777777666,,,                                                                                                      "
};
