/* XPM */
static char *f083039686b944c88701d0f58f3ee394[] = {
/* columns rows colors chars-per-pixel */
"366 192 32 1 ",
"  c None",
". c #FCCCB0",
"X c #FCBC9C",
"o c #FCB890",
"O c #FCB080",
"+ c #FCA470",
"@ c #FC9C60",
"# c #F0945C",
"$ c #E88C58",
"% c #DC8854",
"& c #D08050",
"* c #C87C4C",
"= c #BC7848",
"- c #B47044",
"; c #A86840",
": c #9C6038",
"> c #885830",
", c #ECECEC",
"< c #D0D0D0",
"1 c #C0C0C0",
"2 c #989898",
"3 c gray55",
"4 c #7C7C7C",
"5 c gray44",
"6 c gray33",
"7 c #484848",
"8 c gray22",
"9 c #2C2C2C",
"0 c #202020",
"q c black",
"w c black",
"e c black",
/* pixels */
"                                                                                                                                                                                                                                                                                                                                                                              ",
"                                                                                                                                                                                                                                                                                                                                                                              ",
"                                                                                                                                                                                                                                                                                                                                                                              ",
"                                                                                                                                                                                                                                                                                                                                                                              ",
"                                                                                                                                                                                                                                                                                                                                                                              ",
"                                                                                                                                                                                                                                                                                                                                                                              ",
"                                                                                                                                                                                                                                                                                                                                                                              ",
"                                                                                                                                                                                                                                                                                                                                                                              ",
"                                                                                                                                                                                                                                                                                                                                                                              ",
"                                                                                                                                                                                                                                                                                                                                                                              ",
"                                                                                                                                                                                                                                                                                                                                                                              ",
"                                                                                                                                                                                                                                                                                                                                                                              ",
"                                                                                                                                                                                                                                                                                                                                                                              ",
"                                                                                                                                                                                                                                                                                                                                                                              ",
"                                                                                                                                                                                                                                                                                                                                                                              ",
"                                                                                                                                                                                                                                                                                                                                                                              ",
"                                                                                                                                                                                                                                                                                                                                                                              ",
"                                                                                                                                                                                                                                                                                                                                                                              ",
"                                                                                                                                                                                                                                                                                                                                                                              ",
"                                                                                                                                                                                                                                                                                                                                                                              ",
"                                                                                                                                                                                                                                                                                                                                                                              ",
"                                                                                                                                                                                                                                                                                                                                                                              ",
"                                                                                                                                                                                                                                                                                                                                                                              ",
"                                                                                                                                                                                                                                                                                                                                                                              ",
"                                                                                                                                                                                                                                                                                                                                                                              ",
"                                                                                                                                                                                                                                                                                                                                                                              ",
"                                                                                                                                                                                                                                                                                                                                                                              ",
"                                                                                                                                                                                                                                                                                                                                                                              ",
"                                                                                                                                                                                                                                                                                                                                                                              ",
"                                                                                                                                                                                                                                                                                                                                                                              ",
"                                                                                                                                                                                                                                                                                                                                                                              ",
"                                                                                                                                                                                                                                                                                                                                                                              ",
"                                                                                                                                                                                                                                                                                                                                                                              ",
"                                                                                                                                                                                                                                                                                                                                                                              ",
"                                                                                                                                                                                                                                                                                                                                                                              ",
"                                                                                                                                                                                                                                                                                                                                                                              ",
"                                                                                                                                                                                                                                                                                                                                                                              ",
"                                                                                                                                                                                                                                                                                                                                                                              ",
"                                                                                                                                                                                                                                                                                                                                                                              ",
"                                                                                                                                                                                                                                                                                                                                                                              ",
"                                                                                                                                                                                                                                                                                                                                                                              ",
"                                                                                                                                                                                                                                                                                                                                                                              ",
"                                                                                                                                                                                                                                                                                                                                                                              ",
"                                                                                                                                                                                                                                                                                                                                                                              ",
"                                                                                                                                                                                                                                                                                                                                                                              ",
"                                                                                                                                                                                                                                                                                                                                                                              ",
"                                                                                                                                                                                                                                                                                                                                                                              ",
"                                                                                                                                                                                                                                                                                                                                                                              ",
"                                                                                                                                                                                                                                                                                                                                                                              ",
"                                                                                                                                                                                                                                                                                                                                                                              ",
"                                                                                                                                                                                                                                                                                                                                                                              ",
"                                                                                                                                                                                                                                                                                                                                                                              ",
"                                                                                                                                                                                                                                                                                                                                                                              ",
"                                                                                                                                                                                                                                                                                                                                                                              ",
"                                                                                                                        +++                                                                                                                                                                                                                                                   ",
"                                                                                                                        +++                                                                                                                                                                                                                                                   ",
"                                                                                                                        +++                                                                                                                                                                                                                                                   ",
"                                                                                                                     OOO+++                                                                                                                                                                                                                                                   ",
"                                                                                                                     OOO+++                                                                                                                                                                                                                                                   ",
"                                                                                                                     OOO+++                                                                                                                                                                                                                                                   ",
"                                                                                                                  OOOOOO+++                                                                                                                                                                                                                                                   ",
"                                                                                                                  OOOOOO+++                                                                                                                                                                                                                                                   ",
"                                                                                                                  OOOOOO+++                                                                                                                                                                                                                                                   ",
"                                                                                                               OOOOOOOOO                                                                                                                                                                                                                                                      ",
"                                                                                                               OOOOOOOOO                                                                                                                                                                                                                                                      ",
"                                                                                                               OOOOOOOOO                                                                                                                                                                                                                                                      ",
"                                                                                                            +++@@@###&&&                                                                                                                                                                                                                                          ;;;---;;;;;;",
"                                                                                                            +++@@@###&&&                                                                                                                                                                                                                                          ;;;---;;;;;;",
"                                                                                                            +++@@@###&&&                                                                                                                                                                                                                                          ;;;---;;;;;;",
"                                                                                                         ###@@@###&&&;;;>>>                                                                                                                                                                                                                                 ---===%%%%%%***---",
"                                                                                                         ###@@@###&&&;;;>>>                                                                                                                                                                                                                                 ---===%%%%%%***---",
"                                                                                                         ###@@@###&&&;;;>>>                                                                                                                                                                                                                                 ---===%%%%%%***---",
"                                                                                                      ###@@@###&&&---:::                                                                                                                                                                                                                                 ===+++OOOOOO@@@%%%&&&",
"                                                                                                      ###@@@###&&&---:::                                                                                                                                                                                                                                 ===+++OOOOOO@@@%%%&&&",
"                                                                                                      ###@@@###&&&---:::                                                                                                                                                                                                                                 ===+++OOOOOO@@@%%%&&&",
"                                                                                                   ###OOO+++###***;;;                                                                                                                                                                                                                              ;;;===OOOXXXXXXOOO###&&&***",
"                                                                                                   ###OOO+++###***;;;                                                                                                                                                                                                                              ;;;===OOOXXXXXXOOO###&&&***",
"                                                                                                   ###OOO+++###***;;;                                                                                                                                                                                                                              ;;;===OOOXXXXXXOOO###&&&***",
"                                                                                                ###OOOOOOOOO%%%---:::>>>                                                                                                                                                                                                                        ---&&&%%%+++OOO+++###&&&===---",
"                                                                                                ###OOOOOOOOO%%%---:::>>>                                                                                                                                                                                                                        ---&&&%%%+++OOO+++###&&&===---",
"                                                                                                ###OOOOOOOOO%%%---:::>>>                                                                                                                                                                                                                        ---&&&%%%+++OOO+++###&&&===---",
"                                                                                             %%%@@@OOOooo+++%%%;;;>>>>>>>>>                                                                                                                                                                                                               >>>;;;&&&%%%%%%%%%%%%&&&===---;;;:::",
"                                                                                             %%%@@@OOOooo+++%%%;;;>>>>>>>>>                                                                                                                                                                                                               >>>;;;&&&%%%%%%%%%%%%&&&===---;;;:::",
"                                                                                             %%%@@@OOOooo+++%%%;;;>>>>>>>>>                                                                                                                                                                                                               >>>;;;&&&%%%%%%%%%%%%&&&===---;;;:::",
"                                                                                             %%%+++oooooo+++&&&;;;>>>>>>>>>                                                                                                                                                                                                         :::>>>>>>;;;---&&&===---;;;;;;;;;:::888444",
"                                                                                             %%%+++oooooo+++&&&;;;>>>>>>>>>                                                                                                                                                                                                         :::>>>>>>;;;---&&&===---;;;;;;;;;:::888444",
"                                                                                             %%%+++oooooo+++&&&;;;>>>>>>>>>                                                                                                                                                                                                         :::>>>>>>;;;---&&&===---;;;;;;;;;:::888444",
"                                                                                          ---%%%OOOXXXOOO###***:::>>>>>>      ###++++++                                                                                                                                                                                       >>>:::;;;;;;;;;---;;;;;;;;;;;;;;;;;;---000666444",
"                                                                                          ---%%%OOOXXXOOO###***:::>>>>>>      ###++++++                                                                                                                                                                                       >>>:::;;;;;;;;;---;;;;;;;;;;;;;;;;;;---000666444",
"                                                                                          ---%%%OOOXXXOOO###***:::>>>>>>      ###++++++                                                                                                                                                                                       >>>:::;;;;;;;;;---;;;;;;;;;;;;;;;;;;---000666444",
"                                                                                       >>>***%%%OOOXXXOOO###---:::      ***###+++OOO++++++                                                                                                                                                                        ::::::;;;---;;;;;;;;;===&&&***;;;:::>>>:::---&&&%%%000444555",
"                                                                                       >>>***%%%OOOXXXOOO###---:::      ***###+++OOO++++++                                                                                                                                                                        ::::::;;;---;;;;;;;;;===&&&***;;;:::>>>:::---&&&%%%000444555",
"                                                                                       >>>***%%%OOOXXXOOO###---:::      ***###+++OOO++++++                                                                                                                                                                        ::::::;;;---;;;;;;;;;===&&&***;;;:::>>>:::---&&&%%%000444555",
"                                                                                       :::***###OOOoooOOO###***------&&&%%%+++OOOOOO+++                                                                                                                                                                     :::;;;======***---------===%%%###%%%---::::::---%%%OOOOOO000444555",
"                                                                                       :::***###OOOoooOOO###***------&&&%%%+++OOOOOO+++                                                                                                                                                                     :::;;;======***---------===%%%###%%%---::::::---%%%OOOOOO000444555",
"                                                                                       :::***###OOOoooOOO###***------&&&%%%+++OOOOOO+++                                                                                                                                                                     :::;;;======***---------===%%%###%%%---::::::---%%%OOOOOO000444555",
"                                                                                       ;;;&&&@@@OOOOOOOOO@@@%%%%%%%%%###@@@OOOXXX                                                                                                                                                               :::;;;;;;:::---&&&%%%%%%&&&===***&&&###@@@@@@%%%---:::;;;%%%OOOXXXXXX000555777",
"                                                                                       ;;;&&&@@@OOOOOOOOO@@@%%%%%%%%%###@@@OOOXXX                                                                                                                                                               :::;;;;;;:::---&&&%%%%%%&&&===***&&&###@@@@@@%%%---:::;;;%%%OOOXXXXXX000555777",
"                                                                                       ;;;&&&@@@OOOOOOOOO@@@%%%%%%%%%###@@@OOOXXX                                                                                                                                                               :::;;;;;;:::---&&&%%%%%%&&&===***&&&###@@@@@@%%%---:::;;;%%%OOOXXXXXX000555777",
"                                                                                       ***%%%@@@+++OOOOOOOOOOOOOOO+++++++++                                                                                                                                                                  ;;;===;;;:::---&&&######&&&======%%%@@@+++@@@###***;;;:::===+++XXX...000333555888",
"                                                                                       ***%%%@@@+++OOOOOOOOOOOOOOO+++++++++                                                                                                                                                                  ;;;===;;;:::---&&&######&&&======%%%@@@+++@@@###***;;;:::===+++XXX...000333555888",
"                                                                                       ***%%%@@@+++OOOOOOOOOOOOOOO+++++++++                                                                                                                                                                  ;;;===;;;:::---&&&######&&&======%%%@@@+++@@@###***;;;:::===+++XXX...000333555888",
"                                                                                    :::***%%%@@@+++OOOOOOoooXXXoooOOO+++                                                                                                                                                                  ---%%%***---;;;&&&######&&&------&&&###++++++@@@%%%---:::;;;%%%OOO...XXX000444666999",
"                                                                                    :::***%%%@@@+++OOOOOOoooXXXoooOOO+++                                                                                                                                                                  ---%%%***---;;;&&&######&&&------&&&###++++++@@@%%%---:::;;;%%%OOO...XXX000444666999",
"                                                                                    :::***%%%@@@+++OOOOOOoooXXXoooOOO+++                                                                                                                                                                  ---%%%***---;;;&&&######&&&------&&&###++++++@@@%%%---:::;;;%%%OOO...XXX000444666999",
"                                                                                 >>>:::---%%%###+++OOOoooXXXXXXXXXOOO                                                                                                                                                               :::---%%%&&&===;;;===%%%###%%%---;;;===%%%OOO+++@@@%%%===;;;>>>===+++......OOO000555888000",
"                                                                                 >>>:::---%%%###+++OOOoooXXXXXXXXXOOO                                                                                                                                                               :::---%%%&&&===;;;===%%%###%%%---;;;===%%%OOO+++@@@%%%===;;;>>>===+++......OOO000555888000",
"                                                                                 >>>:::---%%%###+++OOOoooXXXXXXXXXOOO                                                                                                                                                               :::---%%%&&&===;;;===%%%###%%%---;;;===%%%OOO+++@@@%%%===;;;>>>===+++......OOO000555888000",
"                                                                                 >>>:::;;;&&&###+++OOOoooXXXOOOOOO                                                                                                                                                                  ---%%%###&&&---===%%%@@@###***;;;---%%%OOOoooOOO###&&&;;;:::>>>===+++......000000888999000",
"                                                                                 >>>:::;;;&&&###+++OOOoooXXXOOOOOO                                                                                                                                                                  ---%%%###&&&---===%%%@@@###***;;;---%%%OOOoooOOO###&&&;;;:::>>>===+++......000000888999000",
"                                                                                 >>>:::;;;&&&###+++OOOoooXXXOOOOOO                                                                                                                                                                  ---%%%###&&&---===%%%@@@###***;;;---%%%OOOoooOOO###&&&;;;:::>>>===+++......000000888999000",
"                                                                              >>>>>>:::---%%%@@@+++OOOOOOOOOOOO###                                                                                                                                                                  OOOOOO+++&&&===&&&OOO+++%%%---:::===+++...XXXOOO%%%---:::>>>>>>===+++...XXX888666888000000",
"                                                                              >>>>>>:::---%%%@@@+++OOOOOOOOOOOO###                                                                                                                                                                  OOOOOO+++&&&===&&&OOO+++%%%---:::===+++...XXXOOO%%%---:::>>>>>>===+++...XXX888666888000000",
"                                                                              >>>>>>:::---%%%@@@+++OOOOOOOOOOOO###                                                                                                                                                                  OOOOOO+++&&&===&&&OOO+++%%%---:::===+++...XXXOOO%%%---:::>>>>>>===+++...XXX888666888000000",
"                                                                           :::;;;------&&&###+++++++++++++++###                                                                                                                                                                     XXXooo+++======%%%XXXOOO%%%;;;:::===+++...XXXOOO%%%---::::::;;;%%%OOOXXXOOO777777777999888",
"                                                                           :::;;;------&&&###+++++++++++++++###                                                                                                                                                                     XXXooo+++======%%%XXXOOO%%%;;;:::===+++...XXXOOO%%%---::::::;;;%%%OOOXXXOOO777777777999888",
"                                                                           :::;;;------&&&###+++++++++++++++###                                                                                                                                                                     XXXooo+++======%%%XXXOOO%%%;;;:::===+++...XXXOOO%%%---::::::;;;%%%OOOXXXOOO777777777999888",
"                                                                        :::---&&&%%%%%%+++OOOOOO+++++++++%%%                                                                                                                                                                     ===OOOXXX###===&&&+++...OOO%%%;;;:::===OOO...OOO%%%***;;;:::;;;===OOOXXXXXX000777777777888777",
"                                                                        :::---&&&%%%%%%+++OOOOOO+++++++++%%%                                                                                                                                                                     ===OOOXXX###===&&&+++...OOO%%%;;;:::===OOO...OOO%%%***;;;:::;;;===OOOXXXXXX000777777777888777",
"                                                                        :::---&&&%%%%%%+++OOOOOO+++++++++%%%                                                                                                                                                                     ===OOOXXX###===&&&+++...OOO%%%;;;:::===OOO...OOO%%%***;;;:::;;;===OOOXXXXXX000777777777888777",
"                                                                  >>>;;;***&&&$$$###+++OOOoooOOOOOO+++@@@                                                                                                                                                                        ===+++OOO%%%---&&&+++XXXOOO===:::;;;%%%OOOOOO###%%%---;;;>>>---%%%oooXXXXXX000555777888777555",
"                                                                  >>>;;;***&&&$$$###+++OOOoooOOOOOO+++@@@                                                                                                                                                                        ===+++OOO%%%---&&&+++XXXOOO===:::;;;%%%OOOOOO###%%%---;;;>>>---%%%oooXXXXXX000555777888777555",
"                                                                  >>>;;;***&&&$$$###+++OOOoooOOOOOO+++@@@                                                                                                                                                                        ===+++OOO%%%---&&&+++XXXOOO===:::;;;%%%OOOOOO###%%%---;;;>>>---%%%oooXXXXXX000555777888777555",
"                                                               >>>:::===&&&###@@@+++OOOOOOOOOXXXOOO+++%%%                                                                                                                                                                        ===+++OOO%%%;;;===+++XXX###===:::---%%%OOO+++%%%&&&---::::::===###OOOOOOOOO777666777888666555",
"                                                               >>>:::===&&&###@@@+++OOOOOOOOOXXXOOO+++%%%                                                                                                                                                                        ===+++OOO%%%;;;===+++XXX###===:::---%%%OOO+++%%%&&&---::::::===###OOOOOOOOO777666777888666555",
"                                                               >>>:::===&&&###@@@+++OOOOOOOOOXXXOOO+++%%%                                                                                                                                                                        ===+++OOO%%%;;;===+++XXX###===:::---%%%OOO+++%%%&&&---::::::===###OOOOOOOOO777666777888666555",
"                                                         >>>>>>:::---&&&###@@@+++OOOOOOOOOOOOOOOOOO###                                                                                                                                                                           ===+++OOO%%%;;;===+++OOO%%%---:::---%%%@@@###&&&***;;;;;;---%%%+++OOO+++000777777666777666555",
"                                                         >>>>>>:::---&&&###@@@+++OOOOOOOOOOOOOOOOOO###                                                                                                                                                                           ===+++OOO%%%;;;===+++OOO%%%---:::---%%%@@@###&&&***;;;;;;---%%%+++OOO+++000777777666777666555",
"                                                         >>>>>>:::---&&&###@@@+++OOOOOOOOOOOOOOOOOO###                                                                                                                                                                           ===+++OOO%%%;;;===+++OOO%%%---:::---%%%@@@###&&&***;;;;;;---%%%+++OOO+++000777777666777666555",
"                                                      >>>>>>:::---&&&$$$@@@+++OOOOOOOOOOOOOOOOOO+++###                                                                                                                                                                           ===%%%+++&&&:::===+++OOO%%%---:::---%%%@@@%%%***===---***%%%OOOOOOOOO+++000777777666777555555",
"                                                      >>>>>>:::---&&&$$$@@@+++OOOOOOOOOOOOOOOOOO+++###                                                                                                                                                                           ===%%%+++&&&:::===+++OOO%%%---:::---%%%@@@%%%***===---***%%%OOOOOOOOO+++000777777666777555555",
"                                                      >>>>>>:::---&&&$$$@@@+++OOOOOOOOOOOOOOOOOO+++###                                                                                                                                                                           ===%%%+++&&&:::===+++OOO%%%---:::---%%%@@@%%%***===---***%%%OOOOOOOOO+++000777777666777555555",
"                                                   >>>>>>;;;---***$$$@@@+++OOOOOOOOOOOOOOOOOO+++@@@$$$                                                                                                                                                                           ---###@@@***:::===+++OOO%%%---:::;;;***%%%&&&------***###+++OOOoooOOO+++000666666555666555555",
"                                                   >>>>>>;;;---***$$$@@@+++OOOOOOOOOOOOOOOOOO+++@@@$$$                                                                                                                                                                           ---###@@@***:::===+++OOO%%%---:::;;;***%%%&&&------***###+++OOOoooOOO+++000666666555666555555",
"                                                   >>>>>>;;;---***$$$@@@+++OOOOOOOOOOOOOOOOOO+++@@@$$$                                                                                                                                                                           ---###@@@***:::===+++OOO%%%---:::;;;***%%%&&&------***###+++OOOoooOOO+++000666666555666555555",
"                                                >>>:::;;;===&&&$$$@@@+++OOOOOOOOOOOOOOO++++++@@@$$$                                                                                                                                                                              333@@@###***:::===%%%+++%%%---::::::;;;------;;;***###++++++OOOOOOOOO@@@000555666666666555555",
"                                                >>>:::;;;===&&&$$$@@@+++OOOOOOOOOOOOOOO++++++@@@$$$                                                                                                                                                                              333@@@###***:::===%%%+++%%%---::::::;;;------;;;***###++++++OOOOOOOOO@@@000555666666666555555",
"                                                >>>:::;;;===&&&$$$@@@+++OOOOOOOOOOOOOOO++++++@@@$$$                                                                                                                                                                              333@@@###***:::===%%%+++%%%---::::::;;;------;;;***###++++++OOOOOOOOO@@@000555666666666555555",
"                                          >>>>>>:::---&&&%%%###@@@+++OOOOOOOOOOOOOOOOOO+++@@@$$$&&&                                                                                                                                                                           777555333###---:::---%%%@@@%%%---:::>>>>>>:::;;;===%%%@@@+++++++++++++++000777555666666666555555",
"                                          >>>>>>:::---&&&%%%###@@@+++OOOOOOOOOOOOOOOOOO+++@@@$$$&&&                                                                                                                                                                           777555333###---:::---%%%@@@%%%---:::>>>>>>:::;;;===%%%@@@+++++++++++++++000777555666666666555555",
"                                          >>>>>>:::---&&&%%%###@@@+++OOOOOOOOOOOOOOOOOO+++@@@$$$&&&                                                                                                                                                                           777555333###---:::---%%%@@@%%%---:::>>>>>>:::;;;===%%%@@@+++++++++++++++000777555666666666555555",
"                                       >>>:::;;;===&&&$$$###@@@+++OOOOOOoooXXXXXXOOOOOO+++###&&&                                                                                                                                                                           000777555333222:::>>>---&&&###&&&---;;;>>>>>>;;;===%%%@@@+++++++++++++++@@@000777777666777555444333",
"                                       >>>:::;;;===&&&$$$###@@@+++OOOOOOoooXXXXXXOOOOOO+++###&&&                                                                                                                                                                           000777555333222:::>>>---&&&###&&&---;;;>>>>>>;;;===%%%@@@+++++++++++++++@@@000777777666777555444333",
"                                       >>>:::;;;===&&&$$$###@@@+++OOOOOOoooXXXXXXOOOOOO+++###&&&                                                                                                                                                                           000777555333222:::>>>---&&&###&&&---;;;>>>>>>;;;===%%%@@@+++++++++++++++@@@000777777666777555444333",
"                                    ::::::---***%%%###@@@@@@+++OOOOOOXXXXXXXXXoooOOO+++@@@$$$&&&                                                                                                                                                                           000777555333222222>>>;;;&&&&&&&&&---;;;:::;;;***###@@@+++OOOOOOOOO++++++###000777666666666444222111",
"                                    ::::::---***%%%###@@@@@@+++OOOOOOXXXXXXXXXoooOOO+++@@@$$$&&&                                                                                                                                                                           000777555333222222>>>;;;&&&&&&&&&---;;;:::;;;***###@@@+++OOOOOOOOO++++++###000777666666666444222111",
"                                    ::::::---***%%%###@@@@@@+++OOOOOOXXXXXXXXXoooOOO+++@@@$$$&&&                                                                                                                                                                           000777555333222222>>>;;;&&&&&&&&&---;;;:::;;;***###@@@+++OOOOOOOOO++++++###000777666666666444222111",
"                                 :::------***%%%###@@@++++++OOOOOOoooXXX...XXXoooOOO+++###&&&***                                                                                                                                                                           000777555333222222222222;;;------;;;;;;;;;===%%%@@@+++OOOXXXXXXoooOOO@@@000000555666666555222<<<,,,",
"                                 :::------***%%%###@@@++++++OOOOOOoooXXX...XXXoooOOO+++###&&&***                                                                                                                                                                           000777555333222222222222;;;------;;;;;;;;;===%%%@@@+++OOOXXXXXXoooOOO@@@000000555666666555222<<<,,,",
"                                 :::------***%%%###@@@++++++OOOOOOoooXXX...XXXoooOOO+++###&&&***                                                                                                                                                                           000777555333222222222222;;;------;;;;;;;;;===%%%@@@+++OOOXXXXXXoooOOO@@@000000555666666555222<<<,,,",
"                           >>>:::---***&&&%%%###@@@++++++OOOOOOoooXXX...XXXoooOOO+++@@@$$$&&&                                                                                                                                                                              000777555333333333333333333>>>::::::;;;---&&&###+++OOOooo......oooOOO@@@000000555666777555222111<<<",
"                           >>>:::---***&&&%%%###@@@++++++OOOOOOoooXXX...XXXoooOOO+++@@@$$$&&&                                                                                                                                                                              000777555333333333333333333>>>::::::;;;---&&&###+++OOOooo......oooOOO@@@000000555666777555222111<<<",
"                           >>>:::---***&&&%%%###@@@++++++OOOOOOoooXXX...XXXoooOOO+++@@@$$$&&&                                                                                                                                                                              000777555333333333333333333>>>::::::;;;---&&&###+++OOOooo......oooOOO@@@000000555666777555222111<<<",
"                        >>>:::---***&&&%%%###@@@++++++OOOOOOOOOXXX......XXXoooOOO+++###%%%***                                                                                                                                                                              000777555555444555555555:::>>>>>>:::---&&&###+++OOOoooXXX...XXXOOO+++###000333555777888666555333222",
"                        >>>:::---***&&&%%%###@@@++++++OOOOOOOOOXXX......XXXoooOOO+++###%%%***                                                                                                                                                                              000777555555444555555555:::>>>>>>:::---&&&###+++OOOoooXXX...XXXOOO+++###000333555777888666555333222",
"                        >>>:::---***&&&%%%###@@@++++++OOOOOOOOOXXX......XXXoooOOO+++###%%%***                                                                                                                                                                              000777555555444555555555:::>>>>>>:::---&&&###+++OOOoooXXX...XXXOOO+++###000333555777888666555333222",
"                     >>>:::---***&&&%%%###@@@+++++++++OOOOOOoooXXX...XXXoooOOO+++@@@###&&&                                                                                                                                                                                 000888666555666777777***;;;>>>>>>;;;***$$$@@@OOOOOOXXXXXXXXXoooOOO@@@000000444666999999888888777777",
"                     >>>:::---***&&&%%%###@@@+++++++++OOOOOOoooXXX...XXXoooOOO+++@@@###&&&                                                                                                                                                                                 000888666555666777777***;;;>>>>>>;;;***$$$@@@OOOOOOXXXXXXXXXoooOOO@@@000000444666999999888888777777",
"                     >>>:::---***&&&%%%###@@@+++++++++OOOOOOoooXXX...XXXoooOOO+++@@@###&&&                                                                                                                                                                                 000888666555666777777***;;;>>>>>>;;;***$$$@@@OOOOOOXXXXXXXXXoooOOO@@@000000444666999999888888777777",
"                  >>>>>>;;;******&&&###@@@+++++++++OOOOOOoooXXX......XXXoooOOO+++@@@%%%&&&                                                                                                                                                                                 000999888888999000000000;;;>>>:::---&&&###+++OOOooo...XXXXXXOOO+++@@@000000555777000000000000999888",
"                  >>>>>>;;;******&&&###@@@+++++++++OOOOOOoooXXX......XXXoooOOO+++@@@%%%&&&                                                                                                                                                                                 000999888888999000000000;;;>>>:::---&&&###+++OOOooo...XXXXXXOOO+++@@@000000555777000000000000999888",
"                  >>>>>>;;;******&&&###@@@+++++++++OOOOOOoooXXX......XXXoooOOO+++@@@%%%&&&                                                                                                                                                                                 000999888888999000000000;;;>>>:::---&&&###+++OOOooo...XXXXXXOOO+++@@@000000555777000000000000999888",
"            >>>>>>>>>;;;---***&&&%%%@@@+++++++++OOOOOOoooXXX......XXXoooOOO+++@@@###&&&                                                                                                                                                                                    000000000000000000000000000::::::---%%%@@@OOOoooXXXXXXXXXoooOOO+++###000000555555888999000000      ",
"            >>>>>>>>>;;;---***&&&%%%@@@+++++++++OOOOOOoooXXX......XXXoooOOO+++@@@###&&&                                                                                                                                                                                    000000000000000000000000000::::::---%%%@@@OOOoooXXXXXXXXXoooOOO+++###000000555555888999000000      ",
"            >>>>>>>>>;;;---***&&&%%%@@@+++++++++OOOOOOoooXXX......XXXoooOOO+++@@@###&&&                                                                                                                                                                                    000000000000000000000000000::::::---%%%@@@OOOoooXXXXXXXXXoooOOO+++###000000555555888999000000      ",
"         >>>>>>>>>:::---***&&&%%%###@@@+++++++++OOOoooXXX.........XXXoooOOO+++@@@%%%&&&                                                                                                                                                                                       000000000000000000000---:::;;;***###+++OOOoooXXXXXXoooOOOOOO@@@###000888666666888999000000      ",
"         >>>>>>>>>:::---***&&&%%%###@@@+++++++++OOOoooXXX.........XXXoooOOO+++@@@%%%&&&                                                                                                                                                                                       000000000000000000000---:::;;;***###+++OOOoooXXXXXXoooOOOOOO@@@###000888666666888999000000      ",
"         >>>>>>>>>:::---***&&&%%%###@@@+++++++++OOOoooXXX.........XXXoooOOO+++@@@%%%&&&                                                                                                                                                                                       000000000000000000000---:::;;;***###+++OOOoooXXXXXXoooOOOOOO@@@###000888666666888999000000      ",
"      >>>>>>>>>:::;;;******&&&###@@@+++++++++OOOoooXXXXXX.........oooOOO+++@@@###&&&                                                                                                                                                                                          >>>000000000000000@@@***;;;;;;***###+++OOOOOOXXXXXXOOOOOO+++@@@%%%000999888777888999000000      ",
"      >>>>>>>>>:::;;;******&&&###@@@+++++++++OOOoooXXXXXX.........oooOOO+++@@@###&&&                                                                                                                                                                                          >>>000000000000000@@@***;;;;;;***###+++OOOOOOXXXXXXOOOOOO+++@@@%%%000999888777888999000000      ",
"      >>>>>>>>>:::;;;******&&&###@@@+++++++++OOOoooXXXXXX.........oooOOO+++@@@###&&&                                                                                                                                                                                          >>>000000000000000@@@***;;;;;;***###+++OOOOOOXXXXXXOOOOOO+++@@@%%%000999888777888999000000      ",
"   >>>>>>>>>>>>;;;---***&&&%%%@@@++++++++++++OOOXXXXXX.........XXXOOOOOO+++@@@%%%                                                                                                                                                                                                ---%%%XXXXXXXXXOOO%%%---;;;***$$$@@@OOOOOOOOOOOOOOOOOO+++###%%%000000000000000000000000      ",
"   >>>>>>>>>>>>;;;---***&&&%%%@@@++++++++++++OOOXXXXXX.........XXXOOOOOO+++@@@%%%                                                                                                                                                                                                ---%%%XXXXXXXXXOOO%%%---;;;***$$$@@@OOOOOOOOOOOOOOOOOO+++###%%%000000000000000000000000      ",
"   >>>>>>>>>>>>;;;---***&&&%%%@@@++++++++++++OOOXXXXXX.........XXXOOOOOO+++@@@%%%                                                                                                                                                                                                ---%%%XXXXXXXXXOOO%%%---;;;***$$$@@@OOOOOOOOOOOOOOOOOO+++###%%%000000000000000000000000      ",
">>>>>>>>>>>>:::---***&&&%%%###@@@++++++++++++OOOooo.........XXXoooOOO++++++@@@%%%                                                                                                                                                                                                :::&&&OOOoooXXXOOO%%%---:::---&&&###+++OOOOOOOOOOOOOOO+++###%%%***000000000000000            ",
">>>>>>>>>>>>:::---***&&&%%%###@@@++++++++++++OOOooo.........XXXoooOOO++++++@@@%%%                                                                                                                                                                                                :::&&&OOOoooXXXOOO%%%---:::---&&&###+++OOOOOOOOOOOOOOO+++###%%%***000000000000000            ",
">>>>>>>>>>>>:::---***&&&%%%###@@@++++++++++++OOOooo.........XXXoooOOO++++++@@@%%%                                                                                                                                                                                                :::&&&OOOoooXXXOOO%%%---:::---&&&###+++OOOOOOOOOOOOOOO+++###%%%***000000000000000            ",
">>>>>>>>>:::;;;******&&&###@@@++++++++++++++++++OOOXXX...XXXoooOOOOOO+++@@@@@@                                                                                                                                                                                                >>>>>>---%%%OOOXXXXXX###===:::;;;***%%%@@@++++++OOOOOO+++@@@###%%%***---:::>>>>>>>>>            ",
">>>>>>>>>:::;;;******&&&###@@@++++++++++++++++++OOOXXX...XXXoooOOOOOO+++@@@@@@                                                                                                                                                                                                >>>>>>---%%%OOOXXXXXX###===:::;;;***%%%@@@++++++OOOOOO+++@@@###%%%***---:::>>>>>>>>>            ",
">>>>>>>>>:::;;;******&&&###@@@++++++++++++++++++OOOXXX...XXXoooOOOOOO+++@@@@@@                                                                                                                                                                                                >>>>>>---%%%OOOXXXXXX###===:::;;;***%%%@@@++++++OOOOOO+++@@@###%%%***---:::>>>>>>>>>            ",
">>>>>>>>>;;;---***&&&%%%@@@++++++++++++++++++++++++OOOooooooOOOOOO++++++@@@###                                                                                                                                                                                                >>>>>>;;;&&&###OOOXXXOOO%%%;;;:::---&&&$$$@@@++++++++++++@@@###&&&***;;;:::>>>>>>>>>            ",
">>>>>>>>>;;;---***&&&%%%@@@++++++++++++++++++++++++OOOooooooOOOOOO++++++@@@###                                                                                                                                                                                                >>>>>>;;;&&&###OOOXXXOOO%%%;;;:::---&&&$$$@@@++++++++++++@@@###&&&***;;;:::>>>>>>>>>            ",
">>>>>>>>>;;;---***&&&%%%@@@++++++++++++++++++++++++OOOooooooOOOOOO++++++@@@###                                                                                                                                                                                                >>>>>>;;;&&&###OOOXXXOOO%%%;;;:::---&&&$$$@@@++++++++++++@@@###&&&***;;;:::>>>>>>>>>            ",
">>>>>>:::---******&&&###@@@+++++++++++++++@@@@@@@@@+++OOOOOO+++++++++@@@@@@                                                                                                                                                                                                   >>>>>>:::---%%%+++oooOOO%%%---:::;;;---&&&$$$###@@@@@@+++@@@###%%%---;;;>>>>>>>>>               ",
">>>>>>:::---******&&&###@@@+++++++++++++++@@@@@@@@@+++OOOOOO+++++++++@@@@@@                                                                                                                                                                                                   >>>>>>:::---%%%+++oooOOO%%%---:::;;;---&&&$$$###@@@@@@+++@@@###%%%---;;;>>>>>>>>>               ",
">>>>>>:::---******&&&###@@@+++++++++++++++@@@@@@@@@+++OOOOOO+++++++++@@@@@@                                                                                                                                                                                                   >>>>>>:::---%%%+++oooOOO%%%---:::;;;---&&&$$$###@@@@@@+++@@@###%%%---;;;>>>>>>>>>               ",
">>>:::;;;*********%%%###+++++++++++++++@@@#########@@@+++++++++++++++@@@%%%                                                                                                                                                                                             >>>>>>>>>>>>:::---&&&@@@OOOoooOOO&&&;;;:::;;;---***&&&$$$###@@@@@@###&&&;;;:::>>>>>>>>>               ",
">>>:::;;;*********%%%###+++++++++++++++@@@#########@@@+++++++++++++++@@@%%%                                                                                                                                                                                             >>>>>>>>>>>>:::---&&&@@@OOOoooOOO&&&;;;:::;;;---***&&&$$$###@@@@@@###&&&;;;:::>>>>>>>>>               ",
">>>:::;;;*********%%%###+++++++++++++++@@@#########@@@+++++++++++++++@@@%%%                                                                                                                                                                                             >>>>>>>>>>>>:::---&&&@@@OOOoooOOO&&&;;;:::;;;---***&&&$$$###@@@@@@###&&&;;;:::>>>>>>>>>               ",
">>>;;;---******&&&%%%@@@+++++++++++++++@@@###%%%%%%###@@@+++++++++@@@###&&&                                                                                                                                                                                             >>>;;;;;;;;;;;;;;;***%%%@@@OOOOOO%%%===;;;::::::;;;---&&&%%%@@@+++###&&&;;;>>>>>>>>>>>>               ",
">>>;;;---******&&&%%%@@@+++++++++++++++@@@###%%%%%%###@@@+++++++++@@@###&&&                                                                                                                                                                                             >>>;;;;;;;;;;;;;;;***%%%@@@OOOOOO%%%===;;;::::::;;;---&&&%%%@@@+++###&&&;;;>>>>>>>>>>>>               ",
">>>;;;---******&&&%%%@@@+++++++++++++++@@@###%%%%%%###@@@+++++++++@@@###&&&                                                                                                                                                                                             >>>;;;;;;;;;;;;;;;***%%%@@@OOOOOO%%%===;;;::::::;;;---&&&%%%@@@+++###&&&;;;>>>>>>>>>>>>               "
};
