/* XPM */
static char *b2658cffd5c54f3b9a8ae99d9157e51d[] = {
/* columns rows colors chars-per-pixel */
"366 192 32 1 ",
"  c None",
". c #FCCCB0",
"X c #FCBC9C",
"o c #FCB890",
"O c #FCB080",
"+ c #FCA470",
"@ c #FC9C60",
"# c #F0945C",
"$ c #E88C58",
"% c #DC8854",
"& c #D08050",
"* c #C87C4C",
"= c #BC7848",
"- c #B47044",
"; c #A86840",
": c #9C6038",
"> c #885830",
", c black",
"< c black",
"1 c black",
"2 c black",
"3 c black",
"4 c black",
"5 c black",
"6 c black",
"7 c black",
"8 c black",
"9 c black",
"0 c black",
"q c black",
"w c black",
"e c black",
/* pixels */
"                                                                                                                                                                                                                                                                                                                                                                              ",
"                                                                                                                                                                                                                                                                                                                                                                              ",
"                                                                                                                                                                                                                                                                                                                                                                              ",
"                                                                                                                                                                                                                                                                                                                                                                              ",
"                                                                                                                                                                                                                                                                                                                                                                              ",
"                                                                                                                                                                                                                                                                                                                                                                              ",
"                                                                                                                                                                                                                                                                                                                                                                              ",
"                                                                                                                                                                                                                                                                                                                                                                              ",
"                                                                                                                                                                                                                                                                                                                                                                              ",
"                                                                                                                                                                                                                                                                                                                                                                              ",
"                                                                                                                                                                                                                                                                                                                                                                              ",
"                                                                                                                                                                                                                                                                                                                                                                              ",
"                                                                                                                                                                                                                                                                                                                                                                              ",
"                                                                                                                                                                                                                                                                                                                                                                              ",
"                                                                                                                                                                                                                                                                                                                                                                              ",
"                                                                                                                                                                                                                                                                                                                                                                              ",
"                                                                                                                                                                                                                                                                                                                                                                              ",
"                                                                                                                                                                                                                                                                                                                                                                              ",
"                                                                                                                                                                                                                                                                                                                                                                              ",
"                                                                                                                                                                                                                                                                                                                                                                              ",
"                                                                                                                                                                                                                                                                                                                                                                              ",
"                                                                                                                                                                                                                                                                                                                                                                              ",
"                                                                                                                                                                                                                                                                                                                                                                              ",
"                                                                                                                                                                                                                                                                                                                                                                              ",
"                                                                                                                                                                                                                                                                                                                                                                              ",
"                                                                                                                                                                                                                                                                                                                                                                              ",
"                                                                                                                                                                                                                                                                                                                                                                              ",
"                                                                                                                                                                                                                                                                                                                                                                              ",
"                                                                                                                                                                                                                                                                                                                                                                              ",
"                                                                                                                                                                                                                                                                                                                                                                              ",
"                                                                                                                                                                                                                                                                                                                                                                              ",
"                                                                                                                                                                                                                                                                                                                                                                              ",
"                                                                                                                                                                                                                                                                                                                                                                              ",
"                                                                                                                                                                                                                                                                                                                                                                              ",
"                                                                                                                                                                                                                                                                                                                                                                              ",
"                                                                                                                                                                                                                                                                                                                                                                              ",
"                                                                                                                                                                                                                                                                                                                                                                              ",
"                                                                                                                                                                                                                                                                                                                                                                              ",
"                                                                                                                                                                                                                                                                                                                                                                              ",
"                                                                                                                                                                                                                                                                                                                                                                              ",
"                                                                                                                                                                                                                                                                                                                                                                              ",
"                                                                                                                                                                                                                                                                                                                                                                              ",
"                                                                                                                                                                                                                                                                                                                                                                              ",
"                                                                                                                                                                                                                                                                                                                                                                              ",
"                                                                                                                                                                                                                                                                                                                                                                              ",
"                                                                                                                                                                                                                                                                                                                                                                              ",
"                                                                                                                                                                                                                                                                                                                                                                              ",
"                                                                                                                                                                                                                                                                                                                                                                              ",
"                                                                                                                                                                                                                                                                                                                                                                              ",
"                                                                                                                                                                                                                                                                                                                                                                              ",
"                                                                                                                                                                                                                                                                                                                                                                              ",
"                                                                                                                                                                                                                                                                                                                                                                              ",
"                                                                                                                                                                                                                                                                                                                                                                              ",
"                                                                                                                                                                                                                                                                                                                                                                              ",
"                                                                                                                                                                                                                                                                                                                                                                              ",
"                                                                                                                                                                                                                                                                                                                                                                              ",
"                                                                                                                                                                                                                                                                                                                                                                              ",
"                                                                                                                                                                                                                                                                                                                                                                              ",
"                                                                                                                                                                                                                                                                                                                                                                              ",
"                                                                                                                                                                                                                                                                                                                                                                              ",
"                                                                                                                                                                                                                                                                                                                                                                              ",
"                                                                                                                                                                                                                                                                                                                                                                              ",
"                                                                                                                                                                                                                                                                                                                                                                              ",
"                                                                                                                                                                                                                                                                                                                                                                              ",
"                                                                                                                                                                                                                                                                                                                                                                              ",
"                                                                                                                                                                                                                                                                                                                                                                              ",
"                                                                                                                                                                                                                                                                                                                                                                              ",
"                                                                                                                                                                                                                                                                                                                                                                              ",
"                                                                                                                                                                                                                                                                                                                                                                              ",
"                                                                                                                                                                                                                                                                                                                                                                              ",
"                                                                                                                                                                                                                                                                                                                                                                              ",
"                                                                                                                                                                                                                                                                                                                                                                              ",
"                                                                                                                                                                                                                                                                                                                                                                              ",
"                                                                                                                                                                                                                                                                                                                                                                              ",
"                                                                                                                                                                                                                                                                                                                                                                              ",
"                                                                                                                                                                                                                                                                                                                                                                              ",
"                                                                                                                                                                                                                                                                                                                                                                              ",
"                                                                                                                                                                                                                                                                                                                                                                              ",
"                                                                                                                                                                                                                                                                                                                                                                              ",
"                                                                                                                                                                                                                                                                                                                                                                              ",
"                                                                                                                                                                                                                                                                                                                                                                              ",
"                                                                                                                                                                                                                                                                                                                                                                              ",
"                                                                                                                                                                                                                                                                                                                                                                              ",
"                                                                                                                                                                                                                                                                                                                                                                              ",
"                                                                                                                                                                                                                                                                                                                                                                              ",
"                                                                                                                                                                                                                                                                                                                                                                              ",
"                                                                                                                                                                                                                                                                                                                                                                              ",
"                                                                                                                                                                                                                                                                                                                                                                              ",
"                                                                                                                                                                                                                                                                                                                                                                              ",
"                                                                                                                                                                                                                                                                                                                                                                              ",
"                                                                                                                                                                                                                                                                                                                                                                              ",
"                                                                                                                                                                                                                                                                                                                                                                              ",
"                                                                                                                                                                                                                                                                                                                                                                              ",
"                                                                                                                                                                                                                                                                                                                                                                              ",
"                                                                                                                                                                                                                                                                                                                                                                              ",
"                                                                                                                                                                                                                                                                                                                                                                              ",
"                                                                                                                                                                                                                                                                                                                                                                              ",
"                                                                                                                                                                                                                                                                                                                                                                              ",
"                                                                                                                                                                                                                                                                                                                                                                              ",
"                                                                                                                                                                                                                                                                                                                                                                              ",
"                                                                                                                                                                                                                                                                                                                                                                              ",
"                                                                                                                                                                                                                                                                                                                                                                              ",
"                                                                                                                                                                                                                                                                                                                                                                              ",
"                                                                                                                                                                                                                                                                                                                                                                              ",
"                                                                                                                                                                                                                                                                                                                                                                              ",
"                                                                                                                                                                                                                                                                                                                                                                              ",
"                                                                                                                                                                                                                                                                                                                                                                              ",
"                                                                                                                                                                                                                                                                                                                                                                              ",
"                                                                                                                                                                                                                                                                                                                                                                              ",
"                                                                                                                                                                                                                                                                                                                                                                              ",
"                                                                                                                                                                                                                                                                                                                                                                              ",
"                                                                                                                                                                                                                                                                                                                                                                              ",
"                                                                                                                                                                                                                                                                                                                                                                              ",
"                                                                                                                                                                                                                                                                                                                                                                              ",
"                                                                                                                                                                                                                                                                                                                                                                              ",
"                                                                                                                                                                                                                                                                                                                                                                              ",
"                                                                                                                                                                                                                                                                                                                                                                              ",
"                                                                                                                              +++OOOoooOOOOOO+++++++++@@@$$$                                                                                                                                                                                                                  ",
"                                                                                                                              +++OOOoooOOOOOO+++++++++@@@$$$                                                                                                                                                                                                                  ",
"                                                                                                                              +++OOOoooOOOOOO+++++++++@@@$$$                                                                                                                                                                                                                  ",
"                                                                                                                           @@@+++OOOXXXoooOOOOOO++++++@@@@@@%%%&&&&&&                                                                                                                                                                                                         ",
"                                                                                                                           @@@+++OOOXXXoooOOOOOO++++++@@@@@@%%%&&&&&&                                                                                                                                                                                                         ",
"                                                                                                                           @@@+++OOOXXXoooOOOOOO++++++@@@@@@%%%&&&&&&                                                                                                                                                                                                         ",
"                                                                                                                        &&&%%%+++OOOXXXXXXoooOOOOOO++++++@@@######%%%&&&***                                                                                                                                                                                                   ",
"                                                                                                                        &&&%%%+++OOOXXXXXXoooOOOOOO++++++@@@######%%%&&&***                                                                                                                                                                                                   ",
"                                                                                                                        &&&%%%+++OOOXXXXXXoooOOOOOO++++++@@@######%%%&&&***                                                                                                                                                                                                   ",
"                                                                                                                     ===---%%%+++XXX......XXXXXXOOOOOO+++@@@@@@@@@###$$$&&&&&&                                                                                                                                                                                                ",
"                                                                                                                     ===---%%%+++XXX......XXXXXXOOOOOO+++@@@@@@@@@###$$$&&&&&&                                                                                                                                                                                                ",
"                                                                                                                     ===---%%%+++XXX......XXXXXXOOOOOO+++@@@@@@@@@###$$$&&&&&&                                                                                                                                                                                                ",
"                                                                                                                  &&&---&&&%%%OOOXXX......XXXXXXOOOOOO+++@@@++++++++++++###%%%&&&                                                                                                                                                                                             ",
"                                                                                                                  &&&---&&&%%%OOOXXX......XXXXXXOOOOOO+++@@@++++++++++++###%%%&&&                                                                                                                                                                                             ",
"                                                                                                                  &&&---&&&%%%OOOXXX......XXXXXXOOOOOO+++@@@++++++++++++###%%%&&&                                                                                                                                                                                             ",
"                                                                                                               &&&******%%%@@@OOOoooXXXXXXoooOOOOOO@@@######+++OOOOOOOOO+++@@@###%%%                                                                                                                                                                                          ",
"                                                                                                               &&&******%%%@@@OOOoooXXXXXXoooOOOOOO@@@######+++OOOOOOOOO+++@@@###%%%                                                                                                                                                                                          ",
"                                                                                                               &&&******%%%@@@OOOoooXXXXXXoooOOOOOO@@@######+++OOOOOOOOO+++@@@###%%%                                                                                                                                                                                          ",
"                                                                                                            ===---***&&&$$$@@@+++OOOOOOOOOOOO+++@@@%%%&&&###+++OOOXXXoooOOO+++@@@+++@@@%%%---                                                                                                                                                                                 ",
"                                                                                                            ===---***&&&$$$@@@+++OOOOOOOOOOOO+++@@@%%%&&&###+++OOOXXXoooOOO+++@@@+++@@@%%%---                                                                                                                                                                                 ",
"                                                                                                            ===---***&&&$$$@@@+++OOOOOOOOOOOO+++@@@%%%&&&###+++OOOXXXoooOOO+++@@@+++@@@%%%---                                                                                                                                                                                 ",
"                                                                                                         %%%;;;---***%%%%%%%%%%%%###@@@@@@######&&&******%%%+++oooXXXXXXOOO+++++++++@@@###$$$&&&***;;;                                                                                                                                                                        ",
"                                                                                                         %%%;;;---***%%%%%%%%%%%%###@@@@@@######&&&******%%%+++oooXXXXXXOOO+++++++++@@@###$$$&&&***;;;                                                                                                                                                                        ",
"                                                                                                         %%%;;;---***%%%%%%%%%%%%###@@@@@@######&&&******%%%+++oooXXXXXXOOO+++++++++@@@###$$$&&&***;;;                                                                                                                                                                        ",
"                                                                                                            ---&&&%%%&&&   ;;;---***&&&&&&&&&***---;;;;;;&&&@@@OOOooooooOOO++++++++++++@@@@@@###&&&&&&***---;;;:::                                                                                                                                                            ",
"                                                                                                            ---&&&%%%&&&   ;;;---***&&&&&&&&&***---;;;;;;&&&@@@OOOooooooOOO++++++++++++@@@@@@###&&&&&&***---;;;:::                                                                                                                                                            ",
"                                                                                                            ---&&&%%%&&&   ;;;---***&&&&&&&&&***---;;;;;;&&&@@@OOOooooooOOO++++++++++++@@@@@@###&&&&&&***---;;;:::                                                                                                                                                            ",
"                                                                                                            %%%&&&***--->>>>>>>>>:::---;;;;;;;;;:::>>>:::---%%%+++oooOOO++++++++++++++++++++++++@@@###%%%&&&***------;;;;;;>>>                                                                                                                                                ",
"                                                                                                            %%%&&&***--->>>>>>>>>:::---;;;;;;;;;:::>>>:::---%%%+++oooOOO++++++++++++++++++++++++@@@###%%%&&&***------;;;;;;>>>                                                                                                                                                ",
"                                                                                                            %%%&&&***--->>>>>>>>>:::---;;;;;;;;;:::>>>:::---%%%+++oooOOO++++++++++++++++++++++++@@@###%%%&&&***------;;;;;;>>>                                                                                                                                                ",
"                                                                                                            ***---::::::   >>>>>>   >>>::::::>>>>>>>>>>>>:::---%%%++++++++++++++++++++++++OOOOOOOOOOOO+++@@@###%%%&&&***---------;;;:::                                                                                                                                       ",
"                                                                                                            ***---::::::   >>>>>>   >>>::::::>>>>>>>>>>>>:::---%%%++++++++++++++++++++++++OOOOOOOOOOOO+++@@@###%%%&&&***---------;;;:::                                                                                                                                       ",
"                                                                                                            ***---::::::   >>>>>>   >>>::::::>>>>>>>>>>>>:::---%%%++++++++++++++++++++++++OOOOOOOOOOOO+++@@@###%%%&&&***---------;;;:::                                                                                                                                       ",
"                                                                                                            >>>>>>>>>               >>>>>>>>>>>>>>>>>>>>>>>>:::;;;&&&###@@@++++++++++++OOOOOOOOOooooooOOOOOO++++++@@@###$$$%%%&&&******---;;;:::>>>                                                                                                                           ",
"                                                                                                            >>>>>>>>>               >>>>>>>>>>>>>>>>>>>>>>>>:::;;;&&&###@@@++++++++++++OOOOOOOOOooooooOOOOOO++++++@@@###$$$%%%&&&******---;;;:::>>>                                                                                                                           ",
"                                                                                                            >>>>>>>>>               >>>>>>>>>>>>>>>>>>>>>>>>:::;;;&&&###@@@++++++++++++OOOOOOOOOooooooOOOOOO++++++@@@###$$$%%%&&&******---;;;:::>>>                                                                                                                           ",
"                                                                                                               >>>               >>>>>>>>>                        ;;;&&&###@@@+++++++++OOOOOOXXXXXXXXXXXXoooOOOOOOOOO+++@@@@@@######%%%&&&&&&===;;;>>>>>>>>>                                                                                                                  ",
"                                                                                                               >>>               >>>>>>>>>                        ;;;&&&###@@@+++++++++OOOOOOXXXXXXXXXXXXoooOOOOOOOOO+++@@@@@@######%%%&&&&&&===;;;>>>>>>>>>                                                                                                                  ",
"                                                                                                               >>>               >>>>>>>>>                        ;;;&&&###@@@+++++++++OOOOOOXXXXXXXXXXXXoooOOOOOOOOO+++@@@@@@######%%%&&&&&&===;;;>>>>>>>>>                                                                                                                  ",
"                                                                                                                                    >>>                              ***%%%###@@@++++++OOOOOOXXXXXX......XXXXXXoooOOOOOOOOO+++++++++@@@#########&&&===------;;;:::>>>                                                                                                         ",
"                                                                                                                                    >>>                              ***%%%###@@@++++++OOOOOOXXXXXX......XXXXXXoooOOOOOOOOO+++++++++@@@#########&&&===------;;;:::>>>                                                                                                         ",
"                                                                                                                                    >>>                              ***%%%###@@@++++++OOOOOOXXXXXX......XXXXXXoooOOOOOOOOO+++++++++@@@#########&&&===------;;;:::>>>                                                                                                         ",
"                                                                                                                                                                        &&&%%%###@@@++++++OOOOOOoooXXX.........XXXXXXooooooOOOOOOOOO+++++++++@@@@@@###%%%%%%&&&===;;;:::                                                                                                      ",
"                                                                                                                                                                        &&&%%%###@@@++++++OOOOOOoooXXX.........XXXXXXooooooOOOOOOOOO+++++++++@@@@@@###%%%%%%&&&===;;;:::                                                                                                      ",
"                                                                                                                                                                        &&&%%%###@@@++++++OOOOOOoooXXX.........XXXXXXooooooOOOOOOOOO+++++++++@@@@@@###%%%%%%&&&===;;;:::                                                                                                      ",
"                                                                                                                                                                           &&&%%%###@@@++++++OOOOOOoooXXX............XXXXXXooooooOOOOOOOOO++++++++++++++++++@@@###&&&&&&;;;:::                                                                                                ",
"                                                                                                                                                                           &&&%%%###@@@++++++OOOOOOoooXXX............XXXXXXooooooOOOOOOOOO++++++++++++++++++@@@###&&&&&&;;;:::                                                                                                ",
"                                                                                                                                                                           &&&%%%###@@@++++++OOOOOOoooXXX............XXXXXXooooooOOOOOOOOO++++++++++++++++++@@@###&&&&&&;;;:::                                                                                                ",
"                                                                                                                                                                              &&&%%%###@@@@@@+++OOOOOOOOOXXX...............XXXXXXoooOOOOOOOOO+++++++++++++++++++++@@@###&&&===;;;:::>>>                                                                                       ",
"                                                                                                                                                                              &&&%%%###@@@@@@+++OOOOOOOOOXXX...............XXXXXXoooOOOOOOOOO+++++++++++++++++++++@@@###&&&===;;;:::>>>                                                                                       ",
"                                                                                                                                                                              &&&%%%###@@@@@@+++OOOOOOOOOXXX...............XXXXXXoooOOOOOOOOO+++++++++++++++++++++@@@###&&&===;;;:::>>>                                                                                       ",
"                                                                                                                                                                                 &&&%%%$$$###@@@++++++OOOOOOXXX..................XXXXXXoooOOOOOO++++++++++++++++++++++++@@@###&&&===:::>>>                                                                                    ",
"                                                                                                                                                                                 &&&%%%$$$###@@@++++++OOOOOOXXX..................XXXXXXoooOOOOOO++++++++++++++++++++++++@@@###&&&===:::>>>                                                                                    ",
"                                                                                                                                                                                 &&&%%%$$$###@@@++++++OOOOOOXXX..................XXXXXXoooOOOOOO++++++++++++++++++++++++@@@###&&&===:::>>>                                                                                    ",
"                                                                                                                                                                                    ******&&&$$$@@@@@@+++OOOOOOXXX.....................XXXoooOOOOOO+++++++++++++++++++++++++++@@@###***;;;>>>>>>                                                                              ",
"                                                                                                                                                                                    ******&&&$$$@@@@@@+++OOOOOOXXX.....................XXXoooOOOOOO+++++++++++++++++++++++++++@@@###***;;;>>>>>>                                                                              ",
"                                                                                                                                                                                    ******&&&$$$@@@@@@+++OOOOOOXXX.....................XXXoooOOOOOO+++++++++++++++++++++++++++@@@###***;;;>>>>>>                                                                              ",
"                                                                                                                                                                                    >>>;;;---&&&%%%###@@@+++OOOOOOXXX..................XXXXXXOOOOOO++++++++++++++++++++++++++++++@@@###&&&---:::>>>>>>                                                                        ",
"                                                                                                                                                                                    >>>;;;---&&&%%%###@@@+++OOOOOOXXX..................XXXXXXOOOOOO++++++++++++++++++++++++++++++@@@###&&&---:::>>>>>>                                                                        ",
"                                                                                                                                                                                    >>>;;;---&&&%%%###@@@+++OOOOOOXXX..................XXXXXXOOOOOO++++++++++++++++++++++++++++++@@@###&&&---:::>>>>>>                                                                        ",
"                                                                                                                                                                                       >>>:::---***&&&###@@@+++OOOOOOXXX..................XXXOOOOOO+++++++++++++++++++++++++++++++++@@@###%%%***---:::>>>>>>                                                                  ",
"                                                                                                                                                                                       >>>:::---***&&&###@@@+++OOOOOOXXX..................XXXOOOOOO+++++++++++++++++++++++++++++++++@@@###%%%***---:::>>>>>>                                                                  ",
"                                                                                                                                                                                       >>>:::---***&&&###@@@+++OOOOOOXXX..................XXXOOOOOO+++++++++++++++++++++++++++++++++@@@###%%%***---:::>>>>>>                                                                  ",
"                                                                                                                                                                                          >>>:::---***&&&$$$###+++OOOOOOXXX............XXXXXXOOOOOO++++++++++++++++++++++++++++++++++++@@@@@@###&&&===;;;>>>>>>                                                               ",
"                                                                                                                                                                                          >>>:::---***&&&$$$###+++OOOOOOXXX............XXXXXXOOOOOO++++++++++++++++++++++++++++++++++++@@@@@@###&&&===;;;>>>>>>                                                               ",
"                                                                                                                                                                                          >>>:::---***&&&$$$###+++OOOOOOXXX............XXXXXXOOOOOO++++++++++++++++++++++++++++++++++++@@@@@@###&&&===;;;>>>>>>                                                               ",
"                                                                                                                                                                                             >>>:::---******&&&###+++OOOOOOXXXXXX...XXXXXXOOOOOO+++++++++++++++++++++++++++++++++++++++++++++@@@###%%%&&&---:::>>>>>>                                                         ",
"                                                                                                                                                                                             >>>:::---******&&&###+++OOOOOOXXXXXX...XXXXXXOOOOOO+++++++++++++++++++++++++++++++++++++++++++++@@@###%%%&&&---:::>>>>>>                                                         ",
"                                                                                                                                                                                             >>>:::---******&&&###+++OOOOOOXXXXXX...XXXXXXOOOOOO+++++++++++++++++++++++++++++++++++++++++++++@@@###%%%&&&---:::>>>>>>                                                         ",
"                                                                                                                                                                                                   :::------===&&&###@@@+++OOOoooXXXoooOOOOOO+++++++++++++++++++++++++++++++++++++++++++++++++++@@@###%%%&&&===;;;:::>>>>>>                                                   ",
"                                                                                                                                                                                                   :::------===&&&###@@@+++OOOoooXXXoooOOOOOO+++++++++++++++++++++++++++++++++++++++++++++++++++@@@###%%%&&&===;;;:::>>>>>>                                                   ",
"                                                                                                                                                                                                   :::------===&&&###@@@+++OOOoooXXXoooOOOOOO+++++++++++++++++++++++++++++++++++++++++++++++++++@@@###%%%&&&===;;;:::>>>>>>                                                   ",
"                                                                                                                                                                                                      >>>::::::---&&&$$$@@@+++OOOOOOOOOOOO+++++++++++++++++++++++++++++++++++++++++++++++++++++++++@@@###$$$%%%***---:::>>>>>>>>>                                             ",
"                                                                                                                                                                                                      >>>::::::---&&&$$$@@@+++OOOOOOOOOOOO+++++++++++++++++++++++++++++++++++++++++++++++++++++++++@@@###$$$%%%***---:::>>>>>>>>>                                             ",
"                                                                                                                                                                                                      >>>::::::---&&&$$$@@@+++OOOOOOOOOOOO+++++++++++++++++++++++++++++++++++++++++++++++++++++++++@@@###$$$%%%***---:::>>>>>>>>>                                             "
};
