/* XPM */
static char *c5320b2c3359423096ead575877d096e[] = {
/* columns rows colors chars-per-pixel */
"500 500 256 2 ",
"   c None",
".  c #151513",
"X  c #191917",
"o  c #1D1C1B",
"O  c #191718",
"+  c #130E10",
"@  c #280819",
"#  c #23191D",
"$  c #2F0216",
"%  c #1D221C",
"&  c #22221E",
"*  c #291B22",
"=  c #381828",
"-  c #340C23",
";  c #1C2D23",
":  c #262624",
">  c #2A2524",
",  c #252924",
"<  c #292926",
"1  c #2B2B2A",
"2  c #2A2729",
"3  c #322D2D",
"4  c #34242A",
"5  c #2B332C",
"6  c #32322E",
"7  c #3A312E",
"8  c #3A2B32",
"9  c #343432",
"0  c #3D3C3A",
"q  c #393736",
"w  c #2E3532",
"e  c #1D1D21",
"r  c #571C39",
"t  c #47182F",
"y  c #462736",
"u  c #57253C",
"i  c #44383C",
"p  c #4E2E39",
"a  c #5F1D3C",
"s  c #10562D",
"d  c #3A433C",
"f  c #2A4836",
"g  c #186838",
"h  c #43423E",
"j  c #6B1D44",
"k  c #5C2A42",
"l  c #4B3942",
"z  c #583846",
"x  c #573A51",
"c  c #642444",
"v  c #642B45",
"b  c #6A2848",
"n  c #76264C",
"m  c #66354B",
"M  c #7C2B52",
"N  c #7A2852",
"B  c #6A3A53",
"V  c #783757",
"C  c #72324D",
"Z  c #753459",
"A  c #2A714B",
"S  c #345042",
"D  c #454442",
"F  c #4D4C4A",
"G  c #4A4645",
"H  c #54484B",
"J  c #594852",
"K  c #5A5756",
"L  c #52514F",
"P  c #684756",
"I  c #76455C",
"U  c #64575B",
"Y  c #684653",
"T  c #7A4A64",
"R  c #775565",
"E  c #685A61",
"W  c #726B6D",
"Q  c #61605F",
"!  c #3D3E40",
"~  c #832A55",
"^  c #8B2D5B",
"/  c #862A57",
"(  c #86355C",
")  c #912E5D",
"_  c #8A3963",
"`  c #943363",
"'  c #9D356A",
"]  c #9B3B6C",
"[  c #973767",
"{  c #9C3D71",
"}  c #912E62",
"|  c #A3366D",
" . c #A4396E",
".. c #A7386D",
"X. c #A53C73",
"o. c #AB3B74",
"O. c #AE3D79",
"+. c #A73772",
"@. c #B23E7A",
"#. c #B03D77",
"$. c #AC2D77",
"%. c #841C51",
"&. c #874867",
"*. c #97456C",
"=. c #86536C",
"-. c #9A4873",
";. c #975777",
":. c #8D5472",
">. c #A44274",
",. c #AC437A",
"<. c #A84879",
"1. c #B4427D",
"2. c #B6477E",
"3. c #A7537B",
"4. c #A44670",
"5. c #92667B",
"6. c #8B4865",
"7. c #48996F",
"8. c #BA4582",
"9. c #B54C83",
"0. c #BC4B85",
"q. c #BD4C89",
"w. c #B64682",
"e. c #AB5783",
"r. c #B45384",
"t. c #BC548A",
"y. c #BC5B8C",
"u. c #B75787",
"i. c #BC5A91",
"p. c #AC4A83",
"a. c #987184",
"s. c #A86788",
"d. c #B7648C",
"f. c #BC6694",
"g. c #AA7993",
"h. c #B87797",
"j. c #A8738D",
"k. c #B5749A",
"l. c #C34C8A",
"z. c #C24986",
"x. c #C3548C",
"c. c #C35B8E",
"v. c #C7568C",
"b. c #C45C93",
"n. c #CA5C94",
"m. c #CA5D99",
"M. c #C65895",
"N. c #D3599B",
"B. c #CB4D96",
"V. c #C46394",
"C. c #CA6295",
"Z. c #CB639A",
"A. c #CC6B9C",
"S. c #C56998",
"D. c #D2649D",
"F. c #D26B9D",
"G. c #D66698",
"H. c #C7749D",
"J. c #CD6C96",
"K. c #D858A5",
"L. c #D451A2",
"P. c #E85BB2",
"I. c #CE6CA2",
"U. c #CB67A2",
"Y. c #D36BA3",
"T. c #D869A6",
"R. c #CD74A3",
"E. c #CD7BA4",
"W. c #C87BA4",
"Q. c #D374A4",
"!. c #D37AA6",
"~. c #D475A9",
"^. c #DA74AB",
"/. c #D47BAB",
"(. c #DA7CAD",
"). c #DA76A5",
"_. c #DA7EB2",
"`. c #D87CB2",
"'. c #DD6DB1",
"]. c #E376AB",
"[. c #E76AB7",
"{. c #EB74BD",
"}. c #E578B6",
"|. c #F06FB9",
" X c #E76E9D",
".X c #F76DC4",
"XX c #ED74C2",
"oX c #EC7AC5",
"OX c #F372C4",
"+X c #F474CA",
"@X c #F678C9",
"#X c #F172C8",
"$X c #F55FC0",
"%X c #BD3B87",
"&X c #76AF8C",
"*X c #74A085",
"=X c #70D197",
"-X c #72EDAA",
";X c #69DE9D",
":X c #949091",
">X c #AE8999",
",X c #BA8FA5",
"<X c #B8B6B7",
"1X c #B1A9AC",
"2X c #8BAE97",
"3X c #C985A7",
"4X c #D483AC",
"5X c #DA82AE",
"6X c #D489AE",
"7X c #D683B1",
"8X c #DB83B3",
"9X c #D68BB2",
"0X c #DB8BB4",
"qX c #DC8BB9",
"wX c #D994B8",
"eX c #C896B1",
"rX c #E389B8",
"tX c #E394BD",
"yX c #F081B9",
"uX c #C9ADBA",
"iX c #C3819E",
"pX c #8BD6AD",
"aX c #8EF7B5",
"sX c #8AC79C",
"dX c #F887CA",
"fX c #E897C4",
"gX c #F696CB",
"hX c #FC89D4",
"jX c #FC97D4",
"kX c #EA8BC7",
"lX c #CABAC3",
"zX c #D7B7C7",
"xX c #DAAAC6",
"cX c #E9A6CA",
"vX c #F7A7D5",
"bX c #EEB2D3",
"nX c #FCB8E5",
"mX c #E496CB",
"MX c #ABF9CB",
"NX c #8FFDC8",
"BX c #C9C6C7",
"VX c #DAD6D8",
"CX c #D7C7CF",
"ZX c #E6CEDA",
"AX c #FED9F7",
"SX c #F5D2E7",
"DX c #D7FFEB",
"FX c #E9E7E8",
"GX c #FFECFE",
"HX c #FBE7F7",
"JX c #FEF4FD",
"KX c #F5FDFC",
"LX c #FDFCFD",
"PX c #F7F5F5",
"IX c #EFEFEF",
"UX c #D0F5DC",
/* pixels */
"                                                                                                                                                                                                                                                                                                                                                                                                                                                                                                                                                                                                                                                                                                                                                                                                                                                                                                                                                                                                                                        ",
"                                                                                                                                                                                                                                                                                                                                                                                                                                                                                                                                                                                                                                                                                                                                                                                                                                                                                                                                                                                                                                        ",
"                                                                                                                                                                                                                                                                                                                                                                                                                                                                                                                                                                                                                                                                                                                                                                                                                                                                                                                                                                                                                                        ",
"                                                                                                                                                                                                                                                                                                                                                                                                                                                                                                                                                                                                                                                                                                                                                                                                                                                                                                                                                                                                                                        ",
"                                                                                                                                                                                                                                                                                                                                                                                                                                                                                                                                                                                                                                                                                                                                                                                                                                                                                                                                                                                                                                        ",
"                                                                                                                                                                                                                                                                                                                                                                                                                                                                                                                                                                                                                                                                                                                                                                                                                                                                                                                                                                                                                                        ",
"                                                                                                                                                                                                                                                                                                                                                                                                                                                                                                                                                                                                                                                                                                                                                                                                                                                                                                                                                                                                                                        ",
"                                                                                                                                                                                                                                                                                                                                                                                                                                                                                                                                                                                                                                                                                                                                                                                                                                                                                                                                                                                                                                        ",
"                                                                                                                                                                                                                                                                                                                                                                                                                                                                                                                                                                                                                                                                                                                                                                                                                                                                                                                                                                                                                                        ",
"                                                                                                                                                                                                                                                                                                                                                                                                                                                                                                                                                                                                                                                                                                                                                                                                                                                                                                                                                                                                                                        ",
"                                                                                                                                                                                                                                                                                                                                                                                                                                                                                                                                                                                                                                                                                                                                                                                                                                                                                                                                                                                                                                        ",
"                                                                                                                                                                                                                                                                                                                                                                                                                                                                                                                                                                                                                                                                                                                                                                                                                                                                                                                                                                                                                                        ",
"                                                                                                                                                                                                                                                                                                                                                                                                                                                                                                                                                                                                                                                                                                                                                                                                                                                                                                                                                                                                                                        ",
"                                                                                                                                                                                                                                                                                                                                                                                                                                                                                                                                                                                                                                                                                                                                                                                                                                                                                                                                                                                                                                        ",
"                                                                                                                                                                                                                                                                                                                                                                                                                                                                                                                                                                                                                                                                                                                                                                                                                                                                                                                                                                                                                                        ",
"                                                                                                                                                                                                                                                                                                                                                                                                                                                                                                                                                                                                                                                                                                                                                                                                                                                                                                                                                                                                                                        ",
"                                                                                                                                                                                                                                                                                                                                                                                                                                                                                                                                                                                                                                                                                                                                                                                                                                                                                                                                                                                                                                        ",
"                                                                                                                                                                                                                                                                                                                                                                                                                                                                                                                                                                                                                                                                                                                                                                                                                                                                                                                                                                                                                                        ",
"                                                                                                                                                                                                                                                                                                                                                                                                                                                                                                                                                                                                                                                                                                                                                                                                                                                                                                                                                                                                                                        ",
"                                                                                                                                                                                                                                                                                                                                                                                                                                                                                                                                                                                                                                                                                                                                                                                                                                                                                                                                                                                                                                        ",
"                                                                                                                                                                                                                                                                                                                                                                                                                                                                                                                                                                                                                                                                                                                                                                                                                                                                                                                                                                                                                                        ",
"                                                                                                                                                                                                                                                                                                                                                                                                                                                                                                                                                                                                                                                                                                                                                                                                                                                                                                                                                                                                                                        ",
"                                                                                                                                                                                                                                                                                                                                                                                                                                                                                                                                                                                                                                                                                                                                                                                                                                                                                                                                                                                                                                        ",
"                                                                                                                                                                                                                                                                                                                                                                                                                                                                                                                                                                                                                                                                                                                                                                                                                                                                                                                                                                                                                                        ",
"                                                                                                                                                                                                                                                                                                                                                                                                                                                                                                                                                                                                                                                                                                                                                                                                                                                                                                                                                                                                                                        ",
"                                                                                                                                                                                                                                                                                                                                                                                                                                                                                                                                                                                                                                                                                                                                                                                                                                                                                                                                                                                                                                        ",
"                                                                                                                                                                                                                                                                                                                                                                                                                                                                                                                                                                                                                                                                                                                                                                                                                                                                                                                                                                                                                                        ",
"                                                                                                                                                                                                                                                                                                                                                                                                                                                                                                                                                                                                                                                                                                                                                                                                                                                                                                                                                                                                                                        ",
"                                                                                                                                                                                                                                                                                                                                                                                                                                                                                                                                                                                                                                                                                                                                                                                                                                                                                                                                                                                                                                        ",
"                                                                                                                                                                                                                                                                                                                                                                                                                                                                                                                                                                                                                                                                                                                                                                                                                                                                                                                                                                                                                                        ",
"                                                                                                                                                                                                                                                                                                                                                                                                                                                                                                                                                                                                                                                                                                                                                                                                                                                                                                                                                                                                                                        ",
"                                                                                                                                                                                                                                                                                                                                                                                                                                                                                                                                                                                                                                                                                                                                                                                                                                                                                                                                                                                                                                        ",
"                                                                                                                                                                                                                                                                                                                                                                                                                                                                                                                                                                                                                                                                                                                                                                                                                                                                                                                                                                                                                                        ",
"                                                                                                                                                                                                                                                                                                                                                                                                                                                                                                                                                                                                                                                                                                                                                                                                                                                                                                                                                                                                                                        ",
"                                                                                                                                                                                                                                                                                                                                                                                                                                                                                                                                                                                                                                                                                                                                                                                                                                                                                                                                                                                                                                        ",
"                                                                                                                                                                                                                                                                                                                                                                                                                                                                                                                                                                                                                                                                                                                                                                                                                                                                                                                                                                                                                                        ",
"                                                                                                                                                                                                                                                                                                                                                                                                                                                                                                                                                                                                                                                                                                                                                                                                                                                                                                                                                                                                                                        ",
"                                                                                                                                                                                                                                                                                                                                                                                                                                                                                                                                                                                                                                                                                                                                                                                                                                                                                                                                                                                                                                        ",
"                                                                                                                                                                                                                                                                                                                                                                                                                                                                                                                                                                                                                                                                                                                                                                                                                                                                                                                                                                                                                                        ",
"                                                                                                                                                                                                                                                                                                                                                                                                                                                                                                                                                                                                                                                                                                                                                                                                                                                                                                                                                                                                                                        ",
"                                                                                                                                                                                                                                                                                                                                                                                                                                                                                                                                                                                                                                                                                                                                                                                                                                                                                                                                                                                                                                        ",
"                                                                                                                                                                                                                                                                                                                                                                                                                                                                                                                                                                                                                                                                                                                                                                                                                                                                                                                                                                                                                                        ",
"                                                                                                                                                                                                                                                                                                                                                                                                                                                                                                                                                                                                                                                                                                                                                                                                                                                                                                                                                                                                                                        ",
"                                                                                                                                                                                                                                                                                                                                                                                                                                                                                                                                                                                                                                                                                                                                                                                                                                                                                                                                                                                                                                        ",
"                                                                                                                                                                                                                                                                                                                                                                                                                                                                                                                                                                                                                                                                                                                                                                                                                                                                                                                                                                                                                                        ",
"                                                                                                                                                                                                                                                                                                                                                                                                                                                                                                                                                                                                                                                                                                                                                                                                                                                                                                                                                                                                                                        ",
"                                                                                                                                                                                                                                                                                                                                                                                                                                                                                                                                                                                                                                                                                                                                                                                                                                                                                                                                                                                                                                        ",
"                                                                                                                                                                                                                                                                                                                                                                                                                                                                                                                                                                                                                                                                                                                                                                                                                                                                                                                                                                                                                                        ",
"                                                                                                                                                                                                                                                                                                                                                                                                                                                                                                                                                                                                                                                                                                                                                                                                                                                                                                                                                                                                                                        ",
"                                                                                                                                                                                                                                                                                                                                                                                                                                                                                                                                                                                                                                                                                                                                                                                                                                                                                                                                                                                                                                        ",
"                                                                                                                                                                                                                                                                                                                                                                                                                                                                                                                                                                                                                                                                                                                                                                                                                                                                                                                                                                                                                                        ",
"                                                                                                                                                                                                                                                                                                                                                                                                                                                                                                                                                                                                                                                                                                                                                                                                                                                                                                                                                                                                                                        ",
"                                                                                                                                                                                                                                                                                                                                                                                                                                                                                                                                                                                                                                                                                                                                                                                                                                                                                                                                                                                                                                        ",
"                                                                                                                                                                                                                                                                                                                                                                                                                                                                                                                                                                                                                                                                                                                                                                                                                                                                                                                                                                                                                                        ",
"                                                                                                                                                                                                                                                                                                                                                                                                                                                                                                                                                                                                                                                                                                                                                                                                                                                                                                                                                                                                                                        ",
"                                                                                                                                                                                                                                                                                                                                                                                                                                                                                                                                                                                                                                                                                                                                                                                                                                                                                                                                                                                                                                        ",
"                                                                                                                                                                                                                                                                                                                                                                                                                                                                                                                                                                                                                                                                                                                                                                                                                                                                                                                                                                                                                                        ",
"                                                                                                                                                                                                                                                                                                                                                                                                                                                                                                                                                                                                                                                                                                                                                                                                                                                                                                                                                                                                                                        ",
"                                                                                                                                                                                                                                                                                                                                                                                                                                                                                                                                                                                                                                                                                                                                                                                                                                                                                                                                                                                                                                        ",
"                                                                                                                                                                                                                                                                                                                                                                                                                                                                                                                                                                                                                                                                                                                                                                                                                                                                                                                                                                                                                                        ",
"                                                                                                                                                                                                                                                                                                                                                                                                                                                                                                                                                                                                                                                                                                                                                                                                                                                                                                                                                                                                                                        ",
"                                                                                                                                                                                                                                                                                                                                                                                                                                                                                                                                                                                                                                                                                                                                                                                                                                                                                                                                                                                                                                        ",
"                                                                                                                                                                                                                                                                                                                                                                                                                                                                                                                                                                                                                                                                                                                                                                                                                                                                                                                                                                                                                                        ",
"                                                                                                                                                                                                                                                                                                                                                                                                                                                                                                                                                                                                                                                                                                                                                                                                                                                                                                                                                                                                                                        ",
"                                                                                                                                                                                                                                                                                                                                                                                                                                                                                                                                                                                                                                                                                                                                                                                                                                                                                                                                                                                                                                        ",
"                                                                                                                                                                                                                                                                                                                                                                                                                                                                                                                                                                                                                                                                                                                                                                                                                                                                                                                                                                                                                                        ",
"                                                                                                                                                                                                                                                                                                                                                                                                                                                                                                                                                                                                                                                                                                                                                                                                                                                                                                                                                                                                                                        ",
"                                                                                                                                                                                                                                                                                                                                                                                                                                                                                                                                                                                                                                                                                                                                                                                                                                                                                                                                                                                                                                        ",
"                                                                                                                                                                                                                                                                                                                                                                                                                                                                                                                                                                                                                                                                                                                                                                                                                                                                                                                                                                                                                                        ",
"                                                                                                                                                                                                                                                                                                                                                                                                                                                                                                                                                                                                                                                                                                                                                                                                                                                                                                                                                                                                                                        ",
"                                                                                                                                                                                                                                                                                                                                                                                                                                                                                                                                                                                                                                                                                                                                                                                                                                                                                                                                                                                                                                        ",
"                                                                                                                                                                                                                                                                                                                                                                                                                                                                                                                                                                                                                                                                                                                                                                                                                                                                                                                                                                                                                                        ",
"                                                                                                                                                                                                                                                                                                                                                                                                                                                                                                                                                                                                                                                                                                                                                                                                                                                                                                                                                                                                                                        ",
"                                                                                                                                                                                                                                                                                                                                                                                                                                                                                                                                                                                                                                                                                                                                                                                                                                                                                                                                                                                                                                        ",
"                                                                                                                                                                                                                                                                                                                                                                                                                                                                                                                                                                                                                                                                                                                                                                                                                                                                                                                                                                                                                                        ",
"                                                                                                                                                                                                                                                                                                                                                                                                                                                                                                                                                                                                                                                                                                                                                                                                                                                                                                                                                                                                                                        ",
"                                                                                                                                                                                                                                                                                                                                                                                                                                                                                                                                                                                                                                                                                                                                                                                                                                                                                                                                                                                                                                        ",
"                                                                                                                                                                                                                                                                                                                                                                                                                                                                                                                                                                                                                                                                                                                                                                                                                                                                                                                                                                                                                                        ",
"                                                                                                                                                                                                                                                                                                                                                                                                                                                                                                                                                                                                                                                                                                                                                                                                                                                                                                                                                                                                                                        ",
"                                                                                                                                                                                                                                                                                                                                                                                                                                                                                                                                                                                                                                                                                                                                                                                                                                                                                                                                                                                                                                        ",
"                                                                                                                                                                                                                                                                                                                                                                                                                                                                                                                                                                                                                                                                                                                                                                                                                                                                                                                                                                                                                                        ",
"                                                                                                                                                                                                                                                                                                                                                                                                                                                                                                                                                                                                                                                                                                                                                                                                                                                                                                                                                                                                                                        ",
"                                                                                                                                                                                                                                                                                                                                                                                                                                                                                                                                                                                                                                                                                                                                                                                                                                                                                                                                                                                                                                        ",
"                                                                                                                                                                                                                                                                                                                                                                                                                                                                                                                                                                                                                                                                                                                                                                                                                                                                                                                                                                                                                                        ",
"                                                                                                                                                                                                                                                                                                                                                                                                                                                                                                                                                                                                                                                                                                                                                                                                                                                                                                                                                                                                                                        ",
"                                                                                                                                                                                                                                                                                                                                                                                                                                                                                                                                                                                                                                                                                                                                                                                                                                                                                                                                                                                                                                        ",
"                                                                                                                                                                                                                                                                                                                                                                                                                                                                                                                                                                                                                                                                                                                                                                                                                                                                                                                                                                                                                                        ",
"                                                                                                                                                                                                                                                                                                                                                                                                                                                                                                                                                                                                                                                                                                                                                                                                                                                                                                                                                                                                                                        ",
"                                                                                                                                                                                                                                                                                                                                                                                                                                                                                                                                                                                                                                                                                                                                                                                                                                                                                                                                                                                                                                        ",
"                                                                                                                                                                                                                                                                                                                                                                                                                                                                                                                                                                                                                                                                                                                                                                                                                                                                                                                                                                                                                                        ",
"                                                                                                                                                                                                                                                                                                                                                                                                                                                                                                                                                                                                                                                                                                                                                                                                                                                                                                                                                                                                                                        ",
"                                                                                                                                                                                                                                                                                                                                                                                                                                                                                                                                                                                                                                                                                                                                                                                                                                                                                                                                                                                                                                        ",
"                                                                                                                                                                                                                                                                                                                                                                                                                                                                                                                                                                                                                                                                                                                                                                                                                                                                                                                                                                                                                                        ",
"                                                                                                                                                                                                                                                                                                                                                                                                                                                                                                                                                                                                                                                                                                                                                                                                                                                                                                                                                                                                                                        ",
"                                                                                                                                                                                                                                                                                                                                                                                                                                                                                                                                                                                                                                                                                                                                                                                                                                                                                                                                                                                                                                        ",
"                                                                                                                                                                                                                                                                                                                                                                                                                                                                                                                                                                                                                                                                                                                                                                                                                                                                                                                                                                                                                                        ",
"                                                                                                                                                                                                                                                                                                                                                                                                                                                                                                                                                                                                                                                                                                                                                                                                                                                                                                                                                                                                                                        ",
"                                                                                                                                                                                                                                                                                                                                                                                                                                                                                                                                                                                                                                                                                                                                                                                                                                                                                                                                                                                                                                        ",
"                                                                                                                                                                                                                                                                                                                                                                                                                                                                                                                                                                                                                                                                                                                                                                                                                                                                                                                                                                                                                                        ",
"                                                                                                                                                                                                                                                                                                                                                                                                                                                                                                                                                                                                                                                                                                                                                                                                                                                                                                                                                                                                                                        ",
"                                                                                                                                                                                                                                                                                                                                                                                                                                                                                                                                                                                                                                                                                                                                                                                                                                                                                                                                                                                                                                        ",
"                                                                                                                                                                                                                                                                                                                                                                                                                                                                                                                                                                                                                                                                                                                                                                                                                                                                                                                                                                                                                                        ",
"                                                                                                                                                                                                                                                                                                                                                                                                                                                                                                                                                                                                                                                                                                                                                                                                                                                                                                                                                                                                                                        ",
"                                                                                                                                                                                                                                                                                                                                                                                                                                                                                                                                                                                                                                                                                                                                                                                                                                                                                                                                                                                                                                        ",
"                                                                                                                                                                                                                                                                                                                                                                                                                                                                                                                                                                                                                                                                                                                                                                                                                                                                                                                                                                                                                                        ",
"                                                                                                                                                                                                                                                                                                                                                                                                                                                                                                                                                                                                                                                                                                                                                                                                                                                                                                                                                                                                                                        ",
"                                                                                                                                                                                                                                                                                                                                                                                                                                                                                                                                                                                                                                                                                                                                                                                                                                                                                                                                                                                                                                        ",
"                                                                                                                                                                                                                                                                                                                                                                                                                                                                                                                                                                                                                                                                                                                                                                                                                                                                                                                                                                                                                                        ",
"                                                                                                                                                                                                                                                                                                                                                                                                                                                                                                                                                                                                                                                                                                                                                                                                                                                                                                                                                                                                                                        ",
"                                                                                                                                                                                                                                                                                                                                                                                                                                                                                                                                                                                                                                                                                                                                                                                                                                                                                                                                                                                                                                        ",
"                                                                                                                                                                                                                                                                                                                                                                                                                                                                                                                                                                                                                                                                                                                                                                                                                                                                                                                                                                                                                                        ",
"                                                                                                                                                                                                                                                                                                                                                                                                                                                                                                                                                                                                                                                                                                                                                                                                                                                                                                                                                                                                                                        ",
"                                                                                                                                                                                                                                                                                                                                                                                                                                                                                                                                                                                                                                                                                                                                                                                                                                                                                                                                                                                                                                        ",
"                                                                                                                                                                                                                                                                                                                                                                                                                                                                                                                                                                                                                                                                                                                                                                                                                                                                                                                                                                                                                                        ",
"                                                                                                                                                                                                                                                                                                                                                                                                                                                                                                                                                                                                                                                                                                                                                                                                                                                                                                                                                                                                                                        ",
"                                                                                                                                                                                                                                                                                                                                                                                                                                                                                                                                                                                                                                                                                                                                                                                                                                                                                                                                                                                                                                        ",
"                                                                                                                                                                                                                                                                                                                                                                                                                                                                                                                                                                                                                                                                                                                                                                                                                                                                                                                                                                                                                                        ",
"                                                                                                                                                                                                                                                                                                                                                                                                                                                                                                                                                                                                                                                                                                                                                                                                                                                                                                                                                                                                                                        ",
"                                                                                                                                                                                                                                                                                                                                                                                                                                                                                                                                                                                                                                                                                                                                                                                                                                                                                                                                                                                                                                        ",
"                                                                                                                                                                                                                                                                                                                                                                                                                                                                                                                                                                                                                                                                                                                                                                                                                                                                                                                                                                                                                                        ",
"                                                                                                                                                                                                                                                                                                                                                                                                                                                                                                                                                                                                                                                                                                                                                                                                                                                                                                                                                                                                                                        ",
"                                                                                                                                                                                                                                                                                                                                                                                                                                                                                                                                                                                                                                                                                                                                                                                                                                                                                                                                                                                                                                        ",
"                                                                                                                                                                                                                                                                                                                                                                                                                                                                                                                                                                                                                                                                                                                                                                                                                                                                                                                                                                                                                                        ",
"                                                                                                                                                                                                                                                                                                                                                                                                                                                                                                                                                                                                                                                                                                                                                                                                                                                                                                                                                                                                                                        ",
"                                                                                                                                                                                                                                                                                                                                                                                                                                                                                                                                                                                                                                                                                                                                                                                                                                                                                                                                                                                                                                        ",
"                                                                                                                                                                                                                                                                                                                                                                                                                                                                                                                                                                                                                                                                                                                                                                                                                                                                                                                                                                                                                                        ",
"                                                                                                                                                                                                                                                                                                                                                                                                                                                                                                                                                                                                                                                                                                                                                                                                                                                                                                                                                                                                                                        ",
"                                                                                                                                                                                                                                                                                                                                                                                                                                                                                                                                                                                                                                                                                                                                                                                                                                                                                                                                                                                                                                        ",
"                                                                                                                                                                                                                                                                                                                                                                                                                                                                                                                                                                                                                                                                                                                                                                                                                                                                                                                                                                                                                                        ",
"                                                                                                                                                                                                                                                                                                                                                                                                                                                                                                                                                                                                                                                                                                                                                                                                                                                                                                                                                                                                                                        ",
"                                                                                                                                                                                                                                                                                                                                                                                                                                                                                                                                                                                                                                                                                                                                                                                                                                                                                                                                                                                                                                        ",
"                                                                                                                                                                                                                                                                                                                                                                                                                                                                                                                                                                                                                                                                                                                                                                                                                                                                                                                                                                                                                                        ",
"                                                                                                                                                                                                                                                                                                                                                                                                                                                                                                                                                                                                                                                                                                                                                                                                                                                                                                                                                                                                                                        ",
"                                                                                                                                                                                                                                                                                                                                                                                                                                                                                                                                                                                                                                                                                                                                                                                                                                                                                                                                                                                                                                        ",
"                                                                                                                                                                                                                                                                                                                                                                                                                                                                                                                                                                                                                                                                                                                                                                                                                                                                                                                                                                                                                                        ",
"                                                                                                                                                                                                                                                                                                                                                                                                                                                                                                                                                                                                                                                                                                                                                                                                                                                                                                                                                                                                                                        ",
"                                                                                                                                                                                                                                                                                                                                                                                                                                                                                                                                                                                                                                                                                                                                                                                                                                                                                                                                                                                                                                        ",
"                                                                                                                                                                                                                                                                                                                                                                                                                                                                                                                                                                                                                                                                                                                                                                                                                                                                                                                                                                                                                                        ",
"                                                                                                                                                                                                                                                                                                                                                                                                                                                                                                                                                                                                                                                                                                                                                                                                                                                                                                                                                                                                                                        ",
"                                                                                                                                                                                                                                                                                                                                                                                                                                                                                                                                                                                                                                                                                                                                                                                                                                                                                                                                                                                                                                        ",
"                                                                                                                                                                                                                                                                                                                                                                                                                                                                                                                                                                                                                                                                                                                                                                                                                                                                                                                                                                                                                                        ",
"                                                                                                                                                                                                                                                                                                                                                                                                                                                                                                                                                                                                                                                                                                                                                                                                                                                                                                                                                                                                                                        ",
"                                                                                                                                                                                                                                                                                                                                                                                                                                                                                                                                                                                                                                                                                                                                                                                                                                                                                                                                                                                                                                        ",
"                                                                                                                                                                                                                                                                                                                                                                                                                                                                                                                                                                                                                                                                                                                                                                                                                                                                                                                                                                                                                                        ",
"                                                                                                                                                                                                                                                                                                                                                                                                                                                                                                                                                                                                                                                                                                                                                                                                                                                                                                                                                                                                                                        ",
"                                                                                                                                                                                                                                                                                                                                                                                                                                                                                                                                                                                                                                                                                                                                                                                                                                                                                                                                                                                                                                        ",
"                                                                                                                                                                                                                                                                                                                                                                                                                                                                                                                                                                                                                                                                                                                                                                                                                                                                                                                                                                                                                                        ",
"                                                                                                                                                                                                                                                                                                                                                                                                                                                                                                                                                                                                                                                                                                                                                                                                                                                                                                                                                                                                                                        ",
"                                                                                                                                                                                                                                                                                                                                                                                                                                                                                                                                                                                                                                                                                                                                                                                                                                                                                                                                                                                                                                        ",
"                                                                                                                                                                                                                                                                                                                                                                                                                                                                                                                                                                                                                                                                                                                                                                                                                                                                                                                                                                                                                                        ",
"                                                                                                                                                                                                                                                                                                                                                                                                                                                                                                                                                                                                                                                                                                                                                                                                                                                                                                                                                                                                                                        ",
"                                                                                                                                                                                                                                                                                                                                                                                                                                                                                                                                                                                                                                                                                                                                                                                                                                                                                                                                                                                                                                        ",
"                                                                                                                                                                                                                                                                                                                                                                                                                                                                                                                                                                                                                                                                                                                                                                                                                                                                                                                                                                                                                                        ",
"                                                                                                                                                                                                                                                                                                                                                                                                                                                                                                                                                                                                                                                                                                                                                                                                                                                                                                                                                                                                                                        ",
"                                                                                                                                                                                                                                                                                                                                                                                                                                                                                                                                                                                                                                                                                                                                                                                                                                                                                                                                                                                                                                        ",
"                                                                                                                                                                                                                                                                                                                                                                                                                                                                                                                                                                                                                                                                                                                                                                                                                                                                                                                                                                                                                                        ",
"                                                                                                                                                                                                                                                                                                                                                                                                                                                                                                                                                                                                                                                                                                                                                                                                                                                                                                                                                                                                                                        ",
"                                                                                                                                                                                                                                                                                                                                                                                                                                                                                                                                                                                                                                                                                                                                                                                                                                                                                                                                                                                                                                        ",
"                                                                                                                                                                                                                                                                                                                                                                                                                                                                                                                                                                                                                                                                                                                                                                                                                                                                                                                                                                                                                                        ",
"                                                                                                                                                                                                                                                                                                                                                                                                                                                                                                                                                                                                                                                                                                                                                                                                                                                                                                                                                                                                                                        ",
"                                                                                                                                                                                                                                                                                                                                                                                                                                                                                                                                                                                                                                                                                                                                                                                                                                                                                                                                                                                                                                        ",
"                                                                                                                                                                                                                                                                                                                                                                                                                                                                                                                                                                                                                                                                                                                                                                                                                                                                                                                                                                                                                                        ",
"                                                                                                                                                                                                                                                                                                                                                                                                                                                                                                                                                                                                                                                                                                                                                                                                                                                                                                                                                                                                                                        ",
"                                                                                                                                                                                                                                                                                                                                                                                                                                                                                                                                                                                                                                                                                                                                                                                                                                                                                                                                                                                                                                        ",
"                                                                                                                                                                                                                                                                                                                                                                                                                                                                                                                                                                                                                                                                                                                                                                                                                                                                                                                                                                                                                                        ",
"                                                                                                                                                                                                                                                                                                                                                                                                                                                                                                                                                                                                                                                                                                                                                                                                                                                                                                                                                                                                                                        ",
"                                                                                                                                                                                                                                                                                                                                                                                                                                                                                                                                                                                                                                                                                                                                                                                                                                                                                                                                                                                                                                        ",
"                                                                                                                                                                                                                                                                                                                                                                                                                                                                                                                                                                                                                                                                                                                                                                                                                                                                                                                                                                                                                                        ",
"                                                                                                                                                                                                                                                                                                                                                                                                                                                                                                                                                                                                                                                                                                                                                                                                                                                                                                                                                                                                                                        ",
"                                                                                                                                                                                                                                                                                                                                                                                                                                                                                                                                                                                                                                                                                                                                                                                                                                                                                                                                                                                                                                        ",
"                                                                                                                                                                                                                                                                                                                                                                                                                                                                                                                                                                                                                                                                                                                                                                                                                                                                                                                                                                                                                                        ",
"                                                                                                                                                                                                                                                                                                                                                                                                                                                                                                                                                                                                                                                                                                                                                                                                                                                                                                                                                                                                                                        ",
"                                                                                                                                                                                                                                                                                                                                                                                                                                                                                                                                                                                                                                                                                                                                                                                                                                                                                                                                                                                                                                        ",
"                                                                                                                                                                                                                                                                                                                                                                                                                                                                                                                                                                                                                                                                                                                                                                                                                                                                                                                                                                                                                                        ",
"                                                                                                                                                                                                                                                                                                                                                                                                                                                                                                                                                                                                                                                                                                                                                                                                                                                                                                                                                                                                                                        ",
"                                                                                                                                                                                                                                                                                                                                                                                                                                                                                                                                                                                                                                                                                                                                                                                                                                                                                                                                                                                                                                        ",
"                                                                                                                                                                                                                                                                                                                                                                                                                                                                                                                                                                                                                                                                                                                                                                                                                                                                                                                                                                                                                                        ",
"                                                                                                                                                                                                                                                                                                                                                                                                                                                                                                                                                                                                                                                                                                                                                                                                                                                                                                                                                                                                                                        ",
"                                                                                                                                                                                                                                                                                                                                                                                                                                                                                                                                                                                                                                                                                                                                                                                                                                                                                                                                                                                                                                        ",
"                                                                                                                                                                                                                                                                                                                                                                                                                                                                                                                                                                                                                                                                                                                                                                                                                                                                                                                                                                                                                                        ",
"                                                                                                                                                                                                                                                                                                                                                                                                                                                                                                                                                                                                                                                                                                                                                                                                                                                                                                                                                                                                                                        ",
"                                                                                                                                                                                                                                                                                                                                                                                                                                                                                                                                                                                                                                                                                                                                                                                                                                                                                                                                                                                                                                        ",
"                                                                                                                                                                                                                                                                                                                                                                                                                                                                                                                                                                                                                                                                                                                                                                                                                                                                                                                                                                                                                                        ",
"                                                                                                                                                                                                                                                                                                                                                                                                                                                                                                                                                                                                                                                                                                                                                                                                                                                                                                                                                                                                                                        ",
"                                                                                                                                                                                                                                                                                                                                                                                                                                                                                                                                                                                                                                                                                                                                                                                                                                                                                                                                                                                                                                        ",
"                                                                                                                                                                                                                                                                                                                                                                                                                                                                                                                                                                                                                                                                                                                                                                                                                                                                                                                                                                                                                                        ",
"                                                                                                                                                                                                                                                                                                                                                                                                                                                                                                                                                                                                                                                                                                                                                                                                                                                                                                                                                                                                                                        ",
"                                                                                                                                                                                                                                                                                                                                                                                                                                                                                                                                                                                                                                                                                                                                                                                                                                                                                                                                                                                                                                        ",
"                                                                                                                                                                                                                                                                                                                                                                                                                                                                                                                                                                                                                                                                                                                                                                                                                                                                                                                                                                                                                                        ",
"                                                                                                                                                                                                                                                                                                                                                                                                                                                                                                                                                                                                                                                                                                                                                                                                                                                                                                                                                                                                                                        ",
"                                                                                                                                                                                                                                                                                                                                                                                                                                                                                                                                                                                                                                                                                                                                                                                                                                                                                                                                                                                                                                        ",
"                                                                                                                                                                                                                                                                                                                                                                                                                                                                                                                                                                                                                                                                                                                                                                                                                                                                                                                                                                                                                                        ",
"                                                                                                                                                                                                                                                                                                                                                                                                                                                                                                                                                                                                                                                                                                                                                                                                                                                                                                                                                                                                                                        ",
"                                                                                                                                                                                                                                                                                                                                                                                                                                                                                                                                                                                                                                                                                                                                                                                                                                                                                                                                                                                                                                        ",
"                                                                                                                                                                                                                                                                                                                                                                                                                                                                                                                                                                                                                                                                                                                                                                                                                                                                                                                                                                                                                                        ",
"                                                                                                                                                                                                                                                                                                                                                                                                                                                                                                                                                                                                                                                                                                                                                                                                                                                                                                                                                                                                                                        ",
"                                                                                                                                                                                                                                                                                                                                                                                                                                                                                                                                                                                                                                                                                                                                                                                                                                                                                                                                                                                                                                        ",
"                                                                                                                                                                                                                                                                                                                                                                                                                                                                                                                                                                                                                                                                                                                                                                                                                                                                                                                                                                                                                                        ",
"                                                                                                                                                                                                                                                                                                                                                                                                                                                                                                                                                                                                                                                                                                                                                                                                                                                                                                                                                                                                                                        ",
"                                                                                                                                                                                                                                                                                                                                                                                                                                                                                                                                                                                                                                                                                                                                                                                                                                                                                                                                                                                                                                        ",
"                                                                                                                                                                                                                                                                                                                                                                                                                                                                                                                                                                                                                                                                                                                                                                                                                                                                                                                                                                                                                                        ",
"                                                                                                                                                                                                                                                                                                                                                                                                                                                                                                                                                                                                                                                                                                                                                                                                                                                                                                                                                                                                                                        ",
"                                                                                                                                                                                                                                                                                                                                                                                                                                                                                                                                                                                                                                                                                                                                                                                                                                                                                                                                                                                                                                        ",
"                                                                                                                                                                                                                                                                                                                                                                                                                                                                                                                                                                                                                                                                                                                                                                                                                                                                                                                                                                                                                                        ",
"                                                                                                                                                                                                                                                                                                                                                                                                                                                                                                                                                                                                                                                                                                                                                                                                                                                                                                                                                                                                                                        ",
"                                                                                                                                                                                                                                                                                                                                                                                                                                                                                                                                                                                                                                                                                                                                                                                                                                                                                                                                                                                                                                        ",
"                                                                                                                                                                                                                                                                                                                                                                                                                                                                                                                                                                                                                                                                                                                                                                                                                                                                                                                                                                                                                                        ",
"                                                                                                                                                                                                                                                                                                                                                                                                                                                                                                                                                                                                                                                                                                                                                                                                                                                                                                                                                                                                                                        ",
"                                                                                                                                                                                                                                                                                                                                                                                                                                                                                                                                                                                                                                                                                                                                                                                                                                                                                                                                                                                                                                        ",
"                                                                                                                                                                                                                                                                                                                                                                                                                                                                                                                                                                                                                                                                                                                                                                                                                                                                                                                                                                                                                                        ",
"                                                                                                                                                                                                                                                                                                                                                                                                                                                                                                                                                                                                                                                                                                                                                                                                                                                                                                                                                                                                                                        ",
"                                                                                                                                                                                                                                                                                                                                                                                                                                                                                                                                                                                                                                                                                                                                                                                                                                                                                                                                                                                                                                        ",
"                                                                                                                                                                                                                                                                                                                                                                                                                                                                                                                                                                                                                                                                                                                                                                                                                                                                                                                                                                                                                                        ",
"                                                                                                                                                                                                                                                                                                                                                                                                                                                                                                                                                                                                                                                                                                                                                                                                                                                                                                                                                                                                                                        ",
"                                                                                                                                                                                                                                                                                                                                                                                                                                                                                                                                                                                                                                                                                                                                                                                                                                                                                                                                                                                                                                        ",
"                                                                                                                                                                                                                                                                                                                                                                                                                                                                                                                                                                                                                                                                                                                                                                                                                                                                                                                                                                                                                                        ",
"                                                                                                                                                                                                                                                                                                                                                                                                                                                                                                                                                                                                                                                                                                                                                                                                                                                                                                                                                                                                                                        ",
"                                                                                                                                                                                                                                                                                                                                                                                                                                                                                                                                                                                                                                                                                                                                                                                                                                                                                                                                                                                                                                        ",
"                                                                                                                                                                                                                                                                                                                                                                                                                                                                                                                                                                                                                                                                                                                                                                                                                                                                                                                                                                                                                                        ",
"                                                                                                                                                                                                                                                                                                                                                                                                                                                                                                                                                                                                                                                                                                                                                                                                                                                                                                                                                                                                                                        ",
"                                                                                                                                                                                                                                                                                                                                                                                                                                                                                                                                                                                                                                                                                                                                                                                                                                                                                                                                                                                                                                        ",
"                                                                                                                                                                                                                                                                                                                                                                                                                                                                                                                                                                                                                                                                                                                                                                                                                                                                                                                                                                                                                                        ",
"                                                                                                                                                                                                                                                                                                                                                                                                                                                                                                                                                                                                                                                                                                                                                                                                                                                                                                                                                                                                                                        ",
"                                                                                                                                                                                                                                                                                                                                                                                                                                                                                                                                                                                                                                                                                                                                                                                                                                                                                                                                                                                                                                        ",
"                                                                                                                                                                                                                                                                                                                                                                                                                                                                                                                                                                                                                                                                                                                                                                                                                                                                                                                                                                                                                                        ",
"                                                                                                                                                                                                                                                                                                                                                                                                                                                                                                                                                                                                                                                                                                                                                                                                                                                                                                                                                                                                                                        ",
"                                                                                                                                                                                                                                                                                                                                                                                                                                                                                                                                                                                                                                                                                                                                                                                                                                                                                                                                                                                                                                        ",
"                                                                                                                                                                                                                                                                                                                                                                                                                                                                                                                                                                                                                                                                                                                                                                                                                                                                                                                                                                                                                                        ",
"                                                                                                                                                                                                                                                                                                                                                                                                                                                                                                                                                                                                                                                                                                                                                                                                                                                                                                                                                                                                                                        ",
"                                                                                                                                                                                                                                                                                                                                                                                                                                                                                                                                                                                                                                                                                                                                                                                                                                                                                                                                                                                                                                        ",
"                                                                                                                                                                                                                                                                                                                                                                                                                                                                                                                                                                                                                                                                                                                                                                                                                                                                                                                                                                                                                                        ",
"                                                                                                                                                                                                                                                                                                                                                                                                                                                                                                                                                                                                                                                                                                                                                                                                                                                                                                                                                                                                                                        ",
"                                                                                                                                                                                                                                                                                                                                                                                                                                                                                                                                                                                                                                                                                                                                                                                                                                                                                                                                                                                                                                        ",
"                                                                                                                                                                                                                                                                                                                                                                                                                                                                                                                                                                                                                                                                                                                                                                                                                                                                                                                                                                                                                                        ",
"                                                                                                                                                                                                                                                                                                                                                                                                                                                                                                                                                                                                                                                                                                                                                                                                                                                                                                                                                                                                                                        ",
"                                                                                                                                                                                                                                                                                                                                                                                                                                                                                                                                                                                                                                                                                                                                                                                                                                                                                                                                                                                                                                        ",
"                                                                                                                                                                                                                                                                                                                                                                                                                                                                                                                                                                                                                                                                                                                                                                                                                                                                                                                                                                                                                                        ",
"                                                                                                                                                                                                                                                                                                                                                                                                                                                                                                                                                                                                                                                                                                                                                                                                                                                                                                                                                                                                                                        ",
"                                                                                                                                                                                                                                                                                                                                                                                                                                                                                                                                                                                                                                                                                                                                                                                                                                                                                                                                                                                                                                        ",
"                                                                                                                                                                                                                                                                                                                                                                                                                                                                                                                                                                                                                                                                                                                                                                                                                                                                                                                                                                                                                                        ",
"                                                                                                                                                                                                                                                                                                                                                                                                                                                                                                                                                                                                                                                                                                                                                                                                                                                                                                                                                                                                                                        ",
"                                                                                                                                                                                                                                                                                                                                                                                                                                                                                                                                                                                              1XBXBXBX                                                      :X:X:X                                                                                                                                                                                                                                                                                                                                                                      ",
"                                                                                                                                                                                                                                                                                                                                                                                                                                                                                                                                                                                              BXFXIXVX                                                      BXFXBX1X                                                                                                                                                                                                                                                                                                                                                                    ",
"                                                                                                                                                                                                                                                                                                                                                                                                                                                                                                                                                                                              BXPXPXFX                                                      VXLXVX<X                                                                                                                                                                                                                                                                                                                                                                    ",
"                                                                                                                                                                                                                                                                                                                                                                                                                                                                                                                                                                                              BXIXIXFX                                                      BXFXBXBX                                                                                                                                                                                                                                                                                                                                                                    ",
"                                                                                                                                                                                                                                                                                                                                                                                                                                                                                                                                                                                                                                                                                                                                                                                                                                                                                                                                                                                                                                        ",
"                                                                                                                                                                                                                                                                                                                                                                                                                                                                                                                                                                                                                                                                                                                                                                                                                                                                                                                                                                                                                                        ",
"                                                                                                                                                                                                                                                                                                                                                                                                                                                                                                                                                                                                                                                                                                                                                                                                                                                                                                                                                                                                                                        ",
"                                                                                                                                                                                                                                                                                                                                                                                                                                                                                                                                                                                                                                                                                                                                                                                                                                                                                                                                                                                                                                        ",
"                                                                                                                                                                                                                                                                                                                                                                                                                                                                            W :X:X:X                                                                                                                                                                                                                                                                                                                                                                                                                                                                                                                                                    ",
"                                                                                                                                                                                                                                                                                                                                                                                                                                                                            1XVXCXBX                                                                                                                                                                                                                                                                                                                                                                                                                                                                                                                                                    ",
"                                                                                                                                                                                                                                                                                                                                                                                                                                                                            <XIXBX<X                                                                                                                                                                                                                                                                                                                                                                                                                                                                                                                                                    ",
"                                                                                                                                                                                                                                                                                                                                                                                                                                                                            <XIXBX<X                                                                                                                                                                                                                                                                                                                                                                                                                                                                                                                                                    ",
"                                                                                                                                                                                                                                                                                                                                                                                                                                                                                                                                                            <XLXLXLX                                                                                                                                                                                                                                                                                                                                                                                                                                                                    ",
"                                                                                                                                                                                                                                                                                                                                                                                                                                                                                                                                                            BXLXPXLXBX                                                                                                                                                                                                                                                                                                                                                                                                                                                                  ",
"                                                                                                                                                                                                                                                                                                                                                                                                                                                                                                                                                            <XPXLXPX<X                                                                                                                                                                                                                                                                                                                                                                                                                                                                  ",
"                                                                                                                                                                                                                                                                                                                                                                                                                                                                                                                                                              LXPXPX                                                                                                                                                                                                                                                                                                                                                                                                                                                                    ",
"                                                                                                                                                                                                                                                                                                                                                                                                                                                                                                                                                                                                                                                                                                                                                                                                                                                                                                                                                                                                                                        ",
"                                                                                                                                                                                                                                                                                                                                                                                                                                                                                                                                                                                                                                                                                                                                                                                                                                                                                                                                                                                                                                        ",
"                                                                                                                                                                                                                                                                                                                                                                                                                                                                                                                                                                                                                                                                                                                                                                                                                                                                                                                                                                                                                                        ",
"                                                                                                                                                                                                                                                                                                                                                                                      <XFXFXFX1X                                                                                                                                                                                  >XuXlX<X                                                                                                                                                                                                                                                                                                                                                                                                                                              ",
"                                                                                                                                                                                                                                                                                                                                                                                      FXLXPXLXBX                                                                                                                                                                                  lXPXPXZX                                                                                                                                                                                                                                                                                                                                                                                                                                              ",
"                                                                                                                                                                                                                                                                                                                                                                                      VXPXLXKXBX                                                                                                                                                                                  CXJXJXIX                                                                                                                                                                                                                                                                                                                                                                                                                                              ",
"                                                                                                                                                                                                                                                                                                                                                                                      FXLXPXPXBX                                                                                                                                                                                  1XBXCXBX                                                                                                                                                                                                                                                                                                                                                                                                                                              ",
"                                                                                                                                                                                                                                                                                                                                                                                                                                                                                                                                                                                                                                                                                                                                                                                                                                                                                                                                                                                                                                        ",
"                                                                                                                                                                                                                                                                                                                                                                                                                                                                                                                                                                                                                                                                                                                                                                                                                                                                                                                                                                                                                                        ",
"                                                                                                                                                                                                                                                                                                                                                                                                                                                                                                                                                                                                                                                VXPXLXLXVX                                                                                                                                                                                                                                                                                                                                                                              ",
"                                                                                                                                                                                                                                                                                                                                                                                                                                                                                                                                                                                                                                                VXLXLXPXVX                                                                                                                                                                                                                                                                                                                                                                              ",
"                                                                                                                                                                                                                                                                                                                                                                                                                                                                                                                                                                                                                                                CXLXLXPXVX                                                                                                                                                                                                                                                                                                                                                                              ",
"                                                                                                                                                                                                                                                                                                                                                                                                                                                                                                                                                                                                                                                VXPXLXLXVX                                                                                                                                                                                                                                                                                                                                                                              ",
"                                                                                                                                                                                                                                                                                                                                                                                                                                                                                                                                                                                                                                                                                                                                                                                                                                                                                                                                                                                                                                        ",
"                                                                                                                                                                                                                                                                                                                                                                                                                                                                                                                                                                                                                                                                                                                                                                                                                                                                                                                                                                                                                                        ",
"                                                                                                                                                                                                                                                                                                                                                                                                                                                                                                                                                                                                                                                                                                                                                                                                                                                                                                                                                                                                                                        ",
"                                                                                                                                                                                                                                                                                                                                                                                                                                                                                                                                  ;.,Xj.j.                                                                                                                                                                                                                                                                                                                                                                                                                                                                                              ",
"                                                                                                                                                                                                                                                                                                                                                                                                                                                                                                >XW                               ,XSXSXuX                                                                                                                                                                    W W                                                                                                                                                                                                                                                                                                                       ",
"                                                                                                                                                                                                                                                                                                                                                                                                                                                                                            a.>XuX1X:X                            eXSXAXuX                                                                                                                                                          BX    q :X1X1X:XW                                                                                                                                                                                                                                                                                                                   ",
"                                                                                                                                                                                                                                                                                                                                                                                                                                                                                            :X<XFXVXuX                            eXSXAXxX                                                                                                                                                                0 1XIXFX1XW                                                                                                                                                                                                                                                                                                                   ",
"                                                                                                                                                                                                                                                                                                                                                                                                                                                                                            :XlXPXZXlX                            ,XSXSXuX                                                                                                                                                                  1XIXVX1XW                                                                                                                                                                                                                                                                                                                   ",
"                                                                                                                                                                                                                                                                                                                                                                                                                                                                                            :XuXCXCXlX                                                                                                                                                                                                      :XBX1X:X                                                                                                                                                                                                                                                                                                                    ",
"                                                                                                                                                                                                                                                                                                                                                                                                                                                                                              >X>X                                                                                                                                                                                                                                                                                                                                                                                                                                                                                                                                      ",
"                                                                                                                                                                                                                                                                                                                                                                                                                                                                                                                                                                                                                                                                                                                                                                                                                                                                                                                                                                                                                                        ",
"                                                                                                                                                                                                                                                                                                                                                                                                                                                                                                                                                                                        -.                                                                                                                                                                                                                                                                                                                                                                                                                                              ",
"                                                                                                                                                                                                                                                                                                                                                                                                                                                                                            j.wXwXwXh.                                                                                C.Y.r.                                                                                                                                                                                                                                                                                                                                                                                                                                            ",
"                                                                                                                                                                                                                                                                                                                                                                                                                                                                                            j.6XcXtXH.                                                                              1.N.T.0.                                                                                                                                                                                                                                                                                                                                                                                                                                            ",
"                                                                                                                                                                                                                                                                                                                                                                                                                                                                                            h.wXcXwXh.                                                                            n.T.|.}.q.                                                                                                                                                                                                                                                                                                                                                                                                                                            ",
"                                                                                                                                                                                                                                                                                                                                                                                                                                                                                            h.cXcXcX,X                                                                          v.N.'.{.dXt.                                                                                                                                                                                                                                                                                                                                                                                                                                            ",
"                                                                                                                                                                                                                                                                                                                                                                                                                                                                                                                                  K.dXdX{.                                      dXhXhXjXjXb.                                                    zXzXzX                                                                                                                                                                                                                                                                                                                                                                                  ",
"                                                                                                                                                                                                                                                                                                                                                                                                                                                                                                                                q.B.hXhXdXm.x.                                m.dXjXdXdXjX                                                    a.HXGXHXeX                                                                                                                                                                                                                                                                                                                                                                                ",
"                                                                                                                                                                                                                                                                                                                                                                                                                                                                                                                        SXSXSXSX9.N.hXdXdX'.T.                                kXvXvXvXgXjX                                                    s.AXJXAX,X                                                                                                                                                                                                                                                                                                                                                                                ",
"                                                                                                                                                                                                                                                                                                                                                                                                                                                                                                                        SXSXHXnX9.K.hXjXjX}.T.                              oXgXbXbXvXgXgX                  eXuXeXeX                        _ s.AXGXAXeX                                                                                                                                                                                                                                                                                                                                                                                ",
"                                                                                                                                                                                                                                                                                                                                                                                                                                                                                                                        SXSXSXSXq.K.hXgXgXgXhX|.                            dXgXnXnXbXvXjX                eXxXZXZXzXwX                  s.s.d.d.>X>X                                                                                                                                                                                                                                                                                                                                                                                    ",
"                                                                                                                                                                                                                                                                                                                                                                                                                                                                                                                        SXxX  b.K.|.jXjXgXkXdX}.                            gXcXSXAXAXnXvX                lXCXJXGXZXeX                3.W.6XR.e.                                                                                                                                                                                                                                                                                                                                                                                        ",
"                                                                                                                                                                                                                                                                                                                                                                                                                                                      1X<X<X<X<X                                                        nX    N.hXhXdXgXgXvXvXjX                            vXbXSXGXGXZXcX                zXIXLXJXZXeX              s.3XSXnXW.*.                                                                                                                                                                                                                                                                                                                                                                                        ",
"                                                                                                                                                                                                                                                                                                                                                                                                                                                      1X<X<X<X<X                                                        nX    N.dXdX    vXvXvXgX                            AXGXLXLXJXZX                  SXJXPXIXVXuX              ;.W.SXnXh.                                                                                                                                                                                                                                                                                                                                                                                          ",
"                                                                                                                                                                                                                                                                                                                                                                                                                                                      1XBXVXCXlX>X                                                            B.@XdX    nXSXnXvX                          vXGXGXLXJXGXbX                  AXGXLXJXFXlX              *.3.9X9X                                                                                                                                                                                                                                                                                                                                                                                            ",
"                                                                                                                                                                                                                                                                                                                                                                                                                                                      <XVXIXVXBXuX:X                                                          N.@XdX  vXHXGXSXfX                          bXGXJXLXLXGX                        GXJXFXCX                                                                                                                                                                                                                                                                                                                                                                                                                  ",
"                                                                                                                                                                                                                                                                                                                                                                                                                                                >XlXBXBXFXPXFXVXuX:X                                                l.l.l.      {.    cXJXGXHXAXvX                      bXAXJXLXLXHX                          GXJXHXZXzXzXxX                                                                                                                                                                                                                                                                                                                                                                                                            ",
"                                                                                                                                                                                                                                                                                                                                                                                                                                              a.>X<XBXFXPXLXPXFXVXuX<X:X                                        M.|.[.[.[.T.K.N.dX    fXGXJXJXGXxX                    xXxXSXLXLXLXSX                          HXJXJXHXZXZXxX                                                                                                                                                                                                                                                                                                                                                                                                            ",
"                                                                                                                                                                                                                                                                                                                                                                                                                                              :X1XCXBXFXPXLXPXFXVXuXCXuXuX                                      K.dXoXoXdXdX|.[.dX    vXJXKXKXLXHXHX                AXAXHXPXKXKXLXJXSX                      AXGXJXLXPXIXSXbXeX                                                                                                                                                                                                                                                                                                                                                                                                          ",
"                                                                                                                                                                                                                                                                                                                                                                                                                                              :X1XFXIXPXLXLXPXIXFXFXIXCXuX1X                                      hXjXjXjXjXjX        vXGXKXKXKXLXJXAX              GXJXLXKXKXKXLXLXAX                      AXJXJXLXPXIXZXzX3X                                                                                                                                                                                                                                                                                                                                                                                                          ",
"                                                                                                                                                                                                                                                                                                                                                                                                                                              >X1XZXFXPXPXLXLXKXLXLXPXFXlX1X                                        dXvXjXjX          cXJXKXKXKXLXLXGXZXSXSXSXSXnXbXJXLXLXLXLXLXLXJXAX                      SXGXJXLXLXFXSXbX                                                                                                                                                                                                                                                                                                                                                                                                            ",
"                                                                                                                                                                                                                                                                                                                                                                                                                                                >XZXVXVXIXPXLXPXFXFXBXlX1X                                            jXjXvX          bXLXKXKXKXLXLXLXHXGXHXHXGXZXZXPXLXPXPXPXPXLXJXAX                      AXAXAXAXAXSXSX                                                                                                                                                                                                                                                                                                                                                                                                              ",
"                                                                                                                                                                                                                                                                                                                                                                                                                                                  :X1XBXIXFXLXLXPXFXVX1X,X                                            jXgXvXnXAXAX    cXJXKXKXKXPXJXLXJXLXLXLXLXLXPXLXLXLXLXLXLXLXJXAX                            tXbX                                                                                                                                                                                                                                                                                                                                                                                                                  ",
"                                                                                                                                                                                                                                                                                                                                                                                                                                                      <XFXVXLXPXPXVXuX                                                  gXvXSXHXHX    xXLXKXKXLXLXPXLXLXPXLXKXKXLXLXKXKXLXPXPXLXKXLXAX                        yX}.gXgX                                                                                                                                                                                                                                                                                                                                                                                                                  ",
"                                                                                                                                                                                                                                                                                                                                                                                                                                                        lXlXLXJXJXlXuX                                                      SXGXGXJXJXJXLXLXLXLXLXLXLXLXLXLXLXLXLXLXLXLXLXLXLXLXLXLXHX      LXJX        jXdXjXjXdX{.gX                                                                                                                                                                                                                                                                                                                                                                                                                  ",
"                                                                                                                                                                                                                                                                                                                                                                                                                                                        <XVXLXJXHX1X                                                        SXGXJXPXLXLXLXLXLXLXLXLXLXLXLXLXLXLXLXLXLXKXLXLXLXLXLXLXHXZX  JXLXJXSX      gXkXdX[.'.                                                                                                                                                                                                                                                                                                                                                                                                                      ",
"                                                                                                                                                                                                                                                                                                                                                                                                                                                            ZXFXZX>X                                                        bXGXJXLXLXLXLXLXLXLXLXLXLXLXLXLXLXLXLXLXKXKXKXLXLXLXLXLXLXLXLXLXPXLXJXGXAXnXjXdXOXL.K.                                                                                                                                                                                                                                                                                                                                                                                                                      ",
"                                                                                                                                                                                                                                                                                                                                                                                                                                                            CXCXzX>X                                                        bXGXJXLXLXLXLXLXLXLXLXLXLXLXLXLXLXLXLXLXKXKXKXLXLXLXLXKXKXLXLXJXJXJXJXAXnX  gX@X|.L.                                                                                                                                                                                                                                                                                                                                                                                                                        ",
"                                                                                                                                                                                                                                                                                                                                                                                                                                                                                                                            bXGXJXLXLXLXLXLXLXLXLXLXLXLXLXLXLXLXLXKXKXKXKXLXLXLXLXKXKXKXLXLXJXGXSX      jX@X|.                                                                                                                                                                                                                                                                                                                                                                                                                          ",
"                                                                                                                                                                                                                                                                                                                                                                                                                                                                                                                          AXHXJXLXLXLXLXLXLXLXLXLXLXLXLXLXLXLXLXLXKXKXKXKXLXLXLXPXLXKXKXLXLXLXHX        hXdX@X                                                                                                                                                                                                                                                                                                                                                                                                                          ",
"                                                                                                                                                                                                                                                                                                                                                                                                                                                                                          t.t.                          bXJXJXLXLXLXLXLXLXLXLXLXLXLXLXLXLXLXLXLXLXLXLXLXLXLXLXLXLXLXLXLXLXLXLXHX      jXjXhXdX                                                                                                                                                                                                                                                                                                                                                                                                                          ",
"                                                                                                                                                                                                                                                                                                                                                                                                                                                                                        9.yXdXhXjXjXhXhX                ZXJXPXLXLXLXLXLXLXLXLXLXLXLXLXLXLXLXLXLXLXLXPXLXLXLXLXLXLXLXPXLXPXPXLXHX                dXjXhXjXhXjXdXN.B.l.q.w.                                                                                                                                                                                                                                                                                                                                                                                                ",
"                                                                                                                                                                                                                                                                                                                                                                                                                                                                                      X.q.}.dXjXgXgXdXjX            bXZXZXPXLXLXLXLXLXLXLXLXLXLXLXLXLXLXLXLXLXLXLXPXLXLXKXKXLXLXJXLXLXLXLXKXKXIX    cXcXcXcXbXfXfXjXjXjXjXjXdXK.T.T.T.N.0.                                                                                                                                                                                                                                                                                                                                                                                              ",
"                                                                                                                                                                                                                                                                                                                                                                                                                  LXLXPXLX                                                          t.Y.{.jXdXkXgXgXgXgX      HXGXGXHXJXPXLXLXLXLXLXLXLXLXLXLXLXLXLXLXLXLXLXLXLXLXJXLXJXKXKXJXLXJXJXGXLXLXPXKXKXJXJXGXGXGXGXHXSXcXfXgXgXgXgXjXdXhXdXdXdX{.D.t.                                        wXwXxXeX                                                                                                                                                                                                                                                                                                                                          ",
"                                                                                                                                                                                                                                                                                                                                                                                                                  LXLXLXLX                                                        ,.x.T.dXdXjXjXkXgXgXfX      GXJXJXPXLXLXLXKXKXLXLXLXLXLXLXLXLXLXLXLXLXLXLXPXJX        LXJX          HXLXJXPXPXJXJXJXGXJXLXGXZXzXxXcXbXvXfXgXgXgXjXdXdX|.D.M.| [                                     vXfXfXfX                                                                                                                                                                                                                                                                                                                                          ",
"                                                                                                                                                                                                                                                                                                                                                                                                                  LXLXLXLX                                                        T.].{.dXdXdXdXdXgXgXvXAXHXHXLXLXKXPXLXLXLXKXKXLXLXLXLXLXLXLXLXLXLXLXLXLXLXPXJX                      JXLXLXPXPXPXPXLXLXLXKXLXJXGXGXHXAXHXnXvXjXgXgXjXdXdXdX{.x.b.[                                   fXfXqXqX                                                                                                                                                                                                                                                                                                                                          ",
"                                                                                                                                                                                                                                                                                                                                                                                                                  IXIXIXFX                                                        A.T.}.oXhXhXhXhXdXgXvXGXGXJXLXLXLXLXLXLXPXKXKXKXLXLXLXLXLXLXLXLXLXLXLXLXLXLXLX                      LXLXLXLXLXLXLXLXLXLXKXLXLXJXAXAXAXAXvXgXgXgXgXgX{.|.|.}.x.y._                                   cXfXfXwX                                                                                                                                                                                                                                                                                                                                          ",
"                                                                                                                                                                                                                                                                                                                                                                                                                                                                                    ' O.l.{.{.@X@X@XkXgXnXAXGXJXGXJXGXJXJXLXKXKXKXLXLXLXLXLXLXLXLXLXLXLXLXLXLXJX                      LXLXLXLXKXLXLXLXJXLXLXJXJXGXxXcXvXvXjXvXjXjXdXdXN.1.o.O.`                                         eX,X                                                                                                                                                                                                                                                                                                                                            ",
"                                                                                                                                                                                                                                                                                                                                                                                                                                                                                      +.l.|.|.OX|.@X{.}.gXvXnXSXSX    SXSXJXLXKXKXLXLXLXLXLXLXLXLXLXLXLXLXLXLXJX                      JXLXLXLXLXLXLXLXJXLXJXAXAXAXcXfXjXjXjXgXkXdXyX{.N.8.+.                                                                                                                                                                                                                                                                                                                                                                                            ",
"                                                                                                                                                                                                                                                                                                                                                                                                                                                                                                        {.}.            bXGXLXKXKXLXLXLXLXLXLXLXLXLXLXLXLXLXLXJX                      JXLXJXLXLXKXKXLXLXJXZXxXtXrXgXjXhXjX{.m.m.N.B.N.@.                                                                                                                                                                                                                                                                                                                                                                                                ",
"                                                                                                                                                                                                                                                                                                                                                                                                                                                                                                                        nXJXJXKXLXLXPXPXLXLXLXLXPXLXLXLXLXLXLXJX                      JXLXLXLXLXLXLXKXLXJXAXcXgXgXjXdXhXhX|.N.v.n.v.q.                                                                                                                                                                                                                                                                                                                                                                                                  ",
"                                                                                                                                                                                                                                                                                                                                                                                                                                                                                                                          AXJXLXLXLXLXLXLXLXKXKXLXLXLXJXLXJXJXGX                      JXLXKXKXLXJXJXJXJXGXAX  jXjXjXdX  dX                                                                                                                                                                                                                                                                                                                                                                                                              ",
"                                                                                                                                                                                                                                                                                                                                                                                                                                                                                                                            AXGXLXLXPXPXLXLXLXKXLXLXLXLXHX                            GXJXLXLXJXZXZXbXbXvX                                                                                                                                                                                                                                                                                                                                                                                                                              ",
"                                                                                                                                                                                                                                                                                                                                                                                                                                                                                                                              AXHXHXJXPXLXPXKXKXPXLXLXJXGX                              SXSXJXJXbX                                                                                                                                                                                                                                                                                                                                                                                                                                      ",
"                                                                                                                                                                                                                                                                                                                                                                                                                                                                                                                                    SXPXJXPXKXKXKXLXJXGXAX                                wXHXJX                                                                                                                                                                                                                                                                                                                                                                                                                                        ",
"                                                                                                                                                                                                                                                                                                                                                                                                                                                              zXzXlX                                                                GXLXLXPXLXKXLXJXZX                              T.{.}.qXSXAX                                                                                                                                                                                                                                                                                                                                                                                                                                        ",
"                                                                                                                                                                                                                                                                                                                                                                                      <X<X                                                                  zXCXCXlX                                                                JXKXPXPXLXKXLXJXbX        @X{.[.[.[.[.[.[.[.[.[.|.|.@X'.kXwX            jX                                                                                                                                                                                                                                                                                                                                                                                                                          ",
"                                                                                                                                                                                                                                                                                                                                                                                      BXBX                                                                  zXZXCXZXuX                                              hXjX            LXKXKXKXLXLXLXGXvX  |.@XOXOX@X[.|.[.[.[.[.[.[.[.|.|.@XXXoXqXnX        jXjX                                                                                  uX<X<X                                                                                                                                                                                                                                                                                                                                  ",
"                                                                                                                                                                                                                                                                                                                                                                                                                                                          uXCXJXJXFXZXCXZX                                        hXjXjX            LXKXKXLXLXJXGXAXjX{.OX.X|.hXdXXXXX+X|.OXXXXX#X+X+X+X@X@XoXoX`.kXjXjXjXjXjX[.                                                                              <XLXLXPXFX                                                                                                                                                                                                                                                                                                                                ",
"                                                                                                                                                                                                                                                                                                                                                                                                                                                        1XBXZXJXJXPXVXCXCX                                      hXhXhX              GXKXKXPXLXGXwXkX[.[..X.X.X@XdXdX.X.X+X+X+XoX+X+X+X+X+X+X+X+X{.kXhXdXdXdXhXP.K.                                                                            lXLXLXLXIX                                                                                                                                                                                                                                                                                                                                ",
"                                                                                                                                                                                                                                                                                                                                                                                                                                                        <XVXZXJXPXPXCXBXCX1X                                                        HXLXLXLXLXHX/.'.[..XXXXXXX@XoXhXOX.X.X@X@X+X+X+X+X+X+X@X@X@XOX@X@XoXXX[.OXP.L.z.                                                                          lXLXLXLXFX                                                                                                                                                                                                                                                                                                                                ",
"                                                                                                                                                                                                                                                                                                                                                                                                                                                    >X<XBXCXVXLXLXPXPXPXHX1X                                                        AXLXLXLXLXAX_.[.|..X[.XXXXoXoXhX@X@X.X+X@X+X@X@X+X+X+X+X@X@X@X@X@X@XoX'.[.K.N.%X                                                                          uXLXPXPXIX                                                                                                                                                                                                                                                                                                                                ",
"                                                                                                                                                                                                                                                                                                                                                                                                                                                  <X<XlXVXFXIXLXLXPXLXPXPXlXzX                                                      AXLXKXKXJXAX'.P.P.P.P.|.|.[.OXdX@XhX.X.X@X@X@X@X+X@X+X+X@X@X@X@X@X@X@X[.[.N.l.                                                                                                                                                                                                                                                                                                                                                                                                                      ",
"                                                                                                                                                                                                                                                                                                                                                                                                                                                  1XBXIXPXPXLXKXIXPXPXPXPXIXSX                                                      AXJXLXLXGXSX'.|.$XP..X.X[.|.OXOXhXhXOXXX.X.X@X@X+X@X+X@X@X+X+X@X+XXX@X@X{.l.                                                                                                                                      :X:X1X:X                                                                                                                                                                                                                                                                          ",
"                                                                                                                                                                                                                                                                                                                                                                                                                                                J 1XBXFXIXPXKXKXPXPXIXIXIXFXZXZX                                                    AXJXJXGXSXvX'.XX$X$X.X.X.XOXOXOXhXhXoX@X|..XOXOX@X@X@X@X@X+X+X@X+XXXOXdXdXt.                                                                                                                                      BXFXVX<X                                                                                                                                                                                                                                                                          ",
"                                                                                                                                                                                                                                                                                                                                                                                                                                                  1XCXVXFXLXPXKXFXVXVXBXFXZXZXCX                                                    HXJXGXAXfX_.XXXX+X@X.X|.{.oX{.OXdXdXdXhX[..XXXOX@X@X@X@X@X@X@X+X+X@X@X@XoXi.                                                                                                                                      BXBXBX<X                                                                                                                                                                                                                                                                          ",
"                                                                                                                                                                                                                                                                                                                                                                                                                                                    CXZXFXLXLXLXFXVXVXuXlX1X                                                        AXJXGXnXkXoXXX+X+X.X|.{.fXvXgX].OX@XhX@X+X#X[.OX@X@XoX@X@X@X@X#X+X@X+X@XdXi.                                                                                                                                      1X<X1X                                                                                                                                                                                                                                                                            ",
"                                                                                                                                                                                                                                                                                                                                                                                                                                                        CXHXZXFXCXlXuX                                                              GXJXHXmXkXXXoX+X.X.X|.}.cXnXcX`.{.OX+X@XhXoXXX|.{.OX@X@X@X@X@X+X@X@X+X@XoXt.                                                                                                                                                                                                                                                                                                                                                                                                                        ",
"                                                                                                                                                                                                                                                                                                                                                                                                                                                        CXFXZXZXCXuXuX                                                              AXGXnXfXkXXX+X+X+X.X|.}.mXbXxXeXrXoXXX@XhXdXXX[.[.|.OX@X+X@X+X@X@X+XoX@XoXi.                                                  mXcXcXxX                                                                                                                                                                                                                                                                                                                                                              ",
"                                                                                                                                                                                                                                                                                                                                                                                                                                                          1X1X1X1XuX                                      xXzXzXcXcX              nXnXAXfXmXkXXXoX+X+X.XOX}.qXxXlXzXqX}.OX@XdXhXdXOX|.|..XOX+X@X+X+X+X@XOXdXoXt.                                                  fXcXcXcX                                                                                                                                                                                                                                                                                                                                                              ",
"                                                                                                                                                                                                                                                                                                                                              :X<X1X                                                                                                                                                      uXzXZXZXzX              vXnXnXvXkXoXOXOX+X+X+XOX}.7X,XlXzX9X{.OXOXoXhXhX@X.X|.[.OX+X+X@X@XOX@XOX@X}.t.                                                  fXcXcXcX                                                                                                                                                                                                                                                                                                                                                              ",
"                                                                                                                                                                                                                                                                                                                                            1X<XVXBX                                                                                                                                                    eXzXZXHXSXAXZXxXbXcX      vXnXvXjXdXoX@X@X+X+X+XOXoX}.7XuX,X7XdX|.OX@XdXhXhX@X|.[.XXOXOX@X@XOX@XXXoX}.i.-.              V V V I B B B z z k               cXcXcXxX                                                                                                                                                                                                                                                                                                                                                              ",
"                                                                                                                                                                                                                                                                                                                                            1X<XFXVX                                                                                                                                              uXzXZXZXZXZXJXJXHXCXCXzXbX    }.jXjXjXdX}.[.@XOX.X.X+X+X+XXX_.7XW._.OX|.OXOXoX@XhXhX@XXX[.$X$XXX@XOX@X[.'.~.f.e._ _ *.&.&.V V V V V V P B B z z z p                                                                                                                                                                                                                                                                                                                                                                                   ",
"                                                                                                                                                                                                                                                                                                                                            1X<XBXBX                                                                                                                                            uXuXCXZXZXFXIXJXJXLXIXFXZXZXcX  _.jXjXhXhXq.K.OX.X.X.X.X+X+XOXXX`.^.{.|.OXOX[.@X+X@XhXhX@XXX[.|.[.@XOX@XU.M.i.u.e._ &.:.&.&.&.C V B B B P P Y m x z z z                                                                                                                                                                                                                                                                                                                                                                                 ",
"                                                                                                                                                                                                                                                                                                                                                                                                                                                                                                uXCXIXIXLXLXLXPXLXLXPXLXHXAXbX  }.hXOX[.OXB.B.[..X.X.X.X+X+XOX.XOXOX.XOXOX+X+X+X+X@XdXhXhXXX[.[.[.[.T.T.M.r.>.<.3.-.&.&.;.s.&.V V B I B B P I R P R P P Y P z                                                                                                                                                                                                                                                                                                                                                                           ",
"                                                                                                                                                                                                                                                                                                                                                                                                                                                                                                  lXPXIXPXLXPXLXPXPXLXJXHXHXvX  {.dX[.N.B.$.z.[..X.X.X.X+XOX+X.X.X.X.X.X+X+X+X+X+X@X@XhXhXdX@XXX[.[.N.U.i.i.e.3.e.-.-.:.&.:.&.&.I B B B B Y Y I P I Y P Y J z l                                                                                                                                                                                                                                                                                                                                                                         ",
"                                                                                                                                                                                                                                                                                                                                                                                                                                                                                                  zXSXIXPXPXLXLXPXIXFXZXzXbXfX  [.OXP.N.B.$.%XK..X.XOX+X.XOXOX+X.X.X+X+X+X+X+X+X+X+XOXdXhXhXhXoX'.'.q.t.u.d.e.e.e.*.:.:.&.&.:.=.T I B P B B Y P P P Y Y x H x z l                                                                                                                                                                                                                                                                                                                                                                       ",
"                                                                                                                                                                                                                                                                                                                                                                                                                                                                        LXLXJXJX                  uXSXZXIXPXLXPXFXSXSXZXbXbXrX            } @.K.[.|..X+X+XOXOXOX+X+X+X+X+X+X+X+X+XOXOX@X@XhXjXoX}.'.p.<.<.d.s.s.s.:.:.:.=.&.&.&.I I I I P m m Y P Y J P J Y x z z p                                                                                                                                                                                                                                                                                                                                                                     ",
"                                                                                                                                                                                                                                                                                                                                                                                                                                                                        JXLXJXGX                    bXzXIXLXLXLXZXzXzX5.                    O.K.K.P.[..X+XOXOXXX+X+X+XOX+X+X+X+X@XXX+XOXXXdXhXkXoX'.{ ] _ *.-.3.;.;.;.=.:.&.=.=.=.=.I P Y B B m z l z P U U J z H l l                                                                                                                                                                                                                                                                                                                                                                   ",
"                                                                                                                                                                                                                                                                                                                                                                                                                                                                        JXLXLXGX                    bXlXIXLXLXJXZXeXzX                      O.K.L.K.P..X.X.X.XOXOXOXOXOXOXOXOXOX@XXX+X#XXX@XdXdXhXkX{ *.*.&.&.3.;.5.;.:.5.5.5.5.5.5.I B Y P Y Y z p l Y P E P J z J J z                                                                                                                                                                                                                                                                                                                                                                 ",
"                                                                                                                                                                                                                                                                                                                                                                                                                                                                        :X>X1X                      zXzXHXPXLXJX,X                          p.K.L.L.K.P..X.X.XOXOXOXOX.X.X.X.X.X@XXX+X+XXX+X@XdXhXgX{ _ _ 6.&.:.5.s.;.;.;.;.;.:.:.:.P B Y Y Y m m p l H H U U U E E K H H                                                                                                                                                                                                                                                                                                                                                               ",
"                                                                                                                                                                                                                                                                                                                                                                                                                                                                                                    zXuXVXVXSXHX                          _ X.m.L.L.L.P.|..X|.|..X.X.X.X.X.X.X.X@XXX+X+X+XOXXXdXdXgX{ _ &.&.&.&.:.;.;.5.&.I I I B I m m B z z z p y l H z U U U U K U F F                                                                                                                                                                                                                                                                                                                                                               ",
"                                                                                                                                                                                                                                                                                                                                                                                                                                                                                                    uXuXzXzXCXZX                          _ { m.L.K.L.L.K..X|.|.OXOXOXOXOXOXOXOXOXOXOXOXOXOXOXXXoXjX{ _ &._ T &.&.:.;.;.T T I I I P B m z z z z l y i l H H z z H z l l l                                                                                                                                                                                                                                                                                                                                                               ",
"                                                                                                                                                                                                                                                                                                                                                                                                                                                                                                                                          &.*.M.L.K.L.L.K.|.|.OXOXOXOXOX.XOXOXOXOXOXOXOXOXOXOXXXhXkXp.-._ _ &.&.T &.:.;.&.=.T I I P B z z z z p p p i i l z z l l z l i 0                                                                                                                                                                                                                                                                                                                                                               ",
"                                                                                                                                                                                                                                                                                                                                                                                                                                                                                                                    fXvXvXfX              _ _ ] q.K.L.L.L.K.[.OXOXOX.X.XXXOXOXOXOXOXOXXXOXOXOXXXdXdX`.~.{ _ V V V I &.=.T T T T P P P P R R R R R U Y z z H H z z z l i i                                                                                                                                                                                                                                                                                                                                                               ",
"                                                                                                                                                                                                                                                                                                                                                                                                                                                                                                                  W.qXcXfXcX            &.V _ ] p.K.K.K.L.L.P.OXOXOXOXOXOXOXOXXXOXXXXXXXXXXXXXXXoXdX}.`.i.y._ _ T &.=.=.T T I P B Y Y P P P U P P P H i i i l l l l i 8 q                                                                                                                                                                                                                                                                                                                                                               ",
"                                                                                                                                                                                                                                                                                                                                                                                                                                                                                                                    qXfXcX3X            &.V _ _ <.m.N.K.K.L.K.[.OXOXOX|.OXOXOX{.XXXXXXXXXXXXXXXX{.oX}.`._.`._ M V V B I P T P B B B m m m z z z l l l l l l i i i l i 8 q                                                                                                                                                                                                                                                                                                                                                               ",
"                                                                                                                                                                                                                                                                                                                                                                                                                                                                                                                    9X3X9X3X  eX        V b V _ *.r.M.K.K.L.L.L.|.|.|.|.|.|.OXOX{.{.XXXXXXXX{.XXoXXX{.'.}.kX/.h.&.T T I B B B B m z z z z z z l l i l l l i i i i i i i i                                                                                                                                                                                                                                                                                                                                                               ",
"                                                                                                                                                                                                                                                                                                                                                                                                                                                                                                                      s.h.  xXGXHX      C C C V _ -.r.T.K.L.L.B.K.[.{.|.{.{.|.OX{.{.XXXXXXXX{.{.XX[.[.[.}.}.rX!.V C B I B B B B m k k z z z z z z l l l l i l l l l l p y                                                                                                                                                                                                                                                                                                                                                               ",
"                                                                                                                                                                                                                                                                                                                                                                                                                                                                                                                            uXHXIXVX    B C C I V _ { m.K.K.L.%XB.K.{.OX{.{.{.|.{.{.XXXXXXXX{.{.[.{.[.'.{.[.yXrXW.-.b b b b c k k u u u u y y y y y p y y y y y y y k P j.a.                                                                                                                                                                                                                                                                                                                                                            ",
"                                                                                                                                                                                                                                                                                                                                                                                                                                                                                                                            <XPXPXVXlXZXB m C I I V _ t.M.K.L.%Xq.B.T.{.{.{.XXXX{.XXXXXX{.XX{.{.'.[.[.[.[.[.}._.rX3._ V _ ( ( M M C C C C C B B B B B B B B B m m k B j.eXuX,X                              W 1X1X1X:X                                                                                                                                                                                                                                                                                                                  ",
"                                                                                                                                                                                                                                                                                                                                                                                                                                                                                                                    eXeXlXuXVXPXFXIXZXSX  m m B B V M ] O.L.L.%XO.O.M.'.{.XX{.[.XXXXXXXX{.XX{.{.'.[.[.[.[.[.].}.rXqXtX0X/.H.H.S.H.H.H.H.H.H.H.H.W.W.W.W.W.W.W.,X3X3X3X3XxXbXeX                            :X<XLXIXPX<X                                                                                                                                                                                                                                                                                                                  ",
"                                                                                                                                                                                                                                                                                                                                                                                                                                                                                                                    uXuXCXCXVXKXKXIXFXSX    I Y m V V _ X.m.N.l.O.' p.i.}.{.[.{.{.XX{.{.XXXX{.{.[.[.[.[.[.[.].^.T.rXrXrX(.Q.(.!.Q.Q.Q.!.!.!./././././././.E./.3X3X3X6X9XfXxXbXxXa.                        :X1XLXPXPX<X                                                                                                                                                                                                                                                                                                                  ",
"                                                                                                                                                                                                                                                                                                                                                                                                                                                                                                                    uXlXVXBXFXKXKXKXJXJX    Y m B B C ( } t.N.N.p.] { ,.^.}.}.oX{.{.{.{.XX{.{.{.[.[.[.[.[.[.'.T.'.}.rXkXkXrX_.^.].].].}.}.}.rXrXrXrXrXrXrXrXrXrXfXfXtX3XtXcXcXwX>X                        :X<XLXLXLX<X                                                                                                                                                                                                                                                                                                                  ",
"                                                                                                                                                                                                                                                                                                                                                                                                                                                                                                                    lXBXFXFXIXLXKXLXLXLXJX,X  z z k B &._ u.v.x.-.` [ [ S.~.`.}.}.{.{.{.{.{.}.[.[.[.[.[.'.'.'.T.T.T.^.yXyXkX}.rX(.].].].].}.rXrX8X8X8X8X8X8X8X8X5X6X0XtXtX3X9XwXbXwXuX                                                                                                                                                                                                                                                                                                                                                  ",
"                                                                                                                                                                                                                                                                                                                                                                                                                                                                                                                    lXBXIXLXLXLXLXPXPXLXIXuX    Y m m C M e.t.b.3.-.*._ e.U.rX}.}.}.{.}.{.}.[.[.[.[.[.'.'.'.T.T.'.T.T.Y.^.kXrXrX}.}.].}.(.(.(.(.8X8X8X8X8X8X8X8XrXrX5X0X6XW.9XwXwXbXcXzX                                                                                                                                                                                                                                                                                                                                                ",
"                                                                                                                                                                                                                                                                                                                                                                                                                                                                                                                    uXBXIXPXLXPXPXLXLXPXFXJXSX>Xz z z v b _ X.y.;.:.&._ _ e._._.}.}.}.}.}.}.].].[.[.'.T.T.T.T.T.'.T.T.Y.^.rXkXrXrXrX8X8X(././.4X7X9X9X9X9X9X9X6X8X0X5X0X9X9X9XwXfXcXcXcXxX                                                                                                                                                                                                                                                                                                                                              ",
"                                                                                                                                                                                                                                                                                                                                                                                                                                                                                                                    lXlXVXCXVXFXLXPXPXKXIXVXZX:XY Y z z v n ~ f.;.:.&.&.V ;.0X8X8X}.}.}.}.].].].].].'.T.Y.Y.Y.T.T.T.T.T.Y.Y.kXfXfXtXfXfXfXfXfXfXcXcXcXcXcXcXcXcXcXcXfXfXfXfXtXcXfXcXcXxXcXzX                                                                                                                                                                                                                                                                                                                                            ",
"                                                                                                                                                                                                                                                                                                                                                                                                                                                                                                                      uXCXVXFXFXPXKXLXPXIXFXHX>Xz m m k m b n d.:.=.=.I I ;.W./.8X8X}.}.}.}.^.T.^.Y.Y.Y.i.M.m.T.'.T.T.Y.T.Y.rXfXfXfXfXfXfXfXcXcXcXcXbXbXbXbXvXvXvXvXcXcXcXcXcXcXvXcXcXbXbXcXbXzX                                                                                                                                                                                                                                                                                                                                        ",
"                                                                                                                                                                                                                                                                                                                                                                                                                                                                                                                            lXBXBXBXBXBXVX    z z z u v m C V h.;.=.T I V V &.e.7X8X}.}.[.^.^.^.^.^.T.b.} ` t.I.Y.T.].T.Y.Z.I.~.fXtXtXtXwXwXfXfXfXfXfXfXfXfXfXfXtXtXtXwXqXqXtXqXqXqX9X9XwXfXbXnXZX                                                                                                                                                                                                                                                                                                                                      ",
"                                                                                                                                                                                                                                                                                                                                                                                                                                                                                                                            lX<XBX<XuXBXlX      z z m m k C M d.;.T T I I B C ;.`.}.}.}.'.'.T.T.T.T.Y.b.} [ f.i.I.I.T.Y.Y.^.Y._.fXfXfXfX8X4X7X7X9X9X9X7X7X7X7X7X7X7X4X4X4X4X4X4X4X8X7X4X9XtXcXbXbX                                                                                                                                                                                                                                                                                                                                      ",
"                                                                                                                                                                                                                                                                                                                                                                                                                                                                                                                              :X:X:X>X:X>X    i H Y B m V d.f.R.;.T R P P I C ;.`._.}.].'.'.T.T.'.T.I.f.^ _ f.p.i.R.I.I.Z.Y.Z.^.fXtXfXfX0X8X8X8X7X7X7X4X4X7X7X7X4X4X4X4X/././././.0X7X4X7X9XwXbXcXeX                                                                                                                                                                                                                                                                                                                                    ",
"                                                                                                                                                                                                                                                                                                                                                                                                                              1X<X<X<X                                                                                                      J W U U Y z V h.I.S.*.B T P P B m -.~.}.}.}.'.T.T.T.T.T.I.f._ _ s._ N f.S.I.Z.Y.T.^.gXtXgXfX8X7X8X8X8X8X8X_.8X8X8X8X5X5X8X8X_._._._._.8X`.4X7X/.0XcXcXxXeX                                                                                                                                                                                                                                                                                                                                  ",
"                                                                                                                                                                                                                                                                                                                                                                                                                              <X1X<X<X                                                                                                    R E U U U Y m C f.I.I._ V T I U z m ;.!.].}.].T.T.T.T.T.T.Y.i._ _ e.b c h.f.y.i.m.T.Y.gXrXvXvXrXrX8X8X8X8X_._._.`._._._.5X8X8X_._._._.8X8X_.8X8X4XqXcXcXcXeX                                                                                                                                                                                                                                                                                                                                  ",
"                                                                                                                                                                                                                                                                                                                                                                                                                              <X<X<X<X                                                                                                    R R E U Y z v V S.m.m.r.3.V P U z m :.Q.^.^.^.^.T.T.T.T.].^.f.*.*.;.b c d.3.` p.Y.T.T.A.H.fXgXrX8X8X_._._._._._._.`./.(.(._._._._._._.`.`._.8X0X7X8XqXtXcXeX                                                                                                                                                                                                                                                                                                                                  ",
"                                                                                                                                                                                                                                                                                                                                                                                                                              1X<X<X<X                                                                                                  R R U R Y Y m v C f.M.n.C.f.v z z H m &.R.F.Y.T.^.(.^.T.T.T.T.Y.R.H.f.b j d.e.^ <.~.Y.U.I.A.gXgXrX8X8X8X_._._._._._._._._.(._._._._._._.8X_._.`.7X0X0X7X9XtXeX                                                                                                                                                                                                                                                                                                                                  ",
"                                                                                                                                                                                                                                                                                                                                                                                                                                                                                                                                      I R P Y U Y Y z k C d.V.n.n.V.b u H z z &.H.T.Y.Y.8XrXT.T.T.T.'.T.Z.R.H.n j f.e.^ <.~.~.I.R.R.fXgXrX8X_._.8X8X_._._._._._._.`.`._._._.8X8X_.8X8X8X8X8X7X7X7XtXwXT                                                                                                                                                                                                                                                                                                                                 ",
"                                                                                                                                                                                                                                                                                                                                                                                                                                                                                                                                    5.5.P U U U P Y z k v :.r.Z.Z.y.3.;.z l m &.A.D.Z.Z._.8XQ.T.T.T.'.T.Y.A.C.` ^ d.<.} e.R.I.I.R.R.fXgXqX8X_.`._._._._._._._._.`.`.`._._._.8X8X8X8X8X8X8X8X7X7X0XfXcXuX                                                                                                                                                                                                                                                                                                                                ",
"                                                                                                                                                                                                                                                                                                                                                                                                                                                                                                                                    a.5.R U P P P Y m y t r V f.n.b.S.s.k p k &.H.Y.D.I.8XrX_.}.Y.T.T.D.T.F.F.V.A.!.e.^ e.I.I.~.R.H.fXgX8X8X_.`.`.`._.`.`.`._._.`.4X`.`.`._.8X8X8X8X8X0X0X8X7X7X/.fXfXxX                                                                                                                                                                                                                                                                                                                                ",
"                                                                                                                                                                                                                                                                                                                                                                                                                                                                                                                                  a.>X5.5.=.=.=.=.I I k r t C f.C.C.V.s.B m u &.H.F.Y.Y.~.8X}.yX^.Y.T.T.T.D.D.T.Z.A.e.^ r.R.I.I.R.R.fXgX8X`.`.`.`._._._.`.`._._./.4X`.`.`.`.8X8X8X8X8X0X0X8X7X8X7XqXwXwX                                                                                                                                                                                                                                                                                                                                ",
"                                                                                                                                                                                                                                                                                                                                                                                                                                                                                                                                  H.S.3.S.H.E.E.H.H.f.&.M r b e.y.Z.A.f.v u k &.A.D.Y.U.R.~._.yXT.D.Y.T.T.T.D.Y.Z.S.r.` p.I.Q.~.E.E.gXgX8X/././._._._._._.`._._./.(././.`.`.8X8X8X8X8X8X8X8X8X8X8X0XfXxX                                                                                                                                                                                                                                                                                                                                ",
"                                                                                                                                                                                                                                                                                                                                                                                                                                                                                                                                s.C.F.C.A.^.Q.Y.G.C.d.( M r c *.r.Z.F.S.b v v ;.A.D.T.Y.I.~.^.}.T.Y.D.Y.T.T.T.Y.Y.I.I.V.I.Y.Y.A.!.!.gXgX8X/././.`._._._.`._._._.(.(.(./.`._.7X8X8X8X0X8X8X8X_.7X/.fXfXwX                                                                                                                                                                                                                                                                                                                                ",
"                                                                                                                                                                                                                                                                                                                                                                                                                          VXVX                                                                                                >XH.c.n.Z.D.^.^.^.T.D.V._ V r t b -.C.C.A.d.s.v *.S.Z.T.U.Z.A.Y.^.}.}.Y.T.U.T.T.U.Y.Y.I.~.Y.Y.T.T.Q.!.gXgX_.~.(.(./.(._._._._._._.8X(.5X(.`._._._.8X8X8X8X8X`.(./.`.qXqXcX                                                                                                                                                                                                                                                                                                                                ",
"                                                                                                                                                                                                                                                                                                                                                                                                                                                                                                                              h.f.b.G.T.^.}.}.I.Y.C.y.( m t @ - _ i.Z.A.H.h.c -.A.C.T.Y.S.S.U.Y.(.rXZ.T.T.T.T.Y.U.Y.A.Q.I.Y.T.U.Q.!.gXgX_.~.(.(././.(.(._._._.7X8X(.8X/.`.`._.8X8X8X8X8X8X`././.7X/.9XwX                                                                                                                                                                                                                                                                                                                                ",
"                                                                                                                                                                                                                                                                                                                                                                                                                                                                                                                          :.s.Q.C.c.n.T.].}.(.Q.Q.y.3.V z 8 * - _ u.C.F.I.H.S.S.H.A.U.U.h.f.C.U.`.^.D.D.Y.Y.Y.Y.T.F.A.A.A.Y.Y.Y.Y.~.fXfX4X/.(.(./././.(._._./.4X8X8X8X7X8X7X/./.7X7X8X7X4X4X4X7X/.7X7XtXwXa.W                                                                                                                                                                                                                                                                                                                           ",
"                                                                                                                                                                                                                                                                                                                                                                                                                                                                                                                          h.S.C.A.C.D.].}.}.(.Q.A.<.( u t * # @ ( <.C.T.Y.F.F.A.A.S.U.U.g.g.f.Z.Z.A.}.}.Y.U.Y.T.T.F.A.J.A.Y.Y.Y.Y.I.0XqX8XrX(.~././.(.(.(.(.8X7X8X8X8X`.`.`.`.`.`.`.`.`.7X7X7X7XqX7X7XfXcXxXzX                                                                                                                                                                                                                                                                                                                          ",
"                                                                                                                                                                                                                                                                                                                                                                                                                                                                                                                          3XS.b.A.A.^.].}.rX_.R.J.*.V r 8 > > = V >.V.T.T.F.T.F.F.A.U.k.:X:Xg.f.b.D.^.].T.U.Y.Y.Y.Y.F.F.F.Y.Y.Y.Y.Z.I.`.rXkX(.(.4X/./.(.(.8X9X9X8X8X_._.`.`._._._.`.`.`.`._._.`.!.7X0XfXcXxXzX                                                                                                                                                                                                                                                                                                                          ",
"                                                                                                                                                                                                                                                                                                                                                                                                                                                                                                                          W.A.x.A.F.].]._.8X8XA.y.( v t 4 * # @ V -.u.C.T.T.T.Y.Y.I.I.k.:X2X:Xd.V.D.Z.Z.].^.A.I.Y.Y.T.T.Y.Y.Y.Y.D.Z.I.~.gXkX(.rX8X5X8X_.}.8X0X0X8XrX_._._._._._._._._._._._.8X8XqX7X/.tXcXxXxX                                                                                                                                                                                                                                                                                                                          ",
"                                                                                                                                                                                                                                                                                                                                                                                                                                                                                                                        s.f.b.x.C.F.rX_._.8X8XS.d.V v 4 2 : > = ( -.<.t.T.T.T.T.F.A.U.g.&X&X:Xa.d.Z.n.Z.}.}.A.I.Y.Y.T.T.T.Y.F.F.A.A.R.E.fXkX~.8X8X8X8X8X}.8X8X7X5X5X5X(.(./.4X4X/.4X4X4X4X4X4X4X7X4X0XfX9XwXxX                                                                                                                                                                                                                                                                                                                          ",
"                                                                                                                                                                                                                                                                                                                                                                                                                                                                                                                      h.E.u.t.n.C.A.rX8X8X8X8XV.e.C k 4 > : : * V *.>.,.T.T.T.T.Y.Y.S.g.&X&X&X*Xg.d.V.F.^.].(.I.Y.Y.Y.Y.T.T.G.G.A.Z.E./.gXfXrXrXrX0XrXrXrXrXrXqX0XrX8X8X0X0X0X0X0X0X0X0XqXqXqXqX0X0X0XwXqXwXwX                                                                                                                                                                                                                                                                                                                          ",
"                                                                                                                                                                                                                                                                                                                                                                                                                                                                                                                    s.H.A.w.n.D.D.A.rX8X8X8X8Xf.-.v p 8 < % : # V ] ,.,.Y.Y.T.Y.Y.Y.U.g.&X=X=X&X:Xj.V.G.Y.(.rX).Y.Y.I.I.T.T.D.J.A.V././.fXfXtXtXfXfXfXfXfXfXkXkXrXrXrXrXrXrXtXtXtXtXtXtXfXfXfXfXtXfXfXtXtX9XwX3X,X                                                                                                                                                                                                                                                                                                                      ",
"                                                                                                                                                                                                                                                                                                                                                                                                                                                                                                                  T d.A.D.x.v.D.D.Z.rX8X8X(.(.u.-.k p 3 : % : = V [ 2.1.C.Z.T.Y.Z.I.S.g.&X=X;X=X*X:Xh.Z.I.Q.(.rXF.Y.I.I.T.T.G.D.A.S.(.~.rXrXtXrXrXrXrX0X8X8X8X8X8X8X7X4X4X4X7X7X3X6X7X9X9X9X9X9X9X9X9X9X4XE.6X6X3X                                                                                                                                                                                                                                                                                                                      ",
"                                                                                                                                                                                                                                                                                                                                                                                                                                                                                                                  s.V.9.z.z.M.D.D.Y.rX8X8X~.(.-.( k i 9 , , * = V ] t.9.X.r.Y.Y.Z.Y.S.j.&X=X;X;XpX2Xg.S.I.Y.].].(.Q.R.U.Y.T.G.G.F.C.^.Q.Q.S.d.e.4.4.<.3.4.4.<.-.-.-.-.*.*.*.:.:.:.:.-.:.:.;.:.:.:.:.:.;.;.h.H.H.W.                                                                                                                                                                                                                                                                                                                      ",
"                                                                                                                                                                                                                                                                                                                                                                                                                                                                                                                  H.C.8.x.n.N.D.D.F._.(.~.S.A.( C u 8 1 , , : = C [ t.9.>.9.n.Z.F.F.Z.j.&X;X-X-X;X&X:Xg.H.Z.F.).rXQ.H.R.Y.D.D.G.F.Z.).Y.u.u.3.-.-.*.*.:.*.&.*.&.&.&.&.&.&.T T T T T T =.=.R T =.T T T &.:.s.f.R.W.                                                                                                                                                                                                                                                                                                                      ",
"                                                                                                                                                                                                                                                                                                                                                                                                                                                                                                              a.h./.Z.z.v.D.D.D.D.F._._.(.C.C.( b y 8 < : : * = C ] u.t.2.w.t.b.F.D.Z.j.&X;XaXaX-X=X2X:Xd.b.Z.].rX!.H.A.Y.D.D.T.D.D.).F.[ _ b v m z p i l i p i y y y i y 8 8 8 i i i i i y 8 8 y = t u m &.3.S.H.-.                                                                                                                                                                                                                                                                                                                    ",
"                                                                                                                                                                                                                                                                                                                                                                                                                                                                                                              g.W.R.D.l.v.T.D.D.D.Z.(.(.^.b.C.( m y 8 1 : & * = C [ u.t.x.2.1.9.M.D.Z.j.&X;XaXaX-X=X=X2Xg.f.b.D.!.5X).A.A.F.T.T.D.Y.F.C.*.&.k k m x l 0 ! 0 q q 0 q q q q q q q 9 q q 9 q q 9 3 7 8 4 y v V *.y.R.R.h.                                                                                                                                                                                                                                                                                                                  ",
"                                                                                                                                                                                                                                                                                                                                                                                                                                                                                                              j.H.C.n.x.v.D.D.Z.D.Z.^.^.Q.c.V.( v y 3 < & & & * b _ u.t.v.0.O.w.0.D.U.j.&X;XaXMXaX-X=X&X:Xs.c.C.Z.(.].F.A.A.D.D.A.S.<.>.*.*.b m z z i q 0 0 q q q q q q q 9 q q q d 0 d 0 q q 9 1 1 4 y z B *.u.V.V.H.3.                                                                                                                                                                                                                                                                                                                ",
"                                                                                                                                                                                                                                                                                                                                                                                                                                                                                                              g.S.y.x.x.b.Y.F.C.F.A.(.^.Q.c.V.V k 8 3 < & : # * B _ u.0.v.z.O.1.w.T.T.j.&X=X-XaXMXaX-X=X:Xa.f.C.C.T.].].F.J.C.D.Y.Q.<.] _ V m x H G d d f f f f f f f f f f f f f f f S f f f f f 9 9 y p k &.3.u.y.A.E.,X                                                                                                                                                                                                                                                                                                              ",
"                                                                                                                                                                                                                                                                                                                                                                                                                                                                                                              e.V.t.t.t.M.F.G.A.Z.Z.~.~.Y.y.u.C k 8 6 1 : : & # m ( u.0.v.0.#.1.@.N.K.h.2X=X;XaXMXMX-X=XsX:Xj.b.N.N.T.].!.V.C.D.Z.T.2.>.( b x H G f f A A A A A A A A A A A A A A A A A A A A s f 5 1 3 8 u &.e.<.x.c.S.h.                                                                                                                                                                                                                                                                                                              ",
"                                                                                                                                                                                                                                                                                                                                                                                                                                                                                                            s.f.u.x.x.x.b.Z.A.A.I.I._.^.T.y.u.b p 4 1 < : : & # y b r.2.x.0.@.@.o.q.M.f.:X&X=X-XaXMXaX;XsX*Xa.f.M.B.D.^.Q.S.C.D.T.T.O.,.n b J D d f A 7.=X=XpXpXpXpXpXpXpXpXpXpXpXpX-X;X;X;X=Xg S 5 5 3 * = T 3.9.0.x.A.E.                                                                                                                                                                                                                                                                                                              ",
"                                                                                                                                                                                                                                                                                                                                                                                                                                                                                                          a.H.S.C.x.0.v.n.C.~.`.~.~.^.].F.u.e.v y 8 1 , , : # # = u <.9.b.l.o.@.@.1.0.S.j.:X2XpXaXMXaX-X;X=X:X>XV.M.M.Q.Q.rXT.n.D.D.1.>.M k l D d f 7.-X-XaXUXUXDXDXDXDXDXDXDXDXDXUXMXNX-X-X;Xg A 5 5 6 : * =.e.u.b.0.F.H.                                                                                                                                                                                                                                                                                                              ",
"                                                                                                                                                                                                                                                                                                                                                                                                                                                                                                          a.H.f.c.0.0.n.m.C.`._._._.}.^.F.u.3.v y 3 6 , , : # # * u 3.2.b.t.@.@.#.#.2.C.V.j.:X&X=XaXMXaX;X=X2X:Xd.v.b.F.R.8XQ.Z.n.n.,.-.C k l 0 d f 7.-X-XaXUXDXDXKXKXKXKXKXDXDXDXUXMXNX-X-X;Xg S 5 5 6 # # &.e.u.y.x.V.!.3Xj.                                                                                                                                                                                                                                                                                                          ",
"                                                                                                                                                                                                                                                                                                                                                                                                                                                                                                          5.H.u.u.9.0.Z.D.Z.].}.`././.!.A.u.3.u p 3 1 , , : # * * y <.2.b.b.q.8.8.1.2.c.c.d.>X2X=XaXaXaX;X;XsX:Xd.n.N.D.Y.(.~.S.t.9.<.-.C z y 9 d f 7.-X-XNXMXDXDXDXDXDXDXDXDXDXUXMXMXNX-X;X;Xg S 5 5 1 : * :.d.f.t.v.Z.S.3Xj.                                                                                                                                                                                                                                                                                                          ",
"                                                                                                                                                                                                                                                                                                                                                                                                                                                                                                          5.H.u.u.9.t.Z.D.D.].}.8X7X8X(.H.e.;.k p 3 1 , , : # # # = *.2.b.C.m.x.w.2.1.9.v.V.h.>X2XpX=XaXaX-X=X*Xs.n.v.n.Y.(.kXf.e.>.<.4.n z 8 3 q f 7.;X;X-XaXMXMXMXMXMXMXMXMXMXMXaXaX-X;X-X;Xg S 5 < < o * &.s.u.u.t.b.V.W.j.                                                                                                                                                                                                                                                                                                          ",
"                                                                                                                                                                                                                                                                                                                                                                                                                                                                                                          ;.h.y.r.q.t.m.N.D.].].(./.^.).V.*.( u y 4 < , , : # # # $ ( >.b.b.m.M.l.8.>.>.2.n.b.h.:XpX=XaXaX-X=XW 5.V.x.n.Z.~.fXd.<. .<.>.n v 8 6 < f A =X;X;X=X=X=X=X=X=X=X=X=X=X=X=X=X=X;X=X&Xg f 5 1 < e * &.d.r.c.x.x.V.R.3X,X5.                                                                                                                                                                                                                                                                                                      ",
"                                                                                                                                                                                                                                                                                                                                                                                                                                                                                                          ;.f.i.t.q.t.m.Z.Z.(.(.8X/.5X5XS.*.V u y 4 < , , : & # # @ ( >.b.b.m.m.M.8.X.` | x.v.H.:X2X=XaX-X-XsXW 5.e.u.i.b.!.fXe.<.4.,.4.n u 4 6 6 5 s s s s s s s s s s s s s s s s s g g s s ; 5 , 5 < * * &.d.V.t.8.x.C.A.W.3Xa.                                                                                                                                                                                                                                                                                                      ",
"                                                                                                                                                                                                                                                                                                                                                                                                                                                                                                          ;.d.r.0.l.l.Z.Z.S.4X6X4X!.4X4Xd.*.C u y > < , , , : : o @ (  .b.b.Z.m.q.,.{ ` ` ,.9.V.h.:X*X=X-X;XsXW R b M [ <./.rXu.<.>.>.-.C u 3 6 6 6 5 f s s ; ; ; ; ; ; ; ; ; ; 5 ; ; ; ; ; , < , ; < > o # &.d.r.t.n.n.t.S./.E.;.                                                                                                                                                                                                                                                                                                      ",
"                                                                                                                                                                                                                                                                                                                                                                                                                                                                        1X:X                              ;.u.9.8.q.x.Z.S.f.3X3X3X3X6X3Xs.=.B p y 2 < , , : : : o @ ( ' b.m.Z.m.m.,.{ [ ` >.<.u.d.>X:X&X=X=XsXW R - t j _ 4XrXu.<.>.>.*.C k 1 5 6 h d w d d d h h h h d d d d d 0 G 0 d d d i i 0 w 1 > : * =.e.u.y.x.x.t.b.^.H.H.                                                                                                                                                                                                                                                                                                      ",
"                                                                                                                                                                                                                                                                                                                                                                                                                                                                        <X:X                              d.r.w.8.t.u.f.;.=.=.R W R R R Y Y z i q 9 5 < , : : : X # V  .v.n.Z.Z.m.w.{ [ ] -.>.<.y.f.>X:X&X=XsXW R $ $ c V 3XrX9.,.,.o.4.n k 1 w d h D h h D G h h h h h h h h h i i d ! D D D l 0 1 2 : 2 * &.d.u.t.M.q.w.t.Z.A.H.H.a.                                                                                                                                                                                                                                                                                                  ",
"                                                                                                                                                                                                                                                                                                                                                                                                                                                                                                        d.u.u.9.w.9.3.e.=.R U U E U K K l G G i q 9 1 , : : : & X @ C [ x.n.Y.U.Z.8.+.' [ [ ] -.p.S.h.>X2X2X1XW T $ $ k C 3XrXr.,.1.O.4.n u 2 5 G F F F G F G G D h D D D D D D G G G G G G G G G G D 1 : * &.e.u.y.M.9.q.t.b.A.Q.H.s.                                                                                                                                                                                                                                                                                                  ",
"                                                                                                                                                                                                                                                                                                                                                                                                                                                                                                        S.u.r.<.e.-.&.I P P U U K K K K G G G q 9 6 < , : : : : o # C [ 0.x.U.U.U.q.+.| ' } [ X.p.U.J.H.>X1X1X=.T $ $ u C 3XtXe.<.>.>.-.n u 2 5 K U Q U U U E U K K K K K K K U U U Q Q Q Q Q Q K K K 9 e # &.e.u.b.b.9.t.t.t.C.c.S.j.                                                                                                                                                                                                                                                                                                  ",
"                                                                                                                                                                                                                                                                                                                                                                                                                                                                                                        d.u.3.3.-.&.T P U K U K U K K L F G G q 9 9 1 < , : : : # @ v ( t.n.Y.Z.U.l.o.o.| ' +.p.w.m.n.J.h.>X>X:.T $ $ u C 3XtXe.>.>.>.-.C k 2 5 G F L H H L L L F G F F F F F G H H L L L L F F L F G 1 : # &.u.u.i.V.9.r.C.b.b.t.A.E.,X                                                                                                                                                                                                                                                                                                ",
"                                                                                                                                                                                                                                                                                                                                                                                                                                                                                                      &.d.d.s.;.=.I I U U K K U U H F D G D G i 0 q q 9 < : , : o * m ( u.b.Y.Y.Y.M.@.@.+.o.1.q.q.l.t.c.H.S.h.;._ $ @ y C 4XfXe.,.,.>.>.N u 2 1 0 0 0 0 0 0 0 0 q 7 7 7 6 6 6 7 6 9 q q q 9 w w 9 6 6 < : # &.u.y.y.S.r.r.^.^.c.x.t.f.eX                                                                                                                                                                                                                                                                                                ",
"                                                                                                                                                                                                                                                                                                                                                                                                                                                                                                    =.s.s.&.&.I R P U K K K K U K H G h G D D i q 8 q 9 1 : , , o * k C e.t.D.T.D.Z.1.,.| +.2.l.l.0.q.t.F.V.f.;.T $ @ r n E.fXe.>.o.o.4.N k 4 < 0 0 q q 0 0 0 q q 7 7 7 6 6 6 6 3 6 9 9 7 6 6 5 9 6 9 : % # &.d.y.u.S.p.<._.}.x.b.t.y.3X                                                                                                                                                                                                                                                                                                ",
"                                                                                                                                                                                                                                                                                                                                                                                                                                                                                                    a.a.a.=.I J J J U U U Q L F F G F D D d 0 q 9 6 3 6 3 < : , % O @ t 3.b.T.D.T.Z.,.,.` [ O.0.x.0.0.t.c.y.f.-.T @ $ r C E.kXr.>.X.>.>.M u 4 < q 9 9 9 q q q q 8 9 8 9 w w 9 6 9 9 9 7 8 8 7 9 9 9 9 : % # &.d.u.f.S.p.>._.(.b.b.b.u.H.                                                                                                                                                                                                                                                                                                ",
"                                                                                                                                                                                                                                                                                                                                                                                                                                                                                                    5.=.I P J U L L U U K Q L G G D D h d q q q q q 9 9 3 < : , , # @ - *.<.M.N.T.Z.<.p.` } X.t.0.x.2.0.2.t.y.-.T @ $ u C 3XrXp.<.,.,.>.M u * & o o o o o # # o o o O X X X X X X X X o # # # o o X & : < * &.d.u.V.S.<.<._.(.Y.b.t.y.d.s.T                                                                                                                                                                                                                                                                                             ",
"                                                                                                                                                                                                                                                                                                                                                                                                                                                                                                    R R Y U U K L L K Q L U H h G G G d 0 0 9 q q 8 8 3 1 < , : & O @ = *.,.n.N.T.T.9.<.' ^ ` ) 2.x.0.2.2.z.t.H.j.@ @ t C 3XfXp.,.,.,.>.M k * o & % o X o o # o X X X X X X X X X X X o o # o o X o X 2 < * =.d.y.V.V.3.>.~.~.~.A.y.i.V.y.H.                                                                                                                                                                                                                                                                                            ",
"                                                                                                                                                                                                                                                                                                                                                                                                                                                                                                  :.R R P U U U U K U Q K K G G G i h 0 0 0 9 q 9 9 9 6 1 < , , & # O @ I 4.t.N.T.T.9.<.' ^ ^ / 2.0.0.0.2.l.x.S.j.$ @ u V 4XrX<.<.,.,.>.M k * o X o X X X X o O X X X X X X X X o o o o X o o o X o o : > * =.d.y.c.V.<.-.~.~.~.Q.i.b.t.b.R.f.g.                                                                                                                                                                                                                                                                                        ",
"                                                                                                                                                                                                                                                                                                                                                                                                                                                                                                s.j.V T T R R R U J K K K L F G G 0 0 q q q 3 9 9 9 9 9 1 < : & X & # * B ;.y.T.T.Y.9.,.' / / / 2.t.t.x.8.0.x.u.d.$ $ u V 6XrX<.<.,.,.4.M k * o o o % % o o # # o o o o o o o o o o o o X o o o o , * : * * &.d.y.c.f.<.-./.~.~.(.~.Y.t.i.y.S.j.                                                                                                                                                                                                                                                                                        ",
"                                                                                                                                                                                                                                                                                                                                                                                                                                                                                              ,X3XH.h.h.3Xh.g.j.I P J z G G F G G ! 0 q q 9 3 6 9 6 9 9 6 < : : : o o # @ b e.n.Y.Y.0.,.' / / / 9.v.v.M.x.v.t.r.d.- $ k V 6XrX<.,.,.,.>.M k * o : : , , : : 2 2 1 1 1 1 1 1 1 1 1 1 1 1 1 1 1 1 : 1 < : e * &.d.u.y.i.>.*.~.~.~.~.^.Y.t.t.C.A.j.                                                                                                                                                                                                                                                                                        ",
"                                                                                                                                                                                                                                                                                                                                                                                                                                                                                            :.3XqXR./.E.E.E.E.H.s.a.a.5.W J l l 0 ! 0 0 q 9 6 6 6 6 6 6 6 < > : & o o # + k 3.T.Y.T.8.O.' / / / 2.b.v.x.M.v.t.u.d.- $ j V 6XfX3.,.,.,.>.M v * o : > < 1 < < 1 1 < < < < < < < < < < 1 1 1 1 1 1 1 6 1 : e * &.d.u.u.y.>.{ ~.~.~.~.~.U.t.9.b.V.H.                                                                                                                                                                                                                                                                                        ",
"                                                                                                                                                                                                                                                                                                                                                                                                                                                                                        T 3X4X7X8X8XR.R.!.R.5XqXtXwXwXeXg.P y y q i 0 0 8 6 9 6 6 6 6 6 1 < : : & & # * @ y _ y.A.T.2.#.' ^ / / <.0.M.l.n.x.u.u.f.t t j M 3XtX<.,.,.,.>.M v * # * > < < < < 1 1 3 3 3 3 1 1 1 1 1 1 1 1 1 1 1 1 1 1 1 : e * &.d.y.u.u.>.{ E.~.~.~.~.~.i.i.b.C.R.,X                                                                                                                                                                                                                                                                                      ",
"                                                                                                                                                                                                                                                                                                                                                                                                                                                                                      m W.H.~.V.R.8X!.~.~.!.(.rXrXtX9XwX3Xj.a.j.P B l i 7 3 6 6 6 6 3 3 1 > : : & & O # O y &.f.A.Y.2.o.' / / / X.X.M.M.v.M.t.y.y./ n n M W.tX<.,.,.,.<.M v * : : > < < < < 1 < 1 1 1 1 1 1 1 1 1 1 1 1 < < < < > : 2 : * * &.d.y.u.u.-.] R.!.~./.~.~.i.f.i.b.A.3Xa.                                                                                                                                                                                                                                                                                    ",
"                                                                                                                                                                                                                                                                                                                                                                                                                                                                                    j.W.!.C.C.C.R.E.~.~.~.(.8XrXrXtX6X0X0X9X3X3Xs.:.m z i 8 9 6 6 6 3 1 < : , , : # o * + y T 3.S.Y.1.+.[ / ~ ^ / %.0.M.x.b.y.t.q.2.<.N n H.rX<.<.,.,.<.( v * : : > < < < 1 1 < 1 1 1 1 1 1 1 1 1 1 < : : : : : : & : : * * &.d.y.u.u.*._ W.R.!.~.~.~.~.R.t.x.).W.j.                                                                                                                                                                                                                                                                                    ",
"                                                                                                                                                                                                                                                                                                                                                                                                                                                                                    h.H.Q.^.x.b.S.R.~.!.!.5XrX0XrX8X8XrX5X5X5X!.d.d.s.=.z i i 3 3 3 1 1 : & ; < & o % e + * = T u.Y.9.{ ] ] ] ( ~ / x.x.M.b.x.x.x.x.t.*.-.h.qXe.,.,.,.4.( k # : > : : < < < 1 1 1 1 1 1 1 1 1 1 1 1 < : : : : : & : : : : = T e.e.3.3._ &.h.H.E.E./.E.E.R.t.n.D.H.j.                                                                                                                                                                                                                                                                                    ",
"                                                                                                                                                                                                                                                                                                                                                                                                                                                                                  ,XH.(.b.M.n.b.A.Q.!.!./.8X0X0X0X8X8X8X(.J.J.C.C.V.H.h.:.u y 8 3 3 3 < : , , % : : % e . O @ m e.Z.<.X.{ ` ` _ N N t.0.n.x.x.x.n.n.C.u.u.H.tX<.>.>.>.>.V v # # > : : & & & & & : : : : : : : : : : : : : : : : > : 1 6 q y &.3.3.-.4.*.V :.;.W.R.E.E.E.R.u.n.n.V.W.,X>X                                                                                                                                                                                                                                                                                ",
"                                                                                                                                                                                                                                                                                                                                                                                                                                                                                  3X!.T.M.x.b.C.Q.Q.Q.!.5X0XqX0X0X6X5X!.H.r.u.2.x.2.0.3.3.&.B y 4 4 2 > : : : : # o o e O # @ v -.F.<.] ] ] ] ^ M n >.<.t.q.x.M.v.x.x.y.u.H.fX3.<.<.,.4.V v * # > : : o o & & & # & & & & & & : : : : : : : : : > : < 1 8 y T -.3.*.-.*.I =.;.3XH.E.R.E.E.f.Z.n.F.H.6Xg.                                                                                                                                                                                                                                                                                ",
"                                                                                                                                                                                                                                                                                                                                                                                                                                                                                  f.Q.v.M.M.b.^.).Q.Q.(.8XqX0X0X9X4X4XS.c.2.2.0.8.8.8.o.<.3.;.V k y 4 4 > : : > & # X O O @ @ k *.J.<.*.*.[ ` ~ b c ( <.u.b.v.M.N.M.b.b.V.R.rXr.>.>.>.*.V k # # : : , : : < 1 < < < 1 1 < < 1 6 1 1 3 6 6 6 6 3 6 6 1 6 8 y I -.-.*.*.( I I =.g.3XE.H.W.3XH.F.v.b.A.qXg.                                                                                                                                                                                                                                                                                ",
"                                                                                                                                                                                                                                                                                                                                                                                                                                                                                W.(.b.n.v.D.Y.Q.).Q.).5X0X0X0X0X7X/.4Xu.u.0.9.x.2.2.2.O.o.>.<.-.:.B u 4 4 > > # & & o O O + @ u &.d.;.&.&._ ( b u t u V 3.y.M.m.n.n.n.c.c.i.u.` ` ` ` ( b u # & # : : , < 1 3 1 1 1 1 1 1 1 6 9 0 0 0 0 q 0 q 0 q q q 9 4 = b ( ( ( &.&.R U =.>Xg.h.h.g.>Xg.E.S.Q.V.W.g.                                                                                                                                                                                                                                                                                ",
"                                                                                                                                                                                                                                                                                                                                                                                                                                                                              j.f.A.t.m.b.T.).F.Q.!.(.8X0X0X0X0X/.~.!.u.t.x.8.l.0.2.o.o.#.1.,.>.<.-.I u = * > & # # o X O . @ y m 5.=.B B I B u y * - t ( -.b.m.n.n.C.c.b.b.<.] / ^ ^ ( c u # : > 1 6 q 0 0 i 0 q q 0 q q 0 0 h i i 0 0 0 0 0 i h D 0 0 8 y b V ( ( _ V P U U R P T R R E R j.d.S.V.4X,X                                                                                                                                                                                                                                                                                ",
"                                                                                                                                                                                                                                                                                                                                                                                                                                                                              H.y.t.b.i.C.Y.).!.E./.5X0X0X0X0X8X~.(.Z.t.x.x.l.z.2.2.,.| +.+.+. . .<.-.C y = & : & o o . . . o 4 l H z l i i i i 8 : * - V } q.t.b.b.b.b.n.n.c.<.^ ^ ^ ( c u # : & : 1 q 0 q 0 i 0 0 0 0 0 0 h h 0 0 0 0 0 0 0 i i l 0 0 8 y C M ( ( 6.B U U U Y U U U U K W g.h.h.H.3Xg.                                                                                                                                                                                                                                                                                ",
"                                                                                                                                                                                                                                                                                                                                                                                                                                                                            ;.H.V.b.y.i.~.Q.Q.R.E.6X0X0X0XrX0X8XQ.(.c.t.x.z.l.z.0.,.,.| 1.+.+.| |  .4.*.C y * # & X X . . % 6 i G F G 0 w d q q 9 1 # * k n >.,.b.b.b.n.x.x.c.>./ ^ ^ ( b k * : : , 6 0 h i 0 h h i 0 0 0 0 0 0 h h i i i i i i i D D F l p C V ( V ( I U L U U K K U U K K W T a.s.3Xg.                                                                                                                                                                                                                                                                                ",
"                                                                                                                                                                                                                                                                                                                                                                                                                                                                          h.h.S.S.Z.C.V.!.E.E.3X9X9X9X0X0XrXrX).Q.).t.x.v.0.l.l.2.#.o.+. . .+.| ' ` [ *.*.a t - * # o o + , G F G G D 0 q 9 9 6 9 q > # y v _ e.r.b.b.c.y.b.t.X.~ ( ^ ~ j c = * : 6 6 i D l 0 D D h D h D D D G D D D D G G G G G G D D D z B V ( ( ( &.R U K U K K U U K K K K R a.,X,X                                                                                                                                                                                                                                                                                ",
"                                                                                                                                                                                                                                                                                                                                                                                                                                                                          h.f.f.^.^.Q.A.8XrXtXfXwXwX0X0X0XrXrX(.y.c.c.v.n.l.8.1.1.#.O.o.+.+. .' ' ' [ ] -._ b t = * O X & 6 h G i h h 0 q 9 9 9 1 9 > # = t b -.2.n.b.c.y.t.t.X./ n ^ ^ j c t 4 : q q G G G F L F F F F F F F F F F F F F F F F H H F G G G x B V V V ( T P P H L J J P P K K K E R j.3X,X                                                                                                                                                                                                                                                                              ",
"                                                                                                                                                                                                                                                                                                                                                                                                                                                                        ;.s.-.e.y.i.y.y.H.E.4X6XW.3XE.E.!.!.!.(.V.c.c.t.t.l.8.0.@.O.O.+. . .| ' ) ) ^ / _ _ V r - # # : D d i i i i h 0 9 6 5 5 < 6 > * * - t ( >.n.v.b.y.y.A.y.u.` ] ' / M u 8 * q q D i D F F F F F F F F F F F F F F F F F F H H F F F H J B V V V &.&.I 5.5.a.a.a.a.a.a.a.a.a.j.W.E.E.                                                                                                                                                                                                                                                                              ",
"                                                                                                                                                                                                                                                                                                                                                                                                                                                                    a.g.s._ _ ~ N N N N M M N M ( _ *.4.u.d.f.!.rX(.A.t.q.0.1.1.@.O.o.+.| | | ` ` ` ) ^ ( ( ( V t = # 3 G h q q q q 0 q 6 5 < < < 5 : * * * - C *.t.n.b.t.t.Q.(.!.<.<.,.4.*.m p 4 0 q D i h L G F F G F F F F F F F F F F F F F F F F F H H J x B V V V I =.>XuXeXeXwXwXwXwXeXeXwX6X5XrX!.4Xg.                                                                                                                                                                                                                                                                          ",
"                                                                                                                                                                                                                                                                                                                                                                                                                                                                  =.g.;.-.*._ _ ^ / / _ _ _ _ -.*.*.-.3.u.y.d.4X5X(.H.V.t.0.1.o.@.O.O.o. . .' ` ) ^ / / ~ ( M V v p 4 i i 0 q q 6 6 6 6 6 5 < < , , o # # # @ b *.2.v.x.u.r.V.~.rXH.C.u.0.<.( m y i 0 D 0 0 K L L L F F F F L F F F F F F F F F F F F F H H H H Y I ;.d.h.H.eXwXeXwX9XwX9XwXwXwX/.H.^.).T.Q.7XW.                                                                                                                                                                                                                                                                        ",
"                                                                                                                                                                                                                                                                                                                                                                                                                                                                  ;.s.-._ ] [ ] ] [ [ -.*.*.*.-.-.*.4.3.u.d.d.!.0XrX5XF.c.0.z.@.#.o.o.o. . .[ ^ ^ ^ ^ ~ M ( M V B z p J l i 0 q 3 3 6 6 5 < < : : , , o o O @ m -.<.t.u.u.r.u.R.kX8XC.2.2.<.*.C u y 0 0 9 q K K K K F L L F L F F F L L F F F F F F F F H L L H J P 5.h.3X9X9X9X9X0X0XtX0XqXqXtXE.Y.T.T.].^.R.R.3X                                                                                                                                                                                                                                                                      ",
"                                                                                                                                                                                                                                                                                                                                                                                                                                                                  &.M ( [ ` ] ] f.f.S.R.R./.E.E.H.f.f.e.<.-.^ ( _ 4.S.!.Q.F.x.o.1.O.o.X. .' ` ^ / / / ~ n M N V v k z G l q q 9 6 6 1 5 < : : : : , , o e . @ m *.<.3.<.3.3.u.Q.rX8XC.t.0.0.u.&.C y q 0 q 0 L K K K F F F G L F F F F F F F F F F F F F L H L L G J =.>XiX3X6X6X9X0X0X0X4X4X/./.A.b.q.n.t.C.Z.!.E.h.j.                                                                                                                                                                                                                                                                  ",
"                                                                                                                                                                                                                                                                                                                                                                                                                                                                V *._ [ 3.p.r.y.I.R.R.R.R.4X6X4XE.H.H.d.u.u.*.( ] [ <.3.u.Q.C.c.9.1.o. .' ' ` / / ~ ~ ~ N M n n v z p i i 9 q 1 6 1 5 5 , : > < : & : X % O @ m *.3.-.&.T &.r.Y.(.(.Q.A.v.9.y.( &.t 8 0 0 d D D K K F L L F L F F F F F F F F F F F F F F L L L F J R >Xh.H.4X!.0XwXwXqX4X/.!./.~.T.t.i.t.b.Z.S.H.H.iX                                                                                                                                                                                                                                                                  ",
"                                                                                                                                                                                                                                                                                                                                                                                                                                                              I &._ _ <.r.t.t.Y.Y.Q.!.E.!.8X0X9XqX9XqX5XS.f.>.>.` ^ ~ N ^ d.A.A.t.,.,. .' ` ` / / ~ / N N N n n v k i q q 9 1 9 6 5 1 : , : > > & o o o o O @ m *.3.=.m B B y.b.C.I.kXyXY.x.0.] ( u i 9 d 0 h i K K K L F L F F F F F F F F F L H H L L F L K K L J J a.j.3Xh.E.3X0XqXqX9X/.!.R.~.Y.b.b.r.t.t.t.C.!.4X3X>X                                                                                                                                                                                                                                                              ",
"                                                                                                                                                                                                                                                                                                                                                                                                                                                              T V _ -.r.r.t.b.T.T.~.!.!./.6X0X9X0X0XqX8XS.b.>.2.' ^ ^ ^ ~ n _ u.b.u.2.| ` ` ` / / ~ ~ N N N n n k z i i q 6 < 1 1 1 , : : : > > & # o X o O @ m *.;.T x x B f.n.b.I.fXrXZ.t.0.,.<.C p 2 q 0 h h K K K F G F F L F F F F F F F L H H L L F L K K L U U W 5.g.h.4X3X6X9XtXtX4X!.!.Q.Q.I.C.y.t.t.c.c.Q.!.6XeX                                                                                                                                                                                                                                                              ",
"                                                                                                                                                                                                                                                                                                                                                                                                                                                              B V e.f.S.C.A.Y.^.^.~.~./.5X8X0X9X6X9X4XS.u.9.,.w.1.>. ./ ~ M M N u.V.u.2. .) ) / ~ ~ ~ M N N n b k p i 0 q 1 < 1 1 1 < , : : > > # o X X X O $ b *.;.R x J B d.n.C.S.rXrXI.c.b.2.>.V k = 8 q D G K K Q K K K K K K K K K K K K K K K K K K K K K U W W W W a.s.h.H.H.E.0XrX!.Q.Q.Q.Q.~.A.C.0.x.v.c.V.C.E.H.                                                                                                                                                                                                                                                              ",
"                                                                                                                                                                                                                                                                                                                                                                                                                                                              V V e.S.V.i.T.T.Y.~.~./.8X8X0X9X9X6X0X8X<.9.1.0.2.8.w.2.' [ ` ^ n ~ <.r.<.[ ` ) %./ N ~ N n n n b u p i 8 6 1 < 1 < < , , : : : > # o X X X O $ b *.3.R x J P d.n.V.C.rXrXA.x.v.9.<.*.V y i q i D G F K K K K K K K K K K K K K K U U U K K K U U Q Q Q W W R 5.g.h.H.E.6XrX5X!.!.H.H.!.Q.A.t.0.x.b.C.A.Q.6Xh.                                                                                                                                                                                                                                                            ",
"                                                                                                                                                                                                                                                                                                                                                                                                                                                              3.r.S.I.b.b.^.^.~.~./.5X0XqX0X0X0X5X8X(.<.t.0.0.1.8.#.,.,.>.] / ^ N ^ ^ r.2.) / ^ ~ N M n n n n b u u p 8 3 1 < : : < , , , : : : # X X X X O $ C *.3.R x J P d.n.Z.A.fXrXZ.t.x.b.u.<.( u p y l G G G K K K K K K K K K K K K K U U U U Q K K K K K K Q K U E 5.>Xh.W.W.!.5X8XrX5X!.E.R.).Q.A.c.c.c.c.b.V.H.3Xs.                                                                                                                                                                                                                                                          ",
"                                                                                                                                                                                                                                                                                                                                                                                                                                                              H.S.Z.b.Z.A.~.~.~./.4X0X0XqX9X0X5X5X).V.0.0.8.8.8.8.1.o.o.X.,.' ^ N N n `  . .) n ~ N N n n n b b u u y 4 > 2 > > > < < : , : : : o X o X X O @ C *.3.=.x J P d.C.v.V.^.A.C.b.t.b.t.<.*.v u y l F h h K L K G h 0 h h h i 0 0 0 0 0 0 0 0 q q q q q q q q G J U R a.h.W.H.!.5XrX5XE.R.H.!.F.F.c.t.b.x.b.A.).H.H.>X                                                                                                                                                                                                                                                        ",
"                                                                                                                                                                                                                                                                                                                                                                                                                                                            :.H.C.M.M.Y.^.^.!./.7X9X0X9X9X9X0X8X(.G.9.x.0.z.8.l.0.@.O.,.O.+.| | ^ n n ~ `  . .) / N N n b n c c u u y 4 > > > 4 > > : , & , : & o X o X X . @ C *.3.&.x J P d.n.C.n.C.b._.rXC.n.n.y.3.&.m t i D 0 0 K L F 9 < : < < < > : : : : , : : : > > : : : : > 3 i H L U :.j.h.H.R./.0XqX9X6X6X5X5X(.Q.A.c.b.c.t.A.V.f.iX                                                                                                                                                                                                                                                        ",
"                                                                                                                                                                                                                                                                                                                                                                                                                                                          g.3XS.b.m.m.Y.^.(.E.E.9X0X9X9X6X9X9X8XA.v.2.0.8.z.8.8.w.O.1.+.@.O.+.| ^ ~ ( n n ^ [ / ^ ~ N n b b j c c u u p y = # # * : & o o o o X X X X X X . @ m 4.3.&.x x B d.c.b.b.c.t.rXgXn.x.n.r.<._ C y i 0 0 0 F D h < : < : : > > < < < < , , : : > > , , , : > 3 3 3 7 H R 5.j.H.R.R.6XrX9X9XqX4X5X/.(.Q.A.A.F.V.A.J.E.3Xg.                                                                                                                                                                                                                                                      ",
"                                                                                                                                                                                                                                                                                                                                                                                                                                                          3Xf.f.b.C.b.Y.^.Q.~.E.0XwX9XwX9X0X9X0Xu.0.0.0.0.0.8.1.@.@.#.@.o.o.o.o.' ` ^ ~ N ~ ^ [ ` ~ n N n j c k c k b C V       # % % o o O X o X o X X o . @ C 4.3.&.k J P d.V.C.b.c.C.rXgXC.c.y.y.3.( N v y 1 q G G 9 : : < : : : : : : : : : : : : : : : < 1 < 1 1 < 1 6 6 3 i =.;.h.H.!.rXrXqX0XtX0XtX8X8XrXrX5X!./.4X0X4X4X3X:.                                                                                                                                                                                                                                                    ",
"                                                                                                                                                                                                                                                                                                                                                                                                                                                        d.H.V.i.b.C.C.Y.).Q.5X8XqXwX6X9X9X0XwXrXt.0.0.0.0.0.8.1.@.@.#.#.o.o.o.o.+.[ ` ` N n N _ ` ~ j n b j r r b b c M &.=.    . + + + + . + + + + + . + . @ C *.3.:.m J P e.c.n.n.b.c.A.I.X.| X.>.] ~ n v y 2 9 q 1 < < : < : : : : : : : : : : : : : : : < < < 1 < < 1 1 1 1 q x Y g.H.S.!.A.H.H.H.3.3.<.3.3.3.<.-.-.-.3.3.e.e.s.j.                                                                                                                                                                                                                                                  ",
"                                                                                                                                                                                                                                                                                                                                                                                                                                                      3XH.S.C.Z.Z.A.A.Q.Q.!.5XrX0X0X9X9X9XqX0X!.t.0.0.0.0.0.8.1.@.@.@.#.O.#.o.o.o.' [ [ ~ n n ( ( ^ n n b c k k r c b *.;.:.      : . + + + + + . + . + + + @ m 4.3.&.x x P u.v.x.M.n.b.I.I.>.X.] 4.] ~ n v y 3 q 6 : : < : < : : : : : : : : : : : : : : : : < < 1 1 < 1 1 < < 2 4 z h.H.H.R.y.u.e.3.^ ^ ~ / ~ / ~ N M N ^ ^ ( *.;.;.                                                                                                                                                                                                                                                  ",
"                                                                                                                                                                                                                                                                                                                                                                                                                                                    j.H.R.Q.Z.Z.Y.Q.Q.Q.Q.~.5X8X9X9X9X0X9XqX/.y.t.0.0.0.0.8.1.1.@.@.#.O.O.#.o.o.o.| [ ` ~ M n n n M M j a r a c r c b &.:.      0 q 6 < & # o o # o o . + . @ m *.<.*.m x B y.v.v.n.b.b.Y.Q.>.X. .>.] / n v y 4 q 9 : : < : : < : : : : : : : : : : : : : : : : < 1 1 < 1 1 < < 6 = y ;.-.[ ] ^ _ ( ( ~ ^ ^ ( ^ ~ ~ n N N / N n N n b &.                                                                                                                                                                                                                                                ",
"                                                                                                                                                                                                                                                                                                                                                                                                                                                    j.H.S.Z.N.D.T.Q.Q.Q.!.8XrX0XqX9X9X9X0X8X!.r.0.0.z.z.0.8.1.@.@.@.O.O.O.O.o.o.+.| ' ` / ~ b j a V V c r r c c j b n :.:.      0 q 9 > o X o & # & o . X o @ z -.3.*.b x B u.v.n.n.b.b.Y.I.X.|  .4.] ~ n v y 4 6 9 < : : : : < : : : : : : : : : : : : : : : : < < < < < < 1 < 2 * p ;.-._ / ^ ~ ~ ^ ^ _ _ _ ( ( _ ^ ^ ~ ~ n n j M M n m                                                                                                                                                                                                                                               ",
"                                                                                                                                                                                                                                                                                                                                                                                                                                                R h.H.S.b.v.N.T.T.Q.Q.I.!.0XqX0X0X9X9X0XrX(.Q.9.q.0.0.0.0.2.1.@.@.@.O.O.O.o.o.o. .' ' [ ^ M j b c C C c a c c a a C C &.      i 0 0 q < # o o % : < & o : # + y &.3.-.V V Z y.n.v.n.n.b.Y.Y.,.<.>.4.] / N b y 3 3 9 < : : : < : : : : : : : : : : : : : : : : : : : : : : < < < 1 4 = v n N N ^ ^ <.u.d.S.H.!.H.H.H.u.y.2.<.<.] N N j n C m                                                                                                                                                                                                                                             ",
"                                                                                                                                                                                                                                                                                                                                                                                                                                                g.3XH.c.D.N.M.T.~.Y.!.!./.0X9X9X6X9X0X8X8XA.b.q.0.0.0.0.8.1.@.@.@.@.@.O.O.o.o.o. .' ' [ ^ N j b k k v c c a a a c C v       F 9 1 q D G i 0 9 5 5 5 : 4 > # X = k ;.e.e.e.e.b.v.b.n.n.C.Q.I.X.X.X.*.[ ~ N v y 4 9 9 < : < : < : : : : : : : : : : : : : : : : : : : : : : < < < < 4 = u j _ ` ] [ y.S.H.H.H.!.H.!.H.y.y.r.2.<.4.] ] / M n V B                                                                                                                                                                                                                                           ",
"                                                                                                                                                                                                                                                                                                                                                                                                                                              >X3X5XA.b.n.D.n.T.~.R.~.8X0XqX6X0X9X0X8X!.A.9.9.q.0.0.0.0.8.1.@.@.@.@.@.O.o.o.o.+.| | ' ` / ~ j r r r u v c a c b v m m     G q q 1 q D D 0 q q 9 5 < : 7 4 & : # y ;.r.d.e.y.b.M.n.n.b.C.~.Q.X.X.X.>.[ / N b y 4 6 6 < < < : : < : : : : : : : : : : : : < < : : : : : : : < < < 1 * = v n *.<.u.V.!.!.!.R.H.R.R.H.!.V.V.y.u.y.t.c.u.u._ N C I                                                                                                                                                                                                                                           ",
"                                                                                                                                                                                                                                                                                                                                                                                                                                            u 3X4XQ.D.n.Z.Y.T.Y.Q.!./.8X0X0X9X9X8X0X8XS.9.q.0.8.q.0.0.8.1.1.@.@.#.@.@.o.o.o.o.| ' ' ' [ ~ n n c r r r r c b c b           0 < 1 9 9 3 q 0 h 0 q 5 6 3 4 4 # % o @ :.y.r.p.p.m.M.n.n.b.b.~.Q.X.X.X.X.[ ~ N v y 2 3 6 < : : < < : : : : : : : : : : : : : < : : : < : : < : < : < 1 > t I *.f.Z.Q.E.0X0XrX8X!.!.H.Q.Q.Q.!.A.y.c.b.v.b.G.V.u.-.V                                                                                                                                                                                                                                           ",
"                                                                                                                                                                                                                                                                                                                                                                                                                                            iXE.A.Z.Z.Z.Y.Q.~.~.Q.~.8X8X0X0X9X6X0X0XrXZ.q.8.0.0.0.8.8.2.1.1.1.@.#.@.O.o.o.o.+.| ' [ ` ` N n n c r r r r c a a b         0 q < 1 1 3 3 q q i i D 6 6 3 4 4 # % o @ :.u.<.-.>.b.M.M.n.b.C.~.Q.X.X.X.>.[ ~ N v y 2 3 6 < : : : < : & o o & o o o o & & & & & & o o & o o & o : < 1 1 > = V *.V.I._.rXrX0X0X5X!.!.!.Q.Q.Q.R.H.y.c.v.v.n.Z.A.S.u.M                                                                                                                                                                                                                                           ",
"                                                                                                                                                                                                                                                                                                                                                                                                                                          g.E.R.C.n.Z.Y.~.~././.E.5XqX0X9X9X9X6XrX(.Q.b.0.0.z.l.0.8.2.1.1.1.1.@.@.@.O.o.o.o.+.' ' ' ` ` n b b c r r t r c c c m         0 w < < < 3 7 q 0 i D G 6 6 6 1 1 & , # @ :.e.<.] { v.m.n.n.n.C.~.Q.X.X.X.>.[ ~ N v y 2 1 6 < : : : < : o X X X X X X X . . . . . . . . . X . . . : < < 1 > t T -.C.Y.}.rXrX0XrX8X/./.!.Q.).R.R.H.V.b.M.v.v.n.A.R.d._                                                                                                                                                                                                                                           ",
"                                                                                                                                                                                                                                                                                                                                                                                                                                        ,XW./.Q.C.m.D.^.(./.!.E.E.5XqX0X9X9X9X8X/.C.y.q.q.l.z.0.0.8.1.1.1.1.1.@.@.@.O.O.O.O. .' ` ` ^ ^ n j c a u r r r u u u           0 w , , > 1 q 9 q q i i 3 6 5 < 5 : < # - ;.u.<.{ X.M.N.n.n.n.C.~.Q.X.X.X.>.[ ~ N v y 2 1 6 < : : : : & o X X X X X o X X X X X X X X X . . . . . : < : < * = V [ <.2.9.rX8XqXrXrX5X/.!.Q.Q.R.R.R.A.D.n.n.n.c.C.Q.A.!.                                                                                                                                                                                                                                          ",
"                                                                                                                                                                                                                                                                                                                                                                                                                                      h.h.R.Y.T.m.m.Z.~.~.E.E./.4X6X0X9X9X9X8X0XR.t.2.8.0.l.q.0.0.8.1.1.1.1.@.@.@.O.O.O.O.o. .' ` ) ~ ~ n c c r u r r r u z             q q < : : > 1 1 9 9 q q 3 6 5 , 5 , , # @ :.e.<.{ >.M.n.n.m.n.C.~.Q.X.X.X.>.[ ~ n v y 2 1 6 < : : : : & o X X o o o % o o o o o o o o o . . . . . : < : 1 2 t V [ o.,.,.5X5XrX0X0X8X0X!.Q.Q.H.R.R.Q.T.D.v.n.n.C.Q.S.!.                                                                                                                                                                                                                                          ",
"                                                                                                                                                                                                                                                                                                                                                                                                                                      H.E.^.Z.D.D.Z.I.~.~.!./.4X0X0X0X0X0X9X0X8XA.t.8.0.0.0.0.0.8.8.1.1.1.@.@.@.O.O.O.O.o.+.| ' ' ) N N b b c c u r t u y z               9 > 4 < < < < 6 q 0 0 3 3 5 < 5 % , # - ;.e.>.{ >.M.n.n.m.n.C.Q.Y.X.X.X.>.[ ~ n v y 2 1 6 < : : : < : o X X o o o & o o o o o o o o o . . + . . : < < , * t V [ o.2.2.C.H.qX0X0X0XqX/.!.!.H.Q.!.Q.Q.Y.n.n.v.t.V.Q.!.h.                                                                                                                                                                                                                                        ",
"                                                                                                                                                                                                                                                                                                                                                                                                                                    ;.E.A.Z.T.M.T.~.~./.~./.~.(.rX0X0X9X9X0X0X8XC.t.0.z.z.0.8.z.w.1.1.1.@.@.@.O.O.O.O.O.o. .' ' ` ) N n c c c u u r t y =                 9 > 4 4 1 < < 5 q q q 6 3 1 1 1 & & o - :.u.<.{ >.m.m.m.m.n.C.Q.I.O.X.X.>.[ ~ N v y 2 3 6 < : : : < : & X X o o o o o & % o o o o o o . + + o o : < < 1 4 t V [  .1.,.<.u.0X0XqX8XrX4X(.!.F.Q.Q.Q.Q.Y.Y.Z.n.n.C.A.S.3X>X                                                                                                                                                                                                                                      ",
"                                                                                                                                                                                                                                                                                                                                                                                                                                :.3XH.H.F.n.n.Z.T.~.~./.E.!.~./.0XqX0X9X9X0X0X8XC.q.8.z.l.l.8.8.1.1.1.1.@.@.O.O.O.O.O.O.+.| ' ' ) ) N n c c c c u u t y                     4 4 > 1 , 6 5 q 9 1 1 < < < 1 o % o @ :.u.<.{ >.C.C.m.m.n.m.Y.I.X.X.X.>.[ ~ N v y 2 6 6 < : : < < : & X X o o o o o o o o o X X X . . + . < < 1 < < < * t V ] ..2.1.<.u.8X0X0X4XqX0X5X/.H.Q.Q.Q.!.Q.Y.b.n.n.Z.b.S.H.,X                                                                                                                                                                                                                                      ",
"                                                                                                                                                                                                                                                                                                                                                                                                                              >XW.!.!.A.C.C.C.C.Y.~.~.~././.5X4X0X0X9X9X9X9X/.r.q.0.8.z.z.q.w.1.1.2.1.@.O.O.O.O.#.O.O.+. .' ' ` ~ ~ n c c c c c u t t                         > 1 1 1 < 6 q 9 < 6 1 , : : & o # - :.e.<.X.,.Z.C.m.Z.n.C.Q.Y.X.X.X.>.[ ^ N v y 2 3 9 < : < < < < < o . X o o o o o o o o o o X . . + X < 1 < < < 2 * t V [  .O.2.2.2.V.!.0XtX6X0X8X/.E.R.Q.R.R.Q.Q.Q.C.C.V.C.C.Q.E.3X                                        C _ t                                                                                                                                                                                       ",
"                                                                                                                                                                                                                                                                                                                                                                                                                              3XQ.Q.Q.A.C.b.Z.I.Q.~.~.E./.7X8X8X0X9X9X9X9X0X/.u.q.z.z.z.z.0.9.1.1.1.1.@.O.O.O.O.#.O.o.+. .' ' ` ~ N b c c c r r u u y                         & o : 1 1 5 9 6 1 1 , , , & & o # @ :.r.>.{ ,.C.C.Z.Z.m.C.Q.Y.X.X.X.>.[ ^ N v y > 3 9 < : < < < < : o . X X X X X . . . . . X . . . . o : 1 < < < < * t V [  .1.1.1.2.2.A.rX6X9X7XqX0X5X/.E.R.Q.Q.Q.).A.J.b.b.b.Y.H.E.h.                                      *.4.(                                                                                                                                                                                       ",
"                                                                                                                                                                                                                                                                                                                                                                                                                            3X4XQ.F.Z.Z.C.b.A.~.~.~.!.E./.8X0X0XqX9X9XqXwX0X!.u.q.l.z.z.0.8.w.w.2.1.1.O.O.O.O.O.O.o.+. .| ' ` ` N n b c c v c u u y                             < < 5 6 5 1 1 1 < : & & & & o # - ;.u.X.X.,.m.Z.Z.Z.m.C.Q.Y.X.X.X.>.[ ^ N v y > 3 9 < : < < < : < : & X . . . . X X X . . . . . : : : < < < < < < * t V ] o.,.1.2.r.<.f.5XrXqX0X0X0X8X/.E.R.H.Q.Q.Q.F.A.V.c.c.A.S.4X3Xh.                                  C 2.2.*.                                                                                                                                                                                      ",
"                                                                                                                                                                                                                                                                                                                                                                                                                            3X!.Q.F.C.C.C.Z.Y.^.~.~././.4X0X0X0X0X6X0XrX0X!.S.t.0.l.z.z.8.8.2.1.2.1.@.o.o.o.o.o.o.o.+. .' [ ` ^ N n c c u r r u u =                             h q 5 < : < < < < : , , & # o # @ :.e.<.,.9.t.i.Z.Z.Z.C.Q.I.X.X.X.>.[ ^ N v y > 1 6 < : < < < : < < : o X X X X . . . . . X X X 1 1 < < < < < : < * t V ] X.O.,.>.2.<.r.u.rX5X0X8X0X0X0X4X!.R.Q.Q.Q.Q.F.A.V.b.V.V.H.4X6X>X                                V 3.<.4.                                                                                                                                                                                      ",
"                                                                                                                                                                                                                                                                                                                                                                                                                          s.E.Q.F.D.C.b.Z.Y.~.~.!.~./.4X7X0X0X9X9X6X0XrX^.C.t.t.0.z.l.0.8.w.1.1.1.@.O.o.o.o.o.o.o.+.| | ' ` ^ ~ n j c c u u u u y                             : D h 6 & & 1 < & : & & , & o o # - ;.f.V.C.b.w.t.Z.Z.C.C.Q.I.X.X.X.>.] ^ N v y > 1 6 < : < < < : 1 1 : & o : : o : : : : : : : o : < < : < < < < < * t V [ | +.#.,.2.2.u.<.!./.0X8X7X8X0X0X/.E.!.R.Q.!.Q.Q.A.C.V.f.H.H.E.9X>X                              m ( ( C                                                                                                                                                                                       ",
"                                                                                                                                                                                                                                                                                                                                                                                                                        j.3X!.A.C.Z.C.C.A.~.~.Q.!.!./.5X0X0X9X9X9X9XqX5XA.t.0.l.l.l.z.0.8.w.1.1.1.@.o.o.o.+.+.+.+.+.| ' ' ` / N b c c b c c u u                               G h 0 q q 6 1 & & # o % % & o X # @ :.f.V.Z.b.X.9.Z.Z.C.C.Q.I.X.X.X.>.] ( N v y > 1 6 < : < : < : : < < 1 q D D D D D D D D 0 9 < : : < < < < < < < * y V ` '  .#.o.>.>.2.,.<.R.5X0X6X4X8X8X4XE.!.E.R.!.Q.!.Q.A.V.f.H.Q.!.E.3X,X                                                                                                                                                                                                                          ",
"                                                                                                                                                                                                                                                                                                                                                                                                                      j.3XS.A.Z.n.C.Z.Y.T.~.~.!././.4X9X0X9X9X9X9XqX0XA.x.x.0.l.l.z.0.8.w.w.1.1.@.O.o.o.o.+...+... .| [ ` ` ~ n b c c c r k t                               h 0 d q 0 F F 0 1 1 X X X o o o o # - ;.f.b.C.b.X.t.m.Z.C.C.Y.I.X.X.X.>.] ( N v y > 1 9 < : < : < : < < < < < < < < < < 1 1 1 1 < : < < < < < < < < < * t V _ '  .@.,.,.,.2.2.,.V.(.8X0X0X0X0X0X0X4XE.E.!.!.!.!.Q.C.C.c.V.H.!.4XiXeXj.                        ;.3.d.3.                                                                                                                                                                                      ",
"                                                                                                                                                                                                                                                                                                                                                                                                                    h.W.!.^.Z.Z.m.Z.Y.^.^.~.Q././.4X6X9X9X9X9X9X6XqX8Xy.0.l.z.z.l.0.8.w.1.1.1.1.@.o.+.o.o.+...+... .' [ ` _ M b c c c c c m y                               G 6 9 q D F K K h 6 X X X X X O O # @ :.f.b.C.b.X.9.Z.Z.Z.C.Q.I.X.X.X.>.] ( N v y > 3 9 < : < : < : : : < < < < : : : : : : : : : : < : : < < , < < < * t V _ '  .@.o.,.,.,.1.2.<.~./.8X0X8X0XqX0X4X!.E.!.E.!.!.~.A.C.V.J.V.H.R.6X3XeX                        iX).).).s.                                                                                                                                                                                    ",
"                                                                                                                                                                                                                                                                                                                                                                                                                  ,X3X4XQ.Y.D.n.x.D.Y.^.^.Q.R.E.4X6X0X6X9X0X6X9X0X0XQ.t.8.l.l.z.z.0.8.w.1.1.1.1.@.o.+.o.o.+. .+. .| [ ` ^ ~ n c c c c c c m y                               q q 9 0 d D G K D 6 q 6 6 , & : l * - ;.f.C.C.b.X.9.U.U.Z.C.A.Q.>.X.X.>.] ( M v y > 1 9 < : < : < : : : < < < < < < < < < < < : : : < < < < < < < < < * t V _ ` | o.o.o.,.,.1.w.9.p.y.8X8XrX0X0XqX0X0X/.E.!.!.!.Q.A.C.C.b.V.A.Q.!.!.3XeX                    :.Q. X X].S.                                                                                                                                                                                    ",
"                                                                                                                                                                                                                                                                                                                                                                                                                  h.3X!.Q.T.N.n.M.T.~.~.^.~.!.E.8X0X9X9X9X9X6X9X8XR.y.q.z.z.z.z.8.8.w.2.1.1.1.1.@.o.o.o.o.+.+.+. .' ` ` ^ N b c c c b c c v                                 q q 6 9 6 0 D L D 0 0 q q 1 < > i 4 = ;.f.C.m.M.X.9.Z.Z.Z.Z.I.Y.X.X.X.>.] ^ M v y 2 3 9 < < < : < < , , < < < < < < < < < < < < < < < < < < < < < < < * t V _ ` | +.o.o.,.,.,.1.w.9.r.S.rXrX8X0X0X0X0X4XE.E.E.!.!.Q.Y.Z.V.C.J.A.Q.!.5Xh.3X                  3.F. X X].V.                                                                                                                                                                                    ",
"                                                                                                                                                                                                                                                                                                                                                                                                                3X4X!.V.c.n.n.D.m.^.^.~.~.!./.!.9X9X9X9X9X9X0X0X8XS.t.t.l.z.z.z.w.w.1.2.1.1.1.1.@.o.o.o.o.+.+.+. .' ) ^ ~ n c c c c c c v m                                 q 9 1 9 9 0 0 h h h i 0 d 6 1 > 9 4 - ;.f.b.b.M.X.p.i.b.Z.Z.I.Q.X.X.X.>.] ^ M v y 2 3 9 < < < < < < < < < < < 2 : : < < < < < < < < < < < < < < < < < * t V _ ` | +.o.o.o.O.1.1.w.9.9.u.!.rX8X0XqX0X0X6X4XE.R.!.!.!.Q.A.V.V.V.V.C.F.F.H.3Xh.                *.J.G.G. XV.                                                                                                                                                                                    ",
"                                                                                                                                                                                                                                                                                                                                                                                                              h.6XH.!.A.Z.Z.n.Z.Y.^.^.~.E.E.4X4X9X9X9X0X9X9XwX8Xf.y.q.0.l.l.z.z.w.w.1.1.1.1.1.@.O.O.o.o.o.+.+.+.| ` ) ^ N b c c c c c c v y                                 9 1 1 1 9 q q q 0 D i 0 d 5 1 > 1 4 - s.f.b.m.M.w.9.w.9.C.Z.I.Q.>.>.X.>.] ^ M v y 2 3 9 < : < : < 2 < < < < < < < : < < < < < < < < < < < < < < < < < * = B _ ` ' X.+.o.o.O.O.1.2.w.9.9.p.8X8X0XqX0X0X9X6X!.E.Q.!.!.!.H.Z.C.b.c.b.C.C.A.Q.H.>X              *.). XG. XV.                                                                                                                                                                                    ",
"                                                                                                                                                                                                                                                                                                                                                                                                              3X5XV.C.c.b.C.^.^.^.(.~.~.E.E.7X0X0X9X9X9X9X0XqX5Xu.t.x.0.l.l.z.z.w.w.w.w.1.1.@.@.O.O.o.o.o.o.+. .| [ ) ~ n b c c c c b v k                                   9 1 < : , 6 q q 0 h i 0 q 1 1 1 2 4 = s.f.C.Z.m.x.t.O.,.C.Z.Y.Q.>.>.X.>.{ ^ M v y 2 1 6 < : < : < : 2 < < < < < < < < < < < < < < < < < < < < < < < < * = C _ ` ' | X.+.o.O.@.1.2.w.9.t.<.I.(.8X0X0X9X9X0X6X/.!.!.!.!.Q.Y.Z.C.b.b.c.V.J.F.H.H.>X            *. X X X XJ.                                                                                                                                                                                    ",
"                                                                                                                                                                                                                                                                                                                                                                                                            ,X4X(.J.Z.V.V.C.~.~.(.~.~./.E.E.9XqX0X6X9X6X9XqX6X/.b.v.x.x.l.0.8.1.1.1.1.1.1.1.@.#.O.O.o.o.o.+.+. .' ' ) N n b c k c c b k z                                   9 < , & , 1 q q d h q q 6 1 1 1 2 * - s.f.b.Z.m.M.t.X.X.C.Z.Y.Y.>.o.o.>.{ ^ M v y 2 3 9 < 2 < : < 2 2 2 2 < < < < < : < < < < < < < < < < < < < < < < * = C ( ` ' ' ' | +.o.@.@.1.w.0.w.u.r.~.rXrX0X9X9X9X0X8X4X!.!.Q.!.Q.A.Z.C.b.t.v.F.F.H.H.3Xh.          *.G. X X XJ.                                                                                                                                                                                    ",
"                                                                                                                                                                                                                                                                                                                                                                                                            9X5X].G.Z.C.A.I.~.~.~.~.E./.E.E.9X0X9X6X9X6X9XqXH.H.t.0.8.0.q.8.w.w.1.1.1.1.1.1.#.#.o.O.o.o.+.+. .| | [ ^ N b c c c c c c k z                                   9 < & : 5 < 6 6 0 h 9 q 1 1 < 2 2 * - s.f.b.m.M.m.9.O.X.C.A.Q.Y.>.o.o.>.] ^ M v y 2 1 9 < 2 < 2 < < < < < < < < < < : < < < < < < < : : : : : : : : < * = C ( ` ' ' ' ' X.o.@.@.1.1.w.2.t.<.S.4XrX0X6X9X0X0X0X5X!.Q.Q.Q.Q.Q.A.S.b.v.n.t.V.).S.H.3X>X        [ G.].]. XS.                                                                                                                                                                                    ",
"                                                                                                                                                                                                                                                                                                                                                                                                            6X!.].G.n.V.I.~.Q.~.~.~././.E.3X0X9X9X6XwX6XqX8Xy.u.0.l.l.l.0.8.8.1.1.1.1.1.1.@.O.o.o.o.o.+.+.+. .|  .` / N b c c c c b k k                                     9 < : : < & 1 6 0 q 3 q 1 6 < > 1 O - s.f.b.Z.m.m.9.O.| C.A.Q.Q.>.>.o.>.{ ^ M v y 2 3 9 < 2 < 2 < 2 < < < < < < : : : < < < < < < < : : : : : : : : < * = b ( ` ' ' ' ' | X.O.O.O.1.@.w.w.9.r.u.8X0X6X9X6X6X0X5XR.Q.Q.Q.Q.!.Q.A.C.Z.n.x.C.c.Q.H.!.3X>X      ( J.].G.F.f.                                                                                                                                                                                    ",
"                                                                                                                                                                                                                                                                                                                                                                                                            3X!.).G.n.F.~./.!./.~.~.~.!.7X9X0X9X9X6X9X0XrX8Xt.q.l.l.q.0.8.1.1.1.1.1.1.1.1.@.O.O.o.o.+.o.+.....` ` ^ ~ n c c k k c c k                                       6 : : : : < 6 6 1 9 q q 3 3 < : 2 # - s.f.b.m.m.m.q.X.O.C.A.Q.Y.,.X.X.>.{ ^ M v t 2 1 6 < : < : < < 2 2 : : < < < < < < < < : : : : : : : < < < < : < * = m M ^ ` ' ' ' | | +.O.,.,.1.1.w.9.9.u.~.rX0X9X0X0X0X4X!.!.Q.!.Q.Q.Q.Q.A.C.b.b.y.y.V.F.(.4X6X3X      &.3.3.3.;.                                                                                                                                                                                    ",
"                                                                                                                                                                                                                                                                                                                                                                                                            wXH.F.J.D.Q.^./.E.~.~.~.~./.8X9X9X6X9X6XqX0X!.Z.x.l.l.l.q.0.8.1.1.1.1.1.1.1.@.O.O.o.o.o.+.+.......` ) / n n c c v c c b k                                         : : : : : 1 1 < 6 q 9 3 < : , , * - e.f.b.m.m.m.q.+.X.C.I.Q.Y.,.X.X.>.{ ^ M v t 2 3 9 < : < : < < 2 2 : : < < < < < < < : : : : : : : : < < < < : < * = m M / } ` [ ' | |  .O.,.,.,.,.9.w.w.9.y.(.qX9X9X9X0X8X5X4XH.H.Q.Q.Q.Q.Q.F.c.C.c.b.V.C.)./.3X3X                                                                                                                                                                                                    ",
"                                                                                                                                                                                                                                                                                                                                                                                                          ;.6XA.C.C.A.Q.~.~.~.~.~.~.8X8XqX9X9X6X9X6XqXrXZ.9.x.l.l.l.0.8.w.1.1.1.1.1.1.@.O.O.o.o.o.o.+.+... . .` ) ~ n b c c k c c u                                             : : : : < < < 6 9 6 < : & : ; o - e.f.b.m.m.m.q.X.X.C.I.Q.I.,.X.X.>.{ ^ M v y 2 1 6 < : < : < 2 2 2 2 : < < < < : : : : : < < < : : : < < < : : < * = b M ~ ^ } [ ' | |  .o.,.,.O.,.w.,.8.9.u.8XrX8X0X6X0X8X0X5XR.H.Q.Q.Q.Q.Q.Q.b.V.c.c.y.y.A.F.H.3X                                                                                                                                                                                                    ",
"                                                                                                                                                                                                                                                                                                                                                                                                        &.3XH.V.A.A.A.R.!.~.~.~.~./.qX0XqX9X0X9X9X6X8X!.b.9.x.q.l.l.0.8.w.1.1.1.1.1.@.O.O.o.o.o.+.+. .+... . .) ^ M n b c c c k c k                                               : : : : < 1 6 3 1 : : & % ; O - e.V.b.C.m.m.q.X.X.Z.I.Q.I.,.X.>.>.{ ^ M v y 2 3 9 < : < : < : 2 2 2 2 < < < < : : : : : : : : : : : : < < : : : * = b M ~ } ` [ ' | |  .o.,.,.O.,.1.O.8.t.t.~.R./.qX6X0X6X0X8X4X!.E.Q.Q.F.Q.).Q.F.V.V.V.V.J.A.!.E.                                                                                                                                                                                                    ",
"                                                                                                                                                                                                                                                                                                                                                                                                      s.h.S.J.y.Q.!.~.E.~.~.~.Q.!./.0X9X0X9X0X6X9X6XE.u.q.0.q.l.l.z.8.w.1.1.1.1.1.1.@.O.o.o.o.+. .+. .+. .| ' ^ ~ n b b c c c c u v                                               o : : : > 6 3 1 < : , & & ; O - e.V.n.m.b.m.q.X.,.Z.I.Q.Y.,.X.X.>.{ ^ M v y 2 3 6 < : 2 : < : < < < < 2 2 2 2 < < : : : : : : : : : : : : : : : * = m M ~ } ` [ ' | |  .o.O.,.O.1.@.1.8.0.q.9.u.A.0X8X0X6X0X8X4X!.H.H.Q.Q.Q.^.).F.V.V.V.c.c.c.V.S.C                                                                                                                                                                                                   ",
"                                                                                                                                                                                                                                                                                                                                                                                                    I 3XH.V.c.y.Q././.~.~.~.~.Q./.4X9X9X0X9X9X9X6X9XH.9.q.l.8.l.q.0.8.1.1.1.1.1.1.@.O.o.o.o.o.+. .+. . .| ' [ / N b b v c c c c k k                                                 : : : : 9 1 > > : , , , : O - e.V.M.m.b.m.q.X.,.Z.I.Q.Y.,.X.X.>.{ ^ M v y 2 3 6 < : : : < : < < < < 2 2 2 2 < < < : : : : : : : : : : : : : : * = m M ~ } ` [ ] | |  .o.O.,.1.1.O.1.1.8.q.,.<.S.8X0X0X8X8X8X6X4XE.E.Q.Q.Q.Q.^.^.Y.F.C.c.C.C.A.H.M k                                                                                                                                                                                                 ",
"                                                                                                                                                                                                                                                                                                                                                                                                    ;.H.C.n.x.Z.I.E.~.~.~.~.^.(.8X9X9X9X0X9XqX0X8X8XV.t.x.l.q.q.0.0.8.1.1.1.1.1.1.@.O.o.o.o.o.+. . .| | | ' ` ~ n b c v c c c c u p                                                 o : : : 6 1 > > , , & : : # - e.V.M.m.b.n.9.o.O.C.A.Q.Y.,.X.>.>.{ ^ M v y 2 3 6 < : : : : : < < , , : : : : : : : : : : : : : : : : : : < : : * = m M ~ } ` ] ] | |  .+.o.O.1.o.@.1.@.8.l.8.9.y.A.8X8X0X6X9X0X6X4XE.E.!.Q.Q.Q.^.Q.F.C.c.c.c.V.f.~ N C                                                                                                                                                                                               ",
"                                                                                                                                                                                                                                                                                                                                                                                                  g.3X(.G.n.F.c.R.!.~.~.Q.Q.~.8XqX9X9X6X9X9XqX0XrX8Xr.q.l.l.l.q.0.8.w.1.1.1.1.1.1.@.O.o.o.o.o.+. . .|  .| [ ` ~ n b c v c v b v u                                                     : & o 1 > > > & & : : * @ - e.C.M.m.b.b.9.o.o.b.Z.Q.R.,.X.>.>.{ ^ M b y > 3 6 < : : : : : < < , , : : : : : : : : : : : : : : : : : : < < : * = m M ~ } [ ] ' | |  .+.o.o.1.o.8.1.@.8.@.8.8.w.u.~.5X0X4X0X6X6X4XE.E.!.!.Q.Q.^.^.Q.A.C.C.c.t.A.2.u.y.e.g.j.=.                                                                                                                                                                                      ",
"                                                                                                                                                                                                                                                                                                                                                                                                =.h.E.F.C.n.^.Q.^.~.Q.(.~.~./.0X9X0X9X6XwX6XwXrXi.u.9.q.l.l.q.0.w.w.w.1.1.1.@.@.O.o.o.o.o.o.+.+. . .| ' ) ^ / n b b c c v b C C                                                         : : : : # 1 % % o O @ - t e.M.m.M.b.b.C.Z.m.9.<.~.Q.>.X.X.>.] ^ M b y > 3 9 : < : < : : < < < < < < < < : : : : < < < : , : : : > < : : : * = m n ~ } [ ] ' |  . .|  .o.@.1.1.1.1.@.1.8.0.w.9.u.S.8X0X0X9X6XqX0X4X!.H.!.!.Q.).).Q.Q.Z.c.t.y.c.0.v.F.!.W.m                                                                                                                                                                                       ",
"                                                                                                                                                                                                                                                                                                                                                                                              5.h.!.A.V.b.C.^.^.~.~.~.^.~./.7X0X9X6X9X6X9X6XwX0Xy.t.0.q.q.q.8.8.w.w.1.w.w.1.@.@.O.o.o.o.o.o.+.+. .| | ' ) / N j b c c c c c b m                                                         o o X X # # X o O * y r a y.M.m.M.m.b.C.m.m.w.,.Q.!.>.X.X.>.{ ^ M b y > 3 9 : < : < : : < < < < < < < < : : : : < < : : : : : , > > : : : * = m M ~ ` [ ] ' |  . .|  .o.@.1.1.1.@.@.1.8.0.0.1.9.Z.8X5X6X0X9X0X0X8X5X!.E.!.Q.!.!.Q.Q.A.V.b.c.x.x.v.C.F.E.g.5.                                                                                                                                                                                    ",
"                                                                                                                                                                                                                                                                                                                                                                                              ,X6XQ.y.b.Z.A.Q.~.~.^.Q.Q.~.8X0X9X9X6XqX0X9X9XqX8Xt.l.z.l.q.8.w.w.w.w.1.1.w.1.@.@.O.o.o.o.o.o.+.+.+.| ' ' ^ / N j b c c b v b C B                                                         X X X X # o o * # t V &._ i.b.m.M.C.b.n.n.n.1.<.Q.Q.>.X.X.>.] ^ M b y > 1 6 : < : < : : < < < < < < < < : : : : < < : : > > , , : : : : : * = m M ~ ` [ ] ' | +. .|  .o.@.@.1.1.@.@.1.w.0.0.8.9.C.^.5XrX8X5XqX0X0X0X4XE.!.R.!.!.Q.).Q.F.D.b.v.v.n.C.A.!.3X,XR                                                                                                                                                                                   ",
"                                                                                                                                                                                                                                                                                                                                                                                            h.W.R.C.c.A.~.!.~.~.~.^.Q.~./.0X0X9X6X6X0X6X9X9XE.A.t.l.z.l.0.8.w.w.1.1.1.1.1.@.@.#.o.o.o.o.o.o.+.+.+.| ' ` / N n b b c c b b C C v                                                           X X O O O o O @ t _ 3.e.b.m.m.M.m.v.n.n.M.,.<.Q.Q.>.>.>.>.] ^ M b y > 1 6 : < : : : : < < < < < < < < : : : : < : : : > > , : : : : , : * = m M ~ } [ ] ' | +. .| +.+.O.#.@.@.@.@.1.1.1.8.8.1.9.r.u.!.5X8XqXqX6X6X6X4X4XE.!.!.!.^.Q.Q.D.v.v.b.b.b.V.R.H.6X,X>X                                                                                                                                                                                ",
"                                                                                                                                                                                                                                                                                                                                                                                            H.R.C.C.V.H././.~.~.Q.~.!./.4X0X9X9X9X9X9X6XqX0Xf.t.q.l.z.z.z.8.1.1.1.1.1.1.1.@.#.o.o.o.o.o.o.o.+.+. .' } / N n b c b c b c v m k =                                                             X o . O X + t c _ r.b.b.M.m.M.m.v.m.n.M.,.>.Q.Q.>.>.>.>.{ ^ M b y > 1 6 : < : : : : < < < < < < < < : : : < : : : > > : : , : : : : : * = m M ~ } ` ] ' |  . . .+.+.o.o.O.1.1.@.@.@.0.z.z.0.9.,.u.5X0X0X0XqX0X6X0X0X0XE.E.R.!.~.!.Q.Y.Z.n.b.c.c.V.S.!.E.H.eX                                                                                                                                                                                ",
"                                                                                                                                                                                                                                                                                                                                                                                        j.3XR.b.n.C.C.A.E././.!.!.~.!.8X9X9X9X9X9XqX9X9XqX7Xi.t.q.l.z.z.z.8.1.1.1.1.1.@.@.#.o.o.o.o.o.o.o.o.+.+.| } / N n b c c c c b b b m u                                                               . X O O O @ m ( ] t.m.M.m.m.M.m.M.m.n.M.,.>.Y.R.>.>.>.>.{ ^ M b y > 1 6 : : : : : : < < < < < < < < : : < < : : : > > : : , : , : : 2 * = b M ~ } ` ] ] |  . .+.+.+. .+.O.O.@.1.@.@.@.@.1.8.0.w.t.(.5X0X8X0XqX9X9X0XqXE.E.E.!.~.!.!.~.Q.Y.n.c.V.V.C.Q.Q.!.4Xj.                                                                                                                                                                              ",
"                                                                                                                                                                                                                                                                                                                                                                                      j.H.A.D.D.n.Z.Q././././.~.~./.4X0X9X9X9X9X4X6X6X9XE.S.t.q.q.l.z.z.z.1.1.1.1.1.@.@.@.o.o.o.o.o.o.o.o.o.+.+.+.} ~ N b b b b c j b b v m                                                                     O . . @ B _ ' 8.M.m.m.m.m.M.n.n.M.M.,.>.Y.R.>.>.>.<.{ ^ ~ b y > 1 6 : : : : : : < < < < < < < < : : < < : : : > , , : : : > : : : * = b M ~ } } ] | |  . . .+. . .+.o.o.O.,.1.1.w.@.1.8.8.9.t.V.S.0X0X0XqX0X9X0X9XE.E.E.!.!.!./.!.!.Q.Z.n.n.c.c.V.).).).3X                                                                                                                                                                              ",
"                                                                                                                                                                                                                                                                                                                                                                                    j.W.R.C.v.v.b.A.(.5X/.!.E././.8X9X0X9X9X6X9X0X0X9XqXf.r.t.0.l.l.z.z.z.1.1.1.1.@.@.@.o.o.o.o.o.o.o.o.o.o.+.+.X.} ~ n b b c c b c b b k k                                                                       + . @ m ( ' 8.M.m.M.M.m.M.m.M.M.b.,.>.I.I.X.>.X.<.-.^ ~ b y > 1 6 : : : : : : < < < < < < < < : < < < : : : : : , , : : : : > : * = b n ~ ^ } ] ' |  . .+.+.|  . .+.o.O.,.1.1.@.@.8.w.0.0.q.u.3.8XtX8X0X9X0XqX0XE.E.!.!.!.!./.!.!.^.Y.D.G.C.C.n.G.).F.3Xs.                                                                                                                                                                            ",
"                                                                                                                                                                                                                                                                                                                                                                                    h.!.Q.Z.t.t.y.S.!.(./././././.0X0X9X9X6X9X9X9XqX8XrXC.t.q.l.l.q.0.8.w.1.1.1.@.1.1.@.o.o.o.o.o.o.o.o.o.o.+.| ] ^ M n b b b c c b b v k                                                                           + * Y V [ 9.x.b.m.m.m.m.m.M.M.M.,.>.Q.A.>.X.X.<.] ^ M C y > 1 6 : : : : < : : : : 2 < < < : < < < : : : : : : : : > : : : , : * = b M ~ ^ } ] | +.+.+.+.+.+.+. .+.+.O.1.1.1.1.1.1.8.0.0.q.t.<.rXrX8X0X0X9X0X0X0X0X8X/.!.!.~.~.!.~.~.^.Q.Z.Z.n.G.C.Q.!.4X3X                                                                                                                                                                          ",
"                                                                                                                                                                                                                                                                                                                                                                                    H.R.y.b.C.y.A.H.~.~././././.4X0X0X9X9X6X9X9X9X0XR.R.t.x.l.l.l.q.8.w.1.w.1.@.@.@.@.@.o.o.o.o.+.o.o.o.o.o.+.| [ ^ N n b b b c c b b k z                                                                             O = u _ >.9.c.m.m.m.m.m.M.M.b.,.>.Q.A.>.X.X.<.] ( M m 8 > 1 6 : : : : < : : : : 2 < < < 2 < < < : : : : : : : : , : : : : : * = m M ~ ^ } ] ] +.+.+.+.X.X.+. .+.+.o.@.@.@.@.@.1.1.w.8.q.q.u.Q.8XrX0XqX0X0X0X0X0X8X/.!.!.!.~.!././.~.Q.C.Z.N.D.V.Q.!.!.4X                                                                                                                                                                          ",
"                                                                                                                                                                                                                                                                                                                                                                                  3X4XS.C.b.9.Z.Q.!./././././.4X7X0X0X9X9X9X9X9X9X9XS.y.t.x.l.x.l.q.8.w.1.1.1.@.@.@.@.@.o.o.o.o.+.o.o.o.o.o.+.| ` ~ N n b b b c c b b m z                                                                             . @ t [ >.,.t.n.C.b.M.M.m.M.b.,.>.Q.A.>.X.X.<.] ( M m 8 > 1 6 : : : : < : < : : : < < < < < < < : : : : : : : : : : , : : : * = m M M ^ } ] |  .+. .+.X.X.+.+. .+.o.O.@.@.@.@.@.1.2.0.9.q.r.u.R.rX7X0X9X9X0X0X0X8X/.!.!.!.!.!./././.Q.Z.Z.D.n.b.A.Q.!.(.H.3X                                                                                                                                                                      ",
"                                                                                                                                                                                                                                                                                                                                                                                  3XH.S.9.b.Z.Z.Q.!.~./././././.7X0X0X9X9X9X9X9X0X0Xf.u.t.v.l.l.q.0.8.w.1.1.1.1.@.@.@.O.o.o.+.+.+.o.o.o.o.+.+.| } ~ n n b b b c b b b m z                                                                               @ t _ >.>.q.b.m.b.M.M.m.M.b.,.>.Q.A.>.X.>.>.] ( M m 8 > 1 6 : : : : < : < : : < < < 2 < < < < : : : : : : : : : : < : : : * = m C M ^ } ] |  . . .+.X.X.+.+.+.o.o.@.@.@.@.@.@.@.1.w.0.q.u.<.H.rX8X0X9X0X0X0X0X8X~.E.!.!.Q.!./././.Q.Z.D.D.n.C.A.Q.Q.!.4X3X5.                                                                                                                                                                    "
};
