/* XPM */
static char *_f93a1defae24952baf6b98f5385fae8[] = {
/* columns rows colors chars-per-pixel */
"500 500 256 2 ",
"   c None",
".  c #1C1C1B",
"X  c #171615",
"o  c #150A0F",
"O  c #280817",
"+  c #36061A",
"@  c #23191C",
"#  c #280612",
"$  c #1A281D",
"%  c #22211E",
"&  c #23321D",
"*  c #281B22",
"=  c #391A29",
"-  c #360C23",
";  c #1B2922",
":  c #252524",
">  c #2A2424",
",  c #2A2926",
"<  c #2B2B2A",
"1  c #272827",
"2  c #35292C",
"3  c #33322D",
"4  c #3B2A32",
"5  c #3C3C3A",
"6  c #383634",
"7  c #2C332E",
"8  c #1E1A20",
"9  c #581B3A",
"0  c #49122C",
"q  c #621A3B",
"w  c #482837",
"e  c #57253C",
"r  c #44393A",
"t  c #4B2E37",
"y  c #52122C",
"u  c #334537",
"i  c #0E5426",
"p  c #44413E",
"a  c #661D44",
"s  c #761C4C",
"d  c #5A2944",
"f  c #593548",
"g  c #4D3945",
"h  c #642344",
"j  c #682849",
"k  c #75264C",
"l  c #66354C",
"z  c #6B2B53",
"x  c #792A55",
"c  c #693854",
"v  c #773759",
"b  c #74344E",
"n  c #7B3963",
"m  c #753161",
"M  c #5B1C43",
"N  c #326C4A",
"B  c #4A4746",
"V  c #54484A",
"C  c #595656",
"Z  c #574C51",
"A  c #694658",
"S  c #76455C",
"D  c #67555B",
"F  c #7B4764",
"G  c #7A5568",
"H  c #6F5467",
"J  c #767173",
"K  c #615F5F",
"L  c #862A59",
"P  c #85365C",
"I  c #92295D",
"U  c #972B66",
"Y  c #883865",
"T  c #973769",
"R  c #9A3B73",
"E  c #8C2C66",
"W  c #A3356D",
"Q  c #A4396E",
"!  c #A43C73",
"~  c #AC3A75",
"^  c #AD3C7A",
"/  c #A73774",
"(  c #B33D7B",
")  c #B4387A",
"_  c #A82B71",
"`  c #8C1B5A",
"'  c #884769",
"]  c #95466D",
"[  c #87546C",
"{  c #8C4972",
"}  c #994775",
"|  c #8A5774",
" . c #985679",
".. c #94526E",
"X. c #AB447B",
"o. c #A64779",
"O. c #B4437D",
"+. c #B6477D",
"@. c #A5557C",
"#. c #AB4B74",
"$. c #8F697A",
"%. c #8C4D67",
"&. c #C4467D",
"*. c #5F9370",
"=. c #B83C84",
"-. c #AE3B83",
";. c #C43C8A",
":. c #9B5682",
">. c #AA4A83",
",. c #B54382",
"<. c #BB4483",
"1. c #B44C83",
"2. c #BB4B85",
"3. c #BC4C8A",
"4. c #B7488A",
"5. c #A95886",
"6. c #BC548B",
"7. c #BB5B8D",
"8. c #B45688",
"9. c #BA5993",
"0. c #B45392",
"q. c #986C85",
"w. c #A86689",
"e. c #B6648C",
"r. c #B96795",
"t. c #B87698",
"y. c #AA7290",
"u. c #BD77A2",
"i. c #C3498A",
"p. c #C4568D",
"a. c #C94A94",
"s. c #C45C93",
"d. c #CA5C95",
"f. c #CC5C9B",
"g. c #C75696",
"h. c #D4589B",
"j. c #D64D91",
"k. c #C46394",
"l. c #CB639B",
"z. c #CC6B9C",
"x. c #C66699",
"c. c #D3649C",
"v. c #D4689C",
"b. c #C7749C",
"n. c #CC6D96",
"m. c #D85AA4",
"M. c #CE5BA1",
"N. c #E45AA9",
"B. c #CD6BA2",
"V. c #CA67A3",
"C. c #D464A3",
"Z. c #D36CA4",
"A. c #DC6CAB",
"S. c #D968A7",
"D. c #CC74A3",
"F. c #C979A6",
"G. c #D473A5",
"H. c #D474AA",
"J. c #DB73AC",
"K. c #D47BAB",
"L. c #DB7BAD",
"P. c #D677A6",
"I. c #DC7CB3",
"U. c #DA77B3",
"Y. c #D96EB2",
"T. c #E369AC",
"R. c #E375AD",
"E. c #E66BB3",
"W. c #E374B3",
"Q. c #E37CB4",
"!. c #EB7CBC",
"~. c #E877B8",
"^. c #F37ABC",
"/. c #F36CB8",
"(. c #E25495",
"). c #EC7CC2",
"_. c #F77BC4",
"`. c #F773C5",
"'. c #DC7EC1",
"]. c #73B18A",
"[. c #6CE09A",
"{. c #7FF8C3",
"}. c #888485",
"|. c #958F90",
" X c #AE8698",
".X c #BA89A4",
"XX c #A6ACA7",
"oX c #C885A8",
"OX c #D583AD",
"+X c #DB84B4",
"@X c #D58AB3",
"#X c #DB8AB5",
"$X c #D987B6",
"%X c #DA96BA",
"&X c #CA92B1",
"*X c #E484BB",
"=X c #EB83BC",
"-X c #E38BBC",
";X c #E586B8",
":X c #F385BD",
">X c #E494BD",
",X c #E88BB4",
"<X c #D4A6BB",
"1X c #C889A3",
"2X c #8CF6B2",
"3X c #94D8A8",
"4X c #DD96C3",
"5X c #EC8BC3",
"6X c #EA87C4",
"7X c #F384C3",
"8X c #F38BC5",
"9X c #F48CCB",
"0X c #FB8CCB",
"qX c #FA86C8",
"wX c #EB93C4",
"eX c #EC9CCA",
"rX c #E797C5",
"tX c #F493CB",
"yX c #FB93CC",
"uX c #F39BCC",
"iX c #F695C8",
"pX c #FC8CD2",
"aX c #FC94D3",
"sX c #FC9BD3",
"dX c #F798D4",
"fX c #EC99D2",
"gX c #DBA7C5",
"hX c #D8B5CA",
"jX c #E8A5CA",
"kX c #F3A4CD",
"lX c #EBA9D3",
"zX c #F8A6D6",
"xX c #EAB7D5",
"cX c #F5B6DA",
"vX c #E7B4CD",
"bX c #FDBAE5",
"nX c #FDAAE3",
"mX c #FF9BE2",
"MX c #A1F6C9",
"NX c #EAC6DA",
"BX c #F1C7DD",
"VX c #FBC8E7",
"CX c #FAD6EA",
"ZX c #FFCBF4",
"AX c #FED9F7",
"SX c #EBD2E4",
"DX c #FFE4FD",
"FX c #FFECFE",
"GX c #FCE6F4",
"HX c #FFF4FE",
"JX c #FEFDFE",
"KX c #F8FAF9",
"LX c #EFECEE",
"PX c #D4DCDA",
"IX c #C5C7BA",
"UX c #84857F",
/* pixels */
"                                                                                                                                                                                                                                                                                                                                                                                                                                                                                                                                                                                                                                                                                                                                                                                                                                                                                                                                                                                                                                        ",
"                                                                                                                                                                                                                                                                                                                                                                                                                                                                                                                                                                                                                                                                                                                                                                                                                                                                                                                                                                                                                                        ",
"                                                                                                                                                                                                                                                                                                                                                                                                                                                                                                                                                                                                                                                                                                                                                                                                                                                                                                                                                                                                                                        ",
"                                                                                                                                                                                                                                                                                                                                                                                                                                                                                                                                                                                                                                                                                                                                                                                                                                                                                                                                                                                                                                        ",
"                                                                                                                                                                                                                                                                                                                                                                                                                                                                                                                                                                                                                                                                                                                                                                                                                                                                                                                                                                                                                                        ",
"                                                                                                                                                                                                                                                                                                                                                                                                                                                                                                                                                                                                                                                                                                                                                                                                                                                                                                                                                                                                                                        ",
"                                                                                                                                                                                                                                                                                                                                                                                                                                                                                                                                                                                                                                                                                                                                                                                                                                                                                                                                                                                                                                        ",
"                                                                                                                                                                                                                                                                                                                                                                                                                                                                                                                                                                                                                                                                                                                                                                                                                                                                                                                                                                                                                                        ",
"                                                                                                                                                                                                                                                                                                                                                                                                                                                                                                                                                                                                                                                                                                                                                                                                                                                                                                                                                                                                                                        ",
"                                                                                                                                                                                                                                                                                                                                                                                                                                                                                                                                                                                                                                                                                                                                                                                                                                                                                                                                                                                                                                        ",
"                                                                                                                                                                                                                                                                                                                                                                                                                                                                                                                                                                                                                                                                                                                                                                                                                                                                                                                                                                                                                                        ",
"                                                                                                                                                                                                                                                                                                                                                                                                                                                                                                                                                                                                                                                                                                                                                                                                                                                                                                                                                                                                                                        ",
"                                                                                                                                                                                                                                                                                                                                                                                                                                                                                                                                                                                                                                                                                                                                                                                                                                                                                                                                                                                                                                        ",
"                                                                                                                                                                                                                                                                                                                                                                                                                                                                                                                                                                                                                                                                                                                                                                                                                                                                                                                                                                                                                                        ",
"                                                                                                                                                                                                                                                                                                                                                                                                                                                                                                                                                                                                                                                                                                                                                                                                                                                                                                                                                                                                                                        ",
"                                                                                                                                                                                                                                                                                                                                                                                                                                                                                                                                                                                                                                                                                                                                                                                                                                                                                                                                                                                                                                        ",
"                                                                                                                                                                                                                                                                                                                                                                                                                                                                                                                                                                                                                                                                                                                                                                                                                                                                                                                                                                                                                                        ",
"                                                                                                                                                                                                                                                                                                                                                                                                                                                                                                                                                                                                                                                                                                                                                                                                                                                                                                                                                                                                                                        ",
"                                                                                                                                                                                                                                                                                                                                                                                                                                                                                                                                                                                                                                                                                                                                                                                                                                                                                                                                                                                                                                        ",
"                                                                                                                                                                                                                                                                                                                                                                                                                                                                                                                                                                                                                                                                                                                                                                                                                                                                                                                                                                                                                                        ",
"                                                                                                                                                                                                                                                                                                                                                                                                                                                                                                                                                                                                                                                                                                                                                                                                                                                                                                                                                                                                                                        ",
"                                                                                                                                                                                                                                                                                                                                                                                                                                                                                                                                                                                                                                                                                                                                                                                                                                                                                                                                                                                                                                        ",
"                                                                                                                                                                                                                                                                                                                                                                                                                                                                                                                                                                                                                                                                                                                                                                                                                                                                                                                                                                                                                                        ",
"                                                                                                                                                                                                                                                                                                                                                                                                                                                                                                                                                                                                                                                                                                                                                                                                                                                                                                                                                                                                                                        ",
"                                                                                                                                                                                                                                                                                                                                                                                                                                                                                                                                                                                                                                                                                                                                                                                                                                                                                                                                                                                                                                        ",
"                                                                                                                                                                                                                                                                                                                                                                                                                                                                                                                                                                                                                                                                                                                                                                                                                                                                                                                                                                                                                                        ",
"                                                                                                                                                                                                                                                                                                                                                                                                                                                                                                                                                                                                                                                                                                                                                                                                                                                                                                                                                                                                                                        ",
"                                                                                                                                                                                                                                                                                                                                                                                                                                                                                                                                                                                                                                                                                                                                                                                                                                                                                                                                                                                                                                        ",
"                                                                                                                                                                                                                                                                                                                                                                                                                                                                                                                                                                                                                                                                                                                                                                                                                                                                                                                                                                                                                                        ",
"                                                                                                                                                                                                                                                                                                                                                                                                                                                                                                                                                                                                                                                                                                                                                                                                                                                                                                                                                                                                                                        ",
"                                                                                                                                                                                                                                                                                                                                                                                                                                                                                                                                                                                                                                                                                                                                                                                                                                                                                                                                                                                                                                        ",
"                                                                                                                                                                                                                                                                                                                                                                                                                                                                                                                                                                                                                                                                                                                                                                                                                                                                                                                                                                                                                                        ",
"                                                                                                                                                                                                                                                                                                                                                                                                                                                                                                                                                                                                                                                                                                                                                                                                                                                                                                                                                                                                                                        ",
"                                                                                                                                                                                                                                                                                                                                                                                                                                                                                                                                                                                                                                                                                                                                                                                                                                                                                                                                                                                                                                        ",
"                                                                                                                                                                                                                                                                                                                                                                                                                                                                                                                                                                                                                                                                                                                                                                                                                                                                                                                                                                                                                                        ",
"                                                                                                                                                                                                                                                                                                                                                                                                                                                                                                                                                                                                                                                                                                                                                                                                                                                                                                                                                                                                                                        ",
"                                                                                                                                                                                                                                                                                                                                                                                                                                                                                                                                                                                                                                                                                                                                                                                                                                                                                                                                                                                                                                        ",
"                                                                                                                                                                                                                                                                                                                                                                                                                                                                                                                                                                                                                                                                                                                                                                                                                                                                                                                                                                                                                                        ",
"                                                                                                                                                                                                                                                                                                                                                                                                                                                                                                                                                                                                                                                                                                                                                                                                                                                                                                                                                                                                                                        ",
"                                                                                                                                                                                                                                                                                                                                                                                                                                                                                                                                                                                                                                                                                                                                                                                                                                                                                                                                                                                                                                        ",
"                                                                                                                                                                                                                                                                                                                                                                                                                                                                                                                                                                                                                                                                                                                                                                                                                                                                                                                                                                                                                                        ",
"                                                                                                                                                                                                                                                                                                                                                                                                                                                                                                                                                                                                                                                                                                                                                                                                                                                                                                                                                                                                                                        ",
"                                                                                                                                                                                                                                                                                                                                                                                                                                                                                                                                                                                                                                                                                                                                                                                                                                                                                                                                                                                                                                        ",
"                                                                                                                                                                                                                                                                                                                                                                                                                                                                                                                                                                                                                                                                                                                                                                                                                                                                                                                                                                                                                                        ",
"                                                                                                                                                                                                                                                                                                                                                                                                                                                                                                                                                                                                                                                                                                                                                                                                                                                                                                                                                                                                                                        ",
"                                                                                                                                                                                                                                                                                                                                                                                                                                                                                                                                                                                                                                                                                                                                                                                                                                                                                                                                                                                                                                        ",
"                                                                                                                                                                                                                                                                                                                                                                                                                                                                                                                                                                                                                                                                                                                                                                                                                                                                                                                                                                                                                                        ",
"                                                                                                                                                                                                                                                                                                                                                                                                                                                                                                                                                                                                                                                                                                                                                                                                                                                                                                                                                                                                                                        ",
"                                                                                                                                                                                                                                                                                                                                                                                                                                                                                                                                                                                                                                                                                                                                                                                                                                                                                                                                                                                                                                        ",
"                                                                                                                                                                                                                                                                                                                                                                                                                                                                                                                                                                                                                                                                                                                                                                                                                                                                                                                                                                                                                                        ",
"                                                                                                                                                                                                                                                                                                                                                                                                                                                                                                                                                                                                                                                                                                                                                                                                                                                                                                                                                                                                                                        ",
"                                                                                                                                                                                                                                                                                                                                                                                                                                                                                                                                                                                                                                                                                                                                                                                                                                                                                                                                                                                                                                        ",
"                                                                                                                                                                                                                                                                                                                                                                                                                                                                                                                                                                                                                                                                                                                                                                                                                                                                                                                                                                                                                                        ",
"                                                                                                                                                                                                                                                                                                                                                                                                                                                                                                                                                                                                                                                                                                                                                                                                                                                                                                                                                                                                                                        ",
"                                                                                                                                                                                                                                                                                                                                                                                                                                                                                                                                                                                                                                                                                                                                                                                                                                                                                                                                                                                                                                        ",
"                                                                                                                                                                                                                                                                                                                                                                                                                                                                                                                                                                                                                                                                                                                                                                                                                                                                                                                                                                                                                                        ",
"                                                                                                                                                                                                                                                                                                                                                                                                                                                                                                                                                                                                                                                                                                                                                                                                                                                                                                                                                                                                                                        ",
"                                                                                                                                                                                                                                                                                                                                                                                                                                                                                                                                                                                                                                                                                                                                                                                                                                                                                                                                                                                                                                        ",
"                                                                                                                                                                                                                                                                                                                                                                                                                                                                                                                                                                                                                                                                                                                                                                                                                                                                                                                                                                                                                                        ",
"                                                                                                                                                                                                                                                                                                                                                                                                                                                                                                                                                                                                                                                                                                                                                                                                                                                                                                                                                                                                                                        ",
"                                                                                                                                                                                                                                                                                                                                                                                                                                                                                                                                                                                                                                                                                                                                                                                                                                                                                                                                                                                                                                        ",
"                                                                                                                                                                                                                                                                                                                                                                                                                                                                                                                                                                                                                                                                                                                                                                                                                                                                                                                                                                                                                                        ",
"                                                                                                                                                                                                                                                                                                                                                                                                                                                                                                                                                                                                                                                                                                                                                                                                                                                                                                                                                                                                                                        ",
"                                                                                                                                                                                                                                                                                                                                                                                                                                                                                                                                                                                                                                                                                                                                                                                                                                                                                                                                                                                                                                        ",
"                                                                                                                                                                                                                                                                                                                                                                                                                                                                                                                                                                                                                                                                                                                                                                                                                                                                                                                                                                                                                                        ",
"                                                                                                                                                                                                                                                                                                                                                                                                                                                                                                                                                                                                                                                                                                                                                                                                                                                                                                                                                                                                                                        ",
"                                                                                                                                                                                                                                                                                                                                                                                                                                                                                                                                                                                                                                                                                                                                                                                                                                                                                                                                                                                                                                        ",
"                                                                                                                                                                                                                                                                                                                                                                                                                                                                                                                                                                                                                                                                                                                                                                                                                                                                                                                                                                                                                                        ",
"                                                                                                                                                                                                                                                                                                                                                                                                                                                                                                                                                                                                                                                                                                                                                                                                                                                                                                                                                                                                                                        ",
"                                                                                                                                                                                                                                                                                                                                                                                                                                                                                                                                                                                                                                                                                                                                                                                                                                                                                                                                                                                                                                        ",
"                                                                                                                                                                                                                                                                                                                                                                                                                                                                                                                                        { >.5.5.                                                                                                                                                                                                                                                                                                                                                                                                                                                                                        ",
"                                                                                                                                                                                                                                                                                                                                                                                                                                                                                                                                        >.4.,.>.d                                                                                                                                                                                                                                                                                                                                                                                                                                                                                       ",
"                                                                                                                                                                                                                                                                                                                                                                                                                                                                                                                                        >.4.,.o.w                                                                                                                                                                                                                                                                                                                                                                                                                                                                                       ",
"                                                                                                                                                                                                                                                                                                                                                                                                                                                                                                                                        { >.>.:.=                                                                                                                                                                                                                                                                                                                                                                                                                                                                                       ",
"                                                                                                                                                                                                                                                                                                                                                                                                                                                                                                                                                                                                                                                                                                                                                                                                                                                                                                                                                                                                                                        ",
"                                                                                                                                                                                                                                                                                                                                                                                                                                                                                                                                                                                                                                                                                                                                                                                                                                                                                                                                                                                                                                        ",
"                                                                                                                                                                                                                                                                                                                                                                                                                                                                                                                                                                                                                                                                                                                                                                                                                                                                                                                                                                                                                                        ",
"                                                                                                                                                                                                                                                                                                                                                                               XoXoX@X.X                                                                                                                                                                                                                                                                                                                                                                                                                                                                                                                                                                                                                                                ",
"                                                                                                                                                                                                                                                                                                                                                                              t.$XI.+XoX                                                                                                                                                                                                                                                                                                                                                                                                                                                                                                                                                                                                                                                ",
"                                                                                                                                                                                                                                                                                                                                                                               XOXK.OXu.                                                                                                                                                                gX%X%X&X                                                                                                                                                                                                                                                                                                                                                                                                                                                                        ",
"                                                                                                                                                                                                                                                                                                                                                                               X&X.X.X X                                                                                                                                                                <X%X%X%X                                                                                                                                                                                                                                                                                                                                                                                                                                                                        ",
"                                                                                                                                                                                                                                                                                                                                                                                                                                                                                                                                                        gX&X#X%X                                                                                                                                                                                                                                                                                                                                                                                                                                                                        ",
"                                                                                                                                                                                                                                                                                                                                                                                                                                                                                                                                                        .X&X&X&X                                                                                                                                                                                                                                                                                                                                                                                                                                                                        ",
"                                                                                                                                                                                                                                                                                                                                                                                                                                                                                                                                                                                                                                                                                                                                                                                                                                                                                                                                                                                                                                        ",
"                                                                                                                                                                                                                                                                                                                                                                                                                                                                                                                                                                                                                                                                                                                                                                                                                                                                                                                                                                                                                                        ",
"                                                                                                                                                                                                                                                                                                                                                                                                                                                                                                                                                                                                                                                                                                                                                                                                                                                                                                                                                                                                                                        ",
"                                                                                                                                                                                                                                                                                                                                                                                                                                                                                                                                                                                                                                                                                                                                                                                                                                                                                                                                                                                                                                        ",
"                                                                                                                                                                                                                                                                                                                                                                                                                                                                                                                                                                                                                                                                                                                                                                                                                                                                                                                                                                                                                                        ",
"                                                                                                                                                                                                                                                                                                                                                                                                                                                                                                                                                                                                                                                                                                                                                                                                                                                                                                                                                                                                                                        ",
"                                                                                                                                                                                                                                                                                                                                                                                                                                                                                                                                                                                                                                                                                                                                                                                                                                                                                                                                                                                                                                        ",
"                                                                                                                                                                                                                                                                                                                                                                                                                                                                                                                                                                                                                                                                                                                                                                                                                                                                                                                                                                                                                                        ",
"                                                                                                                                                                                                                                                                                                                                                                                                                                                                                                                                                                                                                                                                                                                                                                                                                                                                                                                                                                                                                                        ",
"                                                                                                                                                                                                                                                                                                                                                                                                                                                                                                                                                                                                                                                                                                                                                                                                                                                                                                                                                                                                                                        ",
"                                                                                                                                                                                                                                                                                                                                                                                                                                                                                                                                                                                                                                                                                                                                                                                                                                                                                                                                                                                                                                        ",
"                                                                                                                                                                                                                                                                                                                                                                                                                                                                                                                                                                                                                                                                                                                                                                                                                                                                                                                                                                                                                                        ",
"                                                                                                                                                                                                                                                                                                                                                                                                                                                                                                                                                                                                                                                                    .X.X.X.X                                                                                                                                                                                                                                                                                                                                                            ",
"                                                                                                                                                                                                                                                                                                                                                                                                                                                                                                                                                                                                                                                                    F.+XK.oXw                                                                                                                                                                                                                                                                                                                                                           ",
"                                                                                                                                                                                                                                                                                                                                                                                                                                                                                                                                                                                                                                                                    K.L.P.OX                                                                                                                                                                                                                                                                                                                                                            ",
"                                                                                                                                                                                                                                                                                                                                                                                                                                                                                                                                                                                                                                                                    oXOXOXoX                                                                                                                                                                                                                                                                                                                                                            ",
"                                                                                                                                                                                                                                                                                                                                                                                                                                                                                                                                                                                                                                                                     . . .$.                                                                                                                                                                                                                                                                                                                                                            ",
"                                                                                                                                                                                                                                                                                                                                                                                                                                                                                                                                                                                                                                                                                                                                                                                                                                                                                                                                                                                                                                        ",
"                                                                                                                                                                                                                                                                                                                                                                                                                                                                                                                                                                                                                                                                                                                                                                                                                                                                                                                                                                                                                                        ",
"                                                                                                                                                                                                                                                                                                                                                                                                                                                                                                                                                              F                                                                                                                                                                                                                                                                                                                                                                                                                                                                         ",
"                                                                                                                                                                                                                                                                                                                                                                                                                                                                                                                                                              G                                                                                                                                                                                                                                                                                                                                                                                                                                                                         ",
"                                                                                                                                                                                                                                                                                                                                                                                                                                                                                                                                                              [                                                                                                                                                                                                                                                                                                                                                                                                                                                                         ",
"                                                                                                                                                                                                                                                                                                                                                                                                                                                                                                                                                              '                                                                                                                                                                                                                                                                                                                                                                                                                                                                         ",
"                                                                                                                                                                                                                                                                                                                                                                                                        w G                                                                                                                                                   '                                                                                                                                                                                                                                                                                                                                                                                                                                                                         ",
"                                                                                                                                                                                                                                                                                                                                                                                                        = S                                                                                                                                                   {                                                                                                                                                                                                                                                                                                                                                                                                                                                                         ",
"                                                                                                                                                                                                                                                                                                                                                                                                                                                                                                                                                            v F.                                                                                                                                                                                                                                                                                                                                                                                                                                                                        ",
"                                                                                                                                                                                                                                                                                                                                                                                                            h S                                                                                                                                             v oX                                                                                                                                                                                                                                                                                                                                                                                                                                                                        ",
"                                                                                                                                                                                                                                                                                                                                                                                                            b '                                                                                                                                             v u.                                                                                                                                                                                                                                                                                                                                                                                                                                                                        ",
"                                                                                                                                                                                                                                                                                                                                                                                                            v '                                                                                                                                               w.                                                                                                                                                                                                                                                                                                                                                                                                                                                                        ",
"                                                                                                                                                                                                                                                                                                                                                                                                              ]                                                                                                                                               y.                                                                                                                                                                                                                                                                                                                                                                                                                                                                        ",
"                                                                                                                                                                                                                                                                                                                                                                                                              '                                                                                                                                             v t.                                                                                                                                                                                                                                                                                                                                                                                                                                                                        ",
"                                                                                                                                                                                                                                                                                                                                                                                                              b                                                                                                                                             n u.                                                                                                                                                                                                                                                                                                                                                                                                                                                                        ",
"                                                                                                                                                                                                                                                                                                                                                                                                                  c                                                                                                                                         n F.                                                                                                                                                                                                                                                                                    [ G                                                                                                                                                                                 ",
"                                                                                                                                                                                                                                                                                                                                                                                                                z [                                                                                                                                         v F.                                                                                                                                                                                                                                                                                    ' S                                                                                                                                                                                 ",
"                                                                                                                                                                                                                                                                                                                                                                                      <X<X&X&X                  h '                                                                                                                                         m F.                                                                                                                                                                                                                                                                                    [ S                                                                                                                                                                                 ",
"                                                                                                                                                                                                                                                                                                                                                                                      %X%X%X<X                  z '                                                                                                                                         n oX                                                                                                                                                                                                                                                                                                                                                                                                                                                                        ",
"                                                                                                                                                                                                                                                                                                                                                                                      %X>X%X%X                    '                                                                                                                                         n oX                                                                                                                                                                                                                                                                                                                                                                                                                                                                        ",
"                                                                                                                                                                                                                                                                                                                                                                                      <X%X%X%X                                                                                                                                                              m F.                                                                                                                                                                                                                                                                                                                                                                                                                                                                        ",
"                                                                                                                                                                                                                                                                                                                                                                                      c c c A                       e [                                                                                                                                     v u.                                                                                                                                                                                                                                                                                                                                                                                                                                                                        ",
"                                                                                                                                                                                                                                                                                                                                                                                                                    9 ..                                                                                                                                    v u.                                                                                                                                                                                                                                                                                                                                                                                                                                                                        ",
"                                                                                                                                                                                                                                                                                                                                                                                                                      ..d                                                                                                                                   v t.                                                                                                                                                                                                                                                                                                                                                                                                                                                                        ",
"                                                                                                                                                                                                                                                                                                                                                                                                                      ..l                                                                                                                                   v t.                                                                                                                                                                                                                                                                                                                                                                                                                                                                        ",
"                                                                                                                                                                                                                                                                                                                                                                                                                      ' d                                                                                                                                   v t.                                                                                                                                                                                                                                                                                                                                                                                                                                                                        ",
"                                                                                                                                                                                                                                                                                                                                                                                                                      [ d                                                                                                                                   v t.                                                                                                                                                                                                                                                                                                                                                                                                                                                                        ",
"                                                                                                                                                                                                                                                                                                                                                                                                                                                                                                                                                            v t.                                                                                                                                                                                                                                                                                                                                                                                                                                                                        ",
"                                                                                                                                                                                                                                                                                                                                                                                                                          ' F                                                                                                                               v t.                                                                                    [ F                                                                                                                                                                                                                                                                                                                                                                                 ",
"                                                                                                                                                                                                                                                                                                                                                                                                                          ' S                                                                                                                               v t.                                                                                     .}                                                                                                                                                                                                                                                                                                                                                                                 ",
"                                                                                                                                                                                                                                                                                                                                                                                                                          ' F                                                                                                                               v t.                                                                                    ] R                                                                                                                                                                       d $.D                                                                                                                                                                                                     ",
"                                                                                                                                                                                                                                                                                                                                                                                                                          [ A                                                                                                                               c t.                                                                                    } ]                                                                                                                                                                       e A                                                                                                                                                                                                       ",
"                                                                                                                                                                                                                                                                                                                                                                                                                                                                                                                                                            v t.                                                                                    } }                                                                                                                                                                   f | F                                                                                                                                                                                                         ",
"                                                                                                                                                                                                                                                                                                                                                                                                                                                                                                                                                            z t.                                                                                    } }                                                                                                                                                                     F                                                                                                                                                                                                           ",
"                                                                                                                                                                                                                                                                                                                                                                                                                              G S                                                                                                                           v t.                                                                                    { '                           9 y y 9                                                                                                                                                                                                                                                                                                                                               ",
"                                                                                                                                                                                                                                                                                                                                                                                                                              ' [                                                                                                                           Y r.                                                                                    d                           :.F.H.B.b.                                                                                                                              l                                                                                                                                                                                                               ",
"                                                                                                                                                                                                                                                                                                                                                                                                                              [  .                                                                                                                        n } t.                                                                                [ '                             | K.J.Z.K.                                                                                                                            A G                                                                                                                                                                                                               ",
"                                                                                                                                                                                                                                                                                                                                                                                                                              ' ]                                                                                                                         ' 8.#X                                        S oXF.K.F.                               .'                             | F.Z.B.b.                                                                                                                          A 0                                                                                                                                                                                                                 ",
"                                                                                                                                                                                                                                                                                                                                                                                                                              S k v S                                                                                                                     ] k.eX                                        F #XQ.Q.-X                              } Y                             q.t.F.F.y.                                                                                                                        z '                                                                                                                                                                                                                   ",
"                                                                                                                                                                                                                                                                                                                                                                                                                              l x r.q.                                                                                                                    R 9.rX                                        F @XI.Q.L.                              >.]                                                                                                                                                               v S                                                                                                                                                                                                                   ",
"                                                                                                                                                                                                                                                                                                                                                                                                                                  e.t.                                                                                                                    } 9.rX                                        A &X$X+X#X                              >.]                                                                                                                                     V KXJXJXKX              [ ' l                                                                                                                                                                                                                   ",
"                                                                                                                                                                                                                                                                                                                                                                                                                                  5.t.                                                                                                                    o.k.rX                                          F S ' F                               :.{                                                                                                                                     B JXJXKXJX            d j                                                                                                                                                                                                                       ",
"                                                                                                                                                                                                                                                                                                                                                                                                                                  ' }                                                                                                                     o.k.rXG                                                                               :.{                                                                                                                                     B JXKXJXKX          F                                                                                                                                                                                                                           ",
"                                                                                                                                                                                                                                                                                                                                                                                                                                  ' P Y [                                                                                                                 } k.rXG                                                                               z                                                                                                                                         JXJXKXJX          '                                                                                                                                                                                                                           ",
"                                                                                                                                                                                                                                                                                                                                                                                                                                  v T B.w.                          |                                                                                     } x.rX[                                                                            .'                                                                                                                                                             |                                                                                                                                                                                                                           ",
"                                                                                                                                                                                                                                                                                                                                                                                                                                  S ] r.5.                        c ..                                                                                    } x.rX[                                                                           } Y                                                                                                                                                           c '                                                                                                                                                                                                                           ",
"                                                                                                                                                                                                                                                                                                                                                                                                                                      { y.                        c ..                                                                                    } l.wX[                                                                           o.R                                                                                                                                                         z v F                                                                                                                                                                                                                           ",
"                                                                                                                                                                                                                                                                                                                                                                                                                                      ' |                         l ..                                                                                    } l.wX[                                                                           o.]                                                                                                                                                       j ' v f                                                                                                                                                                                                                           ",
"                                                                                                                                                                                                                                                                                                                                                                                                                                      c m M                       c  .                                                                                    } l.wX[                                                                           o.]                                                                                                                                                   Z F } ]                                                                                                                                                                                                                               ",
"                                                                                                                                                                                                                                                                                                                                                                                                                                      F Y }  .                      |                                                                                     } l.wX[                                                                           o.]                                                                                                                                                   A |  . .                                                                                                                                                                                                                              ",
"                                                                                                                                                                                                                                                                                                                                                                                                                                      v R G.t.                      l                           |.|.|.}.C                                                 } x.wX[                                                                           @.{                                                                                                                                                   F v                                                                                                                                                                                                                                   ",
"                                                                                                                                                                                                                                                                                                                                                                                                                                      v T z.t.                                                  JXJXKXJXXX                                                } x.wX[                                                   H [ ' |                  .[                                                                                                                                                   Y z                                                                                                                                                                                                                                   ",
"                                                                                                                                                                                                                                                                                                                                                                                                                                      j P x.r.                          F                       JXKXKXJXXX                                                } x.5X[                                                   { >.o.o.          c v v                                                                                                                                                   l x @.l                                                                                                                                                                                                                                   ",
"                                                                                                                                                                                                                                                                                                                                                                                                                                        v D.t.                           .b                     JXJXJXKX|.                                                ] k.5X[                                                   } X.^ X.          Y 7.]                                                                                                                                                   ' }  .c                                                                                                                                                                                                                                   ",
"                                                                                                                                                                                                                                             . .| |                                                                                                                                                                                       Y @.k z                       @.v                     KXLXKXKXXX                                                ] k.6X|                                                    .o.o.@.        9 L x.}                                                                                                                                                   ..@.                                                                                                                                                                                                                                      ",
"                                                                                                                                                                                                                                          t.OXK.K.F.                                                                                                                                                                                      a L T w.                      8.x                                                                               ] s.-X{                                                     ' Y n         M E s.o.                                                                                                                                                  '  .                                                                                                                                                                                                                                      ",
"                                                                                                                                                                                                                                          t.D.Z.B.F.                                                                                                                                                                                      j L 7.r.                      1.k                                                                               ] 9.=Xr.v c                                                               M R s.o.                                                                                                                                              c ' d                                                                                                                                                                                                                                         ",
"                                                                                                                                                                                                                                          y.K.+XK.u.                                                                                                                                                  g :.0.7.w.                          d Y 9.b.                      @.k                                                                               ] 9.6Xx.Y '                                                               M T s.}                                                                                                                                                .w.                                                                                                                                                                                                                                          ",
"                                                                                                                                                                                                                                            ' F F H                                                                                                                                                   d 0.g.3.8.                            v r.F.                      8.R '                                                                             ] s.6XZ.T '                                                               d R C.}                                                                                                                                             Y o.:.                                                                                                                                                                                                                                          ",
"                                                                                                                                                                                                                                                                                                                                                                                                      d 9.g.3.9.                              n 5.                      o.T ]                                                                             ] s.7XC.R }                                                               z R l.]                                                                                                                                            .r.8.:.                                                                                                                                                                                                                                          ",
"                                                                                                                                                                                                                                                                                                                                                                                                      d e.7.8.5.                              z ] 5. .                  @.o.x.'                                                                           ] x.6XJ.R {                                                               m R ,.]                                                                                                                                       F } 9.r.a                                                                                                                                                                                                                                             ",
"                                                                                                                                                                                                                                                                                                                                                                                                        v                                     z T 5.y.                  ' @.x.Y                                                                           ] l.8XJ.R {                                                               Y o.8.'                                                                                                                                       { 8.1.5.                                                                                                                                                                                                                                              ",
"                                                                                                                                                                                                                                                                                                                                                                                                                                              j T 7.oX                    x 9.]                                                                           ] k.7XU.R {                                                             j z.x.a                                                                                                                                       k 7.J.} {                                                                                                                                                                                                                                               ",
"                                                                                                                                                                                                                                                                                                                                                                                                                                              h ] r.@X                      r.Y                                                         PXLXLXPX          o.l.8XU.R {                                                             z I.x.                                                                                                                                        o.k.G.P                                                                                                                                                                                                                                                 ",
"                                                                                                                                                                                                          c e                                                                                                                                                                                                                                 d ' 8.OXh                     r.'                                                       C KXLXLXSX          7.Z.0XW.} {                                                             k A.6.                                                                                                                                      L d.p.k.                                                                                                                                                                                                                                                  ",
"                                                                                                                                                                                                          | ' l                                                                                                                                                                                                                                 ' e.;X] '                   w.'                                                       Z KXLXLXPX          D.I.0XQ.} {                                                             x W.7.                                                                                                                                    5.Z.R.T ..                                                                                                                                                                                                                                                  ",
"                                                                                                                                                                                                          l P  .d                                                                                                                                                                                                                                 v x.] ]                   A                                                         C LXLXLXPX         .-X5X0X~.o.{                                                             Y v.5.                                                                                                                                    9.Z.Z.k                                                                                                                                                                                                                                                     ",
"                                                                                                                                                                                                              w.l                                                                                                                                                                                                                                 z b.8.@.                      .. .                                                                     .uX8X8X!.o.{                                                           x o.o.'                                                                                                                               f  .8.V.D.b.j                                                                                                                                                                                                                                                     ",
"                                                                                                                                                                                                              c                                                                                                                                                                                                                                   j e.n.x.y                     } @.                                                                     .wXiX0X!.o.{                                                           @.! x                                                                                                                                 a 9.V.H.5.v                                                                                                                                                                                                                                                       ",
"                                                                                                                                                                                                                   .                                                                                                                                                                                                                                T Q.,X@.F                   7.2.Y                                                                   | wXiX0X=Xo.{                                                       e ] =X1.                                                                                                                                  E g.I.F.n                                                                                                                                                                                                                                                         ",
"                                                                                                                                                                                                                  S                                                                                                                                                                                                                                 P P.R.} Y                   ;Xd.T                                                                   | wX8X0X6Xo.{                                                       d ] =X7.                                                                                                                                I i.S.B.n                                                                                                                                                                                                                                                           ",
"                                                                                                                                                                                                                                                                                                                                                                                            G $.                                                    v k.;XR Y                   ;Xp.U                                                                   | wXiX0X6Xo.}                                                       h T ^.8.                                                            $. .                                                              j C.E.~.-X              A 5.5.5.[                                                                                                                                                                                                                                     ",
"                                                                                                                                                                                                                                                                                                                                                                                            S [                                                       x.J.! L                   K.d.T                                                                     wXwX9X6Xo.}                                                       j R 7X8.                                                            w. .                                                            z R C.^.J.F.              S e.6.9. .                                                                                                                                                                                                                                    ",
"                                                                                                                                                                                                                                                                                                                                                                                                v F                                                   } 1.A.Z.' e               x.6.U                                                                     wXwX9X6Xo.}                                                       x +.~.8.                                                            [ '                                                             r.C.S.A.a                 n r.g.0.}                                                                                                                                                                                                                                     ",
"                                                                                                                                                                                                                                                                                                                                                                                                v  .                                                  ] Q A.J.} S                .! T                                                                     wXwX9X6Xo.}                                                       Y Z.!.8.                                                                                                                            V.m.g.9.                  F 9.g.f.}                                                                                                                                                                                                                                     ",
"                                                                                                                                                                                                                                          @                                                                                                                                                     Y  .                                                    o.Z.R.o.v                .>.V.}                                                                   wXwX9X6Xo.{                                                       Y S.~.7.                                                        t Z                                                             d F V.W.V.Y                                                                 g D                                                                                                                                                                                             ",
"                                                                                                                                                                                                                                        G F                                                                                                                                                     S {                                                     { K.R.X.Y               ..5.6X5.                                                                  wXtX9X7Xo.{                                                       R S.~.8.                                                        ' y.                                                            5.r.H.H.e.n                                                                 v $.                                                                                                                                                                                            ",
"                                                                                                                                                                                                                                          d j 0                                                                                                                                                     e l                                                   5.f.c.x.z e               V.6.n                                                                 wXtX9X7Xo.{                                                   w z f.E.h.o.                                                        ' w.                                                          Y M.S.k.@.                                                                c S                                                                                                                                                                                                 ",
"                                                                                                                                                                                                                                            | {                                                                                                                                                     v ..                                                  ' 1.A.;XY b               6.,.1.{                                                               rX8X8X7Xo.}                                                   A } J.~.,.T                                                         b $.                                                          T A.A.Y v                                                                 l A                                                                                                                                                                                                 ",
"                                                                                                                                                                                                                                              y ' v                                                                                                                                                 v ..                                                    X.Z.R.} '               2.=.<.]                                                               rX8X8X:Xo. .            IXIXIXXX                              v T A.~.Q.w.                                                    $.'                                                             o.Q.W.J.' c                                                             ' [                                                                                                                                                                                                     ",
"                                                                                                                                                                                                                                                | '                                                                                                                                                 S ..                                                    o.z.L.k.e.              ! ) i.R                                                               wX8X8X=Xo. .          }.JXJXKXLX                              v o.S.~.K.w.                                                    y.w.                                                          a U.S.f.r.c                                                               ' F                                                                                                                                                                                                     ",
"                                                                                                                                                                                                                                                    v c                                                                                                                                                 h S                                                 5.P.Q.x.5.              o.j.qXD.                                                              rX8X8X:Xo. .          |.KXJXLXPX                              ' k.h.C.                                                        v F                                                         v R ~.A.E  .                                                            v n                                                                                                                                                                                                         ",
"                                                                                                                                                                                                                                                    F ' x                                                                                                                                               9  .                                                 .K.I.8.}               ] 3.0XK.                                                              wX8XqX:X>. .          |.JXJXJXPX                              ] Z.h.6.                                                    ' '                                                             } 4.W.H. .G                                                           d  .'                                                                                                                                                                                                         ",
"                                                                                                                                                                                                                                                        ' ' l                                                                                                                                           h ..                                                  @.+X7.5.              ' >.*XK.                                                              >X8XqX:X>. .          }.PXLXPXPX                              ] l.C.s.                                                     .@.                                                          v V.H.J.r.                                                            h Y  .                                                                                                                                                                                                          ",
"                                                                                                                                                                                                                                                        c { v                                                                                                                                           f  .                                                    L.B.z.              v } =XI.Y                                                             >X:X0X7X1.:.                                                  R d.C.8.                                                    o.8.                                                        ] 6.!.Q.B.:.                                                          b } ] |                                                                                                                                                                                                           ",
"                                                                                                                                                                                                                                                            v v '                                                                                                                                           c F                                                 ;XQ.8X8.v               k.f.5.                                                            wXiX:X0X8. .                                                Y 8.s.l.e.                                                    o.5.                                                        T 2.A.I.                                                            ' @.]                                                                                                                                                                                                               ",
"                                                                                                                                                                                                                                                            f | ' ..                                                                                                                                        ] @.                                                #X=X0Xs.}               >.4.6.                                                            5X5X8X8X1. .                                              v o.1.B.k.w.                                                F ] @.q.                                                    F P p.T.3.B.                                                          ' @.] '                                                                                                                                                                                                               ",
"                                                                                                                                                                                                                                                                q ..b                                                                                                                                       ..w.                                                5.L.qXg.o.              >.3.4.                                                        { r.5XwX7X7X8.:.                                              r.Q.6XwX                                                     .]                                                          .>.^.^.p.D.                                                        b ..}                                                                                                                                                                                                                   ",
"                                                                                                                                                                                                                                                                  ..{ '                                                       5.5.w.:.                                                                       .@.                                                Y Z.7Xi.R               R / ,.                                                       .7.Q.wX5XiX8XB.r.                                              r.=X9XwX                                                    5.5.                                                        R g.0X!.8.w.                                                      [ @.@.[                                                                                                                                                                                                                   ",
"                                                                                                                                                                                                                                                  F F ' F         v v ' b 9                                                   r.9.V.r.                                                                          v v                                             P x.7XA.Z.} d           o.O.~.5.                $.H                                 } p.=X8X=XiX8XI.F.                                              r.7X=X-X                                                    8.8.                                                    d Y C._.~.I.                                                        v w.}                                                                                                                                                                                                                       ",
"                                                                                                                                                                                                                                                S u.D.k.r.l           '  ...c                                                 z.M.M.r.                                                                          Y @.                                            ' k.^.E.W.9.'           o.O.7Xx.'               y.$.                                X.T.!.9XaX9X7X*XoX                                              r.8X).6X                                                F Y 8.@.                                                    Y 4.).`.S.B.                                                      { 5.' F                                                                                                                                                                                                                       ",
"                                                                                                                                                                                                                                                F u.Z.V.B.z           c z v ' 9 0                                             x.g.g.r.                                                                          ] 8.v                                               S.~.~.6.R           o.1.7Xl.Y                                               J q.6.i.~.pX8X8X7X;X@X                                              x.7X).I.                                                w.x.5.'                                                   z 4.a._.E.>.w.                                                    v @. .                                                                                                                                                                                                                          ",
"                                                                                                                                                                                                                                                ' H.Z.l.r.j               '  .' v                                             q.w.w.$.                                                                            5.Y v                                             L.T.W.3.R           | 5._.h.Y                   Y {                           y.8.^ !.0X7X7X7X*XOX                                              V.)._.H.      F { } Y                                   9.Z.M                                                   v E M.`._.S.Y '                                                   { 7.@...                                                                                                                                                                                                                          ",
"                                                                                                                                                                                                                                                ' u.B.D.t.f               f b ' } j l                                                                                                                               Y 5.                                            r.C.~.g.Q               g.m.D.                  9.9.                              ! 7X0X8X0X7X=X@X                                          f ' I._.E.L.      u.M.M.V.}                             f z x.D.                                                    } >.~.E.i.8.                                                    v 5. .q                                                                                                                                                                                                                             ",
"                                                                                                                                                                                                                                                                              ' 5...'                                                                                                                               v @.j                                           } k.~.S.1.v             1.m.I.v                 x.9.                              X.7X0X8X7X7X5X@X                                          ' Y 6X).!.F.      D.C.S.C.}                              .5.b.y.                                                  z B.~.qXW.>. .                                                  F w.w.[                                                                                                                                                                                                                               ",
"                                                                                                                                                                                                                                                                                  } } P v                                                                                                                           v w.{ d                                         v 9.!.!.J.]             8.c.L.v                 0.0.                              X.6X0X8X7X7X*X@X        t A                               r.l.~.U.          D.C.C.l.}                              .>.                                                    k E S.A.g.9.} F                                                 9 5. .                                                                                                                                                                                                                                  ",
"                                                                                                                                                                                                                                                                                   .5.o.5.a                                                                                                                         c y.@.' c                                       z 8.^./.~.}             T 4.I.x                 9.f.                              ! !.0X8X6X8X*X@X        A y.                              k.R.W.U.          t.z.D.b.                              o.x.                                                  j ! g._.T.X.Y                                                   v r.e.|                                                                                                                                                                                                                                   ",
"                                                                                                                                                                                                                                                                                    v ] 5.} m n                                                                                                                         z 5.5.                                      b 8.0X/.T.+.            ' 7.J.}                 9.V.                              ! ~.7X7X7X5X5X@X        S w.                              P.T.!.V.                                              Y 8.r.                                                j 5.a.T._.A.} j                                                 v e.b.h                                                                                                                                                                                                                                     ",
"                                                                                                                                                                                                                                                                                      F Y 5.>.5.                                                                                                                          F.b.Y S                                   b 5.:X^.^.T.#...c       v x.!.l. .              9.r.                              R Z.~.7X8X5X5X#X        F y.                              B.E.!.z.                                            v r.r.w.                                              l Y f./.`.7XJ.]                                                 v x.x.w.                                                                                                                                                                                                                                      ",
"                                                                                                                                                                                                                                                                                          } 8.s.5.Y                                                                                                                       F.z.T v                                      .z.C./.T.+.#.S         x !.l.5.              9.r.                              R s.W.0X7X5X5X%X        G y.                              B.W.^.x.                                            T 7.9                                                 n R S._.~.s.] e                                                .r.b.j                                                                                                                                                                                                                                         ",
"                                                                                                                                                                                                                                                                                          b } 7.6.R m                                                                                                                     oXz.T Y                                       ] 6.W.T.+.} c           =Xc.8.              r.r.                              E x.W.6XyX9X5X%X        G y.                              U.R.^.d.                                            E k.                                                  >.M.^._.S.T                                                 ] n.x.w.                                                                                                                                                                                                                                          ",
"                                                                                                                                                                                                                                                                                            v T H.9.9.x                                                                                                                   F o.k.o.                                        o.~.^.:XL.'           ;X~.V.              9.9.                              E s.Q.yX8X9XiX>X        F t.                          ' e.H.Z.^.l.                                        F v X.e.=                                             n E S.0X_.).s.z                                             [ #.n.n.P d                                                                                                                                                                                                                                           ",
"                                                                                                                                                                                                                                                                                              z 5.6.W.4.>.                                                                                                                    7.o.                                        R ^.^.qXG.P           I.~.Z.              7.s.                              E 9.J.yXyX9XwX>X        [ t.                          r.H.6X=X:Xk.                                        v Y e.t.=                                             } ^ S.qX!.~.5.d                                             ] L.z.r.'                                                                                                                                                                                                                                             ",
"                                                                                                                                                                                                                                                                                                M Y 1.O.d.T                                                                                                                   8.x.r.q.                                    R ^.~.:Xv.+.          I.W.B.              s.s.                              B.*X*XyXiXyXiX>X        ' y.                          r.C.9X9Xc.8.                                        ] x.' c                                               X.d.~.qXS.>.z                                             @.n.P.] 9                                                                                                                                                                                                                                               ",
"                                                                                                                                                                                                                                                                                                    @.4.S.h.T  .                                                                                                              y.t.D.t.                                    T !.^.0XR.p.#.        G.W.J.              5.0.@.'                         t.iXsXiXiXiX9XuX>X      z e.e.                          z.W.0X6X1.}                                         k.>X                                              n 5.l._.qX0Xx...                                          Y z.Q.G.b.c                                                                                                                                                                                                                                                 ",
"                                                                                                                                                                                                                                                                                                    v E -.S.^ 8.          q.w.y.q.                                                                                                r.t.                                  v ! T.T.^.^.S.d.        B.C.A.Y             v x R Y                         u.5X9XyXiXiXiXuX%X    c Y 8.e.                          B.7X!.H.} d                                         n.>X                                              } 6.!._.C.s.k                                           Y 8.Z.G.T z                                                                                                                                                                                                                                                   ",
"                                                                                                                                                                                                                                                                                                        R V.S.~.8.w.      .XF.D.F.S                                                                                               0.z.7.5.                              c T g.g.0XaX0XR.o.      9.c.7XG.@.            a R T                         F.iXaXsXiXwXtXwX%X    v o.6.8.                          K.qXC.6.                                        { 7.G.#X                                              6.C.pX7XI.9.                                        d a 8.A.R.D.'                                                                                                                                                                                                                                                     ",
"                                                                                                                                                                                                                                                                                                          a 4.C.l.8.      F.Y.I.K.S                                                                                               5.r.x.7.                                a R g.yX0XyX;X#.      o.h.^.c.#.            z 6.o.                        u.iXsXiXiXsXiXeX%X    ..+.O.1.                          U.).A.>.                                        8.Q.X.P                                             R 4.S.qX0XH.{                                         } 3.v.v.@.v                                                                                                                                                                                                                                                       ",
"                                                                                                                                                                                                                                                                                                            } 8.Z.;Xk.    D.U.D.K.v                                                                                               w.8.J.x.                                    X.aX0XtX*Xo.      } f.qXp.o.            j W.I.                        oXtXtXyXiXiXwXwXrX    { 1.O.o.                          K.6XJ.>.                                        r.=X@.A                                         a o.S.W.qXW.!.o.                                      5.o.C.S.v.k.v                                                                                                                                                                                                                                                         ",
"                                                                                                                                                                                                                                                                                                              x 8.C.p.,.T V.V.x.w.                                                                                                d j x.x.R '                                 >.8X7X8X*Xx.7.    x 8.7XS.o.              R.I.                        oXuXsXyXiXiXyXwX>X    } X.O.o.                      n >.6X6XA.o.                                        B.Q.                                          c Y W.!._.!.g.6.}                                       4.g.c.p.@.v                                                                                                                                                                                                                                                           ",
"                                                                                                                                                                                                                                                                                                                Y 7.Q.W.T.1.L                                                                                                         r.K.K.oX                              z o.8X8XyX8X:XOXY       W.S.o.              J.I.                        oXuXtXiXiXwXiX>X#X    } 1.O.o.                      } 9.9X7XA.X.                                        x.+X                                          { o.~.qXW.7Xs.} c                                     l.S.C.Z.r.'                                                                                                                                                                                                                                                             ",
"                                                                                                                                                                                                                                                                                                                  k 6.d.W.-.!                                                                                                         w.K.+XK.                                o.7X7X8XiXiXL.]       Z.C.k.]             A.I.                        .XuXaXyXsXiXiXwX#X    } X.O.o.                      5.g.)._.S.X.                                     .@.k.e.                                          D.I.^._._.~.}                                       ] h.C.l.5.c                                                                                                                                                                                                                                                               ",
"                                                                                                                                                                                                                                                                                                                  9 ] X.~.W.~.R @.F                                                                                                   | e.L.*X} '                             } 8X0X7X8X=XL.o.      l.:XsXx.@.          Z.L.                        oXuXaX9XwX-X5XwX%X    } O.<.o.                      r.C.^.7XR.}                                     G.P.5.q.                                        a H.!.).E.h.1.                                      x.A.m.c.7. .                                                                                                                                                                                                                                                                ",
"                                                                                                                                                                                                                                                                                                                      x X.Z.W.T 1.T                                                                                                       P.=X1.w.                              B.!.0X8X:XQ.@.      l.:XyXp.8.          Z.K.                        F.tXyX8XuXrXwXwX%X    } +.<.o.                      r.S.^.W.9.z                                     R.A.                                          j R !.^.!.S.3.Y                                     T S.T.c.p.                                                                                                                                                                                                                                                                    ",
"                                                                                                                                                                                                                                                                                                                      l Y r.~.~.^.l.5.                                                                                                    t.H.0.5.                              T s.7XqX8XQ.8.    x r.=XyXk.@.          D.K.                        F.iXyXyXbXbXuXtX>X    } ,.O.@.                      r.J.7XB.Y                                   v T h.p.                                      f w.L.J.^.7XqX3.o.v                                 z x.R.E.m.o.@.                                                                                                                                                                                                                                                                    ",
"                                                                                                                                                                                                                                                                                                                          { 1.S.W.g.4.s                                                                                                   y.H.9X6X                              Y 6.0X0X0XQ.s.8.Y   { D.iXn.o.          D.I.                        F.wX8X5XzXbXuXwX%X    5.s.6.@.                      r.I.8XH.{                                   @.1.h.7.                                      c 5.R.S.qXqX~.o.                                  d L J.^.T.f.x                                                                                                                                                                                                                                                                       ",
"                                                                                                                                                                                                                                                                                                                          ' ] 6.C.E.E.4.5.                                                                                                w.b.5X8Xr. .                          Y 7.0X7X8X9XyXB.]     | K.8.5.          D.L.Y                       F.5X0X;XjX%XeXrX%X    OXiXL.oX                      D.*X7XD.{                                   $X=XH.r.                                      u.=X0XqXqX0X6.Y                                 ' I.R.W.l.R ]                                                                                                                                                                                                                                                                         ",
"                                                                                                                                                                                                                                                                                                                              Y 9.E._.C.9.x v                                                                                                 B.9Xs.5.                            } =X:X8X7X8XH.o.    F D.1.1.Y         z.C.R v                     F.=X:X;XVXAXcXrX&X    F.-Xr.w.                      H.I.=XB. .                                  +XI.                                          D.=XqXpXpX0X9.z                               z T W.~.Q.z.} F                                                                                                                                                                                                                                                                         ",
"                                                                                                                                                                                                                                                                                                                                >.V.Y.~.!.Z.r.j                                                                                               :.5XI.OX                              7.J.yXyX7XC.R     n A.R.qXJ.T       r.C.S.F.                    F.=X:X;XAXFXbXrX%X    u.-XY                     ] 8.*X*X8XH.]                                   -XH.                                      u.OX8X8XaXpXW.B.Y                               Y R.~.W.Q.8.@.                                                                                                                                                                                                                                                                            ",
"                                                                                                                                                                                                                                                                                                                                  R >.9.A.T.A.>. .                                                                                            F r.K.#X                              r.G.5X0X0X=XZ.    ' v.T._.T.Q       o.4.E.=X                    F.:X:X;XAXHXbXrX4X    u.-X                      ;X:XyX*XJ.7.}                                   *Xz.                                      r.Q.:X8X9X0XA.7.                              o.~ /.^.A.B.x 9                                                                                                                                                                                                                                                                             ",
"                                                                                                                                                                                                                                                                                                                                    Y >.m.T.).g.B.} {                                                                                         c ' r.-X$X%X                          e.D.tX9X0XqXyXc.8.@.h.T.qX/.W       o.3.E.=X                    b.:X:X;XAXHXVX4X%X    u.>X                      iXyXaXU.4.o. .                              %X+XI.e.                                F  .>.H.7X0XaXdX9X9.}                             P J.W._.E.4.5.                                                                                                                                                                                                                                                                                ",
"                                                                                                                                                                                                                                                                                                                                      Y ! T.E.~.A.9.0.                                                                                             .B.Z.I.x                           Y I.8X0X0XqXc.1.T I p.qX/.^       1.a.).5X                    F.8X8X;XAXHXVX4X%X    .X>X                      sXyXaXU.o.Y h                               ;XJ.Y v                                 v 5.l.R.aX0X9XaX$X{                             @.,.A.W.S.J.}  .                                                                                                                                                                                                                                                                                ",
"                                                                                                                                                                                                                                                                                                                                          >.-._.pX!.~.o.@.                                                G                                       ' r.6X*Xx                           k +X5X9XqXqXC.1.    o.6XU.o.      >.i.!.*X                    K.0X8X;XAXHXVX4X%X    oX#X                  { B.aX9XdXY.R a                                 5XQ.v A                               z Y l.7X0X0XaXaX9XK.n                         F } J.~.qX~.0.>.                                                                            K.Y.H.F.                                                                                                                                                                                                ",
"                                                                                                                                                                                                                                                                                                                                          Y >.U.).~.A.4.x.                                                H                                         Y I.=XT                             I.7XpXqX0Xl.1.    :.6X6X8.      } ^ ~.6X                    F.7X8X-XGXHXVX%XrX    F.oX                  } Z.tXdXdXx.T x                                 !.I.                                  x R c.0X0XpXqX9X+Xt.l                         o.6.W.!.W.Z.Y '                                                                             A.T.A.D.                                                                                                                                                                                                ",
"                                                                                                                                                                                                                                                                                                                                              5.0.!.7X!.6Xf.6.                                                '                                       D.!.!.5Xe.'                     Y U.0X0X0X9XZ.4.    X.W.sXzX$Xx       B.*X                    OX5X8X-XCXHXVX#X-XR E R  .                  @.Z.aXtXdXZ.X.L                             u.U.R.k.                              v Y V.).0X0XyXaX9X=XY c                         } W.W./.W.8.r.                                                                                J.T.C.D.                                                                                                                                                                                                ",
"                                                                                                                                                                                                                                                                                                                                              { ] Z.~.).).Y.W.                                              Y ]                                       b.W.!.7X0.{                     ' D.W.7X0X9XU.g.4.  g.A.aXsXU.L       V.I.                    OX5X8X-XCXHXcXrX8X/ U ! @.                  o.Z.sXdXaXU.>.P                             U.U.6.@.                              } 0.W._.0X0X0X8X8X-XY                         E 3.E.E.T.g.L F                                                                                 D.B.H.u.                                                                                                                                                                                                ",
"                                                                                                                                                                                                                                                                                                                                                  o.f.!.qX).7XH.e.                                          T ]                                       y.J.=X6X9.{                     F w.9.).qX0X0X9X).4.g.E.sXaX).4.8.    B.6X                    OX8X0X=XCXHXcX6X).( ( ^ ]                   o.V.dX9XtXH.o.v                         j } dXtX8.]                             z.~.9XaXpXqX0X7X7XI.r.                        5.Z.S.^.C.2.8.'                                                                                                                                                                                                                                                                                           ",
"                                                                                                                                                                                                                                                                                                                                                  :.9.W.^.7X~.V.Z.Y                                           '                                         @.Q.=X9.o.                        x J.!.qX8X0XqX3.g.S.~.0X).g.9.    z.Q.                    +X8XqX-XCXFXbX$X^.i.i.4.5.                  } V.dXtXtXH.{                           z o.tXeX{                               J._.pX0XqXqXpXpXH.}                         k s.~.^.^.6.o.Y                                                                                                                                                                                                                                                                                             ",
"                                                                                                                                                                                                                                                                                                                                                      >.7.W.7X).!.A.5.                                          c F                                       x.iX=X5Xo.                        I.^.0X0XyX0XS.C.x.H.0X!.g.9.    J.W.6.]                 $X8XqX-XCXFXcX-XqXi.i.Q.OX              Y K.uXzXzXU.6.L                         l ' >.1.H.r.                              R !._.qX0X0XpXpX9Xb.                    G { z.Q.^.qXT.l.5...                                                                                                                                                                                                                                                                                              ",
"                                                                                                                                                                                                                                                                                                                                                       .>.l.Z.!._.Y.J.} F                                         F                                       r.-X7X!.>.k                       I.^.0XaXyXyX~.4.  z.iX7XC.V.    C.T.d.e.                +XqXqX-XCXFXcX-XqX<.<.yXuX              } I.zXzXzXI.8.x                         Y 5.U.l.8.'                             } 4._._.qX0X0X7XS.9. .                    F R l.7XqX^.T.9.}                                                                                                                                                                                                                                                                                                 ",
"                                                                                                                                                                                                                                                                                                                                                          ] 6.W._.`.E.g.5.                                          z ' A                                   ] z.W.C.6.                      +X7XyXsXuXuX*X    5.8X!.C.V.    2.i.S.L.                +XqXqX-XCXFXcX;X7X<.<.8XuX              o.Q.zXzXzXK.1.x                         T 6.nX5X8.{                           k H.~.).).qX0XqX=Xl.5.H                 v n r.B.!.7X^.~.x.}                                                                                                                                                                                                                                                                                                   ",
"                                                                                                                                                                                                                                                                                                                                                          v @.J.qX/.^.!.J.8.v                                         ' '                                     r.A.~.!.>.                    OXQ.sXkXcXcX*XT   7.8X=XS.B.    ,.i.T.;X                I.qXqX-XCXHXcX5X0Xi.4.8XeX              4.W.zXzXzXI.1.L                         X.g.nX$X@.                           .>.7XqX0XaXyXyX=X*X9.:.                  Y o.Z.!.8X7XV.@.Y                                                                                                                                                                                                                                                                                                     ",
"                                                                                                                                                                                                                                                                                                                                                              } g.!.^./.W.Z.5.}                                         Y k c                                 w.Z.W.~.8.                    +XH.5XZXHXAXwX~.~.!.5XtX9X9XE   9.C.^.sX                +XqX7X5XCXHXbX-X0X0X0X8XwX              1.!.zXcXcX+X6.L                         ^ f.nXD.                            5.g.9XaXaX5XsX=X8XH.                  f j H.W.7X0X9XU.r.5.                                                                                                                                                                                                                                                                                                      ",
"                                                                                                                                                                                                                                                                                                                                                              F @.Z.~.!.^.^.W.B.L v                                     k >. .                                  D.~.^.l.}                   z.H.#XVXHXCXwX^./.^.9X5XpXaX! U f.l.:XiX                L.qX7X-XCXHXbXwXiX0X0X8XwX              4.=XnXzXlX$X6.L                     v Y ! 4.x. .                          5.H.6XdXwXtXsX=X5XI.F.                  [ >.!.^.qX7X=XU.}                                                                                                                                                                                                                                                                                                         ",
"                                                                                                                                                                                                                                                                                                                                                                  Y x.!.^.^.^.E.f.k.z                                     ] { j d                                 7.~.C.r.F                 ] 9.#XVXHXVX5X~.E.^.yX8XaXpXR U f.C.8XuX                +X8XyXrXCXHXVXuXsXyXyXiXwX              8.6XzXcXbXrX6.L                     5.9.H.U.9.}                           5.9XtXeXjXuXyX9X=Xr.|       j           e.l.W.qX0XQ.7.r.                                                                                                                                                                                                                                                                                                          ",
"                                                                                                                                                                                                                                                                                                                                                                     .5X:X^.^.^.~.Z.}                                     | }  .|                                 5.A.R.6X5.                Y 7.-XbXAXVXkXU.E.^.7X8X0X0XR U ) <.7XuX                +X8XaXrXAXHXVXkXsXiXyX5X-X              8.*XzXzXzX$X8.L                     K.B.sXwXr. .                    d x 0.6XdX4XAXAXzX8X0XI.        P e.w.     .5.Z.:X7X!.7Xx.] Y                                                                                                                                                                                                                                                                                                           ",
"                                                                                                                                                                                                                                                                                                        w                                                             r.l.~.^._.).W.f.o.                                      .. .                                e.J.Q.zXu.Y               Y x.*XuXjXAXZX6XW.S.D.I.9XaXC.3./ ) sXuX                ;X9XiXeXAXHXVXkXuXuXyX=X+X              r.$XnXeXK.r.5.                      6XU.zX#X .'                       x x.wXrX4XFXFXuXiX8XH.      h b.        r.G.R.^.!.I.9.5.z                                                                                                                                                                                               w v v b e                                                                                                     ",
"                                                                                                                                                                                                                                                                                                      t [ [ [                                                           { J.!.!.!.7X!.!.8.{                                   '  .}  .                            5.Z.yXZXfXK.8.            Y 8.J.uX%XAXAXlX!.s.  } 5X9X!.C.( W 8XsX;Xr.            -XyXtXeXGXHXVXkXuXuXyX=X*X          o.K.bXZXbX#X7.5. .                  z } I.5XOX .                        u.Q.*X+XcXVXjXlXwX5X7XK.    y.5.t.    F.F.;XR.:XqX7XI.z                                                                                                                                                                                                   c 5.8.5.v                                                                                                     ",
"                                                                                                                                                                                                                                                                                                        G [ F                                                             5.H.*X6X8X!.W.s.5.                                      5.@.                              8.-XZX4XU.9.                  I.oXVXZXlXI.s.   .uXaX9X=X4.U tXsX=XP.            I.tXtXjXGXHXVXeXeXwXyX:X;X          8.;XZXbXbX#Xs.o.                    5.I.tXnX$X .                        r.!.=X>XAXHXjX-X5X5XH.F.    b.o.      F.K.Q.8XyX^.J.x.                                                                                                                                                                                                    v 0.4.6.Y                                                                                                     ",
"                                                                                                                                                                                                                                                                                                              e S F F                                                       { F.*X!.qX!.=X5Xx.r.                                  ] @.Y c                           ] $XAXlX+Xz.                E x.OXDXFXZXfXwXrX-XwXdX9XyX1.T 9XyX!.Z.Y       @.7.8XiXyXeXGXHXVXeXuXiXyXyXwX          1.5XVXVXbX-Xs.T                     r.8XaXfXe.b                         H.6X=X>XFXFXkXI.*XI.     .:.T     :.r.wX=X:XyX0X;XY v                                                                                                                                                                                                     c 5.8.5.'                                                                                                     ",
"                                                                                                                                                                                                                                                                                                              = l l b F                                                         K.=X:X^.7X).).).o.                                z v 5. .                          v y.bXrX$XD.                T l.I.ZXAXAXZXbX-XiXdXtX9X8X1.U !.aX:XA.E       1.i.7XyXsXrXGXHXVXeXiXiXiXiXwX          s.wXbXVXbX$Xr.{                     9.8XyX*X5.h                         Q.=XzXcXAXAXrX*XU.I.    B.e.    K.I.H.5X8X;X=X;Xb.                                                                                                                                                                                                        4 c c l 4                                                                                                     ",
"                                                                                                                                                                                                                                                                                                                       . . .F                                                   x z.Q.6X9X9X_._.^.J.                                  w.w.                              @XlXZXbX$XF.              V.Q.6X4XAXHXBX>XiX9X9X9X0X2.T 6X0X~.S.        i.a.8XiXyXrXGXHXVXeXiXiXiXuXrX        >.6.5XVXVXbX$Xr.{                   } I.7X^ R Y           r.        L s.7X,X>XZXDX@XP.Q.L.H.D.}          .I.=X=XbXzXG.r. .d                       G                                                                                                                                                                                                                                                                                               ",
"                                                                                                                                                                                                                                                                                                                      G [ '  .                                                    e.K.5XQ.6X9X~.~.I.                                  $. .                              OXzXAXbX4X-X            o.s.6X5X4XAXHXVX>XiXdX9XpX0X,.U )._.^.^.R       i.a.8XiXyXrXAXHXVXeXiX0XiXuXeX        >.6.wXZXbXzX+XB.{                 Y >.5X8XX.T             5.      1.X.S.Q.%X%XCXDX>XZ.^.Q.v d F.}     D.K.#XzXwXnX=Xk.8.'                       d H                                                                                                                                                                                                                                                                                               ",
"                                                                                                                                                                                                                                                                                                                             . .:.c                                                   I.*X6X6X9X6X9X*X-Xw.                                w.w.                          OXrXVXZXcXuX2.8.        5.x.=X5X4XAXHXBX%XwX9X9X9X9Xi.~ =.<.T.^.,.E     a.a.8XiXyXwXAXHXVXrXiX8XiXuXeX        >.6.uXZXlXzX+XB.}                 Y >.6X5Xo.{         r.@.      I C.Q.;XrXAXDXVX@XP.~.R.G.    :.x.P.P.OX>XrXVXeXuXx.o.v                 D [ $.[                                                                                                                                                                                                                                                                                                   ",
"                                                                                                                                                                                                                                                                                  :.5.8.:.                                  S ' F z                                                   t.I.6X~.).!.6X8X7Xs.}                                .r.                          r.F.jXZXFXVXd.p.        } x.J.=XrXAXHXSX<XrX8X0X9X9Xi.) =.=.E.0Xs.o.    a.j.0XiXyXwXAXHXVXrXiXiXiXuXuX        8.s.zXAXjXkXQ.B.]                 r.9XsX*XL           x.}     X.W W.=X>X%XCXHXVX+XR.R.X.R       H.R.z.#XVXAXAXeX#Xe.'                   f l S H                                                                                                                                                                                                                                                                                                   ",
"                                                                                                                                                                                                                                                                                  0.3.i.1.a                                       d F |  .[ S                     q.F.F.F. .            x G.Q.!.7X7X_.qX^.~.@.                                w.w.                          F.bXDXZXl.S.            ! Q.rXAXHXHXDXZXtXqX9X0XR.T.a.;./.0XS.s.s   a.h.0XiXyXwXAXHXVXrXiXyXiXiXuX    R 8.5XwXAXDXjXiXZ.s.T              .5.I.9X9X-X        P           p.p.=X-XrXFXHXHXjX,X=XG.      K.+X*XL.K.AXAXjXeXOXb.'                 $.$.                                                                                                                                                                                                                                                                                                          ",
"                                                                                                                                                                                                                                                                                  9.a.a.1.a                                         |  .} 5.'                     y.D.G.P. .              r.H.=X6XqXqXqX_.^.f.5.                               .r.                          K.bXDXZXH.v.            ! J.#XZXHXHXHXAX5XqX0X0X7X_.m.a.qXaXE.c.s   a.h.0XiXyX-XAXHXVXrXiXiXiXtXuX    6.l.;X#XAXDXjX-Xs.X.L             5.B.*XdX9X$X        b.8.        L.=X5X%XvXFXFXDXwXR.G.e.      f.8X*X+XlXAXAX>X-X-Xw.                  $.$.                                                                                                                                                                                                                                                                                                          ",
"                                                                                                                                                                                                                                                                                  0.4.4.>.h                                               } 5.}  .{ |             w.P.L.G. .                P x.U.~.qXqX_.qX6X9XF.t.                              e.t.                      r.-XlXcX@XrX+X-Xo.      o.Q.-XVXFXHXHXAXwX0X0X0X8XqXj.j.qX0XT.c.s   a.j.8XiXiX>XAXHXVXrXwXiXtXaXsX  L z.L.rXrXAXDXgX5X6.o.              r.U.5X9X            D.e.        -XwX>XAXGXFX%XrX;XR.T       I.~.!.tXbXDXjX@X;XP.w.                $. .                                                                                                                                                                                                                                                                                                              ",
"                                                                                                                                                                                                                                                                                  m ' F F                                                 ' 5.5.>.5.5.            q.oXOXb. .                  n V.).9XqXqX7XpXtX6X$X                              r.D.                      x.K.$XrXgXgX#X=X1.U     ! =X=XVXDXHXHXGX%XiX0X0X0X0Xj.a.7XaXT.c.`   j.h.=XwXwX4XAXFXBXjXwXiXsXaXtX  L B.+XrXjXAXDXjX-X7.o.              B.aXaXdX            OXD.      } >X%XhXAXFXFX>X=XQ.z.Y     R iX=X;XbXZXDXeX>X-Xe.|                 $.|                                                                                                                                                                                                                                                                                                               ",
"                                                                                                                                                                                                                                                                                                                                              a T >.r.{ { [                                     } V.U.6XpXpXpXaX7X9XD.r. .                        r.z.8.5.                    o.+XcXFXFX@XI.1.      R f.s.K.gXAXHXLX&X5X8X0XyX0Xh.a.9XsXT.m.`   a.h.0XwXeXjXCXHXNX%XrXuX9X9XaXR ` G.#XbXAXFXFXgX$X>.                U.9XtXwX        #XD.    @.} wXwXkXxXGXHXcXzX5X=X8.      L.=XyX*X-XbXZXbXK.+Xb.                q.$.                                                                                                                                                                                                                                                                                                                  ",
"                                                                                                                                                                                                                                                                                                                                                ' @.5.e.r.5.                                        K.5X5XpXaX9X9XdXI.D.e.                        r.B.z.s.s                   o.L.zXFXHX&X@X6./     T 4.g.B.@XAXHXLX<X>X=XyXyXsXS.g.9XsXT.C.I   h.a.7XwXVXDXFXHXNX%XrXwX9X7X9XR I *X#XZXFXDXFXcX+Xo.                U.aXaXtX        W.l.    7.l.5XeXjXCXHXHXjX>X5X5X8.      I.*XzXeXAXbX-XuX;Xb.$.                y.q.                                                                                                                                                                                                                                                                                                                  ",
"                                                                                                                                                                                                                                                                                                                                                      Y 5.5.5.} |                                   { 5.D.9XpXaX9XaX9X6X6XD.t.                        J.A.p.8.T                 L.kXAXDXDXDX=XS.    R 4.g.J.+XAXFXHXDXAXsXyXuXsXM.a.5XsXA.m.I ` a.a.7XwXZXHXHXHXFXAXZXeXyXM.g.U ` I.#XAXFXxXlXF.o.              w.9.dX9XR T   9.] X.^.A.  5.=X:X8XkXhXCXHXHXkXwXiXx.    L.*XwX-XcXbXbXbXI.J.z.              f y. .                                                                                                                                                            D J                                                                                                                                                       ",
"                                                                                                                                                                                                                                                                                                                                                      c  .5.r.r.w.                                      r.I.9XdXtX9XdX9X6X5XH.                        L.W.c.f.R                 7.K.rXlXHXHX+XS.U U U / _ S.Q.VXCXGXHXFXeXiXuXsXf.g.5XsXA.m.U ` a.M.7X-XCXHXJXJXHXHXAXwXaXg.4.U U *XrXAXFXvX4Xz.R L             wX6X9XpX    L k.:X:XA.S.J.Z.I.-X=XbXFXJXHXFXkXiXiX      ;XwXrXjXAXZXK.I.G.b.w.              v t.y.                                                                                                                                                            D J                                                                                                                                                       ",
"                                                                                                                                                                                                                                                                                                                                                              w.e.5.5. .q.                                  6XdX9XpX9X9XtX6XQ.I.e.                        S.^.i.o.                8.P.rXHXHXrXQ.!.g.U U U T.R.kXvXSXHXFXjXuXkXuX=XQ.tXsXW.S.U U h.m.^.-XAXHXJXKXJXHXAX#X0Xg.i._ / !.rXAXHXxXrXl.>.L             5X5X9XpX    E 1.8XyX    !.~.-XeXrXVXHXHXxXvXeXiXZ.o.+X;XkX$XbXZXbXeXJ.J.8.            c F w...                                                                                                  u.t.F.u.q.                                        G D H A                                                                                                                                                               ",
"                                                                                                                ' ] } ..c                                                                                                                                                                                                                                     w.r.x.9.B.t.M                                 F.9XpXpXpX9X6X9X8XU.B.                        V.S.T.J.                T z.-XFXFXcXuX6Xg.U U _ T.W.eXvXAXHXDXgXeXrXkXsXiXuXwX~.E.W U a.M.^.5XCXKXJXKXJXHXDXeXqXa.h.a.a.7XwXAXFXvXwXc.-.E             iX0XqX9X    Q 7.sXtX    !.6X+XcXDXFXHXHXgXeXyX;X  U :X:XkXgXAXDX#XG.G.P.               .t.t.                                                                                                    K.S.A.D.y.                                        y.$.$.[                                                                                                                                                               ",
"                                                                                                                e.7.s.7.F                                                                                                                                                                                                                                         x o.H.H.r. . .|                               6XqX9X9XtX9X9X5X-X$XK.@.k j               >.S.m.W.R P             Y z.z.VXcXxXlX8X_.E.m.a.m.J.zXcXGXHXHXDXAXkXeXiXiXiX9X9X)./ U a.h.^.-XCXJXJXKXJXHXAXrX8Xg.a.m.h.7X-XAXFXjXsXS.4./       T k.P.8X7X_.7XR T s.sXr.D.B.J.!.5XrXVXHXHXCXVXrXwXyX=XX.X.0XyXZXAXBX4XP.R.v.            | ..w.'                                                                                                       H.W.S.Z.y.                            S D H f                                                                                                                                                                           ",
"                                                                                                                9.g.f.9.v                                                                                                                                                                                                                                           } K.J.J.Z.H.F.                              D.9X7X9XtXtXwX>X%XlXzXr.T 8.              >.6.T.!.~.Q.>.          Y x.Z.8X-XVXxX9X`.`.m.a.m.f.nXbXDXHXHXHXHXlXuXtX9XyXyX6X8X/ U j.h._.-XCXHXJXJXJXHXAX-X5Xg.a.m.m.7XwXAXFXjX5XA.4.U     U / =XwXtX*X)._.,.,.V.sX    !.).I.eXcXCXHXHXBXrXtXyX0X8X*XwXwX%XAXFXlXK.P.c.8.            e.r.t.                                                                                                        F.J.A.B.w.                            q.q.q.G                                                                                                                                                                           ",
"                                                                                                                r.6.f.r.v                                                                                                                                                                                                                                             ' o.f.A.W.U.5.{ S                             !.9XtXiXrXAXAXVXcXuX*XJ.k.                3.!.S.~.f.T L             R.=XDXAX+X_._.N.m.h.f.*XeXVXHXJXJXHXvXrXiX8X0X9X9X9X/ _ j.h._.wXCXHXJXKXJXHXAX>X8Xf.h.m.m.7X#XDXFXlXiXM.i.=./ X.d.f.iX5X5X9X^ ) E.W.S.8XR 3.!.!.rXxXFXHXHXSXlXuX9XaXyXiX;XuXrXAXAXlX#X;XP.          z { } e.                                                                                                                                  w d d c l c c                                                                                                                                                                                     ",
"                                                                                                                t.e.e.5.                                                                                                                                                                                                                                                Y 9.U.J.W.Z.H.5.                            x.8X=XtXeXDXDXAXVXcXzX-X-X                  S.W._.T.T.g.            ~.=XDXAX%XrX)./.`.a.M.H.wXxXHXJXJXHXVXkXiX8X9X8X9X9X) _ h.m.7XwXAXHXJXJXJXHXAX-X=Xh.a.a.M.6X@XDXFXrX5Xm.=.=.-.1.V.Z.tX9X9XqX_ _ W.).f.^ 3.S.7XuXlXxXHXHXHXxXeXsX8XyXiXuX>XrXAXAXbX+XL.G.            ] e.r.w.                                                                                                                                  v Y ] {  .{ |                                                                                                                                                                                     ",
"                                                                                                                                                                                                                                                                                                                                                                            @.1.4.f.U.D.>.5.n                         I.=X6XrXZXAXFXFXVXZXjX$X9.>.5.Y             c.~.m.T.a.` L       s R.H.ZXAXDXZX*X7X_.M.g.A.5XzXFXHXJXHXBXkXiX0XiX5X9X9Xi.a.T.T.8XwXCXHXJXJXKXHXDX-X8X^._._.).AXAXDXFXF.C.i.=.=./ 4.Q.*XtX9XqXqX-./ ~.qXg.3.A.*XrXZXFXHXHXHXAXbXuXuXyXyXrXrXVXVXDXzXuXQ.Z.6.        ' Y @. .                                                            S |                                                             d j j d v  . .w.                                                                                                                                                                                            ",
"                                                                                                                                                                                                                                                                                                                                                                            v Y Y R Z.*X*XU.x.                          x.~.'.6XcXAXHXFXFXBX&X4X$Xz.}             1.S.T./.N.m.3.      L l.s.lXbXFXAX4XtX7X~.C.W.=XzXDXFXJXHXAXAXyX0XtXwXaX0Xa.j.E./.yXwXAXHXHXJXKXJXDX#X=X7XqXqX6XAXFXFXDX9.-.=.i.<.=.C.zXuXaX0X_./.<.-.7X6XM.M.yXeXlXAXHXHXHXFXlXzXwXtXuXwXkXjXFXDXzX-XR.:X} Y         @.5.r.S                                                               A                                                           j T } R } Y  . .$.                                                                                                                                                                                            ",
"                                                                                                                                                                                                                                                                                                                                                                                    >.r.*X*X6X*XF.t.                      V.U.U.I.>XVXFXHXHXDXAXrXU.B.6.              ,.T.N.N.<.      E 2.6.6XlXHXHXVXVXzX6XV.Y.0X8XrXhXHXJXHXFXsX0XwXwXdX0Xj.a.T.W.yXrXAXHXJXJXJXHXDX>XwX0X0XtX4XDXHXvXOX>.=.=.=.=.=.C.sXuXtX0Xa.j._.7X9XM.0X9XwXxXFXHXHXCXgXjXfXdXuXuXeXjXDX  xX%X;X;XJ.x.        9.7.7.}                                                         [ w.q.S                                                       l c v ' } o.7.8.5.                                                                                                                                                                                                    ",
"                                                                                                                                                                                                                                                                                                                                                                                    F Y r.D.+X*XH.D.                      0.9.Y.Z.Z.kXFXHXHXHXAXlX6XY.M.W             T f.j.T.N.=.~   I / ,.6XzXFXHXHXDXcX6XU.pX0XyXiXxXHXKXKXHXzX8XwXeXtX0XT.T.E.!.iXrXAXHXJXJXJXHXDXrXeXiXwXeX%XDXHXxX$X9.4.=.=.a.i.C.uXzXdXqXh.m.pX0XpXZ.9XwX4XvXHXKXJXFXjXiX0X9XuXrXvXxXFX  lX@X*X;XP.          s.7.e.                                                          ' [ G Z                                                       v Y o.6.7.o.] { F                                                                                                                                                                                                     ",
"                                                                                                                                                                                          J                                                                                                                                                                                                 r.r.$XK.I.I.>. .                  g.C.W.K.rXvXFXHXHXCXbX6X~.T.J.o.            / E.N.N.g.U U _ =.).-XgXGXHXFXgXrXwXaXaXaXiXzXHXKXJXHXlXwXtXtXtXsX0XaXpXaXsXrXAXHXJXJXHXHXDX4XwXuXeXrX<XFXHXjXwXa.=.=.=.!.pX0XsXfXaXpXh.h.pX0XpXyXuXzXDXGXHXJXGXDXrXaXpX0XuXjXFXFXAXvX>XOXz.            g.l.5.                                                     .w.e.w.                                                      ' :.} 5.9.0.x.>.o.                                                                                                                                                                                                            ",
"                                                                                                                                                                                          J                                                                                                                                                                                                 F | r.r.U.~.f.0.                  >.4.A.Z.;XrXFXHXHXHXFXgX5XI.R.6.            ! h././.N.=.=./ i.~.=X>XGXHXFXNXjXrXdXaXaXsXcXHXJXJXJXvXrXwXuXtXaXaXaXaXaXyXeXAXHXJXKXJXFXAXjXeXuXrXlXhXFXFXjX6Xm.=.;.=.!.pXaXsXtX0X0X~.W.qXaX0XsXjXhXFXJXJXHXHXAXwXpX0XyXrXvXFXHXAX@X+X=Xx.        x.s.k.Y                                                       @.@.w.|                                                       >.>.R :.:.} :.' [                                                                                                                                                                                                             ",
"                                                                                                                                                                                                  [ [ | | | c                                                                                                                                                                                       Z.!._.!.r.5.                  6.A.J.L.jXVXHXHXHXHXVX>X=XW.U.7.        x U ) _.`.`.N.=.) ,.s.>XAXHXHXFXCXjXrXtXaXdXlXHXJXKXJXHXDXcXuXiXtXdXdXdXdXaXeXAXJXJXKXKXHXDX4XrXwXrXAXHXHXFXlX=Xj.;.;.<.~.pXpXyX6XM.S.aXaXaXaXyXwXvXAXJXKXHXGXgXjXdX9X0XuXjXBXFXNX4XK.=X        8.x.r.} }                                                  .w.w.w.r.@.                                              '  .5.b.r.r.B.9.r.w.                                                                                                                                                                                                                      ",
"                                                                                                                                                                                                  F S S v F l                                                                                                                                                                                       8.A._.!.C.9.                  o.7.C.A.wXcXFXHXJXHXCXvXeXU.W.7.          L / _.`.`.m.;.;.^ Z.wXVXDXHXHXCXxXlXdXaXaXkXFXKXKXKXHXFXlXrXkXzXuXdXdXdXaXeXGXJXJXKXJXHXAX%XkXeXrXDXFXHXHXgX!.m.a.i.a.!.aXyXaXaXg.V.tXuXiXiXuXrXNXHXKXJXHXAX4XuXdXsXeXbXVXFXDXcXI.A.Q.        g.B.r.                                                    @.@.@.w.q.G                                         j   s } >.6.8.e.e.e.@.w.|                                                                                                                                                                                                                       ",
"                                                                                                                                                                                                          9 l l F $.$.| | [  .                                                                                                                            G | [ |                                     T ,.A.~.!.=X=X}                   V.H.K.jXhXHXJXHXHXZX4XK.K.J.G.    P L U 4.M._._.`./.-.l.;X-XjXDXHXHXHXZXwXaXdXzXDXGXHXJXJXHXjX>XuXuXuXfXdXuXsXjXAXJXJXJXJXHXDXrXuXrXrXAXHXHXFX4X6Xj.;.N._.0XaX0X0X0Xf.Z.sXeXeXeXjXxXFXHXJXJXHXAXrXsX5XkXbXAXGXAX@X-XA.g.6.6.p.<.d.S.                                                   .w.t.F.                                                e.x.k.B.H.z.r.                                                                      $.$.| |                                                                                                                                                       ",
"                                                                                                                                                                                                            f f A [ | [ { ..@.v                                                                                                                           [ | F                                         ] r.=X7X7X6XB.8.                1.H.*XrXvXHXHXHXHXAXxXlXlX+XL.U   L L U / g.7XqX_.`.=.C.W.=X#XAXFXHXHXCXrXtXdXdXbXNXHXJXKXHXvXvXrXeXuXsXdXuXsXjXAXHXJXJXJXHXDXrXeXeXjXDXHXHXDX%X!.j.;.m.0X9X9X~.S.A.S.B.uXeXrXjXxXSXHXHXHXHXFXZXwXwXrXVXDXDXFXAXD.S.N.a.i.f.a.i.f.z.                                                   .t.t.y.                                              s e.z.x.J.r.w.q.                                                                      G $.| G                                                                                                                                                       ",
"                                                                                                                                                                                                                          v Y ] F | ' ..| F                                                                                                                       l [ G G d                                   >.A.A.~.~.x.r.              s.Z.J.K.jXVXHXHXHXFXHXAXjX-XP.J.X.U X.~ 2.f.A._.`.=.4.4.6XrXAXGXHXHXAXjXeXdXtXeXgXHXJXJXJXGXFXcXkXuXuXdXdXsXjXAXHXJXKXKXHXDXrXkX4X<XDXHXFXFXoXg.m.E._.pX0XyX=Xc.A.yXiXuXeXjXxXHXHXJXJXHXDXgX4XeXkXcXVXDXCX%X-XA.N.i.a.S.W.S.c.                                               .w.w. .v                                         d v { e.r.b.r.D.r.} T                                                 f l c c S A c A A G A Z                                                                                                                                                                   ",
"                                                                                                                                                                                                                            c | {  .} o.@.'                                                                                                                       c | |  .j                                   @.D.M.!.^.E.A.>.            o.i.R.U.4XVXFXHXHXKXJXFXxXrXK.L.,._ ) ) ( X.f.qX_.m.=.3.6XrXVXCXHXHXCXxXjXwXtXeX4XFXHXJXKXHXHXcXkXsXsXsXuXuXjXAXHXJXKXKXHXFXjX4XgXhXGXHXGXAX$Xg.m.E.qX0X9XyX=Xd.A.sXsXuXeXxXSXJXJXKXHXHXCXjXjX4XvXHXFXDXAXJ.S./.m._ _ T.T.h.f.                                              w.t.5.w.c                                   x x k Y o.8.z.Z.k.x.b.w. .                                                  P Y Y n F F S F F S G A                                                                                                                                                                   ",
"                                                                                                                                                                                                                                    x T T } ' G G [ [ { [ d                                                                                                                 [ c                                     C.E.T.W.6X$XoXoXF.      ~ f.C.B.K.gXAXHXKXKXHXFXFXcXwX=XE.) ) O.~ s.)._.pXpXpXdXwXeX%XCXHXHXHXZXrX5XtX%XFXHXJXKXHXHXcXkXsXsXuXuXkXjXAXHXJXKXKXHXDXgXlXAXFXHXHXFXAXD.g._.).9X9XtX9X7Xd.~.sXzXrXxXFXHXJXKXJXHXxXxXrXlXAXDXFXAXjX;Xh.N.a.a.A.S.m.      D.F.F.t.                              y.y.y.y.b                               c S c c c F.I.I.J.Q.I.Z.z.5.                                                  l l j z L T ] z                                                                                                                                                                                     ",
"                                                                                                                                                                                                                                      ' ' ' | |  .@.8.9.] x                                                                                                                 [ S                                     k.J.R.W.!.6X=X$X5X          6.C.A.-XbXCXHXKXJXKXHXVXlXrX6X,.i.i.<.O.i.f.pXpXpXaX9XuXrXAXHXHXHXCX%X>XwXrXFXHXHXJXJXHXcXkXkXuXsXzXzXjXAXHXJXJXJXHXFX<XjXDXHXHXHXDXAXB.a._.pX9XtX9XaX!.d.~.kXkXgXhXHXJXKXJXHXHXjXjXgXNXFXHXHXAXI./.N.N.=.=.~.W.C.      G.H.F.F.                              OXt.t.t.v                             j { ] @.{ ] U.6X6X5X5XrXF.r. .                                          h k k a T ] Y ] ] ' ' f                                                                                                                                                                                     ",
"                                                                                                                                                                                                                                                  P E X.R 7.w.w.y.w.:.| [                                                                                                         G  .....                                6.2.=XaXyXwXwX$X          <.S.K.%XFXHXJXKXJXFXAXcXeX9XT.( =.i.i.h.pXqXpXaX0XyXrXAXHXJXHXCX%X,XrXjXDXHXHXJXJXHXxXkXeXzXuXuXuXjXAXHXJXJXKXJXFX<X<XFXHXHXHXgX$Xs.g.7XpX9XtX5X*X0X0XsXrXvXHXHXKXJXJXJXHXFX%XVXFXFXHXFXvXeXT./.j.m.E.E.a./ U / f.f.T                           v F.r.e.5.                                  c Y +XiX5XiX5X5X=X6XI.5.                                                  ..} o.} T R T ] v                                                                                                                                                                                             ",
"                                                                                                                                                                                                                                                  c x ] ] 8.oXoXb.b.e.e.8.z                                                                                                       $.w.5.5.                                8.6.!.yXyX9XsXwX          ( S.I.#XcXNXHXJXHXHXHXDXlXuX:XS.j.i.i.m.qX0XaXsXaXsXuXZXFXHXJXGXvXkX>XjXHXJXJXJXJXHXNXlXrXzXuXzXzXkXAXHXJXJXJXHXGX<X<XGXHXHXHXgXI.d.3.).aX9XtX-XU.=XwXjXgXxXHXJXJXJXKXHXHXDXgXVXHXHXHXFX#XJ.E.m.a.a.E.^.i._ U ^ Z.Z.k                           Y z.D.D.b.                                a Y 6.8XaXsXsXsXuXwX-XOX .                                          k L L s @.} }  . .{ Y ..                                                                                                                                                                                              ",
"                                                                                                                                                                                                                                                                    a 7.r.8.5.:.q.w.:.F c                                                                                               } x ] ' ' '                               A.6XQ.5XI.Z.V.f.    +.Z.-X>XlXFXHXJXJXJXHXBXcXwXyXE.a.a.a.a.W.aXaXyXyX8XzXxXCXKXHXFXDX%X<XHXKXJXJXJXHXDXAXjXuXuXuXsXeXAXJXJXJXJXHXHXFXGXHXHXHXHX%X;X7X!.0X9X5XuX5XwXzXVXZXGXGXHXKXJXJXJXHXNX<XNXAXHXHXhXvX;X~.C.M._._.) ) ) =.a.i.1.                    Y 5.e.e.e.e.                              c v x { r.B.c.~._.!.0XZ.k.x.'                               c v ' '  .{ '  .T 8.+.+.o.                                                                                                                                                                                                              ",
"                                                                                                                                                                                                                                                                      w.r.b.t.r.D.I.I.o.Y                                                                                                .@.e.r.r.t.                              C.W.!.6X8X~.W.~.      +.R.:XiXjXBXHXJXKXJXHXHXzXuX6X~.M.a.a.A.aXsXaXaXyXuX4XCXHXHXHXFX<X<XHXJXJXJXJXJXHXFXlXkXzXkXsXuXAXJXJXJXJXHXJXJXJXJXHXHXHX%XL.:XyX9X9XaXwXrXjXVXDXGXHXHXJXJXJXHXHXHX<X<XCXHXHXFX%X@XJ.Q.A.~.pXqX) _ ( i.S.Z.}                     T H.I.+X+Xe.                               .o.X.c.=X:X8X^.~.^.=Xp.2.@.                                Y R 0.s.J.J.J.*Xz.s.7.7.w.                                                                                                                                                                                                              ",
"                                                                                                                                                                                                                                                                              Y >.r.B.X.8.} ' { { ' ..v h j d d d                                                                                  .] { { v               r.x.6.          S.^.~.7XC.l.T   W.^.qX>XVXFXGXKXKXKXHXCXcXkXfX!.~.~.~.A.7XaXyXyXwX>XZXHXHXHXHXSXSXHXJXJXJXJXJXHXFXjXjXlXlXkXkXGXHXJXKXJXJXJXJXJXJXJXHXFXjX;X!.yXiXwX5XrXbXVXAXNXNXHXJXJXJXJXHXNXhXSXHXHXHXSXxXrXkXQ.Q.qX!.f.m.T.W.i.                    ' Y 1.s.f.W.8.                                l { r.s.v.^.0X=X6.1.6.p.6.@.}                       d l c F Y } k.6.1.,.3.p.6.s.7.a                                                                                                                                                                                                                     ",
"                                                                                                                                                                                                                                                                                ' } >.} 5.e.e.K.-X#X;X9.R R T E T Y                                                                               ' r.r.r.}               D.L.Z./         M.).qX7XyX5XU   2.O.E.8XrXrXBXJXKXKXHXHXHXVXcXeXuX9X~.g.W.aXsXtXuXwXVXFXHXJXHXJXHXJXJXKXJXJXJXJXGXhXjXhXvXkXvXGXJXJXJXJXJXJXJXJXJXJXHXHXvX$X;XsXtXuXeX%XAXHXHXhXNXJXJXJXKXKXHX&X.XAXHXHXAXjX>XuXzX-X5XqXE.a.h.7X=X1.                    >.6.R.:X!.Q.                      k x v x v { 5.;X8X8X0X0XiX>X5.5.5.@.@. .F                 n x P T 7.7.s.Z.Z.K.r.] Y T T R Y '                                                         c n Y n                                                                                                                                                       ",
"                                                                                                                                                                                                                                                                                              @.r.7.x.8.1.c.S.l.l.V.x 9 9 d w w e                                                                       L #.} } } {           4.4.4.1.^ 4.3.  S.S.!.5X6XQ.6.i.W.!.8XeXcXGXGXJXHXJXJXGXAXxXzXzX=X~.!.aXdXtXsXwXcXVXCXHXJXJXKXJXHXJXJXKXJXHXHXBXCXSXCXVXBXHXJXJXJXJXJXKXJXJXJXJXHXHXxX>XuXuXeXeXgXvXHXHXHXLXLXJXJXJXJXHXFXNXhXDXHXDXVXrXiXyX8X8X9X7Xh.m.T.C.s.o.              @.o.>.6.Z.Z.                          e.r.r.r.9.9.D.x.:X:X=X:XG.                      d d c z v } k.8.x.p.T.T.T.S.                                                                            y.H.Y.H.u.                                                                                                                                                    ",
"                                                                                                                                                                                                                                                                                                 .5.#.@.8.8X7X8X8X8XB.o.o.o.} o.o.E z                                                                     e.z.z.D.x.}           g.f.f.M.f._   a.a._.0XaXaX1.^ W.h.~.5XrXrXcXHXHXJXJXJXHXHXCXkXiXaXpXaXdXdXuXsXtXeXcXHXKXKXKXJXHXJXJXJXJXJXHXHXHXHXHXHXHXJXJXJXJXJXJXJXJXJXJXJXJXHXVXkXzXzXlXjXVXGXJXHXHXHXJXJXJXJXJXHXHXHXHXHXVX%XeXiX8XaX9X0XS.f.T.0X7X              L L L H.U.Q.!.Q.Z.                          rXwX5XwX5X5XyXyX0X8X=X,X@.                    >.6.9.r.V.f.T.:XJ.U.W.^.E.E.U.                                                                            r.Y.Y.Y.F.                                                                                                                                                    ",
"                                                                                                                                                                                                                                                                                                        P r.k.s.s.V.f.s.l.Z.Z.S.T.3.o.k z h                                                                         e.r.r.7.g.f.g.    U ( i.=.;.;.m.C.S.H.=X6X7X^.7XB.+XwXzXVXSXJXKXJXKXHXGXVXkXtXaXaXdXfXeXfXzXuXbXHXJXJXKXJXHXJXJXJXJXJXJXJXJXJXJXJXJXJXJXJXJXJXJXJXJXJXJXJXJXHXVXcXkXjXVXCXFXKXJXHXHXJXJXJXKXKXJXJXHXHXHXCXbX-X=X8X0X~.~.W.S.C.~.3.i.        T 1.6.l.Q.I.Z.l.f.W                   5.5.8.e.8.r.-XwX=XtXsXnXg.s.p.3.o.            F ' ] @.5.5.C.T.l.6.4.<.i.c.R   o.Q.R.A.F.                                                                            t.H.Z.H.F.                                                                                                                                                    ",
"                                                                                                                                                                                                                                                                                                        d { :.@.o.>.>.8.Q.8X8X8X_.T.f.1.0.o.o. . .                                                                  e.OXI.I.Q.W.h.        ) j.j.;.a.h.m.f.0XsXaXaXJ.>.J.9XfX>XcXHXHXKXKXJXHXFXZXeXwXsXsXdXfXzXzXzXbXFXHXJXKXJXJXJXJXJXJXJXJXJXJXJXJXJXJXJXJXJXJXJXJXJXJXJXJXJXJXHXSXlXcXvXDXHXJXJXJXHXHXJXJXJXJXJXJXHXHXHXFXvXrX5X0X0X0XT.m.m./.).).            g.M.~.!.!.7X!.Q.k.                    +X+X;X;X*X=X8XyXyXyXyXaXl.4.1.X.L           v r.J.!.Q.=X=X7X9XH.5.8.1.8.5.    z F.P.F.u.                                                                            q.u.F.u.w.                                                                                                                                                    ",
"                                                                                                                                                                                                                                                                                                                      0 e.r.r.x.g.T.!.~.W.J.Q.Q.#X                                                                      Y E T X.2.d.C.h.) ) ;._ _ ) a.h.m.~.7XaXtXaXpXaXaXsXsXkXvXNXHXJXJXJXHXDXAXlXuXfXwXzXbXlXzXzXVXCXJXJXJXJXJXJXJXJXJXJXJXJXJXJXJXJXJXJXJXJXHXJXJXJXJXJXJXJXHXNXjXlXhXGXHXKXJXJXJXHXJXJXJXJXJXJXJXHXCXNXrXwX=X8Xf.T._././.^._ ,.~ i.i.g.4.6.f.C.mXmX4./ T L L             r.r.D.B.5X5XwX7XsXyXqX0X8Xf.4.R     T l.x.8.0.w.r.F.D.H.Z.C.4.X.X.>.o.j 0 0                                                                                                                                                                                                                                                               ",
"                                                                                                                                                                                                                                                                                                                        [ ..} } } x.!.)._._.7X!.5Xx.9.9.r.e.e.e.y.y.w.                                                        >.1.Q.A.C.) ) =.  _ _ a.m.h.m.E.aXyXyXaX9XaXpXaXuXkXcXFXHXHXHXHXHXHXxXjXrXeXZXAXbXzXcXlXxXHXJXJXJXJXJXJXJXJXJXJXJXJXJXJXJXJXJXJXJXJXJXJXJXJXJXJXJXHXBXvXxXhXGXJXKXJXJXJXJXHXJXJXJXJXJXJXFXxX4XeXuXtX9Xg.N._._.`.E./ ^ i.i.a.d.6.f.Y.~.sXmX,.              K.H.G.Z.B.+X-XsXsXsXsXsXaX^.7XR.p.+.U       f.f.C.f.M.Z.~.!.Q.K.r.] ' ] ' v                                                                                                                                                                                                                                                                     ",
"                                                                                                                                                                                                                                                                                                                                  M T ~ i.T.qXqX0X7X=X6X9X-X5XcXcXcXrX                                                                J.E.~.^.~.`.i.) j.a.h.a.a.i.7XaXaXpXaXyXaXtXeXlXxXHXHXJXJXHXGXAXlXjXcXbXcXlXbXxXxXHXJXJXJXJXJXJXJXJXJXJXJXJXJXJXJXJXJXJXJXJXJXJXJXJXJXJXJXHXNXgXCXSXHXJXJXJXJXJXJXJXJXJXJXJXKXJXFXcXkXwXwX8X0X`.`.a.N.a.i.i.i.i.a.0XaX0X9XY.9.9.4.T   7.r.  5.e.e.5X-XiX5XwXiXiXsXsX0XaXQ.Z./ ^ R.Q.Q.J.H.K.U.8X^._.^._.~.6.T q                                                                                                                                                                                                                                                                                   ",
"                                                                                                                                                                                                                                                                                                                                    Y T ) j._.pXaXaXaXaX0XtXfXAXDXZXrX5.8.8.8.8.6.+.1.@.Y                                             J.7XqX!.qX_.i.) j.j.a.a.i.a.T.A.9XtX9X9XsXdXfXeXlXHXHXJXKXJXHXHXNXvXlXcXbXlXxXvXNXHXJXJXKXJXJXJXJXKXJXJXJXJXJXHXHXJXJXJXJXJXJXJXJXJXJXJXHXHXhXhXGXHXJXJXJXJXJXJXJXJXJXJXJXJXJXHXFXcXkXiXyX0X7X_._.;.j.;.a.;.a.i.d.aXaXdXaXB.! X.      V.H.F.F.t.oXbXbXzXzXzXzXsXyX0XqX0XC.9.    5X;X8X=X=X5X-X8X7X7X:X=XI.5.                                                                                                                                                                                                                                                                                      ",
"                                                                                                                                                                                                                                                                                                                                    } @.p.h.m.3.6.0.6.6.9.I.$XZXZXZXlX-X5X=X*X5X!.8X=XL.5.                                            R ! ^ 4.7X7X!.~./.E.a.a.a.;.a.a.~.=X6XsX9XpXdXfX4XVXSXHXJXJXKXHXCXSXVXVXcXlXVXAXCXLXLXJXJXJXJXJXJXKXJXJXJXJXJXHXHXJXJXJXJXJXJXJXJXJXJXJXJXHXLXLXHXJXJXJXKXJXJXJXJXJXJXJXJXJXHXhXcXlXuXsX9X0X^.E./.a.m.(.N./.E.W.J.aXdXdXfX5XL.J.J.H.H.uXbXZXZXZXZXbXzX=X8XiX8X!.i.g.^.^.!.~.V.z.5XwX5X=X;XL.x.8.T R L x j 9                                                                                                                                                                                                                                                                                       ",
"                                                                                                                                                                                                                                                                                                                                    w.e.k.s.6.T T T T R T H.*XuX5XuXzXzXzXsXsXsXuXzXzX-Xe.@.5.e.r.r.B.x.z.b.                                U _.qXpX7XaX9X3.4.i.a.a.a.a.g.~.aXaXaXdXsXeXjXhXHXHXJXKXJXJXHXHXCXcXgXCXHXHXLXLXKXJXJXJXJXJXJXJXJXJXJXJXJXJXJXJXJXJXJXJXJXJXJXJXJXJXJXJXJXJXJXJXJXJXJXKXJXJXJXJXKXJXHXFXlXjXuXsXuX9XaX7Xa.=.;.h.(./.qXpXpXpXaXpXsXdXzXsXsXwXeXkXxXFX  FXFXFXVXzXQ.Q.!.!.S.  =.W.^.qX0X9X9XyXiXiX=X=XI.} ]                                                                                                                                                                                                                                                                                                   ",
"                                                                                                                                                                                                                                                                                                                                    l j z j a 9 M 9 9 a Y r.l.Z.k.R.;XQ.Q.Q.Q.Q.zXzXzXzXrXrXkXlXlXcXbXwXL.K.                                  i.i.i.f.9X9X6XY.E.W.m.a.g.h.m.Y.).aXaXaXdXeXlXVXCXHXJXJXJXKXHXGXNXSXGXHXJXKXKXJXJXJXJXJXJXJXJXJXJXJXJXJXJXJXJXJXJXJXJXJXJXJXJXJXJXJXJXJXJXJXJXJXJXJXKXJXJXJXJXJXHXNXVXlXkXsXsXtX6XfXaX^.E./.T.N.`.pX9XpXaXaXpXdXsXuXeXbXcXvXBXVXVXVXVXVXcXL.v.^.:X7X^.E.i.h.^.^.^.!.A.f.>.o.>.} } ] j j                                                                                                                                                                                                                                                                                                   ",
"                                                                                                                                                                                                                                                                                                                                                          ] o.O.Q X.o.X.X.2.2.B.nXcXbXZXAXAXDXDXDXFXDXxX@X-X=X;XQ.Q.Q.J.I.                        U / yXsXyXyXaXaXW.a.i.a.a.m.^.aXpXaXsXtXkXkXVXHXJXJXJXJXJXJXHXHXHXHXHXJXJXJXJXJXJXJXJXJXJXJXJXJXJXJXJXJXJXJXJXJXJXJXJXJXJXJXJXJXJXJXJXJXJXJXJXJXKXJXJXJXJXHXGXhXjXkXzXsXsX!.J.dXuXaXpXaX0XpXpXpXpXaX9XwXuXuXuXlXlXFXHXFXHXFXcXcXuX:X:Xi.i.^.^.:X:X:X^.^.0X^.R.S.l.o.                                          ' :.:. . . .G                                                                                                                                                                                                                                                           ",
"                                                                                                                                                                                                                                                                                                                                                          j x P x z k x x X.+.s.zXzXbXbXZXZXAXAXAXAXDXVXvXlXzXuXeXtX-XZ.U.                        W / ~.!.=X0XaXaX7XY.A.S.T.N.E.N.T.pXaXzXuXuXcXCXHXHXJXJXJXKXJXJXJXHXHXJXJXJXJXJXJXJXJXJXJXJXJXJXJXJXJXJXJXJXJXJXJXJXJXJXJXJXJXJXJXJXJXJXJXJXJXJXKXJXJXJXHXCXBXvXjXzXzXzXsXiX=XzXeXaXpXaXaXdXtXdXdXtXeXeXlXcXlXcXBXFXFXDXDXAXzXuXsXyX0Xa.a._._.^.^.^.T.T.T.p./ T Y x                                             z z c j z                                                                                                                                                                                                                                                             ",
"                                                                                                                                                                                                                                                                                                                                                                          Y 8.p.p.6.p.s.J.K.$X%X#X%XGXHXHXHXHXHXFXDXVXeXiXR.*X;X;X;X*X=X=X!.~.~.S./ _ =.=.i.a.qXaXaXaXaX7X7X`.T.m.m.E.W.sXtXsXzXgXGXHXJXKXKXKXKXJXJXJXJXJXJXJXJXJXJXJXJXJXJXJXJXJXJXJXJXJXJXJXJXJXJXJXJXJXJXJXJXJXJXJXJXJXJXJXJXJXJXJXJXHXCX<XjXeXkXkXkXlXzXbXbXlXzXsXsXtXuXtX5X6XwXeXZXFXHXHXHXHXFXAXgXrXeXkXiXsXyX0XyX!.qXqX_.^.^./.) _ U                   Y R >.>.5.5.} 5.r.t.u.OXOXK.K.F.F.                                                                                                                                                                                                                                                                        ",
"                                                                                                                                                                                                                                                                                                                                                                            @.@.@.@.+.8.R.L.L.P.iX>XCXFXFXFXFXFXHXHXAXVXkX>XrXjXjXkXeX-X*XQ.Q.~.W.^ _ ) i.i.j._.pX0XaXsX9X6X~.T.a.m.C.W.dXsXsXeXrXAXFXHXJXKXJXJXJXJXJXJXJXJXJXJXJXJXJXJXJXJXJXJXJXJXJXJXJXJXJXJXJXJXJXJXJXJXJXJXJXJXJXJXJXJXJXJXKXKXJXJXHXCX%XjXlXlXvXcXcXcXcXcXkXzXsXzXcXbXbXzXcXcXvXCXHXHXHXHXHXFXCXkXkXyXyXsX8X8X8X).)._.E.E.T.T.T.) ) U                   R 8.! R R Y Y } 5.w.e.F.F.t.r.r.y.                                                                                                                                                                                                                                                                        ",
"                                                                                                                                                                                                                                                                                                                                                                                        } o.Q T =X;X#X#X,X+X#X&XCXHXHXHXHXFXHXHXHXHXFXVXlXzXzXsX9XaX9X9XpXpXpXA.i.a.A.pXaXsXaXaXpXaXpXaXdXaXsXsXuXkXgXAXHXJXJXJXJXKXJXJXJXJXJXJXJXJXJXJXJXJXJXJXJXJXJXJXJXJXJXJXJXJXJXJXJXJXJXJXJXJXJXJXJXJXJXJXJXKXJXJXJXGXNXCXHXHXFXHXHXFXbXzXzXzXzXVXFXHXHXHXFXHXFXFXHXFXjX-X>XkXuXiXsXyXyXaXW.C.g.a.a.a._ _ _ _ ) _ ) ~ / U U k.x.z.z.P.G.L.b.                                                                                                                                                                                                                                                                                                      ",
"                                                                                                                                                                                                                                                                                                                                                                                        ' ]     W.qX;X=X^.^.:XQ.ZXFXFXDXFXFXHXHXHXHXHXSXxXZXVXjXjX4X4XeX4XfXfXH.f.m.T.9XaXaX9XsXdXaXsXdXsXuXsXsXuXkXjXAXHXHXHXJXJXKXJXJXJXJXJXJXJXJXJXJXJXJXJXJXJXJXJXJXJXJXJXJXJXJXJXJXJXJXJXJXJXJXJXJXJXJXJXJXJXKXJXJXJXHXHXHXHXHXFXFXFXFXvXlXkXkXxXSXJXJXJXJXJXHXFXDXFXDXwXqXiXiX0XsXyXaXsXaXA.S.m.h.j.a.) =.=.=.) ) / ( 3.( ~ c.x.s.7.e.e.e.y.                                                                                                                                                                                                                                                                                                      ",
"                                                                                                                                                                                                                                                                                                                                                                                                ~ =.=.,.=.;.j.h.Q.$XwXwXwXrXjXgXhXFXHXHXHXHXHXGXCXCXCXCXDXCXAXlXrXwXtXsXaX0XyXyXsXfXuXuXzXzXzXzXcXlXlXxXVXGXHXJXJXJXJXJXJXJXJXJXJXJXJXJXJXJXJXJXJXJXJXJXJXJXJXJXJXJXJXJXJXJXJXJXJXJXJXJXJXJXJXJXJXJXJXJXJXJXJXJXHXNXhX<XvXvXNXCXAXDXFXHXJXJXJXJXKXCX<XjXrXeX8X0X8XiXiXiXsXJ.S.A.m.E.m.m.g.a.T.E.W.E.~.~.W.=X6X*XI.K.T                                                                                                                                                                                                                                                                                                                   ",
"                                                                                                                                                                                                                                                                                                                                                                                                T / / ~ ( =.a.a.!.!.8X9X8X9XtXwXrXAXFXHXHXHXHXHXFXGXKXHXHXHXHXhX<X4XjXeXiXuXuXeXfXeXkXlXkXlXlXbXDXcXgX%X<XNXHXJXJXJXJXJXJXJXJXJXJXJXJXJXJXJXJXJXJXJXJXJXJXJXJXJXJXJXJXJXJXJXJXJXJXJXJXJXJXJXJXJXJXJXJXJXJXJXJXJXHXxXgXjXAXFXHXJXHXJXJXJXJXJXHXHXHXGX>XiXwXiX0X0XyX0XyXiX8XA.S.S.qXpXpXaXpXqX0XqXqX3.T R o.} o.} 5.5.v                                                                                                                                                                                                                                                                                                                   ",
"                                                                                                                                                                                                      K K J C                                                                                                                                                                                                       V.V.C.C.Y.J.I.cXcXxXxXxXcXxXvXCXHXJXKXKXKXhXhXxXxXcXxXxXxXNXxXxXVXbXjXkXzXVXFXSXxXvXhXSXHXJXJXJXJXJXJXJXJXJXJXJXJXJXJXJXJXJXJXJXJXJXJXJXJXJXJXJXJXJXJXJXJXJXJXJXJXJXJXJXJXJXJXJXJXJXJXJXJXJXHXSXNXNXFXHXHXHXJXKXJXJXHXFXGXDXCXVXeXuXwXiXiX0X0X0X0XaX9X).7X).qXqX7XpXyX7XqX^.!.1.                                                                                                                                                                                                                                                                                                                                    ",
"                                                                                                                                                                                                    PXJXJXKXPX                                                                                                                                                                                                              =.a.m.aXsXuXfXuXwXwX#XAXHXHXHXKXHXHXHXFXFXFXHXHXHXHXHXHXHXDXvXjXlXVXHXHXHXHXHXHXHXJXJXJXJXJXJXJXJXJXJXJXJXJXJXJXJXJXJXJXJXJXJXJXJXJXJXJXJXJXJXJXJXJXJXJXJXJXJXJXJXJXJXJXJXJXJXJXJXJXJXHXHXHXHXHXJXJXJXKXJXHXHXCXjXjXkXzXuXuXuXyXiX0X0X0XqX0XpXpXaXpX4.-./ / W U U U                                                                                                                                                                                                                                                                                                                                         ",
"                                                                                                                                                                                                    PXKXKXJXPX                                                                                                                                                                                                          U _ =.a.m.qXpXpXpXqX7X9XwXZXAXDXFXGXCXCXGXFXFXHXHXJXKXJXHXHXHXFXhXhXvXNXHXJXJXJXJXJXHXJXJXJXJXJXJXJXJXJXJXJXJXJXJXJXJXJXJXJXJXJXJXJXJXJXJXJXJXJXJXJXJXJXJXJXJXJXJXJXJXJXJXJXHXHXHXJXJXJXJXKXJXJXJXJXJXKXJXKXGXGXAXVXkXzXuXsXyXsXuXyXiX0XyXaX_._._.pXqXpXi.=.) ) _ U U U I `                                                                                                                                                                                                                                                                                                                                     ",
"                                                                                                                                                                                                    PXJXJXJXPX                                                                                                                                                                              Y } Y Y { ' T ] R o.X.4.4.3.i.a.i.a.a.a.a.a.i.4.a.A.9XuXrXjXgXgXjX%XNXGXHXHXHXHXHXJXJXJXJXJXHXHXHXHXJXKXJXJXKXJXJXJXJXJXJXJXJXJXJXJXJXJXJXJXJXJXJXJXJXJXJXJXJXJXJXJXJXJXJXJXJXJXJXJXJXJXJXJXJXJXJXJXJXJXJXHXJXJXJXJXJXJXJXJXJXJXJXKXJXGXhXjXlXlXeXzXsXsXyXsXuXsXiX:XA.W.h.j.h.m.h.m.N.m.m.m.m.a.g.g.h.h.g.g.6.8.>.>.R ! o.R ] ' z                                                                                                                                                                                                                                                                                                           ",
"                                                                                                                                                                                                      IXIXIX|.                                                                                                                                                                              8.7.9.9.s.g.a.a.3.g.6.V.V.B.Z.S.C.C.Z.C.V.H.V.V.Z.Q.tXiXuXzXuXuXuXrXlXVXAXCXAXCXGXHXHXJXJXJXJXJXHXHXJXKXJXJXHXJXJXKXJXJXJXJXHXJXJXJXJXJXJXJXJXJXJXJXJXJXJXJXJXJXJXJXJXJXJXJXJXJXJXJXJXJXJXJXJXJXJXJXJXJXJXJXJXJXJXJXHXJXJXJXJXJXJXJXHXDXjXkXkXkXuXuXsXuXsXuXsXsXiX7X^.^.W.T.W.W.W.~.~.E.~.W.Y.Y.A.S.C.C.m.h.h.m.m.m.g.g.6.0.9.8.}                                                                                                                                                                                                                                                                                                           ",
"                                                                                                                                                                                                                                                                                                            c S ' ' Y T T R R T ' { ] T R } o.o.} } } } } } o.o.5.-XiX8XwXwXuXuXeXuXuXzXeXwXsX7XaX0XpX7X_._.!.7X9XzXnXzXzXzXzXzXzXzXzXzXsXzXuXeXtXeXwXeXkXkXjXkXjXgX<XgXgX<X<XNXHXJXJXKXJXJXHXHXJXJXJXHXJXJXJXJXJXJXJXHXHXJXJXKXJXJXJXJXJXJXJXJXJXJXJXJXJXJXJXJXJXJXJXJXJXJXJXJXJXJXJXJXJXJXJXJXJXJXJXJXJXJXJXJXJXJXJXJXJXJXJXHXHXDXjXjXjXlXlXlXlXjXkXkXjXrXeXuXiXiXiXsXuXiXzXuXuXuXsXzXzXnXmXsXaXpX_.!.`.`.`._.qXqX0X9XtX5XuXtXeXrXrXrXjXjXeXeXeXeXeXjXjXjXjXjX4XrXrXrX%Xe.T ] ] ] ] ] { ] ] ] } } o.o.} ] ' F F                                                                                                                                                                                                                       ",
"                                                                                                                                                                                                                                                                                                            >.>.8.8.6.p.s.s.s.f.f.l.l.l.l.l.V.V.l.l.f.l.V.V.C.B.H.;X0X0XiXyXyXiXsXuXuXuXiXiX8XiXyX8X8X5X7X=X5XwXuXzXzXcXzXzXzXzXzXzXzXuXzXzXrXlXlXcXBXVXSXVXVXSXSXSXSXSXBXBXCXCXHXJXJXJXJXJXJXJXJXJXJXJXJXJXJXJXJXJXJXJXJXJXJXJXJXJXJXJXJXJXJXJXJXJXJXJXJXJXJXJXJXJXJXJXJXJXJXJXJXJXJXJXJXJXJXJXJXJXJXJXJXJXJXJXJXJXJXJXJXJXJXJXJXHXGXCXGXGXGXGXAXGXCXCXCXCXvXxXxXcXcXcXcXxXcXVXNXNXcXxXcXcXcXlXzXfX5X8X7XqXqXpXpX0X9XtXtXeXtXtXiXiXiXiXwXwXwXwXwXwXiXiXiXtXtXeXeX-XwX8X=XZ.d.g.s.s.s.s.s.s.s.s.s.s.s.s.s.6.8.5.5.                                                                                                                                                                                                                      ",
"                                                                                                                                                                                                                                    n ' Y Y E T R R } } :.} @.@.5.+XwXrX-X>XwX-X>X-X-X>X>XrXrXrXrX%XeXeXwX=X8X8X7X7XqX0X0X8X0X0X0X0X0X0X0XyX0X0X0X0XqXqXqXqX9X9X7X0XyX0X0XyXyXiXiXuXkXjXkXrXrXeXwXrXeXrXlXkXcXcXlXcXcXlXlXvXxXxXcXlXcXlXlXjXjXCXFXFXFXHXHXHXHXHXHXHXHXHXHXHXHXHXJXJXJXJXJXJXJXJXJXJXJXJXJXJXJXJXJXJXJXJXJXJXJXJXJXJXJXJXJXJXJXJXJXJXJXJXJXJXJXJXJXJXJXJXJXJXJXJXJXJXJXJXJXJXJXJXJXJXJXJXJXJXJXJXJXJXJXJXJXJXJXJXKXKXKXHXJXJXJXJXHXHXHXHXHXHXHXHXHXHXFXFXFXFXHXHXHXHXFXAXAXAXAXAXAXZXcXkXwXwX5XwXwXwXwXrXrXeXeXeXeXrXeXrXrXwXwXwXwXwXwXrXrXrXeXeXrXwX5X8X0XqXqX0X0X0X0X9X0X0X0X0X0X0X0X0X0X8X9X8XuX-XrXrX4X%XrX>X%X%X>X>X>XrX>XrX>X>X>X%X%X%X%X%XF.T Y Y } Y { } } } R T Y Y T Y Y { '                                                                                                                                   ",
"                                                            v ' ' '                                                                                                                                                                 { R R R / / / / ! >.x.x.x.x.B.5X9X9X5X5X5X5X5X5X5X5X6X*X*X6XtX=XwX-X5X5X9X9X9X9X9X0X0XqX0X0X8X0X8X8X9X9X0X8X0X0X0X0X0X0X9X9X0X0X0X0X0X0XiXiXeXVXZXAXCXVXVXVXVXVXVXVXVXSXCXCXAXCXCXCXCXCXCXCXCXSXCXCXCXSXSXHXHXHXHXHXKXKXJXKXJXJXJXJXJXJXJXJXJXJXJXJXJXJXJXJXJXJXJXJXJXJXJXJXJXJXJXJXJXJXJXJXJXJXJXJXJXJXJXJXJXJXJXJXJXJXJXJXJXJXJXJXJXJXJXJXJXJXJXJXJXJXJXJXJXJXJXJXJXJXJXJXJXJXJXJXJXJXJXJXKXKXJXJXJXJXJXJXJXJXJXJXHXHXHXJXJXKXHXHXHXHXHXHXHXHXHXFXGXGXFXFXHXHXGXCXNXBXcXBXcXcXxXxXNXBXBXBXBXBXNXBXBXNXNXBXBXBXBXBXNXNXNXNXbXbXeXtXiX9X0X0X0X9X9X9X9X9X0X0XtX9X9X9X9X9X0X9X8X9X5X9X5X=X5X=X=X=X=X-X=X=X=X=X5X=X=X*X;X-X;X;XH.X.,.>.4.>.4.4.4.R ! R T T T T T T ]                                                                                                                                   ",
"                                                             .+.2.8.l                                       A c [ y.|                           A G [ [ [ [ [ [ | [ [ [ [ [ [ [ [ [ [ [ [ [ [ [ [ | | |  . . .:. .5.5.5.e.$X$X$X4XK.H.s.g.g.g.a.M.g.g.g.6XqXqX7X0XaX7X9X9X8X8X8X6X6X7X5X9X9X9X9X8X9X8X8X9X9X9X9X9X9X9X9X0XqX0X0X0X8X0X8X0XyX0X8X8X8X8X0X0X9X9X9X0X0X0X0X0XaXyXuXkXAXFXFXFXFXHXFXFXFXFXFXHXHXJXJXJXHXHXHXHXHXHXHXJXJXHXHXHXHXHXHXJXKXJXJXJXJXKXKXHXJXJXJXKXKXKXKXJXJXJXJXJXJXJXJXJXJXJXJXJXJXJXJXJXJXJXJXJXJXJXJXJXJXJXJXJXJXJXJXJXJXJXJXJXJXJXJXJXJXJXJXJXJXJXJXJXJXJXJXJXJXJXJXJXJXJXJXJXJXJXJXJXJXJXJXJXJXJXJXJXJXJXJXJXKXJXJXJXJXJXJXJXHXJXHXJXJXJXJXJXJXJXJXKXJXHXHXHXHXHXJXKXKXKXHXHXGXFXFXFXFXFXHXHXHXHXHXHXHXHXHXHXHXHXHXHXHXHXHXHXHXHXFXDXAXkXrXwXiXyXyX9X9X9X9X9X0X0X9X9X9X9X9X9X9XqXqXqXpX7X7X7X7X7X8X7X7X7X7X8X8X7X8X7X7X7X7X8X8X7X7X7X!.9X6X)._.7X_.!.^ ^ R >.8.5.5.8.@.5.@. . .| | | | ..[ [ [ [ [ ' [ [ [ ' ' ' ' | $.y.y.w.w.w.y.w.y.                                                                    ",
"                                                            @.+.i.+.z                                       f d l G A                             f l l f f f d f f f f f f f f f d d d d d f f d f f d l d j { { } R >.6.J.A.A.H.B.B.f.g.a.a.a.i.3.4.4.A.W.W.W.U.U.U.I.~.J.U.U.U.U.Y.Y.J.U.I.~.W.~.~.!.!.W.U.7X9X9XqX9XqXqXqX0X8X0X0X8X0X0X8X8X0X0X0XyX0X0X9X9X9X9X0X0X0X0X9XwXtXZXZXZXZXVXZXVXVXVXCXAXFXHXHXJXJXKXJXJXJXJXJXJXJXJXJXJXHXJXHXJXJXKXKXKXKXJXJXHXJXJXJXJXJXJXJXJXJXJXJXJXJXJXJXJXJXJXJXJXJXJXJXJXJXJXJXJXJXJXJXJXJXJXJXJXJXJXJXJXJXJXJXJXJXJXJXJXJXJXJXJXJXJXJXJXJXJXJXJXJXJXJXJXJXJXJXJXJXJXJXJXJXJXJXJXJXJXJXJXJXHXHXJXJXJXJXJXJXKXJXJXJXKXJXHXJXJXJXJXJXJXKXJXJXKXJXJXHXJXKXKXJXJXJXHXHXCXCXCXCXCXAXAXAXAXAXCXAXAXAXAXAXAXAXAXAXAXAXAXAXAXAXAXAXAXzXtXtXyX0X0XyX0X9X9X0X0X0X0X9X9X9X9X9X0X0XqX_.qXqXqXqX7XZ.J.S.S.S.S.S.C.C.C.C.C.C.C.C.C.M.h.V.V.V.V.V.C.S.C.C./ X.R R v z v v v v c c l l f f l l l l f f f f f f f f f f f f A S S A A S S c S                                                                     ",
"                                                            ..+.p.+.j                                                                                                                                         c ' Y T 8.k.Z.Z.Z.D.D.D.V.x.9.6.6.0.8.>.} >.! R R T R } R R R T Y Y Y Y Y } >.5.9.6.4.4.,.,.4.4.!.0X0XqXqX7X7X7X8X0X0X8X8X0X0X0X8X0X0X0X0X0X0X0X0XaXaXaXpX0X0X0X0X=XiX-XwXrX-X>X>X>X%XgXBXAXHXHXHXHXJXHXHXHXHXHXHXHXHXHXHXHXHXHXHXHXHXHXHXHXHXFXHXHXJXJXKXJXJXJXJXJXJXJXJXJXJXJXJXJXJXJXJXJXJXJXJXJXJXJXJXJXJXJXJXJXJXJXJXJXJXJXJXJXJXJXJXJXJXJXJXJXJXJXJXJXJXJXJXJXJXJXJXJXJXJXJXJXJXJXJXJXJXJXJXJXJXJXJXJXJXJXJXJXHXHXHXHXJXJXJXJXJXJXKXJXJXHXHXHXHXHXHXJXJXJXJXJXHXHXHXHXHXHXHXHXHXHXFXAX%X%X%X%X>XrXrXrXrXrXrX>X>X>X>X>X%X#X#X%X%X%X%XrX>XrXrXwXuXiXyXsXyXaX0X0X0X0X0X0X0X0X0X0X0X0X9X9X0X9X7X0XqXqX7X7X!.o.o.o.o.! R R R R R R R R R ! R R R } { { } R R R R R R }  .z                                                                                                                                               ",
"                                                            F  . ...                                                                                                                                                  l v n v v v v c c b c z z z z z j z j h j j d j d d d d       9     j l z E ! >.! / ^ / C.W.T.A.S.S.Z.S.Z.A.A.A.A.T.W.W.R.~.~.!.!.!.^.).^.!.~.~.~.~.~.~.~.0X:X=X:XqX:X:X0XiXiXuXcXVXCXCXCXAXAXCXCXCXCXCXCXAXCXCXCXCXCXCXCXCXCXCXCXCXCXVXFXHXHXJXJXJXJXJXJXJXJXJXJXJXJXJXJXJXJXJXJXJXJXJXJXJXJXJXJXJXJXJXJXJXJXJXJXJXJXJXJXJXJXJXJXJXJXJXJXJXJXJXJXJXJXJXJXJXJXJXJXJXJXJXJXJXJXJXJXJXJXJXJXJXJXJXJXJXJXJXJXJXJXJXJXJXJXJXJXJXKXKXKXJXHXGXGXAXAXAXAXDXAXAXGXDXGXAXAXAXAXAXAXAXAXAXAXZXI.Q.W.*X=X=X=X:X=X=X=X=X!.!.~.~.Q.W.W.U.U.U.J.J.J.J.J.J.L.R.R.R.R.W.~.R.A.A.Z.Z.S.Z.S.S.S.S.C.Z.Z.C.f.C.f.d.d.x.e.                                d d d d f d d h j h j j 9                                                                                                                                                   ",
"                                                                                                                                                                                                                                                                                                  v Y Y Y T T T R T T T T Y Y T T T T T R ! ! ! ! ! o.o.X.^ ^ ^ o.o.! ! / ! / W 1.4.6.3.p.p.p.g.:X8X8XwX>XrXrXrXjXjXjXjXrX>XrXrXjXgX%X%X%X%XjXgXgX<XgX%X<X%XgXAXHXHXJXJXJXJXJXJXJXHXHXHXJXJXJXJXJXJXJXJXJXJXJXJXJXJXJXJXJXJXJXJXJXJXJXJXJXJXJXJXJXJXJXJXJXJXJXJXJXJXJXJXJXJXJXJXJXJXJXJXJXJXJXJXJXJXJXJXJXJXJXJXJXJXJXJXJXJXJXJXJXJXJXJXJXJXJXJXJXKXKXKXJXHXhX<XgXgXjXjXjXjXgXgXgX%X%X4XrX%X4XrXwXrX4X6XQ.,.i.i.3.3.3.3.3.6.8.8.8.2.1.1.1.,.X.X.X.X.X.X.X.X.X.o.o.] o.o.o.X.o.o.o.} ] R R R T T T T Y Y Y Y Y Y E E E Y Y b                                                                                                                                                                                                             ",
"                                                                                                                                                                                                                                                                                                                                                          n Y Y P x Y Y Y Y Y Y ] } } o.X.1.1.6.S.0XqX:X8XiX;XuXiXiXiXuXwXwX>X>X%XgXgXgXgXgXgXgXgXgX%XgXgX<XgXAXHXKXJXJXKXJXJXHXHXHXHXHXHXJXJXKXJXJXJXJXJXJXJXJXJXJXJXJXJXJXJXJXJXJXJXJXJXJXJXJXJXJXJXJXJXJXJXJXJXJXJXJXJXJXJXJXJXJXJXKXJXJXKXJXJXJXJXJXJXJXJXJXJXJXJXJXJXJXJXJXKXKXKXKXJXJXJXJXJXJXKXKXJXHXSXNXvXxXlXrXkXuXiXuXuXeXrXwX5XwX5X8X7X6X6X=XA.a.i.<.4.T R R T Y Y n n v v v v b v z z z v z           j l                                                                                                                                                                                                                                                                   ",
"                                                                                                                                                                                                                                                                                                                                                                                              U ,.h.R.yXsXQ.v.iXyXiXiX8XwXuXuXAXAXDXDXDXDXDXFXDXDXFXDXDXDXDXAXHXHXHXJXJXJXJXHXGXhXvXhXhXHXHXJXJXJXJXJXJXJXJXJXJXJXJXJXJXJXJXJXJXJXJXJXJXJXJXJXJXJXJXJXJXJXJXJXJXJXJXJXJXJXKXJXJXJXJXKXJXKXJXJXKXJXJXJXJXJXJXJXJXJXJXJXJXJXJXJXJXKXJXJXJXHXHXJXJXKXKXJXJXJXHXHXHXHXFXVXjXrXuXwXwXwXwXrXwXwX5X7X!.h.h.f.h.f.g.h.C./                                                                                                                                                                                                                                                                                                                       ",
"                                                                                                                                                                                                                                                                                                                                                                                              U   W p.:XqXR.R.iXyXiXiXiX8XwXeXAXDXFXFXFXHXHXHXHXFXHXHXFXFXHXFXFXHXHXHXHXHXHXHXAXgXgX<X<XHXJXKXJXJXJXJXJXJXJXJXJXJXJXJXJXJXJXJXJXJXJXJXJXJXJXJXJXJXJXJXJXJXJXJXKXJ B K |.JXJXJ B B B J JXJXJXKXJXJXJXJXJXJXJXJXJXJXJXJXJXJXJXJXJXHXHXHXHXFXHXHXHXHXHXJXJXKXHXJXJXJXHXSXgXgXjXrXrX%X%X%X&X%XrX=X!.h.a.g.f.d.g.h.f.X.                                                                                                                                                                                                                                                              .X.X&X$.                                                ",
"                                                                                                                                                                                                                                                                                                                                                              h j P v v v v v v Y } @.8.6.g.Z.A.A.W.:X0X0X0X0X:X0X0X0XsXiXwXwXkXlXvXvXvXxXxXxXxXcXxXcXvXcXxXxXxXxXxXxXxXxXcXcXcXvXBXCXAXHXJXJXKXJXJXJXJXJXJXJXJXJXJXJXJXJXJXJXJXJXJXJXJXJXJXJXJXJXJXJXJXJXJXJXKXB o B J KXJXZ 3 6 < C JXJXJXKXJXJXJXJXJXJXJXJXJXJXJXJXJXJXJXJXGXhXxXcXxXcXcXxXxXNXNXFXHXHXHXHXHXJXJXHXGXDXDXAXAXAXDXAXDXAXAXkX;XQ.!.=X=X=X=X!.A.s.Q R ! T T Y                                                                                                                                                                                                                                                 <XxXjXvX X                                                ",
"                                                                                                                                                                                                                                                                                                                                                          v z P U O.+.X.X.X.X./ ^ 3.i.i.i.d.T.W.!.yXyXiXyXyX0X0XyX0XqX0XqX0X0X8XwXrXeXeXjXjXjXjXkXjXkXkXkXrXjXrXjXeXkXkXuXuXkXkXlXCXFXHXHXJXJXJXJXJXJXJXJXJXJXJXJXJXJXJXJXJXJXJXJXJXJXJXJXJXJXJXJXJXJXJXJXJXJXKXB . 3 J JXJXV 1 1 < Z KXJXJXJXKXJXJXJXJXJXJXJXJXJXJXJXJXJXJXKXGX<XjXjXkXeXwXtXrX4XxXDXHXHXHXHXHXHXHXHXHXHXHXFXFXFXFXFXHXFXDXjXoX$X-X-X$X-X5X*XZ.l.4.3.p.2.2.+.x                                                                                                                                                                                                                                               <XjXkXvXy.                                                ",
"                                                                                                                                                                                                                                                                                                                                                      l { D.G.A.C.E.~.~.E.W.W.T.T.E.^.^.^.^.^.qXyXR.W.!.R.A.~.R.T.T.T.h.T.T.h.^.8X0XyXsXsXsXkXkXsXsXsXsXuXuXkXuXuXuXuXsXsXsXuXeXlXxXSXGXHXJXJXJXJXJXJXJXJXJXJXJXJXJXJXJXJXJXJXJXJXJXJXJXJXJXJXJXJXJXJXJXJXJXJXKXB . 5 J KXKXC < 3 1 B JXJXKXJXJXJXJXJXJXJXJXJXJXJXJXJXJXJXJXJXHXVXcXkXeXsXsXaXdXwXkXbXVXVXVXVXVXCXVXVXVXVXVXcXVXxXNXHXHXHXHXAXCXAXAXAXZXZXZXVXkXiXI.R.Q.Q.W.A.X.x v z z z z z j f d                                                                                                                                                                                                                           <XvXvXvX|.                                                ",
"                                                                                                                                                                                                                                                                                                                                                      Y r.=XqXqXqX6XqX0XqXqX0XqX0XqXqX:X7X0X5X9X0XS.C.C.f.g.g.<.a.a.j.a.a.j.;.E.0X0X0XyXaXsXsXsXsXsXaXsXsXuXuXuXsXyXyXaXtXeXeXjXjXgXhXNXHXJXJXJXJXJXJXJXJXJXJXJXJXJXJXJXJXJXJXJXJXJXJXJXJXJXJXJXJXJXJXJXJXJXJXJXB . B K XXXXB 6 < : V JXJXJXJXJXJXJXJXJXJXJXJXJXJXJXJXJXJXJXJXHXHXCXlXjXdXaXaXpXdXfXeXeXkXzXkXkXkXkXkXlXkXeXeXrX%XjXFXHXHXHXHXHXHXHXHXHXHXHXFXZXjX#X+X-X*XI.I.6.1.8.1.>.o.R T T ] n                                                                                                                                                                                                                             &X&X&X$.                                                ",
"                                                                                                                                                                                                                                                                                                            f c j b d j l  .q.q.:.:.q.q.:.:.:.:.:.:.5.r.S.!.`.`.C.4.9.s.g.f.f.g.g.g.h.g.d.k.      ,.O.( W.8X!.qX^.^.^._./.^._.qX_.`.^./.^.).).).)._.).aXsXsXuXuXtXaXdXuXuXzXVXZXCXCXCXGXHXJXJXJXJXJXJXJXJXJXJXJXJXJXJXJXJXJXJXJXJXJXJXJXJXJXJXJXJXJXJXJXJXJXJXJXV : 6 u p p 5 5 B 1 B JXKXJXJXJXJXJXJXJXJXJXJXJXJXHXJXJXJXJXJXJXHXGXSXbXcXdX9XaXaXaXdXuXuXzXuXsXsXyXsXuXuXsXsXiXwX%XbXVXNXBXSXBXCXSXSXCXGXGXDXCXVXcXbXbXbXbXbXwX+X*XI.J.s.6.1.1.8.5.                                                                                                                                                                                                                                                                                    ",
"                                                                                                                                                                                                                                                                                                            v x Y L L L E $XrXrX;XQ.J.Q.L.H.K.t.D.F.Z.Q.Y.~.`.).4.` R E R } R ! ! / ^ O.~ o.            ;XzXzXsXsXyXaXyXyXyXaXyX0Xj.(.j.N.N.m.m.N.m.m.aXsXfXuXuXfXtXaXtXrXVXFXHXHXHXHXGXHXHXHXJXJXKXJXHXJXJXJXJXJXJXJXJXHXHXJXJXJXJXJXJXJXKXJXJXJXJXJXJXJXJXJXJXB : 6 B B p 6 5 r : B JXKXJXJXJXJXJXJXJXJXJXJXJXHXJXHXHXHXHXJXHXHXHXHXHXVXcXwXwXyXaXtXzXdXsXsXaXsXtXaXdXdXdXuXtXtXwXwXwXrXeXrXeXjXrX4XbXVXSXCXCXAXCXAXAXAXAXAXAXAXZXAXbX+XU.A.Q.Q.*X1.1.^ X.} } R } { l                                                                                                                                                                                                                                                                 ",
"                                                                                                                                                                                                                                                                                                G [ F ' n Y :.} R L T L T >.5.o.o.o.o.o.o.} Y       ] o.o.0.0.>.                    I I ` L a     L L L OXkXzXsXsXyXyXyXyX0XyXyXqXh.j.N.N.m.N.N.N.m.Y.aXsXuXuXuXeXkXeXrXjXVXHXHXJXJXHXGXFXGXFXHXHXFXFXHXHXJXJXJXJXJXJXJXHXJXJXJXJXJXJXJXJXKXJXJXJXJXJXJXJXJXJXHXp , 5 B B B 5 5 5 1 B JXJXJXJXJXJXJXHXHXKXJXJXJXHXHXNXNXCXGXHXHXHXJXHXHXSXNXvXzXwXzXuXsXaXtXpXpXpXpX9X6XdXdXaXaXsXaXiXyXtXuXuXuXfXzXzXbXbXVXVXbXZXZXZXZXVXZXAXZXAXZXZXVX$XI.6X8XuXuXs.,.<.i.4.X.4.4.} v                                                                                                                                                                                                                                                                 ",
"                                                                                                                                                                                                                                                                 X.X.Xt.t.t.y.y.w.w.w.w.5.5.w.w.5.w.e.r.r.D.OXOX#X' z   9 j b z l c z j d d d                                       =X:X~.7XJ.).~.^.^.!.aXsXuXsXM.f.g.f.m.h.h.a.a.a.a._.qX9XaX9XaX9XiXzXuXzXzXuXjXAXFXHXHXGXHXHXHXFXxXvXlXlXlXjXjXjXhXSXJXJXKXJXJXJXJXJXJXJXJXJXJXJXJXJXJXKXJXJXJXHXJXHXLXXXq.Z < < B B Z Z 6 3 3 < 5 KXJXJXJXJXJXJXJXKXKXKXJXJXJXHXhXgXlXvXxXCXHXHXHXHXHXFXFXAXjXzX+XZ.C.M.m.m.m.M.a.a._.qX0XpX9XtXtXsXwXtXdXuXzXsXI.f.s.g.f.g.4.9.9.9.9.9.g.s.l.l.V.s.s.bXAXAXAXAXZXbXbXnXzXdXaX!.V.7.R ] T Y ] Y Y ' c                                                                                                                                                                                                                                               ",
"                                                                                                                                                                                                                                                                $.:. . .|  .| ' ' F v ' ' ' ' n   z h z k v v v                                                                   o.=X8X9X)._.S.h.E.~.W.W.Q.I.H.>.-.! 4.m.h.T.T.m.m.m.qX9X9XuXtXuXtXuXkXjXbXVXVXNXGXHXHXJXLXSXSXVXVXjXkXuXfXdXzXrXcXNXGXJXJXJXJXJXJXJXJXKXJXJXJXJXJXJXJXKXKXJXJXJXHXHXHXAX XH = * 2 g B Z C g r r 6 r PXSXSXJXJXJXJXJXKXKXKXJXJXJXHXxXkXzXrXjXxXCXCXCXCXAXGXHXGXxXcXeX5X!.W.S.m.m.h.;.;././.^.^.7X=XyXuXtXsXsXsXuXyX=XW.E.m.h.a.h.a.3./ -.! ! >.>.8.9.s.9.uXzXcXbXcXlXlXeXuXdXsXsX9XQ.R.d.d.d.s.g.f.7.5.}                                                                                                                                                                                                                                               ",
"                                                                                                                                                                                                                                                                                                                                                                  b.Q.J.W.R.*X-X=X8X7XW.H.Z.H.6.~ A.T.E.~.!.J.R         f.m.0XaXaXpX0X9X9X9XtXwXwXuXeXjXgXFXHXHXHXHXJXHXHXCXgXgXrXuXiXsXfXdXfXlXjXFXHXHXHXJXJXJXJXJXJXJXJXJXJXJXJXJXJXJXKXKXJXJXJXHXHXGXCXy.F - = w w w t g w w w w w q. X.XFXHXJXJXKXKXKXKXJXKXGXAXlXkXsXyXeXeX4XrXwX%X%XvXHXHXHXHXFXAXbXzXmXmXE.N.;.=.) _ _ _ _ ,.7XtXsXsXsXsXsXsXsXaXaX_.A.m.g.1.R                 ] 8.7.9.9.9.9.V.V.l.7X0XqX0X0XyXyX8X7X7XqXpXaXpX9X5X8.o.X.+.2.+.} '                                                                                                                                                                                                                               ",
"                                                                                                                                                                                                                                                                                                                                                                  Z.^./.^.T.C.C.H.H.+Xe.o.5.} @.Y 8.+.p.d.s.c.!       >.A.W.0XaX0X0XaX9XtXtX8XwXzXbXcXvXhXFXKXJXHXLXGXGXAXVXjXeXsXiXyXyXfXfXfXlXxXAXDXFXFXHXJXHXJXJXJXJXJXJXJXJXJXJXJXJXKXKXJXJXJXHX<Xy.t.e.y. .$.| ' S S F S F F F ' y.y.oXVXCXJXJXJXKXKXKXKXJXHXGXlXzXsXsXzXfX6X5XiXwXrXlXDXFXGXDXAXAXbXnXmXdXE.m.a.;.) ) =.) ~ ,.!.!.=X6X6X8X=X=X7X9X9X0XW.f.g.2.>.                  Y Y Y T T T f.S.h.W.~.^.W.Q.Q.Q.L.W.~.qXqXpXpXpX0Xp.O.i.j.j.a.<.R j                                                                                                                                                                                                                             ",
"                                                                                                                                                                                                                                                                                                                                                  y.@XF.H.Q.R.S.E.E.T.E._.3._ R R                           ^ ( 7XyXaXiXsXyX0X0X7X8XyX8XiXwXwXkXAXFXHXHXHXHXHXHXHXNXgXjXjXlXeXeXeXtXaXaXtXuXVXAXHXCXhXgXgXSXHXJXJXJXJXJXJXJXJXJXJXJXJXKXKXKXJXJXJXHXgXr.b.D.K.r.b.w.@.@.@.@.w.e.e.e.e.r.t.r.b.y.FXKXHXJXJXJXKXJXHXFXcXzXsXsXzXzXdXdXaXiXiXwXrX%XrXrX+X5XtXdXdXdXmXaX).E.N.T.E.i.g.X.E E ! g.h.f.! T T X.6.7XpXpX_._._.E.A.A.H.x.e.                  @.z.d.O.~ ^ W ~ Q Q T T 4.Q.~.0XqX).!.W.W.!.^._._.!.!.B.9.r.} } } T Y Y Y                                                                                                                                                                                                           ",
"                                                                                                                                                                                                                                                                                                                                                  H.Y.C.A.A.C.J.H.U.6XU.U.>.E x n                           i.i.~.8X0XyXiXyX6X0X9XyXiXeXeX>X4XxXDXHXHXDXFXAXGXDXAXcXlXzXsXsXzXfXfXuX0XyXyXwXVXZXAXVXvXvXhXGXHXKXJXJXJXJXJXJXJXJXJXJXKXKXKXJXJXJXHXHX%Xr.k.G.P.z.K.8.@.7.8.8.7.8.7.7.7.k.D.b.r.b.VXCXGXHXHXJXKXJXJXHXNXcXcXuXfXfXsXaXaXaXaXyX9XiX=XqX~._.pXaXaXaXaXmX7XS.T.E.~.3.6.4.L U / i.a.,.I     } 8.=X6X)./._.`./.E.`._.S.x.                   .@.@.Y Y Y Y L x x x x ] D.B.B.l.M.C.d.f.A.).qXqX_.6XU.V.l.g.g.4.,.^ / _ E                                                                                                                                                                                                         ",
"                                                                                                                                                                                                                                                                                                                                F.I.B.D.x.z.z.C.C.Y.C.f.R                                         R ,.!.J.A./.T./.E.h.i.a.C.C.0XiXzXjXvXFXGXGXHXHXHXHXgXrXrXeXeXfXeXsXzXdXdXdXdXdXtXyXyXsXiXjXjXkXjXjXCXHXHXJXJXJXJXJXJXJXJXJXJXJXJXKXKXKXJXJXHXHXDX>Xk.x.x.v.Q.;Xz.z.G.z.z.G.G.G.B.z.B.P.H.B.r.r.t..XDXHXHXKXJXJXJXHXHXcXeXuXsXaXW.W.qXaXaXaX).i.a.;.a.a.i.E.~.~._.pXaXsXdX9XdX0X0Xh.h.a.^ =.!                       qX7XqXpX).~.~.5X*XX.o.U P Y                                 ' o.! / / X.l.T.E.T.S.~.Y.7XpX7XqX).~.W.~.E.m.T P ' Y ' ' F                                                                                                                                                                                           ",
"                                                                                                                            5.r.e.y.G                                                                                                                                                                                           H.!.).J.J.J.J.Z.S.J.H.r.n                                         _ =.E.).U.W.!.~.E.m.a.a.W.U.wXzXjXgXNXHXLXJXHXHXFXDXkXuXtXdXsXsXaXtXaXsXsXsXdXsXaXsXyXyXuXuXuXrXjXgXCXHXJXJXJXJXJXJXJXJXJXJXJXJXJXKXKXKXJXHXGX&X&Xx.s.l.s.c.W.L.J.z.Z.Z.G.G.B.P.H.G.G.H.H.G.z.b.F.F.cXVXSXHXKXJXKXKXHXSXgXeXsX0XT.C.).aXaXqX).=.;.;.;.;.a.h.m.A.~.aXmXmXsXsXaXsXaXm.h.a.<.,.! L                     #XwXfXfX9X9XpX).!.4./ U T L x                                 ..@.@.o.o.7.D.D.U.S.Y.Y.7XqXqX^.W.Q.!.)./.m.X.! / U W R Y                                                                                                                                                                                           ",
"                                                                                                                            s.g.p.7.'                                                                                                                                                                                           M.l.9.m z d l d d j d d                             7.x.x.B.s.V.s.f.<.U E x E E V.~.W.!.^.tXjXAXAXAXCXFXKXJXHXNXhXjXzXiXiXtXtXfX9XyXtXsXsX).!.~.E.).aXtXuXdXsXuXjXVXCXFXJXHXJXJXJXJXJXJXJXJXJXJXJXJXJXJXJXJXHXGXw.e.7.s.l.s.d.R.J.;XZ.B.G.J.G.Z.J.J.J.H.H.H.H.H.J.Q.H.z.t.t.FXHXJXJXJXJXKXFXlXwXuXtX9XaXaX).Y.)._._._./.;.;.=.<.=.4.m.M.M.S.aXaXaXaX~.!.W.W.m.g.R                     c b   b Y >.~.~.7X~.~.W.Y.W.H.                                                v       o.X.+.X.X.o.>.o.( ( ,.V.W.W.T.A.B.>.} ] } } } Y P v                                                                                                                                                                         ",
"                                                                                                                            l.j.h.d.{                                                                                                                                                                             c q.:.5.8.7.5.0.:.'                                         ' 8.6.R.7X8X5XQ.*XH.B.>.          H.I.-X$X#X4XgXHXHXHXHXHXHXFXFXcX%XwXyXaXaXaXtXdXsXyXaXsXpXA.m.C.C.W.aXtXfXfXeXeXgXGXHXHXHXJXJXJXJXJXJXJXJXJXJXJXJXJXJXKXJXHXHXCXw.7.7.6.l.d.f.c.Z.=XH.G.B.H.J.J.J.J.J.H.H.H.J.J.J.J.J.B.K.t.CXGXLXSXLXPXLXHXjXjXkXzXsX9X9X~.M.m.pX_.pX/.i.=.( ) <.i.a.3.g.M.sXmXsXsX0X0XpXaXqX_.4.-.-.>.T                         I.6X6X6X5X6X!.0XqXX.! } } R ! R }                                  .} T } @.L P P Y ' n v Y } } b.K.I.I.H.6XQ.~.W.~.Q.A.4.O.o.c                                                                                                                                                                       ",
"                                                                                                                            r.d.p.7.'                                                                                                                                                                               w w         e 9                                           4.i.i.i.i.! n v v v     >.>.8.2.2.R.#XDXFXAXDXGXHXHXHXFXhXjXkXzXzXfXtXtXtX9XtX9XyX8XC.S.T.T._.7X9X6X5XaXtXtXtXfXxXNXHXHXHXJXJXJXJXJXKXJXJXJXJXJXJXJXJXJXJXJXHXGXVXe.8.7.6.s.g.d.d.l.Q.Q.Q.l.l.Z.J.J.J.J.J.H.J.J.J.U.U.J.L.K.e.y.| G r p 6 XXHXCXCXjXzXuX7X8X~.S.S.~.m.h.j.N.E.A.S.=.=.) ^ ,.,.V.f.l.f.S.S.0XaXpXqXm.m.E.a.,.                        F F n c c z } :XqXC.h.x.f.V.M.g.l.}                               b.G.Z.x.{                               5.x.V.f.f.g.6.! / o.{ v                                                                                                                                                                     ",
"                                                                                                                            ..}  . .c                                                                                                                                                             c |  . . . .| '                                                     ] 5.9.8.1.3.3.=.~             E x.B.I.Q.*X$X%XFXHXHXHXHXHXHXHXDX%X;X8X8X9XaXaXtXtXtXyX0XaXaXS.m.h.h.0XaXsXuXtXaXyXtXwXzXVXHXJXHXHXJXJXKXJXKXKXJXJXJXJXJXJXJXJXJXKXKXFXgX%Xn.p.s.s.p.6.p.d.l.Z.Q.=XZ.l.l.Z.J.J.J.J.J.J.J.J.Z.J.J.I.I.K.b. .f r p 3 |.HXHXGXgXjXwXyX0X7X8X8XH.s.g.h._.pX).qX4.<.^ / U U R R U U -.4.qXaXpX0XqXpXqXE.h.,.I                                 l #X,X;X5XrX$X6XU.f.S.6.                              B.T.T.z.{                               [ y.e.8.1.5.5.} :.5.5.D.F.D.P.H.z.} Y ' v                                                                                                                                                   ",
"                                                                                                                                                                                                                                                                                                                                                                      b z l z z d j x L           9.l.I.$XlXbXVXVXVXCXxXZXVXcXVXVX4XwX;X^.:X8XyXqX0X9X9XpX!./././.m.E.E.A.9XaXuXsXsXyXyXiXrXcXVXHXHXHXJXJXKXKXJXJXKXJXJXJXJXJXJXHXJXKXKXJXHX%X;Xz.k.l.l.s.s.d.S.Z.z.Q.=XJ.H.l.l.Z.J.J.J.J.J.J.J.I.I.H.K.H.OXoX[ 2 r p r B K XXHXAXbXwXiX:X:XL.] ' Y z.J.S.T.m.S.C.Z.C.Z./ T E E E E E E C.S.Y.~.^.E.A.).6XS.l.R                                         l c v Y l.C.f.o.E                           B.S.S.9.F                                                     } 5.>.o.o.! ! o.o.} T                                                                                                                                                 ",
"                                                                                                                                                                                                                                                                                     Xq. .w.w.5.w.                                                        S @.@.@. .S                   I / ~ / =XtX9X5XrXZXDXFXFXFXAXlXeXkXzXzXzXx.l.S.C.^.aX0X0X0X0XpXqXS.j.h.m.m.).pXsXaXsXsXiXyXyXiXeX4XVXDXHXJXJXKXJXJXKXKXJXJXKXKXJXJXJXJXJXJXKXJXJXHXoXL.G.J.J.Z.l.P.b.b.D.x.L.I.*XQ.x.x.V.Z.J.J.J.J.U.J.J.H.I.I.H.K.%XG 4 B r p 6 > |.HXHXCX4X>X:X:Xt.0 0 0 OXiX,.i.i.=.0XaXaXyX,.X.E ` x       R R R ,.,.O.1.8XaX6X0XW.g.4.^ R R                                       K.I.I.U.B.r.9.7.8.5.[               e.6.9. .c                                                     v n Y Y P L o.5.5.5.t.r.b.r.r.r.r.w.w.q.|                                                                                                                             ",
"                                                                                                                                                                                                                                                                                    D A c l f c l                                                         e c l l l w                 ` U i.j.C.zXlXbXcXcXAXDXDXAXAXZX*XtX9XaXaXaXh.g.!.!.8XaXaXpXqX0XT.T.m.a.T.E.S._.~.^.0XsXyXsXsXsXeXZXAXGXHXJXJXJXJXKXJXJXJXJXJXKXKXJXKXJXJXKXJXJXKXJXHX@XJ.H.D.G.G.G.b.1X<X&Xb.P.G.5X*XH.V.f.S.R.R.I.H.J.J.H.I.J.H.J.I.OX[ 2 B B 6 6 > }.HXHXFXDXgX-X+Xt.+ = = F.=X9.g.f.M.!.W.W.7XJ.B.O.U ` s     Y x k Y T I T I.!.!.).W.A.S.C.f.8.                                      y.y.y.y.:. .8.6.s.9.@.                                                                                          d d f l c c l l l f d l d                                                                                                                               ",
"                                                                                                                                                                                                                                                                                                                                                      $.$.                      ] o.X.3.p.T.T.Z.bXAXFXFXFXDXVX&X@XrX-XB.W.Y.A.E.E.h.g.).aXaXaX0X0XqXqX) / ;.=._.pXqXqXA.i.R.yXsXsXtXuXzXFXHXJXJXJXJXHXHXHXHXHXHXJXJXKXKXKXJXJXJXJXKXJXJXHXHXK.I.D.D.G.G.G.b.XXIXXX XoXK.H.U.6XU.f.c.S.Z.K.K.I.H.K.K.J.J.J.L.OX[ 2 B r 6 r > }.JXHXHXHXNXjX@X XO * = F.wXsXsXqXqX,.-.<.7X5X8X7XT.p.U                   5.>.>.9.l.).mXmXaXsXs.o.R x                                             8.I.-X$XF.oXF.e.F.y.                                                                                                            | [ | [ [ { [ ' f                                                                                                         ",
"                                                                                                                                                                                                                                                                                                                                                                              L / / <.C.V.*X6X4XbXZXAXAXDXAXbXK.L.Q.Q.V.S.A./.^.W.C.f.6XaXaX0X6X!.^.E.m.h.a.h._.pX_.).W.p.~.yXyXyXiXuXlXHXHXJXKXKXJXHXGXGXGXGXHXHXJXKXJXKXJXHXHXKXJXKXHXGXVXG.U.D.D.G.G.G..XXX3X3X|. XF.B.Q.6XU.Z.c.c.c.H.L.Q.J.L.K.J.J.J.L.OX[ = B r 6 4 @ }.JXJXJXJXHXCX1Xq.o 8 - F.5X9X9X)._.g.3.3.A.W.!.!.R.s.U                   { { Y } >.x.8X6X9XsX6.^ >.Y                                             ..r.t.y.t.y.t.8.k.e.                                                                                                              f f d f f f f                                                                                                           ",
"                                                                                                                                                                                                                                                                                                                                                                      S ' ] R 1.g.W._.0X6XZXAXDXbXjXjX4XrX$X+Xz.V.W.4.      a._.qXaXpXaXpXaX7X/ / / ( 0XpXpXpXm.=./ ^ S.0XpXaX!.l.I.eXxXHXJXJXKXKXHXFXvXgXvXgXSXHXJXJXKXHXHXHXJXJXJXHXHX%XOXJ.J.D.F.G.G.Z.u.|.].].XX.Xb.z.R.H.I.-XZ.c.l.Z.Z.I.I.I.J.J.J.G.L.OX' = B r 6 4 > |.JXKXJXKXKXFXSXXXX * = F.zX6X).m.g.0X0Xm._ U U W ^ 0X7XZ.o.1.!                       >.8.1.0.0.V.6X*X+X8.n                                                   ' 8.k.t.5.e.5.w.q.[                                                                                                                     G | G H                                                                                               ",
"                                                                                                                                                                                                                                                                                                                                                                      ] o.>.X.4.f.0XaXaX9XZXAXAXnXwXwX;XI.H.9.9.>.o.E   R R f.).aX9XaXpXqXW.A.( ^ ^ a.0X0X_._.a.) i.^ E.aXpXaX!.V.#XxXNXHXJXJXJXJXHXFXvXjXlXgXCXHXHXJXJXFXFXHXHXJXFXFXDX#X,XZ.Z.D.H.A.S.A.D.|.].].3X Xt.z.J.D.-X5X-XL.l.l.l.J.J.J.J.L.H.G.L.oX' 2 g r 6 > > J IXPXPXPXIXhXhX|.. * = t.uXyXqXm.m.!.7XM./ / T U W !.=X=XJ.Z.s.k                     ..5.o.} 5.>.Y.!.7Xl.R                                                      . . . . . . .5.Y                                                                                                                       H H                                                                                                 ",
"                                                                                                                                                                                                                                                                                                                                                              c { } T 4.6.W.!.8X9XaXsXdX9X6XK.$Xx.l.s.8.7.9.          I.5X8XaXaXtX9XpXV.f./ ^ _ / pXaXW.W._ _ _ ) qXqXpXE.m.S.U.wXVXHXHXJXJXJXHXGXxXxXlXkXjX<XCXHXHXHXGX<X<XHXJXHXGXjX@Xb.OXk.H.H.H.A.S.T.G.t.}.|.].}.t.B.Z.G.+X-XwX=XZ.l.l.Z.C.J.J.I.H.G.D.t.[ f r 3 6 4 % @ . % X . @ X @ , . 8 = u.uXyX8X0X0X4.-.A.qXqX6XU ` s   g.:X:X;XK.OX}                             5.x.l.d.v.8.5.o.] v v v l                                                    .5. . ...|                                                                                                                                                                                                                   ",
"                                                                                                                                                                                                                                                                                                                                                              ' } >.^ 4.C.sXnXzXnXsXdX9X9X8X6X=X9.8.8.o.5.@.        } H.yXyXiX8X6X6X!.C.g.^ _ / U 8X9X6.f./ ) =.) _.pXpXT.m.V.5XcXAXHXHXKXJXHXHXCXvXlXcXzXjXhXSXHXHXHXDXgX%XFXHXHXAX>X-X.X.XF.D.H.J.S.S.T.A.b.t.}.UXy.b.z.l.G.I.K.wXwXL.H.z.l.c.S.G.L.H.x.e.w.[ Z 4 r r 2 2 > > > % 2 < % 2 < 1 1 2 w.@XrXwXuX=Xg.<.T.7X).!./ ` ` ` 3.Q.=XG.OXOX}                               w.5.o.8.o.8.8.o.Y Y T P                                                      .{ ] }  .                                                                                                                                                                                                                  ",
"                                                                                                                                                                                                                                                                                                                                                      c F ' { 5.aXaXqXaXaXaXzXzXzXD.9.9.9.6.g.l.              } 0.I.dXtXyXyXuXE         ` ~.8X8XaXE ` E ` 4.E._.qXT.a.a.m.~.I.lXFXHXJXJXJXHXDXBXcXkXcXlXlXZXDXHXGXGXhXgXgXgXDXHXFXVXrXuXvXBXOXI.Z.A.S.S.A.S.Z.b.y.y.t.b.G.J.J.Z.H.=XwX+X+Xz.d.S.c.v.H.D.e.] ' F A 2 6 r r r 3 < 2 2 2 3 4 6 6 7 6 V | y.&X%X&X>X5X0Xg./ / / 6X7XW.g.            z.D.F.                                     .+X;X;XK.Q.R.T v z w                                                   ' { v v F | $.$.[                                                                                                                                                                                                     ",
"                                                                                                                                                                                                                                                                                                                                                      { 5.8.l.A.sXpX7XsXqX0X0XiXuXr.} } { ] } }               l.S.9X5X+XI.K.z.x         R Z.s.Z.Y.E     U m._.`._.E.a.a.C.uXlXBXHXKXJXJXHXFXAXcXkXzXzXzXlXZXHXHXHXCXjXgXcXVXCXCXCXcXiXwXxXVXD.l.S.S.Z.H.H.Z.Z.G.D.D.G.G.A.A.A.J.J.I.-XtX-Xz.v.c.l.k.5.@...v b l f r r r V C 6 2 2 2 3 3 3 6 u u B g g f t g g f F.wXl.<.( ( A.Z.!.V./           8.7.5.                                    S | 5.5.} s.Z.X.o.T Y                                                   w f d d c S A A c                                                                                                                                                                                                     ",
"                                                                                                                                                                                                                                                                                                                                            F } } >.>.H.Q.qXpXaXaXaXpX9Xl.1.>.>.5.                      Y I.Q.W.W.Q.wX5.          L B.Q.Q.E           6X)._._.N.a.;.i.W.5XbXAXGXJXKXJXHXNXvXlXlXzXzXkXlXlXAXHXHXFXVX%XjXFXFXxXgXjXkXiX8XcXVX8.p.h.A.Z.Z.H.A.H.J.Z.A.A.A.A.A.A.A.J.Z.K.wXwX;X;XJ.d.p.@...[ [ S A A g B r r p r 6 r 3 6 3 3 6 6 u 5 6 r r r r B g |  .wXQ.R.W.    U.6X7XQ.1.            a F.@XoX                                      T x.x.G.P.z.5.5. .                                                                h @.@. .| 0                                                                                                                                                                                       ",
"                                                                                                                                                                                                                                                                                                                                            L R p.i.g.A.^.qXpXqXpXpX9XtXx.T Y v F                     Y E Z.W.!.H.H.t. .            k.9.k.T           6X).^._.m.;.m.W.aXlXVXHXJXJXJXHXFXVXlXkXlXlXlXkXkXxXCXHXHXDXbX>XrXFXHXxXkXkXuXiXsXrX,X7.! g.C.Z.Z.H.A.S.A.A.A.A.A.A.A.A.A.W.J.K.;X;XwX-XJ.s.k. .[ G G A A D r B r r r B B B 6 5 6 3 6 3 p p r r r 6 6 u 5 g S oXwXQ.^.    I.I.H.Z.1.            h 5.r.t.                                      c {  .5.5.8.d.2.X.                                                                w [ ' S S                                                                                                                                                                                         ",
"                                                                                                                                                                                                                                                                                                                                    v v x T ~ T.^._.qXqXqXqX7X1.^ X.o.5.x                         Y r.K.H.;X;X-X              r.b.5.              >.A.g.a.a.i.i.-.).5XbXAXHXHXJXHXGXhXvXkXzXzXkXeXkXkXZXFXHXJXCXjX>XiXkXFXHXxXrXkXzX8X8XK.] ] } 6.s.l.Z.H.H.H.H.H.J.A.A.A.A.A.A.S.H.H.K.K.wXwXK.G.r.z e f H D H D V g g r r p p p 5 r r 6 6 3 r r r 6 r 5 p B B 5 g d &XwX!.C.Z.L     L L.L.R.k.              r.F.K.e.z                                         G.R.Q.r.e.w.$.                                                                                                                                                                                                                                                          ",
"                                                                                                                                                                                                                                                                                                                                  ' { R ! / O.~.7X_.qX7X=X6X5XY Y Y n F                           o.x.5XI.F.F.u.              r.b.@.            R 4.J.f.M.M.a.g.l.6X#XbXHXHXHXHXHXDXvXjXuXsXuXuXzXlXgXVXHXHXHXSXrXwXiX%XFXHXxXrXwXiX9X$X[ e e | o.X.g.Z.A.A.J.H.H.H.J.A.A.A.A.A.A.H.Z.H.H.5XwX$Xz.F.d w 4 4 g Z Z Z B B B V B Z V Z r r r 6 r 6 r 2 4 p B B p r 6 g g .XrX>XJ.Z.U     x D.P.J.Z.              w.r.r.5.x                                         w.r.t.w.w. .|                                                                                                                                                                                                                                                           ",
"                                                                                                                                                                                                                                                                                                                          c b Y Y K.I.!.).!.!.0XW.X.! o.} Y {                           v 5.OX-XwX5XI.-X              F.F.F.OX                T *X7X3.C.C.M.g.aXnXcXcXSXHXHXHXFXgXlXrXuXsXsXuXuXuXkXgXSXHXHXHXCXkXzXkX%XFXHXcXuXkXiXQ.H.e = w [ } R 1.c.A.H.J.A.H.H.H.A.A.A.A.A.U.A.J.U.H.J.I.-XwX%Xw 4 4 6 V Z V C B V Z D D K K K r w r r p r r 2 4 p B B g r g 6 6 Z  .zX=XJ.c.s.R L     z.G.P.OXt.                 .w.w.:.                                                :.:. . .| $.                                                                                                                                                                                                                                              ",
"                                                                                                                                                                                                                                                                                                                          ' ] >.s.!.qXqX_.!.6X*XK.R Y Y m v                             Y 5.U.6X8X*XrX@X            ' OXF.F.oX              e.I.W.T.-.Y.S.~.~.sXlXxXAXGXHXJXGXAXjXkXfXdXsXsXuXuXsXkXhXSXHXHXGXVXlXkXxXvXCXAXcXiXyXsXC.7.e 4 e  .} R o.p.S.A.S.S.A.J.J.H.H.J.J.A.A.S.W.J.J.Z.H.5XrX4Xg 4 3 3 3 r C D Z Z Z Z Z Z C C r w r r r 6 6 2 < 6 u B Z V Z B Z V [ cXzXzX*X!.1.8.    b.D.H.H.B.                $.w.w.e.                                                y.y.:.w. .'                                                                                                                                                                                                                                               ",
"                                                                                                                                                                                                                                                                                                                        w.F.L.=X0X0XE.i.-.>.o.} n                                 | e.r.+X$X5XfX                 .w.                      T B.*X      C.7X9X6XZXAXFXHXHXHXGX<XlXeXtXuXuXsXyXuXuXuXbXHXJXHXSXvXlXkXcXHXFXgX>XuXiXQ.C.T.6.d w 0 ] } } R 1.Z.R.S.T.A.A.J.G.H.H.J.J.J.J.W.S.W.J.Z.I.#X%Xt 4 3 6 6 r B V C C V 6 p r 6 r w 4 r 3 < 3 3 < 7 7 6 B Z Z B V V g | VXVXuXuXyXJ.J.>.]           D.7.@.q.            ' r.5.n F S                                                     ' [ | G                                                                                                                                                                                                                                       ",
"                                                                                                                                                                                                                                                                                                            d j E E Y n F.6X8X0X0XqXU.! R T Y F                                 v D.5X5X9XdXfXrX                F.oX .                  T I.x.T       ).9XwXjXVXHXKXJXHXHXAXjXeXsXiXsXsXuXuXeXjX%XCXHXHXHXVXjXkXkXbXHXHXrXwXyXyXE.m.m.9.d 4 e ' } >.o.R >.J.Z.A.A.J.J.J.J.H.A.J.A.J.J.A.A.A.H.Z.#X@Xe 0 4 r 6 6 6 B V Z p g B B B p r r 6 6 3 < < , < 3 5 5 5 5 6 3 u r [ VXbXcXZXVXI.R.d.X.          x.9.k.e.              r.5.Y F F                                                     | w.w.w.                                                                                                                                                                                                                                      ",
"                                                                                                                                                                                                                                                                                                            x 8.g.g.g.0.F.V.M.M.S.V.>.                                          9.U.6X7X9X6X} {               }  .                    Y 5.8.8.    T ! 6XfXcXBXGXJXJXHXGX<XfXrXtXyXyXiXyXuXeXeXlXBXGXHXHXHXVXeXuXuXcXHXHXjXiXiX0XT.N.T.6.e = w v } 0.X.! X.x.Z.A.J.J.J.J.A.A.A.A.J.J.J.A.A.A.A.Z.K.%X .| e 2 r r r B B Z V B B r B p r r 6 6 3 < < < < 3 6 5 5 6 6 u 5 w G cXcXlXZXVX$X;Xv.Z.' F         Y L o.@.' S                     d                                                         v v c v f f                                                                                                                                                                                                                           ",
"                                                                                                                                                                                                                                                                                                    l b x x T Q.7X_.7X6XV.! R ! R Y z                                       0.Y.aXaX6XU.5XK.            Y F.K.OXv                     x.D.        U.6XfXjXDXHXJXJXHXHXAX$X6X5X9XtXaXtXyXiXuXtXcXGXKXHXHXFXVXkXkXkXbXFXFXrX5XiXyXE.T.T.6.d 2 = e x 1.X.X.! 1.V.J.H.J.A.A.A.J.J.H.J.J.J.A.A.J.J.H.+XwXb.t.h 0 4 4 r r p V p p p p B B B V Z C C C C Z V r 6 r r 6 6 r 6 g S t.z.I.lXcXcXnXiX8X>.{             Y 9.5.5.c                 l ..                                                        '  .@.5. .[                                                                                                                                                                                                                           ",
"                                                                                                                                                                                                                                                  [ :.5.:.|                                       j L T +.1.X.J.A.C.Z.H.>.x k a                                           R g.C.'.0.0.5.8. .          ' @.b.}  .                  } @.5.5.        U.6XlXxXHXJXJXHXCXgXrX*X6XW.U.9XdXaXsXsXsXwXcXHXKXHXGXCXcXeXuXwXcXDXDXkX=XiXaX/.N.m.0.f 3 2 w v 5.8.3.,.! s.B.H.J.A.A.A.J.J.J.J.J.A.A.A.J.H.H.U.H.x.F.w.y.d w r B B Z p p r r r r r r V V V V V V r 4 2 w r 6 r r 6 g S n.l.Q.zXzXcXzXwXyXZ.x. .            Y } 5.:.n                 A                                                           S b b v b                                                                                                                                                                                                                           ",
"                                                                                                                                                                                                                                                  y.V.M.V.D.                                b x L 1.s.l.W.T.A.W.1.o.o.}                                                .B.H.S.V.r.                   .+XF.@.                    x z.r.        U.).6X%XAXHXJXKXJXDXZXOXJ.i.h.g.Y.pXaXpX9X9X8XwXcXFXHXFXBXjXjXuXuXzXuX>XrXwXiXyX0X/.N.m.8.w : < t S } >.8.4.X.4.s.Z.H.J.A.T.J.J.H.H.J.A.A.A.J.H.H.U.A.V.x.b.F.h w t r 6 r 6 6 r 6 r r r r r r r r 4 4 4 4 w t r t 4 r 6 t v z.l.R.7X5XzXzXuXsX6X8X@.Y               5.s.7.5.                                                                                    ' ..] ' ' F                                                                                                                                                                                                               ",
"                                                                                                                                                                                                                                                  5.M.h.m.z.                              v Y E T g.g.f.M.g.l.9.} Y v c                                               5.x.>.5.:.G                   Y ]  .v                   o.1.8.@.        ~.9XwXjXGXJXKXJXFXVXnXI.W.i.m.~.A._.qXdXdXtXtXuXcXGXHXFXBX>XuXuXyXiXsXiXiXsXyXyXpX/.N.m.6.t : : 2 f v } 8.6.1.1.4.V.Z.J.T.T.A.J.H.H.J.A.A.A.J.H.H.A.A.S.H.H.#XF.t.e t r B 6 6 6 6 6 6 6 6 r w 4 4 4 4 4 4 w w w w r r g f v z.d.C.E.~.pXaXaXdX8XaXQ.z.P             n R } Y                                                                                       v v v j z                                                                                                                                                                                                               ",
"                                                                                                                                                                                                                                                  :.V.C.C.r.                        n Y R H.U.).~.U.>.R R E Y z                                                   ' r.r.r.                      :.t.                        k 7.8.        r.).7X*XcXFXKXKXJXFXvXK.Y.f.m.a.m.aX7Xa.m.9XdX9XwXjXhXFXHXDXVXrXwXtXwXiXsXQ.Q.sXtX9XpX/.N.m.6.d : % . g l { 8.7.4.,.X.9.l.A.R.T.A.A.A.J.J.W.T.T.J.H.H.J.S.C.Z.Z.Q.#XoXe w w g r t t t r 6 4 6 4 4 4 4 6 6 6 4 4 6 6 r 4 4 w e S >X8XS.T.A.S.C.6XtXyXsX).W.s.o.                   .8.1.5.j                                                                                       c ' ] ] P                                                                                                                                                                                                     ",
"                                                                                                                                                                                                                                                  q.5.8.8.y.                      ' T R / Y.Y.S.V.9.Y m z z j                                                     } 5.e.w.                      '  .                      ' ] o.o.        S.7X7X>XCXJXLXJXGXAXeXY.S.4.m.h.~.aX).h.m.qX9X5XjXCXGXCXVXbXlX;XwXiXsX9X7Xf.C.aXsX0XqX/.N.m.3.e * 1 1 g w l ] 7.s.g.~ >.9.H.R.T.A.A.A.A.J.W.W.R.J.H.H.V.V.A.C.Z.J.L.#Xt.G w 4 w 0 0 w = = = = = = = = = 2 4 4 4 4 4 4 w 4 d | y.jXiXR.A.c.1.! U.iXyXaXqXpXY.4.Y                  .o.1.@.z                                                                                       A [ ' ] '                                                                                                                                                                                                     ",
"                                                                                                                                                                                                                                                                          d v { >.A.S.!.W.C.E L                                                           F  .5.>.>.v                     $.:.                       .7.5.5.          H.).!.=XrXCXHXJXHXDXjXF.U.U.m.` S.^.!.aX!.j.m.).5XrXvXGXGX%X-XwX*X!.^.0X0XpX0Xh.m.aXaX^.E.m.N.m.3.e > % : 5 t d ..8.s.g.~ R } 6.J.J.S.S.A.A.A.T.T.T.J.J.H.B.Z.Z.Z.Z.Z.J.+X@X:.S c c c c b b z b b b b b b v v S F F F S S F S [ y.%XgXrXz.J.x.    k.Z.7X0XqXpX).S.s.5.                      Y e.7.P                                                                                           l v S F                                                                                                                                                                                             ",
"                                                                                                                                                                                                                                                                          a E o.B.Z.A.J.K.r.n z                                                           n 8.o.5.{ f                     |  .                      { 8.5.@.        U A.W.7XrXGXHXJXFXNXVXrXV.S.  W 4.S.W.~.C.C.a.a.pX5X4XhXGXCXwX8X0XA.S._.aXpXpX_.h.m.sXsX_.N.T.m.j.<.9 2 > : 6 6 t l P 7.h.( T Y o.x.J.A.A.J.A.A.T.T.T.J.J.H.B.Z.Z.Z.Z.Z.J.L.$X%X%X%X&Xt.t.r.x.x.x.x.x.x.x.b.b.F.F.F.oXoXoXoXoXoXoX&XjXjXcX>X>XD.    5.r.-X8X7XpXpX9X!.4.                        @.@.P                                                                                           l ' '                                                                                                                                                                                               ",
"                                                                                                                                                                                                                                                              c v E Y T X.6.6.r.5.                                                                     .o.o.Y                                                   { r.              8.c.7X=X>XBXFXHXSXAXlXI.$X0.>.  >.).~.~.A.` W pX!.aXtXAXDXFXCX=X!.7XT.S.qXaX_.S.T.m.C.aXaX^.T.<.) N.g.b w r B 3 2 r d v 7.p.,.} x Y ] B.G.Z.A.A.T.T.A.R.W.J.J.Z.Z.Z.Z.Z.Z.Z.H.D.-XrXrX#XF.OXD.G.Z.Z.G.P.P.P.K.K.K.OXOXOXOXOXOX#X#XoXoX>XjXlXjXjXOXT Y       Y 6.C.6XaX9XY.I.Y v                         v >.1.Y z                                                                                                                                                                                                                                                                                     ",
"                                                                                                                                                                                                                                                              Y E U U ^ C.x.e.w.$.                                                                     .@. .F                                                     r.          P o.l.~.=X#XgXHXHXHXhX&X4XU.V.>.  0.V.~.~.).M.` ,.9XsX7XeXDXDXCXcXqX/.E.E./.qXpX!.m.m.m.M.aXaX~.C.<._ T.W.{ w V g 6 < 6 g c @.g.p.' v n ' t.H.Z.A.A.A.A.A.J.U.R.J.Z.B.Z.Z.Z.Z.Z.Z.H.+X+XwXwX+X+XJ.J.R.R.Q.Q.Q.*X;X#X;X-X#X#X#X%X-X>X>X#X#XkXkXlXjXvX@XT 5.      F 5.r.8.6XfX5X5X9.R                         [ k.x.o.Y j                                                                                                                                                                                                                                                                                   ",
"                                                                                                                                                                                                                                                      c ' P R J.f.V.9.} v                       :.w.y.y.q.                                    [ |  .S                                                                         z.Z.W.;XrXxXFXFXCXBXjXK.5.>.      H.Y.~./ ` -.~.A.wXzXiXkXFXHXCXwXa.a._ a./._.aX_.N.N.m.m.pXaXT.S.p._ E.=XVXNXw r 2 6 6 r c  .9.8.' c d j  .u.G.J.A.A.J.J.J.J.T.A.Z.Z.Z.Z.Z.H.H.H.B.H.H.-X-XwX*XI.J.J.R.R.Q.I.L.I.+X+X;X;X;X#X#X#X#X>X;X+X>X@X%XjXrXjXkXjXw.            F.I.!.7X8X!.R P                           r.e.                                                                                                                                                                                                                                                                                    ",
"                                                                                                                                                                                                                                                      } } Y T o.x v j 9                         u.U.U.K.oX                                    9 0 9 w                                                                         Q.Q.;XVXFXFXHXDXvX#X+Xr.s a     z.Q.I.U.^ U -.W.U.eXeXuXrXFXFXjXQ.a.h._ a._.qXaXW.m.N./.~.pXaXf.d.~ T E.*XVXGX$.J 4 6 > 2 f ' >.8.' A f f F y.H.Z.T.A.J.J.U.J.A.S.S.S.S.H.H.Z.H.H.Z.Z.l.B.G.=X;X;XQ.Q.Q.Q.I.L.L.L.+XOX+X#X#X#X$X#X#X#X;X+X;XOX@XkXrXjXkXcX%XS             9 D.5X8X^.c.8.                          j c                                                                                                                                                                                                                                                                                     ",
"                                                                                                                                                                                                                                                R T 0.9.0.R T x                                 r.).~.Y.F.                                | [                                                                             r.H.*X-XAXGXHXHXSX4XI.6XH.        x.R.R.4.s.0.E 4.S.U.uXuXwXjXFXDXK.C.a.a._ f._.qXaXW.h.E.aXaXaXaX1.T I U ~.I.CXGXNXNX2 2 > 2 w j x  .F A Z g d F F.I.W.J.J.U.J.H.A.T.T.A.S.S.S.Z.Z.H.H.H.B.x.Z.+X-X;XI.I.I.I.L.L.K.K.+X#X#X#X#X#X#X#X%X@X$X$X-XK.K.#X#X%XlXgX%X&X              ' Y -XsXsXtXr.w.                                                                                                                                                                                                                                                                                                              ",
"                                                                                                                                                                                                                                                o.U >.R M 0 0                                   r.U.U.+XF.                                G A                                                                             Z.H.5X%XGXHXHXDXZX$XQ.6.R         Z.s.Z.L     ).~.4.S.tXVXZXAXGXAXL.a.-./ U C._.^.!.f._ a.sXaXT.T.R L L I Z.-XAXGXSXNX4 4 6 2 = 0 9  .G A Z g f S F.P.Q.W.U.U.U.J.A.T.S.S.S.H.B.B.B.Z.C.Z.C.l.Z.k.;X-X-X-XwXwXwXwXwXeXeXkXkXkXkXkXkXkXlXeXeXeXuXtXwXuXrXjXjXjXjX%Xy.                y.K.5X5XB.D.                                                                                                                                                                                                                                                                                                              ",
"                                                                                                                                                                                                                                      |  .@.@.@.o.o.} z                                         y.F.oX.X X                            D A g                                                                           8.9.tXK.ZXCXHXHXAXlX4XI.K.          9.H.o.        ).`.M.M.tXVXGXGXGXZXW.a.    U S.qXA.i.( _ g.sXsXm.j.T k x L Z.;XAXFXNXNX6 3 3 < 2 w 9 | S A V t g S y.F.J.W.U.J.A.A.A.S.A.S.l.x.5.5.9.J.S.S.m.m.c.B.+X;X-XwXrXrXwXuXuXrXkXkXuXkXkXkXlXlXlXkXeXeXeXuXtXiXuXrXeXjXkXlXlXjX<X                -X-XsXiXx.V.                                                                                                                                                                                                                                                                                                          ",
"                                                                                                                                                                                                                                       .} a y y 0 0 0                                                                                 =                                                                             E l.Q.wXoXAXHXHXFX4X4X$XK.z         7.Z.H.R       R qX_.E.7XuXVXFXCX&XOXQ.4.  R O.S.qXE.g.<._ g.dXaXm.j.T k z k v.,XAXFXSXNX2 % < 4 2 = 0  .S A Z B g f l ' K.Q.~.U.A.A.A.A.Z.Z.J.r.v Y 8.s.Z.S.T.T.h.f.x.B.-XwX4X%X$X;XwXwX4XrXrXwXwXwXrXrXrXrX-X-X-X*X$X+X$X+X$X$X#XrXrXjX<X                @.e.;X5XU.W.9.w.                                                                                                                                                                                                                                                                                                      ",
"                                                                                                                                                                                                                              '  .@. . .| 0                                                                                                                                                                         T L.wXjXCXHXHXHXDX4X4XF.t.        z.J.U.B.Y     l.A.).).6XuXkXAXFXVXOXZ.Z.4.  l.8XyX0Xf.^ U U 2.aXaXm.j.I a k k l.;XAXFXNXhX2 < 6 4 = e j  .S Z V g B g w F K.I.I.J.A.A.A.A.S.Z.z.7.v v 8.5.B.Z.S.m.C.Z.l.G.5XwXeXrX+XI.+X$X$X$X+X+X+X$X$X$X$X$XOXI.I.U.U.H.H.K.K.K.@X>XrXlXlX                  c w.r.5X7X~.B.Y                                                                                                                                                                                                                                                                                                     ",
"                                                                                                                                                                                                                          z z '                                                                                                                                                                                   e.J.;X%XgXHXHXHXCXlX@Xt.            H.J.L a     } S.m.-.Y.9XuXlXcXcXoXr.        V.yX:X^.g.^ ! U 4.aXaXh.j.P j j s l.+XAXDXq.q.4 < > * d w.7.5.S A C B B g t [ OXI.I.Y.A.A.A.S.S.A.B.e.Y v 5.] 5.z.C.f.h.c.d.Z.=X;XrXrX$X*X+XI.OXOXI.I.I.I.I.I.I.K.K.I.I.I.I.I.I.I.I.K.OX+X@XjXjXjX X                    D.H.A.J.9.}                                                                                                                                                                                                                                                                                                   ",
"                                                                                                                                                                                                                  [ [ { ' ' ] c                                                                                                                                                                               x 9.iX8X#XVXDXHXDXvXjXeXe. .        w.OXK.OX        r.T.m._ Y.4X4XcXcXkXH.X.        V.sXyX8Xl.R E ` 1.0X0Xh.p.P a j s p.L.vXhXA V B B g w d w.s.s.h w Z B Z B t G OXI.I.I.A.Z.Z.S.S.S.H.r.v v w.z a 5.k.l.l.f.h.S.8X-XeXeX-X*X*XI.+X$XI.I.I.I.I.I.I.I.I.I.I.I.I.U.I.I.I.I.OXK.OXrXjXvX&X                    w.r.*X~.W.Z.}                                                                                                                                                                                                                                                                                                 ",
"                                                                                                                                                                                                                d 9 0 0 +                                                                                                                                                                                     >.6X*XuXjXCXGXCXbX&Xr.w.Y           r.K.a           x.m.m.4.6XbXVXbXnX9XZ.E       >.Y.aX=XW.6.E E L X.!.^.a.2.P   a k p.L.w.q.A Z Z B r w d e.g.i.k e g V C B g G K.I.Q.I.A.Z.C.S.A.A.Z.9.Y n  .h 9 y.r.6.6.d.h.h.=X-XzXzX;XQ.Q.I.+XI.I.I.I.I.I.U.I.I.I.I.I.I.I.I.I.U.I.I.+XOX$XkXkXjX&X                      9 5.0.V.Z.o.]                                                                                                                                                                                                                                                                                               ",
"                                                                                                                                                                                                          [ ....|                                                                                                                                                                                           ] U.8X$XZXDXHXAXgX4X4X:.              8.OX         .U.a.U 4.>.$XAXAXnXnX^.g.      E 6X9XyXZ.s.X.    x U 3.i.L       9 a 7.OX[ A Z V B B r w d 5.i.i.8. .f V Z g g [ D.J.J.J.J.A.S.S.S.T.A.r. .' { h 9 w. .Y o.c.C.C.l.B.eXuX;XQ.Q.+XI.I.I.I.I.I.I.I.I.I.I.I.I.I.I.Q.Q.I.I.I.I.I.+X-XrXjX%Xy.                        v r.K.B.k.Y v                                                                                                                                                                                                                                                                                           ",
"                                                                                                                                                                                                          e 9 0                                                                                                                                                                                             8.0X9X6XAXDXVXcXF.e.{             :.B.J.F.        >.C.a.R H.6XfXZXZXS.i.f.>.      T 6XtXaXV.W L     L U i.p.            @.b.| H C Z Z B r w d 5.4.p.6.e.e t B B g F G.v.c.Z.J.W.T.C.S.C.Z.B.x.F.t.h 9 y.5.Y o.Z.c.c.C.B.eXuX*XQ.Q.+X+XI.I.I.I.I.I.I.U.I.I.I.I.I.I.I.I.I.I.I.I.$X$X$X@XjXjX&Xy.                          c m >.X.5.                                                                                                                                                                                                                                                                                          ",
"                                                                                                                                                                                                  q.[                                                                                                                                                                                                   z x.7X7X9XfXZXbX$XOXe.                w.D.x.            C.a.E fXzXeXbXsXa.a.6.:.    Y 9.aXaX8Xl.U       x T g.f.            @.1XA Z Z Z B B r w d :.8.p.p.+.h e f V f F z.c.Z.C.W.!.~.c.S.S.S.Z.l.z.b.j 9 y.5.P o.Z.C.C.Z.z.eXuXI.Q.I.I.I.I.I.I.I.I.I.I.I.I.I.I.I.I.I.I.I.I.I.I.+X+X+X$X#XjXjX%X.X                              5.s.H.9.                                                                                                                                                                                                                                                                                        ",
"                                                                                                                                                                                                                                                                                                                                                                                                      z R C.7X0XdXfXwXfX5Xe.5.                r.t.}             -.4.>.uXnXnXY.A.i.a.        Y 4.aX9XaXl.!       o.6.S.C.             .w.c D Z C Z B g w w v T p.p.6.@...f t f ' z.c.c.V.L.Q.R.C.S.A.S.S.c.l.x.T P r.5.Y 1.z.f.l.Z.z.wXeXI.Q.I.I.U.I.I.I.I.I.I.U.I.I.U.U.I.I.I.I.I.I.I.+X+X+X+X$X@XkXkXlX&X                              v R 6.s.L                                                                                                                                                                                                                                                                                       ",
"                                                                                                                                                                                                                                                                                                                                                                                                      } *X9XaXtXuXeX9XtX4Xd               F.$Xx           u.u.    0.W.sXsXnXS.g.4.R       M 9.3.yX9X7X4.T      .uX9XT.c.        w.b.e.w.S G A A A f f w 0 0 k 6.p.s.e.w.l w w ' z.c.Z.Z.I.Q.Q.Q.S.C.C.C.C.c.Z.x.k.D.@.L 1.B.Z.H.B.z.rXeXI.I.I.I.I.I.I.I.I.I.I.I.I.I.I.I.I.I.I.+XI.I.I.+X+X+X+X+X$XrXrXlXlX .$.                              T Z.M.S.0.5.                                                                                                                                                                                                                                                                                ",
"                                                                                                                                        IXIXIXIX                                                                                                                                                                                                                                                    x >.9X9XtXwXwX5X9X9.z                 K.F.            r.V.E   0.S.9XsXU.a.a.>.        0 Z.!.0XaXQ.X.       .tX0Xh.s.        5.OXk.8. .$.[ [ ' v v e e 0 j 8.p.k.e.w.e e e ' b.v.C.Z.J.L.Q.Q.R.c.c.C.C.C.C.C.l.x.@.E >.Z.Z.l.B.B.rXeXQ.I.I.I.I.I.I.I.I.I.I.I.I.I.I.I.I.I.I.I.I.I.+X+X+X+X+X+X+X>XrXjXrXt.y.                                T 6.g.4.0.                                                                                                                                                                                                                                                                                ",
"                                                                                                                                      J JXKXLXKX                                                                                                                                                                                                                                                F } *X!.pX6X5XwX8XQ.8.n               y.K.K.w.        w.D.H.x.L   6X).).aXY.4.            M Z.!.0XyXJ.R       ] 8XqX_ I         @.G.k.l.k.b.t.t.b.x.e.P v 9 j } 7.z.n.b.h e d v z.c.C.l.Z.G.L.L.Z.f.c.S.m.S.C.f.c.f.8.T 1.c.H.Z.Z.G.rXeXQ.I.I.I.I.I.I.I.I.I.I.I.I.I.I.I.I.I.I.I.I.+X+X+X+X+X+X+XOX#XrXlXkXrXrXq.c                               R 4.4.B.5.'                                                                                                                                                                                                                                                                             ",
"                                                                                                                                      J JXKXKXJX                                                                                                                                                                                                                                                } 6.9X0X0XqXtXwX-Xb.                  u.OX5.          e.z.I   } R *X9X9XpXY.^             9 V.~.:XL.Q.R       } 8XqX/ T         1.v.c.v.n.b.D.D.v.v.k.L b y h P } z.z.e.a h d ..z.C.C.h.Z.Z.L.L.Z.c.Z.S.m.S.S.C.h.c.l.k.c.Z.Z.Z.H.H.wXtXQ.J.I.I.I.I.I.I.I.I.I.I.I.I.I.I.I.I.I.I.+X+X+X+XI.I.+XI.#X#X4XjXlXkXrXF.'                                   x T o.T                                                                                                                                                                                                                                                                             ",
"                                                                                                                                      J KXJXKXKX                                                                                                                                                                                                                                               .;X6XsXtX0X0X7X$Xv                 w.r.I.K.            5.I.s   K.iX7XaXdX9XY.>.              H.d.6.X.l.Y       Y ~._.3.X.    Y P.s.l.c.c.Z.P.K.G.S.c.p.L v 0 0 d ] r.k.l.b.t.j { x.f.h.h.C.c.Z.G.Q.Q.Z.C.m.m.C.S.S.S.c.Z.C.c.C.Z.H.J.wXtX*XJ.J.I.I.I.I.I.I.I.I.I.I.I.I.I.I.I.I.I.+X+X+X+XI.I.I.I.K.#XrXlXjXjXkX>Xz.@.F                                   e.L.V.e.                                                                                                                                                                                                                                                                        ",
"                                                                                                                                        IXIXIX                                                                                                                                                                                                                                              v 5.tX9XfX5XtX9X6X$X                  7.B.r.r.            r.b.    K.8X8XnX9X6XV.}             a Q.A.1.X.5.        R ~.!.2.o.    } P.l.d.c.c.J.L.I.B.S.d.8.x c - O - Y @.l.c.B.b.j } z.h.S.C.B.k.l.C.Q.=XZ.c.S.S.M.C.h.S.l.S.C.C.C.C.Z.J.5XtXQ.J.L.I.K.I.I.I.I.I.I.I.I.I.I.I.I.I.I.+XI.I.I.I.I.+XI.I.+X+X@XjXgXjXlX;Xl.1.{                                   :.z.V.9.0                                                                                                                                                                                                                                                                       ",
"                                                                                                                                                                                                                                                                                                                                                                                          ' D.5XsXaXfX6XwX4X                  ' r.r.t.j               e.    R 8XaX!.U.s.o.              5.9.9X).1.T         T d.<.X.E   e.K.L.Z.l.k.c.Z.L.*XI.G.A.1.@.j g 2 @ O P 8.p.c.z.n.x.z.z.V.m.C.t.t.x.M.!.U.S.c.C.S.C.M.c.c.v.C.S.S.C.C.l.H.5X5X*XH.K.I.I.I.U.U.I.Q.I.I.I.I.I.+X+X+X$X+X+X+X+XI.I.+X+X+X+XK.#XlXgXjXkXtX!.A.k.} v                                   } 6.f.B.n w                                                                                                                                                                                                                                                                 ",
"                                                                                                                                                                                                                                                                                                                                                                                        { 9.tX9X9XdXdXfXoXy.                  t.D.} n             S ' Y     f.7XpXY.C.1.x               r.g.qXW.^ L         ! m./ ! Y   e.L.J.J.l.l.v.A.I.Q.L.G.v.#.Y 9 2 * @ - v o.d.v.v.Z.l.Z.z.V.M.V. X Xr.V.M.Z.Q.Q.C.l.S.S.c.c.c.C.S.S.C.C.C.Z.I.*X6X$XI.U.U.U.J.J.I.I.I.I.+XI.I.I.U.$XI.I.I.I.I.I.+X+X+X+X;X+X@XlXvXvXjXwX6X).W.7.}                                   z Y s.V.R v                                                                                                                                                                                                                                                                 ",
"                                                                                                                                                                                                                                                                                                                                                                                      w.;X5XtXtX9XsX5X%X                  5.9.B.9.                } '     >.Y._.pXC.4.x                 s.g.qX~.! j         >.m./ o.P   k.;XZ.l.v.v.A.R.Q.Q.L.Z.x.] v 0 = @ . O v T v.S.c.A.v.Z.B.B.V.u.|.|.y.r.f.S.R.Q.Z.c.C.C.C.C.C.C.C.S.C.C.C.c.Z.J.5X5X+XI.I.I.I.I.I.$X$X$X*XQ.I.I.I.I.I.I.I.U.U.U.I.I.I.+XI.$XOXjXjXjXjXrX7XqXqX7X*X]                                       9 5.B.0.}                                                                                                                                                                                                                                                             ",
"                                                                                                                                                                                                                                                                                                                                                                                      r.*X6X9X9XtX+X5. .                  8.x.T z               Y ] {     Y.pX~.~.M.6.k                 f.h._.W.}           R c.g.o.s   6.v.l.c.v.v.Q.Q.Q.Q.L.z.8.P b = = % @ O c Y s.c.c.A.v.v.v.v.B.u.|.].|.y.x.C.k.l.Q.R.C.C.C.C.C.C.C.C.C.C.c.l.Z.H.wXwX+X+XI.I.I.I.I.+X$X+X*X*X*XQ.I.I.I.I.I.I.I.I.I.I.+X+XOX#X@XjXjXjXlX$X7XqXqX_.=X8.                                        { 8.4.>.x                                                                                                                                                                                                                                                           ",
"                                                                                                                                                                                                                                                                                                                                                                                   .8.+X5X6X6X6X5Xr.                c e.r.9.0.                  '     0.V.pXmXS.g.6.o.                  g.m._.W.{           L c.6.R I l.Z.d.p.c.v.v.;X;XQ.Q.I.z.8.x j = * : @ * c ' 1.6.C.S.C.c.v.v.z. X].].|.|.r.l.p.l.Q.Q.Z.C.S.S.S.C.c.c.C.C.l.x.Z.H.wXwX+X+X-X-X-X+X+X$X$X$X+X+X+X+X+X+XI.L.+X+X+XOXOXOXOXOX+X+X@X4XgXjXeX9.M.E.qXqXqX*X-Xt. .                                    n Y >.X.} Y                                                                                                                                                                                                                                                       ",
"                                                                                                                                                                                                                                                                                                                                                                                  7.0.tX6X5X7X~.K.F                   >.6.E z                   {     r.C.pX9X9.6.T q                 L A.E.E.g.          ' 7.l.>.R Q v.d.2.p.C.v.v.=X;X;XQ.Q.k.5.b d = * : @ * c } o.,.Z.C.S.v.v.v.z. X].].].|. Xr.x.v.G.L.J.Z.S.S.S.c.c.c.C.C.l.x.G.L.wXwX-X-X-X-X-X-X-X-X;X+X;X;X-X;X;X;X;X;X;X;X;X#X#X#X#X#X#X$X@X%X&X%X-X8.C.C.).pX7X7X8XH.7.'                                   w z Y E o.}                                                                                                                                                                                                                                                       ",
"                                                                                                                                                                                                                                                                                                                                                                              ' r.5XwX6X6X).U.R                     v r.5.                l ] v n     9.V.mXpXV.1.                c z.C.yX0Xg.            ' +Xz.o.X.d.S.v.f.v.c.v.v.=XQ.Q.Q.Q.7.] h w 2 > : @ * c } X.<.Z.c.S.S.S.v.z. X].[.[.].|.y.k.c.v.J.;XQ.S.S.C.c.v.c.C.C.l.x.G.L.wXwX-XwXrXwXwXrXwXwXwX-X>X-X-X-X-X-X-X;X-X>XrX>X>X>X>X>XrXrXrX#X#X#X-XI.I.>.6.).7X9XaXI.B. .                                          } >.} '                                                                                                                                                                                                                                                   ",
"                                                                                                                                                                                                                                                                        F n n                                                                                                 5.x.9XfX6X6XI.r.'                     Y :.'                 S 5.        V.Y.qXpX5.}                 l c.h.0XsX8.            P b.b.o.X.A.c.c.p.d.S.c.v.=XQ.Q.Q.L.8...e w 2 : : @ * b T O.<.v.l.S.c.c.v.x. X].[.[.[.].|.t.l.B.G.L.;XS.C.C.l.v.c.C.C.c.k.G.L.;X+X+X;X+X+X+XK.K.K.K.K.F.F.F.F.F.F.H.F.K.OXOXOXoXOXOX@XoXoXOXD.OXK.OX+XD.Y R *X9X9XaX9X*X5.                                          F R >.}                                                                                                                                              X.Xt. XG                                                                                             ",
"                                                                                                                                                                                                                                                                      G 0.9.9.}                                                                                             5.B.6XfX9X6Xr.                  w.t.t.u.:.n                   S w.    w.V.J.!.9.D.                    z Z.c.9XOX            @.    5.k.k.l.p.p.g.d.S.c.Z.Q.Q.=XJ.K.} v e w 2 1 : : * z T 2.+.Q 8.c.C.Z.Z.z. X].[.[.[.[.].y.r.B.H.G.Q.R.A.Z.z.l.c.S.m.f.c.R.Z.J.x.7.8.o.o.o.o.} } } T { { { ' { ] ] ] ' {  .' | | | [ | ' ..] @.#.x.D.8.    r.8.6XtX9X6XI.B.                                            @.o.>.>.                                                                                                                                        &X+X;XOX .                                                                                            ",
"                                                                                                                                                                                                                                                                      { 0.3.6.}                                                                                           8.8.!.9XfX).I.5.                  t.;XeXrX .                    c :.    F.U.6X=X} 5.                    z l.h.I.u.            w.    5.x.v.c.p.p.h.d.v.c.Z.Q.L.J.x.k.P z w 2 > % % @ * j T +.O.! 1.c.C.C.c.z. X].[.{.[.[.].|.t.D.V.v.R.=XP.z.B.Z.c.S.S.S.h.S.S.p.1.} ] T ] ' ' ' ' ' ' F F F F F F F F ' F G G G G G F H S S v ] @.e.x.5.    5.0.K.6XtXfX6X*X]                                           v } 5.} a                                                                                                                                       @XL.=X#X .                                                                                            ",
"                                                                                                                                                                                                                                                                      | r.9.6.]                                                                                         @.c.qX9XpXU.9.5.                    oXbXDXDX X                          T Z.=X*XI.a                       Y H.R.+Xt.            e.    @.z.S.C.g.g.c.c.c.c.c.Q.Q.L.x.k.Y l w 2 1 : : : * j Y +.O.X.O.2.i.C.C.B. X].[.2X2X[.[.|.}.t.x.l.R.;XG.z.z.Z.c.h.h.C.h.S.S.Q T k z l c f f g t w t t t w w w w 4 4 w 2 4 5 2 4 4 4 2 = = 0 j Y @.e.e.Y {     D.r.Q.6X).7X*Xr.                                              M { o.Y S             u.D.D.y.                                                                                                            &X+X;XOX$.                                                                                            ",
"                                                                                                                                                                                                                                                                      H w.0.5.{                                                                                       e.Z.W.0XpX6XV.R '                     oXcXAXDX                  G |     v o.!.=XI.$X                        T J.U.5.              e.    @.k.v.l.g.g.S.Z.v.c.c.Q.L.J.s.k.Y l w 2 1 % % * * j Y 2.2.i.+.~ ( g.C.V.y.].[.2X2X2X[.[.|.y.x.x.v.P.+XJ.Z.Z.S.c.c.c.c.d.s.U Y h d l f g 5 5 6 3 6 6 3 3 6 4 < < 3 7 7 7 3 , 3 < 1 < 1 * w e z ] 8.x.b.r.     .@.$X!.9X9XQ.R.T                                               { >.5.]             B.Z.Z.F.                                                                                                            .XoXoX&X|                                                                                             ",
"                                                                                                                                                                                                                                                                                                                                                                  l Y s.Q.9X9X!.J.8.                        oXVXAXLX                  $.|     c } 7X=X8. .                      ' >.8XB.                k.    @.s.p.g.g.s.Z.v.v.v.c.R.J.G.p.7.P l w 2 : . . @ * j P +.2.p.2.~ ( ( h.M.y.].[.2XMX2X2X[.].}.y.k.k.z.Q.Q.A.Z.Z.c.c.S.l.1.o.T ] z l f V g r r 5 5 5 6 3 6 6 6 6 6 6 6 u 7 6 6 5 < < 1 ; * 4 e j ' w.r.x.b.7.e.    w.9.W.6XU.~.c.5.                                                Y @.P d         z.c.c.D.                                                                                                                                                                                                                  ",
"                                                                                                                                                                                                                                                                                                                                                                   .o.*XtXwX6Xk.5.'                        .|                         $.$.    n R tX5X7. .                      5.l.aX$X                z.    @.s.p.p.g.s.S.v.v.v.v.J.J.G.k.k.P f 4 < 1 % : : * l P +.+.i.2.~ ( ( h.C.y.].[.[.MXMX2X[.[.UX|.r.l.f.Z.R.T.Z.l.d.c.v.Z.+.T P P l f V B u u u u u u u 7 7 u u u u u u u i u u u u u 7 7 1 4 w d '  .7.p.z.x.b.    [ } B.I.!._.C.9.v                                               v ] o.c         b.B.D.t.                                                                                                                                                                                                                  ",
"                                                                                                                                                                                                                                                                                                                                                              = T 1.V.dX$X6XB.{                         F |                                 x H.H.wXK.                          I.7XtXoX                b.X.I 7.p.p.p.f.g.Z.v.v.c.C.L.G.Z.p.6.x e 2 < 1 % % @ @ l P 2.2.p.2.X.O.,.g.M.y.].[.[.2XMXMX{.[.3X|.t.l.M.M.S.W.A.k.d.v.c.R.+.o.L j f g p u u N N N N N N N N N N N N N N N N N N N N i u 7 < < 4 w { 5.8.p.p.7.F.        w.B.W.~.W.~.H.5.F                                               Y ' l                                                                                                                                                                                                                                 ",
"                                                                                                                                                                                                                                                                                                                                                              h ! f.6XfXI.>.Y                       j @.'                                 ' T 0X7XuXr.                          *X0XeXoX                z.v.z.k.p.p.p.f.6.Z.v.v.c.Z.Q.G.Z.p.8.b e 2 < 1 : : @ @ 0 h @.+.6.1.^ ^ / O.g.r.|.].[.[.MXMX2X[.[.].q.x.M.h.m.T.Z.l.k.c.v.T.~ o.k j f B u i N ].[.[.3X3XMXMXMXMXMXMXMX2XMX2X2X[.[.[.].i u 7 7 < * = { e.+.p.p.k.F.          ] H.U.~.~.U.l. .                                              F ' F v                                                                                                                                                                                                                               ",
"                                                                                                                                                                                                                                                                                                                                                          0 5.R f.W.I.r.x.x                         P 5.                                  { 4.aX7X1.{                           6X+Xw.                  D.v.v.l.l.p.2.f.l.l.R.J.J.J.R.A.v.1.e.j w 2 < 1 : % @ @ = d o.1.6.6./ ^ ~ ^ 2.k.q.UX].[.2XMX2X[.[.[.|.y.k.h.C.C.A.;Xv.c.h.p.+.] z l g B u ; *.[.{.2XPXLXKXKXKXLXKXKXLXLXPXMXMX{.[.[.[.i N 7 7 7 * *  .e.8.s.s.x.D.            { B.I.6X6X!.8.                                                A l d                                                                                                                                                                                                                               ",
"                                                                                                                                                                                                                                                                                                                                                          a X.,.~.6XH.o.Y                         h  .w.                                  :.4.pXA.} F                         x +X5.                    z.c.A.d.s.p.i.f.l.l.I.Q.I.I.Q.A.v.8.@.j w 2 < 1 ; % @ @ = 9 ] X.6.3.^ ^ ~ ~ +.k.e.q.}.].2X2X2X2X[.[.3X|.e.d.h.C.Z.R.c.c.d.i.#.] z d 4 6 u i *.[.{.2XPXLXKXKXKXKXKXKXKXLXPXMXMX{.{.[.[.i N 7 7 < : * | e.7.p.p.s.D.F.y.          t.K.I.9XQ.K.[                                                     S F v                                                                                                                                                                                                                         ",
"                                                                                                                                                                                                                                                                                                                                                        c Y ,.7XaXU.o.P                         b  .w.w.                                  5.Z.S.9.v                           s 6Xe.                    z.h.R.d.7.6.p.c.c.c.W.Q.I.I.Q.J.z.8.@.j w 2 < : : % @ @ 2 0 ..@.d.g.i.3.,.+.~ i.6.e.y.|.].2X2X2X[.[.3XUXe.h.h.h.Z.L.J.x.7.+.o.] z d 4 7 6 u *.[.[.2XPXLXLXLXLXLXKXLXLXPXPXMXMX{.[.[.[.N N 7 < 1 * * | e.e.6.s.s.x.OXt.             .7X7X=X%X&XhX}.J                                                 l S                                                                                                                                                                                                                         ",
"                                                                                                                                                                                                                                                                                                                                                      c } >.C.7XY.o.                          e ..w.                                  F { I.sX9.}                         c D.H.*X:.                    v.h.A.x.6.6.p.c.c.c.W.Q.I.I.I.L.z.@...d w 2 > : % : @ @ @ O P o.p.p.g.3.,.1.~ ,.i.d.e. X].[.2X2X2X3X3XUXe.d.h.g.Z.Q.-Xx.1.o.o.] z d 4 < < u *.[.[.[.2XMXMXMXMXMXMXMX2X2X2X{.{.[.[.[.[.N N 7 < 1 . * | w.7.6.g.p.7.b.t.c           n C.c.-XgXhXSXIX|.                                                  v S c                                                                                                                                                                                                                     ",
"                                                                                                                                                                                                                                                                                                                                                    z Y 8.~.qXg.8.n                           .. ...                                  F } zXtX5.{                       t ' *XQ.K.{                     G.h.Z.s.6.6.p.c.c.c.R.Q.Q.I.L.L.x.} P e w > 1 ; ; ; . . @ # P ] p.j.h.a.3.1.X.Q ( p.p.t.|.3X[.2X2X2X[.UXw.p.s.6.x.Q.-Xe.o.o.o.] k d 4 < , & N ].[.[.[.[.[.[.[.[.[.[.[.[.[.[.[.[.[.[.].N u 7 < 1 . @ [ 5.8.p.d.2.p.P.oX.XF         z 3.X.%XgXGXFXLXXX}.                                                  A S                                                                                                                                                                                                                     ",
"                                                                                                                                                                                                                                                                                                                                                  v 7.s.U.).).0.                            F w.                                      { o.5XH.Y                         d Y J.x.}                       Z.c.c.6.6.6.p.c.c.z.L.I.Q.I.L.;Xk.] v e 4 * 1 : ; ; % @ @ # v ] p.j.h.g.g.1.! E T <.p.n.|.|.].2X2X2X3X*.$.o.>.>.1.I.-X5.o.X.X.} k d 4 < < & i i i i i i i i i i i i i i i i i i i i i & 7 ; 1 : . @ [ 5.7.6.d.p.p.Z.b.t.$.        f } o.gXSXSXLXLXIXG                                                       S F F                                                                                                                                                                                                               ",
"                                                                                                                                                                                                                                                                                                                                                  o.c.T.A.V.D.Y                             F [                                       r.V.9.5.                          h R ;X8.M                       k.d.l.6.6.p.p.c.l.n.OXOXL.L.L.+Xe.] b e w = > 1 : : : * @ # P #.p.d.h.h.3.^ ! T T o.1.7.t.|.].[.[.2X3XJ [ s L T R I.-X5.o.#.#.] z d 2 < , 3 & & i i & & ; ; ; & & ; $ $ ; ; $ ; ; ; ; & ; $ : * . @ [ w.7.3.d.p.p.k.K.K.y.        w F c  XXXLXGXSXCXw.c                                                     S S S                                                                                                                                                                                                               ",
"                                                                                                                                                                                                                                                                                                                                              Y >.!._.!.U.>.Y                           {  .                                      w.5.tXsXo.'                           k o.;X]                         @.2.s.4.2.2.2.k.r.r.oXoXoXoXoXoXw.' l t 4 > > 1 1 1 * @ X # v o.p.h.f.f.h.,./ T E o.o.7.e.y.|.].[.[.3XJ G 0 y s Y +X>X8.#.o.Q ] b d > 7 6 6 7 7 u u u u r 5 6 r r 6 6 u 6 p u 6 u u 5 6 3 1 > * 8 @ ' 5.7.7.p.p.p.p.J.D.b..X                PXSX<X%Xe.r.                                                          | H                                                                                                                                                                                                           ",
"                                                                                                                                                                                                                                                                                                                                              7.C.A.S.C.8.m                             o.v                                       r.5.uXuXY l                           x o.+X{                         r.1.1.2.2.2.1.5. .' [ G G G H D V Z V 5 6 7 1 1 1 : : @ X O v o.p.g.f.h.h.<.~ U T R R o.8.r. X|.].3X3XJ G + + s x +X>X8.#.#.~ } k d 1 1 u p 5 6 5 p r 5 5 5 r r r r u u u u p 5 p B g g 6 1 1 8 : O F 5.7.6.s.2.2.p.Z.Z.b.b.y.              XXNX<XOXx.r.'                                                         g w                                                                                                                                                                                                           ",
"                                                                                                                                                                                                                                                                                                                                          v 8.W.~.g.>.} v                           v @. .c                                       0.x.I.F.                             .Q.7.]                           e.1.1.+.+.X.}  .[ S H A D C C C B V B 6 7 7 1 1 : : : % . X c ] p.g.h.f.h.<.( W T T R o.1.e.b. XXXXXXXJ F + + a x OX-X8.#.#.~ } k d : 1 B B B B B B B B B B B B B B B B B B B B B B B g p 5 5 1 : @ ' 5.8.7.s.6.6.6.d.l.v.D.y.                  e 5.z.;X8...                                                                                                                                                                                                                                                                    ",
"                                                                                                                                                                                                                                                                                                                                        Y z.f.T.g.1.} z                             ] ]                                           0.I.r. .                          z ] B.8.z                           8.X.1.1.1.} F A A D D D D C C Z B B B 6 3 < < 1 > @ @ : . X c T i.p.m.C.f.2.( U T I T ! >.9.n.t. X|.XX$.F + # M k K.%X5.o.o.} } j e : 1 C C C C C C C C C C C C C C C C C K K K K K K K C C V < . O [ @.8.s.x.6.p.p.p.p.p.x.r.                    F e.Q.p.1.P                                                                                                                                                                                                                                                                   ",
"                                                                                                                                                                                                                                                                                                                                      Y T f.S.C.1.] z                              .                                          w.x.U.wXr.{                           j o.L.}                           ' 7.8.o.o.} ' A Z C C D C K Z Z V B B p 6 6 3 3 < > @ @ : * @ l Y p.j.c.c.Z.6.( W Q W Q ~ 1.6.k.k..Xt..X .' O # e z K.#X5.] o.o.} j e > 1 B B B B g B B B B p B B B B B B B B B B B B B B B B p 1 . O [ e.7.p.x.8.6.l.d.g.p.k.D.oX                    Y 1.S.Q.8.'                                                                                                                                                                                                                                                                 ",
"                                                                                                                                                                                                                                                                                                                                      5.4.f.g.R { 9                             b  .                                          5.9.tXwX .F                           h o.K.{                           [ e.@. . .' S Z Z C C C C C B B B B p B 6 6 6 3 3 , : % : @ * c Y i.a.h.c.Z.s.X.X./ / O.<.<.3.6.e.b.b.F.5.' # o w k K.#X5.o.o.! o.k d > < 5 5 5 5 6 6 6 7 3 3 3 3 6 3 3 3 3 3 6 6 6 3 3 3 1 1 3 @ . @ [ e.e.7.x.8.1.Z.Z.g.8.8.8.oX                      T l.~.7.5.z                                                                                                                                                                                                                                                               ",
"                                                                                                                                                                                                                                                                                                        w.5.9.y.                  v } x.C.g.}                                   | F                                           o.9.>.} M                             a >.OX .                        [  .w.' F A S A Z Z Z C C C Z B p B B p r 6 6 3 3 3 1 : ; ; X @ t z 2.p.h.C.l.x.X.X.U U ^ i.i.<.8.7.n.x.D.5.Y # o w j OX%X5.o.o.! o.k d = , 6 6 6 6 6 6 7 7 3 3 3 3 3 3 2 2 3 3 3 6 3 3 3 3 < 3 3 . . @ [ @.e.7.x.8.o.J.R.p.7.8.8.OX                        E ! f.I.r. .                                                                                                                                                                                                                                                            ",
"                                                                                                                                                                                                                                                                                                      c 9.6.3.0.                  Y X.g.M.1.}                                X<X<XhX                                          k.Q.R Y                               j 5.@X|                          . . .[ H Z V V C C C C V B V B B B 5 5 5 6 6 3 2 3 < : ; ; % X O = @.d.d.f.l.z.1.1.T U ^ i.i.i.2.6.7.9.r.5.' # # w j OXrX8.o.o.! o.x d * : 3 3 3 7 3 3 < < < < < < < < 2 2 < < < < < , < < 1 1 < % : * | e.e.r.x.>.o.H.J.d.p.3.p.z.                          >.V.9XH. .v                                                                                                                                                                                                                                                           ",
"                                                                                                                                                                                                                                                                                                      z 6.a.g.9.                } k.6.1.}                                   HXFXGXHX                                      5.5.5X*XY v                             l T R                             | [ S S Z D Z Z C C C C B B B p p B 6 5 5 6 6 3 2 3 < : ; ; . . X O ' X.i.c.f.l.X.X.R U O.2.i.&.2.3.1.8.r.5.' + # 9 z OXrX0.o.o.! o.x d * % . . . . . X X X X X X X X X . . . X X X . X X X . X : 1 < @ [ e.e.k.k.o.o.H.H.B.s.3.2.x.5.G                         E 1.B.H.b.          t.F.F.u.                                                                                                                                                                                                                                        ",
"                                                                                                                                                                                                                                                                                                      c e.8.6.8.              >.x.z.r. .'                                   HXHXKXKX                                    j >.0.iX+X' l                           z D.L.}                             G G A D C C Z B Z C C Z Z p B r B r 5 5 6 6 6 3 3 3 < : % % % X X O ' o.p.h.h.l.1.X.U I U I O.+.p.2.2.2.7.b.t.# # 9 j oX4X5.o.X.o.o.x d @ . . . . X X X X X X X X X X . . . X X . X X X . X . . . 1 < * [ e.e.e.k.X.} H.D.Z.x.6.6.7.r.e.F                       x o.6.W.J.T F       F.Y.Y.V.                                                                                                                                                                                                                                        ",
"                                                                                                                                                                                                                                                                                                        { { } {             5.9.s.k.Y                                       HXHXKXJX                                    j 9.s.8.}                               m B.J.'                           [ G A D D D D C C K C Z V Z B B 6 r 5 6 5 6 3 6 7 < 7 < : % % . . o O j o.2.d.h.c.1.X.T I I I +.2.i.2.2.2.6.e.t.+ # 0 v @X4X5.o.X.o.o.x d @ . X . . X X X X X X X X X X X X X X . . X X . . X X . . : > @ [ e.e.e.p.X.} H.H.G.x.9.6.1.1.x.b.w.                        Y 1.W.7.5.      B.A.T.S.                                                                                                                                                                                                                                        ",
"                                                                                                                                                                                                                                                                                                                        j Y 9.V.8.@.v                                   G XXLXLXKXPX                                    n 9.Z.T j                               x B.I.Y                          .w.F v [ G G H A Z Z Z Z B B 5 B 5 5 5 3 < < 6 3 < < < 1 : % : . X X O h ] 1.c.c.c.1.X.T I I I +.p.p.3.i.6.6.8.5.+ + 9 j OX%X8.o.X.X.o.x d @ . . . % . % . . . . . . . . . . . . . . . . . . . . % : : > @ [ e.e.e.p.X.! H.H.H.L.J.c.g.6.7.r.y.                        c Y 4.l.8.      D.x.B.r.                                                                                                                                                                                                                                        ",
"                                                                                                                                                                                                                                                                                                                        } 7.g.9.Y                                     J $.                                            :.r.V.V.Y d                               x B.I.v                       y.t.F.t.t.t.t.t.y.S c g g V B B B B 5 6 5 5 6 3 < 3 3 < < 1 : % : . o o o # k ! d.l.l.X.o.T I I I +.d.p.p.g.g.6.8.r.0 + 9 z %X>Xo.o.X.o.o.x d @ . * : 1 : 1 1 1 1 1 1 1 , 1 1 1 1 1 1 1 1 1 1 1 , : , < : : * [ e.e.7.7.X.! H.H.H.G.Z.f.6.6.s.k.t.                            R l.V.o.                                                                                                                                                                                                                                                    ",
"                                                                                                                                                                                                                                                                                                                      m 1.3.9.} l                                                                                   v 9.r.5.} n                                 m V.K.                      | F.+XD.D.D.D.F.F.F.t.y.y.q.J V r r B r 6 6 3 , < 3 3 3 3 < < : : % X J }.H y.r.! s.l.l.X.o.T I I L 1.s.p.g.g.g.6.8.r.0 + a z @XrX@.o.o.o.o.x d @ . * : 1 1 1 1 > > 1 1 1 1 1 1 1 1 1 1 1 1 1 1 1 1 < 7 7 : : * [ e.e.7.7.X.! G.H.J.J.I.l.6.6.7.k.b.                            v T 4.9.5.m                                                                                                                                                                                                                                                 ",
"                                                                                                                                                                                                                                                                                                                      >.9.8.]                                                                                       n 9.9.x                                     x 5.t.                  S oXF.F.L.L.z.z.K.D.OX#X%X%X%X&Xy.H f t 4 4 r g 5 3 3 3 < < < < < > : : X XXhXSXvXjXR >.l.Z.X.o.R I L I +.2.p.g.i.g.6.7.7.y 0 a z @XeXo.! ~ ~ o.x h @ @ * : 1 1 1 1 1 > 1 1 1 1 1 1 1 1 1 < 1 1 1 < < < , , < : : * [ w.e.7.7.X.R Z.Z.Z.G.J.B.6.7.6.6.r..X|                             R >.0.x                                                                                                                                                                                                                                                 ",
"                                                                                                                                                                                                                                                                                                                  b R 8.0.{ c                                                                                       x >.9.k                                     x Y '                 [ F.K.B.k.B.I.B.H.K.D.K.-X>X%X%X@X&Xt.y.y.| S t 4 3 < 3 , < < > > > : : : 8 XXSXFXDXlX] 1.l.Z.X.! R I L L R W p.j.p.g.p.s.7.T Y x z F.-X>.Q ~ #.] k h * * * > , 1 1 1 1 1 < < 1 1 1 1 , 1 , 1 , 1 : : : : : % 1 % : * [ w.e.7.7.X.R B.B.H.H.H.V.9.9.8.8.x.t.$.                            Y >.0.5.e.9                                                                                                                                                                                                                                             ",
"                                                                                                                                                                                                                                                                                                                  T ! 6. .                                                                                         .9.6.5.                                    j 5.z               C $.u.K.H.s.s.B.G.B.K.D.+X+X;X-X-X#XOX#XOXoXF. ...S l r 2 6 < < < 2 > : % % : . hXLXFXFXxX' o.x.c.X./ R I L I L ` <.i.g.d.p.p.6.1.o.x k F.>Xo.Q ~ o.] k h * * * > , 1 1 1 1 1 < < 1 1 1 1 , 1 1 1 1 : % % % . : % 1 : > = [ w.e.e.7.o.R z.D.H.D.H.H.D.x.8.6.G.t.w.                              z E >.>.} v                                                                                                                                                                                                                                           ",
"                                                                                                                                                                                                                                                                                                              Y ! 3.>.]                                                                                           >.g.9.5.                                  d t.r.                J .XOXx.f.l.s.B.G.P.P.K.OX#X#X#X+X-X+X+X;XP.+Xe.r.e. .c t 6 2 < > < : : : % 1 * H q.|.q.| 0 x X.c.<./ ! R T T L L 2.p.g.g.p.p.i.s.s.@.5.F.-Xo.o.o.X.] x d @ * > * : 1 , , 1 < , , , 1 < < 1 , 1 1 : : % % : : : % , : > 4 ' @.@.5.@.] ' r.t.F.D.P.B.B.x.8.s.x.r.w.                                x o.3.,.4.}                                                                                                                                                                                                                                         ",
"                                                                                                                                                                                                                                                                                                              R -.6.}                                                                                             8.! Y                                       e.r.                q.oXK.Z.c.6.6.Z.G.G.P.K.$X#X$X#X$XOXK.G.k.p.p.k.7.n.@. .e w * > > 1 : : : : @ @ > @ X o O # j o.v.+.W X.! T T L L 2.i.p.g.g.p.g.c.l.p.e.F.wXo.Q Q o.] x d @ @ > : % % % @ . * : : : : : : % : : : : : : : : : : : < < 4 w F  .@.@.o.] v ' ..t.b.D.P.H.D.r.s.d.k.F.oX X                              x 1.3.=.^ h                                                                                                                                                                                                                                       ",
"                                                                                                                                                                                                                                                                                                          l } 0.>.:.                                                                                            L s.T                                         5.t.                w.F.x.d.g.6.Z.J.G.G.P.L.+X$X@X#X#XOXG.z.1.2.+.2.+.p.X.8.' ' e * > % : : . > % @ X X X X X # d T l.O.W o.R T Y k k o.X.6.6.g.p.p.d.p.p.7.D.uX>.o.o.o.] x d @ . > 1 : % % : : : % : : : : % : : % : : : : : : : 1 > < > 4 t F .. . .] ] F [ | .Xt.D.b.D.b.r.d.p.k.b.oXy.                                v >.g.3.7.                                                                                                                                                                                                                                      ",
"                                                                                                                                                                                                                                                                                                        d ' } } Y                                                                                             n >.6.                                          5.y.              | F.B.l.p.d.l.Z.J.G.P.L.+X+X$X#XOXOXP.e.p.+.6.2.+.+.O.~ #.#.@.' f w * > > @ > % % . X . X o X f P n.#.T ] Y Y x j h Y T 8.6.d.d.d.f.d.k.x.B.-Xo.Q Q T T b d @ @ * @ % % % : 1 1 1 , 1 , , 1 < < < 3 3 < < < < 3 3 < 2 2 4 w v ' ....' P S H G y.t.F.b.b.b.b.z.p.v.z.F.q.                                  z R >.1.x =                                                                                                                                                                                                                                   ",
"                                                                                                                                                                                                                                                                                                      0 {  .Y m                                                                                               0.>.e.                                      q.w.a               G oXD.7.g.p.l.H.P.G.G.L.+X;X+X+X+XP.P.P.1.1.+.2.2.2.+.Q ^ ~ #.#.] ..S f 2 * > @ @ . % X X X X o f v w...' ' S v l e 0 d z ] 8.s.l.d.d.d.d.s.7.8.E I I P P j e @ @ * : : 1 1 1 < < 1 , < 1 1 < 7 3 5 6 6 6 6 6 6 6 6 6 6 4 2 w l v P Y P P S H G q.q.y.y.y.y.t.b.k.l.7.F.y.                                    a R 7.o.d                                                                                                                                                                                                                                   ",
"                                                                                                                                                                                                                                                                                                    v Y 5.} n                                                                                                 >.r.y.                                      q.w.                [ t.B.s.g.d.v.G.P.G.P.L.;X;X;X+X+XP.P.G.3.6.p.i.2.+.O.~ / Q Q #.Q o...' e = @ @ % % : X X o X X t l F c l Z f f w w - - 0 v } 8.s.d.d.d.d.d.p.X.R L L L L h e @ * > 1 < 3 6 6 6 6 5 5 5 5 5 5 5 p 5 5 6 6 6 6 5 5 5 5 5 6 2 = j v P ' Y S S D D D A H H H H [ e.r.z.r.t.q.                                      z } >.' c                                                                                                                                                                                                                                 ",
"                                                                                                                                                                                                                                                                                                    R R T M                                                                                                 R 0.M                                         q.w.                ' e.s.3.p.Z.J.P.z.K.OX$X+X;X;X*XQ.G.Z.l.p.i.p.i.2.<.,.X.W W W / U U o.o.v w * . % X . X . X . . 2 t f r r 6 5 r 4 6 * * - d Y o.6.s.d.p.d.d.d.7.>.L L L L h e * : : : 1 6 5 6 6 5 5 5 5 5 5 5 5 5 5 5 5 5 5 5 5 5 5 5 5 5 2 w j v P Y P S S H K D D D D D C G y.r.r.b.oXy.                                          Y } Y                                                                                                                                                                                                                                 ",
"                                                                                                                                                                                                                                                                                                ' T X.T '                                                                                               9 } R }                                           q.y.             .y.w.9.g.g.d.z.G.P.P.OX@X$X$X+X;X*XL.Z.Z.s.p.p.i.i.<.2.O./ ~ / W W W U W T ] v w * . @ X . X o . 3 p B B B 5 7 6 6 6 3 1 > * d j ] o.s.l.d.f.p.6.7.} L L L L j e * * > : < 6 5 6 6 5 5 5 5 5 5 u 5 5 5 5 5 5 5 5 6 6 6 5 B B r t l b v P P ' S D D K K C C K C D G S :.w.oXt.                                          v R } P                                                                                                                                                                                                                               ",
"                                                                                                                                                                                                                                                                                                P T ] 0                                                                                                 9 K.8.}                                            .q.            q.y.r.s.s.x.k.P.K.OXOX#X#X$X#X;X#X+XL.z.Z.s.p.i.i.p.<.+.^ ~ Q W Q W U I I T T Y j 9 O @ X o . X . V p p r r 6 3 < < 3 3 < > * w e v ] 1.p.d.p.p.s.8.o.L L L L k e = * : 1 < r r r u u u B p B B B B B B B B B B B B B B B p p g g f l v P P P S A Z K K K D D D D D D H $..X.X                                            x R T Y                                                                                                                                                                                                                             ",
"                                                                                                                                                                                                                                                                                            j P o.] '                                                                                                   j #X@.'                                         Y Y S             w.b.z.L.G.D.b.#X>XkXkXeXeXrX%X;X+X+XP.e.7.p.6.p.p.<.( O.^ ~ ~ Q Q W U I U T T ] ' b - - @ X . % : u 6 r r r 5 6 3 3 < < 3 2 * = = d v o.p.g.p.p.6.6.} x x L L s h w * 1 3 3 g p B B B B B B B B B B B B B B B B B B B V V B B B B g l v v v P S A D Z C Z A A A A C C D G t.oXoX                                          d Y R } v                                                                                                                                                                                                                           ",
"                                                                                                                                                                                                                                                                                            P P Y 0                                                                                                     P 8.9                                          .:.            G  .5.5.@.8.8.>.o.8.e.t.b.t.F.b.b.D.F.G.P.x.k.x.6.+.2.+.i.O.~ ~ ~ Q Q T U I I I L P P v e O @ X 1 5 5 3 6 3 r p 6 3 < < , , < > * * * 0 z ] p.p.p.p.7.z.9.r.] R o.T P e w * 3 4 r r r B B B B B B Z V V B B B B B B B B B B V B B B B V f c v P P ' S $.q.q.q.y.y.y.y.y.y.y..XF.OXK...                                              P ] v d                                                                                                                                                                                                                       ",
"                                                                                                                                                                                                                                                                                        j x R T F                                                                                                   d @.7.T                                           | :.          $.q.w.' Y T L L L x L x L Y Y { } o.8.r.k.P.;XP.k.3.2.i.O.^ O.~ ~ ~ W W T U U I I P P P P v - @ @ > 5 5 < < 3 6 6 3 < , , : : , . @ * @ - j T 6.p.p.6.6.D.K.OXo.o.o.] ] j e 2 r 6 r 6 6 V B B B B B B B V B B B B B B B B B B B B B B B V f c c v v v [ .X&X&X&X&X&X&X&X&X&X@XOXL.L.z.OXt.                                            z Y Y v                                                                                                                                                                                                                       ",
"                                                                                                                                                                                                                                                            5.9.9.5.G                   L Y { 0                                                                                                     j x.z.Y                                           :.:.        | w.@.@.] ] T T Y L L Y Y Y T ] ]  .@.8.7.e.P.L.L.Z.x.6.+.+.O.~ ~ ~ ~ Q Q T I I L L L L x x v l t w r 6 5 3 6 3 < < < < , , , : < @ . . X O j ] +.p.p.1.1.7.H.-XH.x.1.@.o.P j w w r r 6 5 Z Z C C B B B B B B B B B B B B B B B B B B B B V V l A | w.t.oX&X&X&X&X@X@X@X%X&X%XOXD.Z.Z.G.P.OXt. X                                            Y Y M e                                                                                                                                                                                                                   ",
"                                                                                                                                                                                                                                                            9.g.g.0.:.                Y o.Y F                                                                                                       P G.x.'                                           q.q.        ' ] ] T ] ] R } } ] } o.o.@.@.@.} @.>.8.8.8.z.L.L.z.x.s.3.1.~ ~ ~ ~ ~ Q Q T I I L L L L P x b l f t r 6 6 3 3 < < , < < , % % % > : . . X O l ] X.6.6.8.5.8.B.;X-X9.8.6.#.@.v e w 6 6 6 5 Z C C C V B V B B B V B B B B B B B B B B B B V V V V A $.y.1XOXOXOX@X#X#X#X#X@X@X#Xz.Z.Z.R.Z.J.x.K.F.c                                           j x Y v                                                                                                                                                                                                                   ",
"                                                                                                                                                                                                                                                            9.3.a.3. .              P Y ] 0                                                                                                         Y o.                                              l l       v T T T Y T } >.9.x.b.F.D.D.D.D.F.r.r.5.o.o.P I P #.x.P.P.z.7.X.O.O.~ ~ Q T U L L L L L k L k b j f t r r 6 3 3 < < < < , : : % % % : . . X @ c ] @.o.o.@.@.8.B.;X-Xk.9.7.o.@.L b w r 6 5 p Z Z C C B B V B Z V B B B B B B B B B B B B B V V V r Z [ y..XoXK.OX#X#X#X@XOXK.K.K.H.l.g.p.p.g.x.B.D.F..X                                            z v M                                                                                                                                                                                                                 ",
"                                                                                                                                                                                                                                                            e.6.6.6. .            v } Y b                                                                                                           T ]                                           A | 0       F ' ] Y T o.1.8.8.z.B.B.D.K.+XL.+XOXF.K.b.k.e.o.T T T R R @.z.x.p.2.O.~ Q W T U L L L L L k L k k j l t 4 5 1 < , , < < , : : 1 1 , % : X . X @ d ..8.} Y Y Y 5.z.P.K.I.B.s.6.7.Y P w t 6 5 u p p C C V B V B V B V B B B B B B B B B B B B Z Z V B D A q. XoXK.K.#X#X#X#XOXK.K.K.B.Z.g.g.p.d.l.f.x.D.oXq.                                            v v c                                                                                                                                                                                                               ",
"                                                                                                                                                                                                                                                              n n n             h Y Y                                                                                                           j Y v h                                           A |         ' P Y T } 8.8.9.x.Z.H.H.D.K.$X;X$X%XOX>X+Xr.z.o.o.R L k L T o.7.x.7.O.+.U U T I L L L L x x x k k e d t 4 6 7 , < , , : % : : 1 1 . . X X X X O l ..@...l c c 8.s.7.L.-X=Xz.7.6.] ' d t 5 6 5 p p C C C Z B V B V B B B B B B B B V V B B B Z C C C C D $.q.oXF.OX$X#X@X#X@XF.D.G.Z.G.s.6.6.p.2.p.l.I.OXoX X                                            m m 0                                                                                                                                                                                                             ",
"                                                                                                                                                                                                                                                                              l ' z d                                                                                                           F 5.v                                             v [         ' Y ] } >.x.7.l.G.G.G.H.K.OX$X$X$X#X#X#XOXk.x.X.o.T E L L k L T @.s.6.3.Q U U L I L L L x x x k k h d t 4 6 < 1 < , , : % : : : : . . X X . O O l ..@.[ l c c 8.s.7.H.5X=Xz.6.6.o.o.z w 2 < 6 5 r C C C Z B B B V B B B B B B B B V Z V V V Z Z C C C C J $.y.t.OXOX@X@X>X-XOXH.P.J.J.Z.l.p.6.i.p.s.l.P.OX&X                                            j Y v d                                                                                                                                                                                                           ",
"                                                                                                                                                                                                                                                                              l S                                                                                                               c 5.                                              v '         | v } 8.r.z.x.Z.G.P.G.K.+X#X$X$X#X+X$X+Xr.8.1.+.X.X.X.R E L s k L 8.+.8.+.U I I L L x L k k k k k e w t 6 6 < 1 1 1 , 1 : : : : @ . X X X . O O l ..@.| l c c 8.s.s.x.;X=Xz.9.7.X.o.P d 4 2 6 p B Z Z C C C C Z C C C C C C C C C C C C C C C C C K K K J $.q.w.t.b.D.K.#X;XL.P.G.G.Z.G.z.p.2.p.p.d.Z.x.x.oXd                                               v v 9                                                                                                                                                                                                         ",
"                                                                                                                                                                                                                                                                          f S f                                                                                                                 c  .                                     X&XoX@XV.5.'         n Y 8.z.k.x.l.G.Z.H.P.K.+X#X$X+X$X$XOX;Xo.1.X.+.2.+.+.o.! o.T L x L o.o.o.T T I L L x x k k k k j h e w 2 < 1 < 1 : : : : : : : % X X X X X o O j ..@.[ l Z c 8.s.7.9.=X;Xx.7.6.1.@.] v w 4 4 r B B B Z Z C C C C C C C C C C C C K K K K K C C C K K J K G | $..Xt.D.F.K.+X+XL.P.G.G.P.G.l.p.p.p.p.k.l.P.b.t.$.                                            d P P                                                                                                                                                                                                         ",
"                                                                                                                                                                                                                                                                          d A                                                                                                                                                           .X%X4X6X6X5.n         w.5.z.z.s.s.Z.J.G.H.K.OX#X#X$X@X+X$X+XL.>.2.+.O.<.O.+.X.! o.R E L L k L 1.o.I I L L k k k k k h j d e w 2 > > < : : : : % % : % % X X X X X o # j ..@.[ f f c 8.p.s.x.8X;Xx.7.6.p.8.o.Y 9 w 4 r B B B Z Z C C C C C C C C C C C C C C C C C C C C C C C Z D D | y.y.K.K.P.L.+X;X+XD.P.z.P.z.l.2.p.p.p.p.z.x.OXt.                                              a Y 9                                                                                                                                                                                                       ",
"                                                                                                                                                                                                                                                                        c                                                                                                                   G |                                         .X$X6X'.6X:.v         t.z.l.s.l.Z.J.J.G.K.+X+X$X$X$X#XOX+X*X7.1.<.<.<.O.<.+.~ ~ ! Q U I x L s L R Q U L L x k k j j a j 9 e w = * > > > > 1 : : % % % % X X X X X o # j ] @.[ f f c 8.p.p.p.G.x.x.k.7.6.3.+.] h d 4 g B 5 5 V V C B 5 6 5 5 5 5 5 5 6 6 6 6 6 6 6 6 6 6 6 3 3 3 r B Z G  .t.D.D.P.+X;X+XD.K.x.G.G.Z.6.p.p.l.p.s.L.D.r..X                                              n v v                                                                                                                                                                                                     ",
"                                                                                                                                                                                                                                                                                                                                                                                            F $.                                        .XrX6X6XfX:.Y        .z.l.f.d.A.R.J.G.G.OX+X#X$X$X$X$X$XK.J.X.2.<.i.i.i.O.~ ~ ~ X.X.Q T Y x x L I T T L L x k k j j a h h e w = * * * 2 > > : % % % . . X X X X X o # j } @.[ l A A 7.p.k.d.k.7.+X;XB.7.6.7.o.P l 4 6 5 6 5 Z V V 6 , : : : : : : : : : : : % % % % : : : . : 3 6 B B D [ w.t.D.K.OX$X#XOX@XK.K.K.L.z.Z.p.p.p.p.x.x.b.oX                                                j z 0                                                                                                                                                                                                   ",
"                                                                                                                                                                                                                                                                  c c                                                                                                                   c v                                             | } } r.r.:.v     t.D.G.d.f.d.A.Z.G.J.K.#X$X#X#X$X#X$X+Xx.7.+.+.i.i.O.i.<.~ ~ ~ / / / R E Y Y x L L E L L L k k j j q a d d e d t =   @ @ @ . . X . X X X X X X X o # j ] @.[ l A A 7.p.p.k.k.6.;X;XB.6.7.8.T Y j w 6 6 5 6 B 5 5 1 : 1 : : : : : : : : : : % : % : : : , : , < : < 3 g A | w.b.D.P.OX$X$X@X#XOXP.P.K.P.l.v.k.z.z.x.P.b.y.l                                               9 b c                                                                                                                                                                                                 ",
"                                                                                                                                                                                                                                                                9 d w                                                                                                                   n '                                                   } y.v d     K.B.s.s.l.l.Z.J.H.L.P.#X%X@X@X#X#X#X+X6.4.2.<.<.<.<.( ( ( ( ~ ~ ~ ~ ~ T T U I k x x T P k s k k h q q a j h z v       X . X . . X X X o @ X X X o # j ] @.{ l f A 5.s.d.s.s.k.I.;X7.6.3.1.o.L k d 4 1 6 B B 6 1 1 1 : : : : : : : : : : : : : : : 1 , 1 1 1 , 1 1 < 2 g F | t.B.G.;X;X;XOX;X+X+X+XOXOXK.L.P.P.P.L.P.D.F. .                                                j v 9                                                                                                                                                                                               ",
"                                                                                                                                                                                                                                                              F F                                                                                                                       '  .                                                   .w.    .XK.Z.l.c.f.x.l.Z.J.H.+X+X#X@X@X@X#X$X#X;X6.3.2.<.<.<.<.( ( ( ( ~ ~ ~ ~ ~ ! T U U x x x Y P L k k j h q q M j j x '  .    X o o o o o o o o o o o o o o e ..@.{ j c S e.s.s.f.d.s.z.z.! ! ! R T k j e 4 1 3 3 < 1 : 1 , 1 : : : : % % : : : : : : : : 1 1 1 1 1 1 1 1 1 < 4 f c e.z.Z.Z.x.s.7.k.@.o.o.} ] ] ] T ] o.#.o.o.@.w.y.                                                h v v                                                                                                                                                                                             ",
"                                                                                                                                                                                                                                                            9 e l                                                                                                                       c A                                                   5.e.    u.x.G.l.l.l.l.z.Z.G.P.+X#X@X@X@X#X$X$X$XD.2.2.2.<.<.<.<.( ( ( ( ( ~ ~ ~ ~ / T T U L x k x L L k a j h q q j a j }  .F     6 : o o o X X o X o o o o o o e ] } { j c v 8.6.s.d.l.d.B.z.X.X.Q R T x k h 4 1 3 < 1 : : 1 1 : : : : : % % % : : : : : : : : : 1 1 1 1 1 1 1 1 * = w w.D.z.x.6.1.@.@.I I L P L P L L L P L P P T ] ..h                                                 9 v                                                                                                                                                                                             ",
"                                                                                                                                                                                                                                                        Z H S               c 5.w.:.|                                                                                               { '                                                   ' ] @.5.  5.OXD.Z.x.V.Z.Z.G.G.G.K.+X$X+X@X#X+X$X+XK.8.2.2.2.2.<.<.<.( ( ( ( ~ ~ ~ ~ ~ / T U U L x j k k L k a a h q a 9 a a ' '       6 6 < 1 . . . . . X . o o o o e .. .] j c v 7.p.s.f.d.d.G.Z.X.! ! ! T x k h 4 1 3 < 1 1 1 : : : : : : : % % : : : : : : : : : : , 1 1 1 1 1 1 1 < * = [ ] E T L U L L L I I I T L P L L x k k k x k q ' S                                               = v z h                                                                                                                                                                                         ",
"                                                                                                                                                                                                                                                          g f               v 0.0.5.:.                                                                                              @.}                                                   ' @.} } r.D.z.x.l.s.Z.Z.H.H.G.H.+X#X$X@X@X@XOX$X+XL.1.2.2.2.2.<.<.=.( ( ( ( ( ~ ~ ~ ~ / T U U L x j a a x x a q 9 9 a q x j .. .      5 5 6 1 X o X . X . . o o o o w '  .{ j j v 8.p.s.d.s.s.G.Z.! Q W R T x k h 4 > 3 < 1 , 1 : : : : : : : % % : : : : : : : : : : 1 1 1 1 1 1 1 1 : * w [ ] L E L L E P T T T T T T ] P P P L L s s L k k b                                                 e h v                                                                                                                                                                                         ",
"                                                                                                                                                                                                                                                                            m 0.0.0.w.                                                                                              @. .                                                   .5.  ] F.z.G.x.f.f.S.Z.G.H.D.H.+X#X@X$XOX+X+X;XK.Z.1.2.2.2.2.<.<.( ( ( ( ( ^ ~ ~ ~ ~ W T T U L x h h a x k j q 9 9 a q v h F S     g g 5 6 < > % . . % : . X % @ o = v  . .P Y Y 8.p.s.d.d.l.G.Z.X.~ ! ! R L k j w < 3 1 1 : 1 1 : : : : : : : % : : : : : : : : : : : : : : 1 1 1 1 < * = d j s L L Y 5.8.x.x.P.G.P.b.b.8.8.8.@.@.T L s s k b S                                                   c l l                                                                                                                                                                                     ",
"                                                                                                                                                                                                                                                                            n 0.0.5.:.                                                                                            h ' F                                                   ' 5.{ w.$XG.s.V.f.g.S.H.Z.H.H.K.$X+X$X+XOX$XK.I.x.s.2.2.2.2.2.<.( ( ( ( ( ( ^ ~ ~ ~ / W T T T L x h h q h j h h 9 9 h h v z       V 3 1 6 B B r 6 3 3 3 < > > > @ X * d  .w.5.5.5.p.d.s.f.k.x.Z.z./ W / ! T L k h w > 3 < 1 : 1 1 1 : : : : : : : : : : : : : : : : : : : : : 1 1 1 1 1 * = d j Y T } ] r.x.z.z.G.G.P.P.D.7.6.8.+.+.Q Q T I x k v c                                                 f h j                                                                                                                                                                                     ",
"                                                                                                                                                                                                                                                                            c { { Y F                                                                                           v v                                                     '     u.oXK.x.l.f.l.C.A.J.B.K.+X$X$XOX$XOX+X$Xz.x.1.6.2.2.2.2.2.<.( ( ( ( ( ( ( ~ ~ ~ / W W U E x z a h 9 9 9 h h d d e d j l     B 6 3 < 6 r r 5 6 3 3 7 1 > 2 > X @ @ w | 5.8.8.7.p.d.d.d.s.s.G.G.~ / W ! T L k j w > < < 1 1 1 1 1 : : : : : : : : : : : : : : : : : : : : : : 1 1 1 1 * = d x o.o.7.k.K.K.P.P.z.z.B.b.b.k.n.k.6.d.p.s.7.6.T k j P                                                     b z c                                                                                                                                                                                 ",
"                                                                                                                                                                                                                                                                                                                                                                                 .'                                                   A F   z F.oXF.l.d.f.C.A.A.H.H.K.+X$X$X+X+XK.+X-Xl.4.2.3.3.2.2.<.<.,.( ( ( ^ ( ^ ~ / ~ ~ / U T U T x j h a 9 9 9 9 h h 9 e 0         6 1 7 3 3 3 6 6 r 6 6 3 7 < 2 > @ . @ O [ 8.1.o.X.d.s.f.d.l.l.Z.Z./ W T ! T L k h w > < < 1 1 1 1 , : : : : : : : 1 : : : : : 1 : : : 1 : : : 1 1 1 : 1 * = v  .k.x.H.D.$X+X#XOXG.G.z.B.B.z.G.v.p.d.d.d.s.z.x.e.@.x                                                       v S                                                                                                                                                                                 ",
"                                                                                                                                                                                                                                                                                                                                                                                { v                                                     M w.u.u.t.r.d.l.Z.H.A.J.H.L.+X+X$X$X$XOX;X+XI.x.4.2.<.<.<.<.<.O.( ( ( ( ^ ( ^ ~ ~ ~ / W U U U Y k j j h d 9 9 9 9 9 9 d         5 6 1 1 < < 3 3 6 5 r 5 < 7 , < > @ . X O [ 5.X.! / s.s.f.f.l.l.Z.Z./ W W ! T L k h w > < < 1 1 1 1 1 : . . . . . . . . . . . . . . . . . . . . . : 1 1 1 * = v  .x.z.I.K.#X$X#XOXD.D.B.G.G.B.G.z.s.d.d.d.l.x.n.x.e.k                                                                                                                                                                                                                                           ",
"                                                                                                                                                                                                                                                                                                                                                                                [ c                                                      .5.F.F.r.s.l.Z.J.J.H.H.G.+X-X#X$X$X$X+X+XH.l.g.3.3.3.<.<.<.O.( ( ( ( ( ^ ( ^ ~ ~ ~ / T U T I Y k k j h h y 9 0 9 e 9 e         6 6 1 1 1 < 3 3 6 6 r r < 7 , < > % % X O | 8.X.W Q s.d.f.f.l.l.Z.Z.! / W ! T L k h w > < < 1 1 1 1 1 % X X X X X X X X X X X X X X o o o o o o X : 1 1 1 * 0 v o.x.B.L.+X$X#X#XOXD.D.b.P.P.B.B.z.x.k.d.p.d.k.z.z.r.Y                                                                                                                                                                                                                                           ",
"                                                                                                                                                                                                                                                                                                                                                                            F j                                                         F.z.H.B.l.f.c.Z.J.H.H.H.D.+X#X$X+X$X$X+XK.s.6.2.3.3.3.i.3.<.O.( ( ( ( ( ( ( ^ ~ ~ ~ W U U U L x k j j h e 0 9 y d d 0           7 7 1 , : , 3 3 6 3 6 6 < 7 , , < > : . @ | 8.1./ ~ s.d.f.f.l.l.G.Z.! / ! ! T L k h w > < < 1 1 1 1 1 @ . X X . X X . X . X X X X X X X o o o X o : 1 1 1 * = v T ! ^ >.;X+X#X#X#XOXK.D.v.G.z.z.b.z.l.d.d.p.p.s.z.b.K.                                                                                                                                                                                                                                          ",
"                                                                                                                                                                                                                                                                                                                                                                            [ f                                                       t.F.D.l.l.f.f.v.G.H.D.D.K.K.OX$X$X$X+X$X;XG.6.4.2.3.i.4.3.2.<.O.( ( ( ( ^ ( ^ ~ ~ ~ ~ W T T E x x k k a q 9 9 y y e e             7 7 1 > % > < , 3 3 6 6 < 7 , , , > : . @ | 8.1.~ ^ s.s.l.f.l.l.Z.Z.! Q Q R T L k h 4 > < < 1 1 1 1 1 @ . X X . . . . . . . . . . . . . o X o X o : 1 1 < > = v T Q / ~ L.OX-XOXOXOXOXP.G.G.z.z.D.D.Z.c.p.g.d.v.z.x.D.                                                                                                                                                                                                                                          ",
"                                                                                                                                                                                                                                                                                                                                                                            t                                                       ' F.D.H.Z.f.h.c.Z.H.H.D.H.K.#X$X$X$X$X$X+X;XB.6.2.3.i.i.4.3.,.O.( ( ( ( ( ^ ( ^ ~ ~ ~ / W T T E k k k k a q e 9 y y e e               3 < > > > : : < 3 6 6 < < , 1 : % . . @ | 5.1.~ ^ f.f.l.f.l.l.Z.Z.! ! Q R T L k h 4 > < < 1 1 1 1 1 % . X X . . . . . . X X X . . X X o o o X X 1 1 1 : * = v T Q ( +.p.x.+XOX#X$X#XK.P.P.B.B.P.G.G.v.c.d.d.d.p.G.D.t.                                                                                                                                                                                J                                                       ",
"                                                                                                                                                                                                                                                                                                                                                                        H                                                         S e.D.z.B.f.c.S.S.J.K.H.P.H.K.#X$X$X$X$X$X+XI.s.2.2.3.i.i.4.<.O.( ( ( ( ^ ^ ^ ^ ^ ^ ~ / W T T U E k k j j a q e 9 y y j v               3 > > > > : , 7 6 6 6 < < 1 , > @ . . O | 8.1.! ^ l.l.l.f.l.l.Z.Z./ ! ! R T L k h 4 > < < 1 1 1 1 , : % X X . . . % . . . . . . . . . X o o . . 1 1 1 1 > = v U W ~ ( X.8.OX#X#XOX#XOXOXK.G.G.G.Z.G.Z.z.d.d.d.p.z.k.OX X                                                                                                                                                                              J                                                       ",
"                                                                                                                                                                                                                                                                                                                                                                                                                                y.oXb.P.z.s.c.g.S.A.H.D.D.D.K.K.+X$X$X$X$X$X+XL.s.2.i.i.i.i.4.,.O.O.O.( ( ^ ^ ^ ^ ~ ^ ~ / W U U I P k j h a q a e 9 9 9 b  .                > > % > : 7 7 3 < < < , : , > @ . . O | 8.1.~ ^ f.l.l.f.l.l.Z.Z./ W ! R T L k h 4 > < < 1 1 1 1 , : % X X . . . . . . . . . . . X X o o o 1 1 < 1 : 1 * = v T W ( ( X.8.+X+X$XOX$X#X#XOXG.G.G.Z.G.G.G.s.l.c.p.k.z.F.1X$.                                        0 t                                                                                                                                 }.K                                                     ",
"                                                                                                                                                                                                                                                                                                                                                                                                                               XoXOXP.z.s.d.f.l.Z.A.H.P.D.K.OXOX#X#XOX#X$X$XH.6.2.<.i.i.i.3.<.-.-.O.-.^ ^ ^ ~ ~ ~ ~ ~ / W T T U x k j h h h a q e 9 9 q L }                   @ 1 1 , , 3 6 < > , : : : % @ X . * | 8.+.^ X.d.l.l.l.l.l.Z.B.~ / W R T L k j 4 > < < , : 1 1 : 1 : . X . . . . . . . . X . . X X o o . 1 < 1 1 1 1 * w v T W ~ O.+.1.x.z.;X$X$X$X$XK.P.G.G.G.Z.G.Z.Z.v.k.l.k.l.G.K.oXe                                       b P 0                                                                                                                             J J ].                                                    ",
"                                    e l l l               d j j j f                                                                                                                                                                                                                                                                                                                                                           oXK.P.Z.l.d.d.c.Z.Z.H.H.P.K.OX$X$X#X#XOX@X#X+XH.8.3.3.i.i.i.i.<.=.,.,.( ^ ~ ~ ~ ~ ~ ~ ~ / W T U E x k j h h d a q 9 9 } V.x.}                   % . % < < < 3 < , , : % % % @ . X O | 7.O.~ +.s.l.l.l.l.l.Z.B.! ! / R T L k j 4 > < < , : 1 1 : 1 : . X X X X X X o X X X X X X X X X . 1 1 1 : 1 1 * 0 v T Q ~ ( X.X.X.7.;X;XOX$X;X+XOXK.P.G.P.P.G.G.v.l.l.d.d.z.z.OX&X$.                                  e ] #.P                                                                                                                           C q.}.J K                                                   ",
"                                  | @.e.k.b.            e w.e.k.k.r.                                                                                                                                                                                                                                                                                                                                                        .XF.P.z.x.k.d.l.Z.J.J.H.H.D.K.$X#X$X#X#X$X#X;X+XG.6.3.i.i.i.i.i.<.( ,.,.( ^ ~ ~ ~ ~ ~ ~ / Q W T U L x k j h h M q q e 9 5.I.9.T                     : , 3 < , < , , : % % % % @ X X @ | 7.X.~ 1.s.l.l.l.l.l.Z.B.! W / Q T L k h 4 > < < , : 1 1 : 1 : : . X X X X X X . X X o o o o : : : 1 1 1 1 1 1 * = v T ! ^ ( 1.1.+.6.L.;X+X$X$X+X$XK.D.D.G.G.P.P.v.l.l.d.p.k.z.OXF.t.                                  j #.#.P                                                                                                                           ].}.].}.J 3                                                 ",
"                              S [ >XiXn.+.+.T b       j j @.p.i.p.p.a                                                                                                                                                                                                                                                                                                                                                       oXD.G.z.k.s.k.c.Z.J.H.H.H.H.OX$X#X$X#X@X#X;X+XG.l.4.3.i.<.<.3.<.<.( ,.,.^ ^ ~ ~ ~ ~ ~ ~ Q W T U I L k j a q a 9 9 e e   r.I.9.}                     5 6 < : % > % : % % % % % . X X O | 8.+.+.1.1.6.l.l.l.l.Z.B.! W ! Q T L k h = * < < , : 1 1 : 1 1 1 : . X X X X X X X X X X X X 1 1 1 1 1 1 1 1 < * 0 v T Q ~ ^ ~ X.X.1.6.L.;X+X+X$X+X+XOXP.G.G.G.G.G.z.l.k.d.k.k.b.K.oX.XA                               l #.#.'                                                                                                                         J }.UX}.UX}.J                                                 ",
"                            [ @.@.>XkXv.&.j.h.p.e.  k @.+.d.p.j.j.d.7.@.[                                                                                                                                                                                                                                                                                                                                                 w.D.P.x.k.s.s.l.Z.J.H.P.H.K.K.+X$X$X+X@XOX#X;XP.s.3.2.3.3.<.<.<.<.<.( ,.( ^ ~ ~ ~ ~ ~ ~ / W T T U I L j a a q a h d d     7.U.6.Y                   , B 6 < : % : % % % % % % @ . X X O | r.k.l.s.1.8.l.l.l.l.Z.B.~ Q / Q T L k h 4 * < < 1 1 1 1 : 1 : : : . . : 1 : 1 : 1 1 1 1 : . 1 1 1 : 1 1 1 1 1 * 0 v Y T / ~ ^ X.+.1.X.Z.+X+X$XOX$X;X+XK.P.P.G.G.P.G.v.v.l.k.k.n.L.F.OXy.H                             d b P h                     f [  .T Y                                                                                         J J }.].}.J J }.J                                               ",
"                            @.n.G.R.R.j.&.j.(.j.d.#.] d.p.j.j.j.j.p.d.k. .                                                                                                                                                                                                                                                                                                                                              y.OXG.c.d.k.l.l.Z.J.J.G.H.K.K.+X$X#X$X$X@X@X;X+Xx.6.<.3.3.2.2.<.<.<.<.,.( ( ^ ~ ~ / ~ / / / W U U E L k j h a q a h 9 0     7.J.9.]                 3 5 5 6 6 6 3 < % % X . . @ . X X X O | r.l.c.s.X.1.l.V.l.l.Z.B.~ ! / Q R L k h 4 > < < 1 1 1 1 : 1 1 1 < < 3 5 p p p p B p u 5 3 1 1 1 1 1 1 1 > 1 1 * w v Y U W ~ / +.X.X.X.1.7.I.$XOXOX$X$XK.K.K.P.G.P.P.G.Z.v.k.k.z.z.K.F.oX1X                                                        A w.z.s.7.'                                                                                     J J J }.J J }.}.J }.}.                                            ",
"                            @.k.+.&.j.(.(.j.(.j.j.p.j.j.i.j.j.j.j.i.c.k. .                                    f                                               Z                                                           l $.|                                                                                                                                                                                       t.oXz.k.c.d.f.c.Z.Z.J.H.H.K.K.OX@X$X$X$X$X$X$X+XG.p.3.2.i.i.3.2.<.,.,.<.<.( ^ ~ ~ ~ / / / / W W T U E L k j h q 9 h d =       7.J.0.}                 6 5 6 6 p B B r < , X X X X X X X X @  .r.k.l.s.X.6.l.V.C.l.Z.B.X./ / ! R L k h 4 > < < 1 1 1 1 : 1 : : : 1 1 1 1 1 : 1 , , 1 1 1 . 1 1 1 1 1 > 1 1 1 * w v P U W ^ / X.X.+.1.X.8.+X+X$X$X$X$X#X+XOXK.P.P.P.P.P.G.l.l.x.z.z.b.oXoX1X X                         .e.n.5.'                   f  .x.d.7. .                                                                                C }.}.}.}.J }.}.}.$.}.}.}.}.J                                         ",
"                            @.p.&.i.i.j.j.(.j.(.(.j.j.j.j.j.i.p.p.d.v.p...              l $.    G c [     F $.[ c                           A | G V       $.[ A l |         A S S c                                         f w                                                                                                                                                                                     t.b.D.G.d.d.f.c.C.A.J.H.P.K.K.OX@X@X@X+XOX$X@X$X+Xx.2.i.i.2.i.3.<.,.O.O.,.<.( ^ ~ ~ ~ ~ / / W W T U U P x a a h 9 q j d -       e.W.>.Y                 6 6 3 3 p V C Z 5 3 . X X X X X X . O  .x.k.l.s.! 1.l.V.C.l.Z.B.X.! / ! R L k h 4 > < < 1 1 1 1 : 1 1 1 1 , 1 1 : : : : : % : : 1 1 1 1 1 1 > 1 1 1 1 * 0 b P U W ~ X./ ~ X.+.O.1.x.P.+X+X+X$X#X#XOXK.D.P.P.P.L.P.v.l.l.x.n.z.b.OXoX&X                      F b.G.n.G.@.                    F  .@.} '         # O       o o         # # O o o o                                     }.J q.$.}.}.}.UXJ }.|.|.|.}.}.}.|.$.D w                                 ",
"                            @.p.i.j.j.(.j.(.j.j.(.(.(.j.j.j.p.p.p.p.c.k...            l %. X    l y.$.    c [ y.y.A g                     w $.&X$.        w.[ S [ $.g     A y.w.$.$.A                                                                                                                                                                                                                             .XoXK.L.Z.d.d.g.C.Z.H.J.G.D.H.OX@X@X@X#X$XOX$X$X+XB.6.<.i.i.i.<.<.<.,.,.,.O.O.( ^ ~ ~ / / / / Q T U E P x k j a d 9 9 q j =       9.R.4.Y                 6 6 3 6 p p B Z p 3 3 3 , < @ @ 6 . O q.r.l.d.s.! 8.V.Z.C.l.Z.B.X./ / ! T L k h = > < 3 , 1 , 1 1 1 : 1 1 1 1 1 1 1 1 1 1 1 1 1 1 1 1 1 1 1 1 1 1 1 1 * 0 b P U W / ~ ~ ~ ~ O.1.1.>.r.D.-X+X$X-X$X#X#XK.P.L.L.P.G.z.v.k.k.k.z.G.P.OXoX&X X                  ' n.A.v.G.b.                    f c v l         0 - +       # O O #   O # - O + + + O     # # #       o o o o     J J }.}.}.}.].}.}.}.$.}.}.|.|.|.|.}.}.|.}. X XS 0                             ",
"                            ..+.&.j.j.(.j.j.j.(.(.(.(.j.j.j.j.p.p.p.k.k...            l %.1X    j w.[   ..' v 9 ' $.f                     f | &X .      [ w.b v   y.$.  l ..t.h j [ |                                                                                                                                                                                                                             oXF.G.z.v.d.d.d.S.A.J.J.H.K.K.OX@X@X@X$X$X#X#X+XD.7.6.i.i.i.i.<.<.,.,.,.,.O.( ( ~ ~ ~ / / / / W T U I L k j j M d h 9 e d =       e.J.4.Y                 6 6 < < 6 6 p B r 6 6 6 3 3 % > 3 . - q.x.l.d.s.! 1.f.l.l.l.Z.B.X./ / ! T L k h = > < 3 , 1 , 1 1 1 1 1 1 1 1 1 : : 1 1 1 1 1 1 1 1 1 1 1 1 1 1 1 1 1 * = b P U W / ~ ~ ~ ~ O.,.1.1.8.k.K.;X$X$X#X#X#XOXP.P.P.P.P.z.Z.l.k.x.n.z.B.P.OXb.&X                  ..n.v.v.A.b.                                  0 9 q y       O O + # # + + - + = 0 - + # # # O O o   o o o o o       < K }.$.J }.J J }.J }.}.J }.|.}.}.|.q.$.l e y 9 O                           ",
"                            [ @.i.j.j.j.j.j.j.j.j.j.j.j.j.j.j.j.h.c.p.@.P             A ' ..    j t.[    .' v   P oXS     f f               A S |       | w.b y.v 1Xy.  S e.t.v    ..XG                                                                                                                                                                                                                         b.D.P.Z.k.s.d.d.l.J.H.H.H.H.K.K.OX@X@X@X@X$X-X+XK.s.1.3.i.i.i.i.<.<.,.,.O.O.( ( ( ~ ~ / / / / W W U U I L k j h h M 9 e h f =       e.J.4.Y                 6 3 < < 3 6 6 5 6 5 5 6 6 3 > > < * - q.k.l.d.g.X.>.6.s.l.l.Z.Z.X./ / ! R L k h = > < 3 1 1 > 1 1 1 1 1 1 1 1 1 1 1 1 1 1 1 1 1 1 1 1 1 1 1 1 1 1 1 1 * = b P U T / ~ ~ ~ ~ ( O.,.1.X.8.k.;X+X+X-X#X#X+XK.P.G.P.P.P.P.z.k.x.x.k.x.z.b.F.b.oX|               ' n.n.v.P.x.                                + y q q 9 +     + + + + + - 0 0 - 0 y 0 + + + + + O o     o o o o             K }.}.}.|.J $.}.J }.}.|.}.q.$.g     0 9 0 O                           ",
"                              ' T +.i.j.j.(.(.(.j.j.j.j.j.j.j.j.p.p.] ] S             f b  .v P @.b.'   @.@.P k @.OX[     q.[                 d $.      | t.v y.P .X$.d ' b.oX] v  .&X|                                                                                                                                                                                                                       t.F.k.x.k.s.p.l.l.Z.J.H.H.H.H.K.OXOX#X@X@X+X$X-XL.x.p.3.3.i.i.i.i.<.<.,.,.O.O.( ( ^ ~ ~ / / / Q W W T I L k j h a h 9 9 e d w         e.J.4.Y                 3 < 1 , 3 6 6 6 6 5 5 5 3 < > 1 1 * O q.r.l.f.s.4.1.1.4.l.l.Z.Z.X./ / ! R L k h = > < 3 1 1 1 1 1 1 1 1 1 1 1 1 1 1 1 1 1 1 1 1 1 1 1 1 1 1 1 , , , 1 * 0 b P U T W / ~ ~ ~ ~ O.,.,.1.1.8.G.+X+X#X#X#X#X$XK.P.P.P.P.P.z.x.x.k.s.k.n.z.b.b.b.oX              P G.v.c.v.k.                              + + y q q y 0   O + + + + + 0 0 0 0 0 y 0 0 + + + + O                             6 J }.J $.}.$.}.$.}.$.}.J         0 y y -                           ",
"                                  T +.j.j.j.j.(.j.j.j.j.j.j.j.j.d.@.x                 l S ' j ' b.P.'   @.#.P b b.OX .  b t.[                 l $.      [ y.S y.' 1Xy.  ..b.%X .v ..oX[                                                                                                                                                                                                                       t.P.z.s.l.l.x.J.J.J.J.H.H.H.K.$X$X@X#X@X@X@X#X-XL.6.p.p.3.3.i.3.<.<.<.<.<.O.O.( ( ^ ~ ~ ~ / Q Q W W U I L k j h a a a h h e           w.J.4.Y                 3 , % % : 3 3 3 6 5 5 6 < , > > 1 > O q.r.l.l.d.g.6.X.1.l.z.Z.Z.~ / / ! R L x h = > 1 < 1 1 1 1 1 1 1 1 1 1 1 1 1 1 1 1 1 1 1 1 1 1 1 1 1 1 1 1 1 , 1 * = b P U T T W / ~ ~ ~ ( +.,.2.2.X.7.L.;X$X$X$X#X#XOXK.P.P.G.P.G.z.z.k.x.k.s.k.n.n.b.t..X$.          P v.v.(.T.d.9                             + + y y y y 9 + + + + + + + 0 0 0 0 0 0 0 0 0 + + + #                                 J }.}.}.}.}.$.$.|.Z       4 0 y y 0 O                           ",
"                                  ' #.p.j.(.(.(.j.j.j.j.j.j.j.i.T '                   c S S   b b.b.P v e.e.e.e.@...[   S $.[                 f $.      [ y.S w.'  Xy.  ..b.b.P b ..oX[                                                                                                                                                                                                                     oXOXP.Z.s.s.x.k.G.Z.H.H.H.H.H.K.#X#X$X@X@X+X$X#X+XL.g.i.2.i.3.3.<.<.<.<.=.=.O.( ( ( ^ ~ ~ ~ / Q Q W W T I x k j h M a a h h t           w.H.4.T                 < : % % % < 3 3 6 5 6 6 < , 1 : : * O q.r.f.f.d.f.6.X.X.l.B.B.Z.~ / / ! R L x h = > 1 < 1 1 1 1 1 1 1 1 1 1 1 1 1 1 1 1 1 1 1 1 1 1 1 : : : 1 1 1 1 1 * = b P U T T W Q / ~ ~ ( O.+.,.2.+.1.G.;X+X#X@X#X#XOXOXOXP.G.P.P.G.z.l.k.s.p.p.G.n.G.b.b..X          Y v.T.T.T.d.9                             + y y y y y y 0 + + + + + + + 0 0 0 + 0 0 0 0 + + O #                                   }.}.|.}.}.|.}.V         * 0 9 0 0 +                           ",
"                                      Y i.j.j.(.(.j.j.j.j.j.p.@.                      l l       v e.b b ....l S b l                           A $.      [ t.S y.[ 1Xy.  P b.t.v   [ t.G                                                                                                                                                                                                                     &XOXP.v.k.x.B.G.L.L.H.H.P.K.H.K.#X$X$X+X#X+X#X#XD.z.g.i.i.3.3.4.1.,.<.=.=.( ( ( ( ~ ~ ~ ~ ~ / Q Q W W U L k a j h M a a q e t           w.K.4.T                 < : : 1 % , < 3 6 6 < 6 1 < 1 * 1 X O q.r.d.f.d.l.1.X.X.l.B.B.B.~ ! ! ! R L x h = > 1 < 1 1 1 1 1 1 1 1 1 1 1 1 1 1 1 1 1 1 1 1 1 1 : : : : : : 1 1 1 * = j P U T T T W W / ~ ( O.O.O.<.1.1.k.z.;X$X@X#X@X#X;XOXP.P.P.G.G.G.Z.x.d.d.k.p.k.G.b.b.OXt.|       P v.R.T.v.k.e                         S e + y y y y y y + + + + 0 y 0 + + + 0   + + + + + + #                                       }.}.|.q.$.K           @ + + y 0 #                           ",
"                                        8.p.j.(.j.j.j.j.p.p.8.{                                 S y.f G y.%X                                  l w.      [ y.l y.v .X XS  .t.t.S   S y.A                                                                                                                                                                                                                     &XOXP.d.k.l.z.L.G.P.H.H.H.K.K.K.#X$X#XOX#X$X;X+X7.8.2.i.i.3.4.4.,.O.<.<.=.( ( ( ^ ~ ~ ~ ~ ~ ~ Q W W U U L k j h d 9 a h h e t           w.J.4.R                 < : . : % > , < 6 3 1 3 1 < > @ 1 X O w.k.f.f.d.c.4.X.X.l.Z.B.Z.~ ~ ! ! R L x h = > > < 1 1 1 1 1 1 1 1 1 1 1 1 1 : 1 1 1 1 1 1 1 1 : : : : : : : : 1 * = j L U T U T T W / ~ ^ ^ ^ ( O.<.1.1.8.;XOX#X#XOX#X#XOXD.P.P.G.P.L.G.z.l.c.p.p.l.k.n.b.b.oXoX      k e.B.k.n.e.w                         y.h + 0 y 0 y + 0 + + 0 0 0 0 0 + + + +     # + + + # #     X X o                             J }.}.|.q.                # 0 + O                           ",
"                                        ' I p.j.j.j.j.h.p.@.                                    ' t.f G t.oX              $.                  c y.h     S y.e   j oXy.F [ w.t.v   | $.                                                                                                                                                                                                                      &XOXP.c.d.Z.L.H.D.H.J.G.D.K.$X#X@X@X@XOX#X$X*XQ.6.2.i.i.i.2.<.<.,.,.O.O.O.O.( ( ^ ~ ~ ~ ~ / W / W U I I L k a h d M q q j e             e.!.1.T                 1 % . 1 : : < , < < 3 3 < 2 > : : X O w.x.f.f.l.f.6.^ ! l.Z.B.z.X./ / ! R L x h = > > < 1 1 1 : 1 1 1 1 1 1 1 1 1 1 1 1 : : : : : : : : 1 1 : 1 1 : 1 * = z x L E T T T W W / ~ ( ( ( <.,.2.+.8.P.$X+X#X+X$X$XK.OXD.P.P.P.P.P.G.v.l.d.s.s.p.k.z.G.OXOXoX    9 v @.] ..S                           y.e   y + + + + + O + + + - 0 + + + - +     # O # # # #     * = o                               $.}.|.r                 + + + #                           ",
"                                            8.p.h.j.j.p.7.P                                     ' y.  A y.oX            [ oXc               | [ ..S l     y.A %.S $.S     [ .X'  .q.H                                                                                                                                                                                                                       oXb.v.l.l.G.L.K.D.H.H.H.H.I.$X$X@X@X@XOX#X+XZ.x.6.3.i.i.i.<.<.<.<.=.( O.O.( ( ^ ~ ~ ~ ~ ~ / W / Q U I L x j a h d e h h e               r.!.3.T                   . . : . : , : , < 7 3 < > * * % X O w.k.f.f.l.f.6.^ ! l.Z.Z.Z.X./ / ! R L x h = > > < 1 1 1 : 1 1 1 1 1 1 1 1 1 1 1 1 : : : : : : : : 1 1 : : : : 1 * = j x L E U T T W W / ~ ^ ^ ( ( O.,.X.X.7.L.#X+X$X$X#X$X#XOXD.D.P.P.P.P.G.v.p.d.s.s.s.k.z.P.P.F.        0 0 0                             $.l   0 + + # + O # O O O O + O O O - O       # o   o o       @ o     o o X                     J }.$.                * = = -                             ",
"                                            ' 8.p.h.h.#.e.                                      S $.    l y.            S y.A             J .Xy.$. X[       H .X| f         $.$.|                                                                                                                                                                                                                         | @Xk.l.l.l.G.J.H.G.H.H.J.I.$X@X@X@X@X@X$X$XI.x.4.6.2.i.i.3.<.<.<.( ( ( ( ( ( ^ ~ ~ ~ ~ ~ / Q W Q W U I L k j a h d d e e                 } 4.X.]                     . : % : , : , < 7 < > % @ . $ X O w.k.f.f.f.f.6.^ ! l.Z.G.G.X./ / ! R L x h = > 1 < 1 1 1 : 1 1 1 1 1 1 1 1 1 1 : 1 : : : : : : : : 1 1 : : 1 1 1 * = j k L I E T T W W W ~ ~ ~ ( ( O.O.1.X.1.L.;X+X-X$X#X$X+XOXP.P.P.P.P.P.G.G.k.d.s.s.s.s.x.z.b.b.                                          $.t   + #     O     o #             O O       o         o       o o o o o                         }.Z                   O #                               ",
"                                                +.p.k.                                                                                                                                                                                                                                                                                                                                                   .t.x.k.l.v.Z.G.G.G.H.H.G.L.+X#X#X@X@X@X@X$X+XB.s.1.3.2.3.i.<.<.<.<.( ( ( ( ( ^ ~ ~ ~ ~ / / / Q W W T I L x k j h h h d e e                 R ^ ~ ]                       % . % : , < , < < % % . . $ X O w.k.d.f.l.f.6.! ! l.Z.P.G.X./ / ! R P x h = > 1 < 1 1 1 : 1 1 1 1 1 1 1 1 1 1 : : : : : : : : : : : 1 1 1 1 1 1 * = j k L I E T T W W W / ~ ^ ^ ( ( ~ +.2.1.x.x.D.;XOX$X$X$X$XOXK.P.P.P.P.P.G.Z.l.s.s.s.s.k.x.z.b.z                                         A                                                                                                 J                                                       ",
"                                                ..@.@.                                                                                                                                                                                                                                                                                                                                                y.e.x.7.k.Z.G.H.H.H.H.J.H.H.K.$X#X@X@X@X@X#X$XH.8.6.2.2.i.i.<.<.<.,.<.( ( ( ( ( ~ ~ ~ ~ / / / Q Q W W T L x k j h h h a h e d                 } ,.#.]                       X . . . 1 3 < < 1 % % % % $ X O w.s.d.f.l.f.6./ X.l.Z.P.Z.X./ / ! R P x h = * 1 < 1 1 > 1 1 1 1 1 1 1 1 1 1 1 : : : : : : : : : : : : : : 1 : 1 * = j k L E U T T W W / ~ ^ ^ ( ( ~ ( O.2.6.+.@.k.;X+X+X#X$X#XOXK.F.D.P.K.P.P.P.z.k.d.d.p.p.k.e.e.                                                                                                                                                                                                    ",
"                                                                                                                                                                                                                                                                                                                                                                                                    l t.x.k.p.s.Z.G.H.H.H.J.A.Z.K.OX$X$X@X@X@X@X$X+XB.1.4.3.<.i.3.<.<.,.,.,.( ( ( ( ^ ~ ~ ~ ~ / / W Q W W T U L k j h h h a a h e e                 Y X.T '                         : : . : < 1 > > % % % % $ X O 5.s.d.f.l.d.6./ X.l.l.P.Z.! / ! ! R L x h = > 1 < 1 1 1 1 1 1 1 1 1 1 1 1 1 1 : : : : : : : : : : 1 1 : : : : 1 * = j z L E U T T W W W / ~ ( ( ( ( <.O.O.2.+.+.k.L.;X$X$XOX+X+XOXF.F.P.K.P.P.P.G.z.l.d.p.p.k.k.r.k h 9                                                                                                                                                                                               ",
"                                                                                                                                                                                                                                                                                                                                                    d h a 9                                          .n.v.p.v.s.Z.G.H.H.H.H.H.H.+X$X@X@X@X@X@X@X$XI.s.6.6.i.4.3.<.<.<.( ,.,.( ( ( ( ~ ~ ~ ~ ~ / / W W W W T I L k j h h h a a h h e                 ] 9.z                             : . % 1 1 > > % % % % % X O 5.s.d.d.f.d.6./ X.k.x.G.Z.! / / ! R L x h 2 > 1 < : 1 1 : : : 1 1 : : : : : : 1 1 : : : : : : : : : 1 : : : : 1 * = j k x E U T T W W W / ~ ~ ~ ( ( ( O.( +.2.+.6.k.I.+X$X+X#X@X+XOXK.F.D.P.P.P.J.P.z.x.k.d.s.7.7.Y Y x z c f                                                                                                                                                                                         ",
"                                                                                                                                                                                                                                                                                                                                                    w.r.k.e. .                                    y.b.L.Z.p.c.l.Z.H.H.J.H.H.J.I.#X$X$X@X@X@X$X#X-XL.1.3.3.2.i.3.<.<.,.( ,.,.( ( ( ^ ~ ~ ~ ~ ~ / / W W W U U I x k j d h h a a h 9                   } r.                              X . . , : @ % % % % * * O O 5.s.d.d.f.s.6.~ ^ s.x.G.G.! ! ! ! R L x h 2 > 1 < : : 1 : : : 1 1 : : : : : : 1 1 : : : : : : : : : : : : : : 1 * = j z x E U T T W W W W / ~ ( O.( ~ O.<.( i.2.1.X.P.OX$XOX@X@X@X+XOXF.D.D.P.L.L.P.v.v.v.l.p.7.8.6.@.@.F.t..Xq.                                                                                                                                                                                      ",
"                                                                                                                                                                                                                                                                                                                                                    e.k.k.r. .                                g $.t.x.z.l.d.Z.Z.J.H.H.H.H.H.D.#X$X@X@X%X@X#X#X+X7.8.4.3.i.i.3.i.<.<.( ( =.=.( ( ~ ~ ~ ~ ~ ~ / / W Q W U I I L k a a h j h j k j                     } r.                                : : % @ @ > . . * . O # + 5.s.h.f.d.d.s.f.d.1.X.G.Z.! ! ! o.R L x j = > 1 < : : : : 1 : 1 1 : : 1 : : : : : : : 1 : 1 1 1 : : : : : : : 1 * = j z x E U T T W W W W / ~ ^ ( ( ( ( ) O.<.2.+.+.X.9.+X$X$X#X@X#X#X$XOXD.P.L.P.L.J.G.G.k.p.7.7.p.p.k.G.F.oXF                                                                                                                                                                                       ",
"                                                                                                                                                                                                                                                                                                                                                    r.e.r.e.:.                                q.t.b.k.k.s.d.J.J.H.H.H.H.H.I.K.#X@X@XOX@XOX$X#X;X6.6.2.3.i.<.<.<.<.<.,.( =.( ( ( ~ ~ ~ ~ ~ ~ / / W W W U I L x k k a h h h h j j                     } e.                                X X X X X . . . X O w w 9 5.s.g.g.d.s.s.d.s.+.X.G.B.! ! ! o.R L x j = > 1 < : : : : 1 : : : : : 1 : : : : : : : : : 1 1 : : : : : : : : 1 * = j z L E U T T W W W W / ~ ( ( ( ( ) ) ( <.+.2.1.X.7.-X+X$X+XOX#X#X$XOXK.K.K.G.P.P.G.G.z.k.k.p.p.p.p.x.n.b.t.y.                                                                                                                                                                                    ",
"                                                                                                                                                                                                                                                                                                                                                    q.w.w.:.G                               q..XF.b.7.p.k.l.H.H.H.H.H.H.H.$X$X@X@X#X@X@XOX$X+X*X6.4.4.3.i.<.<.<.<.<.,.,.( ( ( ( ~ ~ ~ ~ ~ ~ / / W W W U I L k k k h h h h j j j                     } e.                                  . X X . o X . @ w c b Y 8.s.g.g.d.s.s.s.s.X.X.Z.B.! ! ! o.R L x h 4 > 1 < : : : : 1 : : : : : 1 : : : : : : : : : : 1 : : : : : : : : : * = h k L U T T T W W W W / / ~ ( ( ( ) ) ( O.<.2.2.1.s.L.L.;X$X$X-X#XOXOXK.F.K.D.P.P.G.P.Z.v.v.p.p.p.s.k.x.P.F.oX[                                                                                                                                                                                   ",
"                                                                                                                                                                                                                                                                                                                                                                                            t.F.b.n.k.z.P.H.J.H.H.H.H.H.D.$X#X@XOX@XOX@X$X$XD.l.4.2.3.i.i.<.<.=.,.,.,.=.( ( ( ^ ~ ~ ~ ~ ~ ~ / / / W U I L x k j a a j j h j j d                     } 9.                                  . X X X X . X O 0 v  .5.9.f.g.g.d.s.s.s.s.X.X.B.B.o.! ! o.R L x h 2 > 1 < : : : : 1 : : : : : : : : : : : : : : : : : : : : : : : : : : @ = h k L E T T T W Q / W / / ~ ~ ( ( ( ) ) ( O.<.<.1.+.X.@.G.$X+X#X#X#X$X$XOX+XP.P.P.P.P.G.Z.v.p.p.s.s.d.k.G.P.D.oX.X                                                                                                                                                                                ",
"                                                                                                                                                                                                                                                                                                                                                                                            F.r.n.k.p.z.H.J.J.H.H.H.D.K.K.$X$X@XOX@XOX#X#X+Xx.8.2.2.3.i.i.<.O.O.,.,.,.( ( ( ( ^ ~ ~ ~ ~ ~ ~ / / / T I L x k a a a j j h h z e =                     } 9.                                    X X X X X o 0 9 P >.9.s.f.g.g.d.s.d.s.s.X.X.B.z.o.! ! o.R L x h = > > < : : 1 : 1 : : : 1 1 : : : : : : : : 1 : : : : : : : : : : : : * = d k L I U T W W W / W / / / ~ ^ ( ( ( ( ( <.O.<.2.+.X.X.P.+X$X$X#X$X$X#X$X$XK.K.P.P.P.P.G.v.c.v.d.s.s.s.x.G.P.D.oXl                                                                                                                                                                               ",
"                                                                                                                                                                                                                                                                                                                                                                                        t.b.L.p.k.k.x.z.G.H.H.H.G.H.D.$X+X@X$XOX#X$X+X#X+XK.s.2.3.i.i.i.<.O.O.O.( ( ( ( ( ( ^ ^ ~ ~ ~ ~ ~ / / / / U L x k j j j a j j h j l w                       } 9.                                      X X X o O c P T 1.s.g.f.g.g.g.d.d.s.s.X.o.z.z.o.o.! o.R L x h = > > < : : 1 : 1 : : : 1 1 1 : : : : : : : 1 : : : : : : : : : : : : * = d k L I U T W W W / / / / / / ~ ^ ( ( ( ( ( ( O.<.+.1.+.Z.L.;X;X#X$X+X#X#X$XK.F.F.P.P.P.P.G.G.Z.l.s.k.k.k.z.P.P.OXy.                                                                                                                                                                              ",
"                                                                                                                                                                                                                                                                                                                                                                                    $..XOXk.v.c.d.l.G.H.J.J.J.J.G.I.K.$X@XOXOX$XOX+X+X$XD.x.6.4.i.i.i.i.<.O.O.O.( ( ( ( ( ( ) ) ~ ~ ~ ~ / / / / / U L x k j j j h a h h j d =                       } 9.                                        X X   O z P W i.g.g.f.g.f.g.d.g.s.g.X.o.z.z.! ! ! ! R L x h = > > < : : : : : : : : 1 1 : : : : : : : 1 1 : : : : : : : : : : : : * = h k L L I Q W W W / W / / / / ~ ~ ^ ( ( ( O.O.<.,.+.2.+.6.8.OX#X$X$X$X#X#X#XF.F.P.P.P.P.P.D.b.B.k.d.l.k.k.G.z.P.P.b.                                                                                                                                                                              ",
"                                                                                                                                                                                                                                                                                                                                                                                    y.oXx.k.p.p.s.l.P.H.G.H.H.H.H.;XOX@X@XOXOX#XOX@X#X+Xx.8.1.6.i.i.i.<.O.( O.O.( ( ( ( ( ) ) ( ~ ~ ~ ~ / / / / W U L x k j h h a a j h d w                         } r.                                                l P W <.g.h.f.g.f.g.f.g.s.g.X.o.z.z.! ! R o.T P x j = > 1 < : : : : : : : : : 1 1 : : : : : : 1 1 : : : : : : : : : : : 1 * = d z x L I Q W W W / / / / / ~ ~ / ~ ( ( ( ~ ( O.<.O.2.+.6.o.OX-XOX$X#X$X@X$XK.K.K.P.K.P.P.K.P.P.v.v.v.x.k.k.z.z.b.F.w.                                                                                                                                                                            ",
"                                                                                                                                                                                                                                                                                                                                                                                    t.oXz.v.6.p.s.z.H.L.H.H.H.H.K.+X$X$X+X#XOXOX#X@X+XI.x.6.6.3.i.i.<.<.<.( ( O.O.( ( ( ( ~ ~ ~ ~ ~ ~ ~ ~ ~ / / T E L k k j j h a j j h e                           } r.                                                f v T +.p.p.h.d.d.s.f.g.d.g.X.o.z.x.o.! ! } T P x j 2 * < < : : : : : : : : : : : : : 1 1 1 : : : : : : : : : : : : : 1 : @ = d z x L I W W / / / / / / / W W / ~ ( ( ( ( ( O.O.<.<.2.2.X.I.+X+X#X#X#X$X#X$X+X+XK.P.P.P.P.D.P.P.J.Z.k.k.k.z.k.G.P.OXOX                                                                                                                                                                          ",
"                                                                                                                                                                                                                                                                                                                                                                                    t.b.p.d.6.x.l.Z.H.H.H.H.H.K.K.$X$X#X+X#XOX@X@XOXD.z.7.2.i.3.i.i.<.<.( ( ( O.( ( ( ( ( ~ ~ ~ ~ ~ ~ ~ ~ ~ / / T E x k k j j j a h j d t                           } e.                                                  e P ~ 2.6.f.s.s.s.d.g.d.g.X.X.z.x.o.R ! } T P x j 2 > < < : : : : : : : 1 : : : : : 1 : : : : : : : : : : : : : : : 1 1 @ = d z k L I T W / / / / Q Q / W Q / ~ ( ) ) ) ( ( O.O.<.2.2.1.Z.L.;X+X#X$X$X#X$X+X+XK.P.P.P.P.D.P.P.J.G.k.l.l.l.k.G.G.G.K.5.                                                                                                                                                                        ",
"                                                                                                                                                                                                                                                                                                                                                                                  .XoXx.6.d.6.x.G.G.H.H.H.H.K.K.K.$X$X$X+X#XOX@XOX@Xz.7.6.6.g.3.i.i.<.( ( ( ( ( ( ( ( ( ~ ~ ~ ~ ~ ~ ~ ~ ~ ~ / / U L x k j j j j a j j d e                           } 7.                                                    P X.+.1.d.s.s.s.d.g.s.g.X.X.z.x.! R ! } T P x j 2 > < < : : : : : : 1 1 : : : : : : : : : : : : : : : : : : : : : 1 1 * = d j k L I T W W / / / Q Q / / / / ~ ( ) ) ) ~ ( ( O.+.2.2.+.1.z.+XK.OX$X$X$XOX+X+XK.P.G.P.F.D.P.P.J.Z.l.l.l.k.k.z.G.G.K.b.&X$.                                                                                                                                                                    ",
"                                                                                                                                                                                                                                                                                                                                                                                  &XF.e.7.d.s.z.G.P.H.H.H.K.H.K.I.+X+X$X+X#X+X@X@X#Xz.8.7.s.p.i.<.<.<.( ( ( ( ( ( ( ( ( ~ ~ ~ ~ ~ ~ ) ~ ~ ~ / / U L x k j j j j j j j d e                           ] 8.                                                    Y ~ X.1.d.d.f.s.s.s.g.g.X.X.z.x.! R ! } T P x j = > < < : : : : : : 1 1 : : : : : : 1 : : : : : : : : : : : : : : 1 1 * = d j k L I T W W W / / Q Q / / / / ~ ~ ) ) ~ ~ ~ ( ( O.2.2.6.1.z.;XOX$XOX+X$XOX+X+XK.D.D.D.D.D.P.P.J.G.l.l.l.k.l.z.G.P.P.OXoXy.                                                                                                                                                                    "
};
