/* XPM */
static char *_af76f20a3444dcbbbfc06aada6c130f[] = {
/* columns rows colors chars-per-pixel */
"366 192 32 1 ",
"  c None",
". c #FCCCB0",
"X c #FCBC9C",
"o c #FCB890",
"O c #FCB080",
"+ c #FCA470",
"@ c #FC9C60",
"# c #F0945C",
"$ c #E88C58",
"% c #DC8854",
"& c #D08050",
"* c #C87C4C",
"= c #BC7848",
"- c #B47044",
"; c #A86840",
": c #9C6038",
"> c #885830",
", c gray99",
"< c #ECECEC",
"1 c #D0D0D0",
"2 c #C0C0C0",
"3 c #B4B4B4",
"4 c #989898",
"5 c gray55",
"6 c #7C7C7C",
"7 c gray44",
"8 c gray33",
"9 c #484848",
"0 c gray22",
"q c #2C2C2C",
"w c #202020",
"e c black",
/* pixels */
"                                                                                                                                                                                                                                                                                                                                                                              ",
"                                                                                                                                                                                                                                                                                                                                                                              ",
"                                                                                                                                                                                                                                                                                                                                                                              ",
"                                                                                                                                                                                                                                                                        www                                                                                                   ",
"                                                                                                                                                                                                                                                                        www                                                                                                   ",
"                                                                                                                                                                                                                                                                        www                                                                                                   ",
"                                                                                                                                                                                                                                                                        000                                                                                                   ",
"                                                                                                                                                                                                                                                                        000                                                                                                   ",
"                                                                                                                                                                                                                                                                        000                                                                                                   ",
"                                                                                                                                                                                                                                                                     888333                                                                                                   ",
"                                                                                                                                                                                                                                                                     888333                                                                                                   ",
"                                                                                                                                                                                                                                                                     888333                                                                                                   ",
"                                                                                                                                                                                                                                                                     777222                                                                                                   ",
"                                                                                                                                                                                                                                                                     777222                                                                                                   ",
"                                                                                                                                                                                                                                                                     777222                                                                                                   ",
"                                                                                                                                                                                                                                                                  qqq666222                                                                                                   ",
"                                                                                                                                                                                                                                                                  qqq666222                                                                                                   ",
"                                                                                                                                                                                                                                                                  qqq666222                                                                                                   ",
"                                                                                                                                                                                                                                                                  000555222                                                                                                   ",
"                                                                                                                                                                                                                                                                  000555222                                                                                                   ",
"                                                                                                                                                                                                                                                                  000555222                                                                                                   ",
"                                                                                                                                                                                                                                                                  999555222                                                                                                   ",
"                                                                                                                                                                                                                                                                  999555222                                                                                                   ",
"                                                                                                                                                                                                                                                                  999555222                                                                                                   ",
"                                                                                                                                                                                                                                                                  777444111                                                                                                   ",
"                                                                                                                                                                                                                                                                  777444111                                                                                                   ",
"                                                                                                                                                                                                                                                                  777444111                                                                                                   ",
"                                                                                                                                                                                                                                                               000777333<<<                                                                                                   ",
"                                                                                                                                                                                                                                                               000777333<<<                                                                                                   ",
"                                                                                                                                                                                                                                                               000777333<<<                                                                                                   ",
"                                                                                                                                                                                                                                                               000555222,,,                                                                                                   ",
"                                                                                                                                                                                                                                                               000555222,,,                                                                                                   ",
"                                                                                                                                                                                                                                                               000555222,,,                                                                                                   ",
"                                                                                                                                                                                                                                                               999555222                                                                                                      ",
"                                                                                                                                                                                                                                                               999555222                                                                                                      ",
"                                                                                                                                                                                                                                                               999555222                                                                                                      ",
"                                                                                                                                                                                                                                                            000999555222                                                                                                      ",
"                                                                                                                                                                                                                                                            000999555222                                                                                                      ",
"                                                                                                                                                                                                                                                            000999555222                                                                                                      ",
"                                                                                                                                                                                                                                                            999999555222                                                                                                      ",
"                                                                                                                                                                                                                                                            999999555222                                                                                                      ",
"                                                                                                                                                                                                                                                            999999555222                                                                                                      ",
"                                                                                                                                                                                                                                                         000999888555222                                                                                                      ",
"                                                                                                                                                                                                                                                         000999888555222                                                                                                      ",
"                                                                                                                                                                                                                                                         000999888555222                                                                                                      ",
"                                                                                                                                                                                                                                                      >>>000999777444111                                                                                                      ",
"                                                                                                                                                                                                                                                      >>>000999777444111                                                                                                      ",
"                                                                                                                                                                                                                                                      >>>000999777444111                                                                                                      ",
"                                                                                                                                                                                                                                                   qqq000999999666333<<<                                                                                                      ",
"                                                                                                                                                                                                                                                   qqq000999999666333<<<                                                                                                      ",
"                                                                                                                                                                                                                                                   qqq000999999666333<<<                                                                                                      ",
"                                                                                                                                                                                                                                             >>>999000000999888555333<<<                                                                                                      ",
"                                                                                                                                                                                                                                             >>>999000000999888555333<<<                                                                                                      ",
"                                                                                                                                                                                                                                             >>>999000000999888555333<<<                                                                                                      ",
"                                                                                                                                                                                                                                       >>>>>>000999000999999888555444444                                                                                                      ",
"                                                                                                                                                                                                                                       >>>>>>000999000999999888555444444                                                                                                      ",
"                                                                                                                                                                                                                                       >>>>>>000999000999999888555444444                                                                                                      ",
"                                                                                                                                                                                                                                       >>>:::qqq++++++000999777444444555                                                                                                      ",
"                                                                                                                                                                                                                                       >>>:::qqq++++++000999777444444555                                                                                                      ",
"                                                                                                                                                                                                                                       >>>:::qqq++++++000999777444444555                                                                                                      ",
"                                                                                                                                                                                                                                          ;;;###OOOOOOOOO999777555555888>>>                                                                                                   ",
"                                                                                                                                                                                                                                          ;;;###OOOOOOOOO999777555555888>>>                                                                                                   ",
"                                                                                                                                                                                                                                          ;;;###OOOOOOOOO999777555555888>>>                                                                                                   ",
"                                                                                                                                                                                                                                             +++OOOXXXoooOOO777777777999www                                                                                                   ",
"                                                                                                                                                                                                                                             +++OOOXXXoooOOO777777777999www                                                                                                   ",
"                                                                                                                                                                                                                                             +++OOOXXXoooOOO777777777999www                                                                                                   ",
"                                                                                                                                                                                                                                             OOOOOOXXXXXXOOO000999000qqqwww***                                                                                                ",
"                                                                                                                                                                                                                                             OOOOOOXXXXXXOOO000999000qqqwww***                                                                                                ",
"                                                                                                                                                                                                                                             OOOOOOXXXXXXOOO000999000qqqwww***                                                                                                ",
"                                                                                                                                                                                                                                             ###OOOXXXXXXooo888999000qqqwww***                                                                                                ",
"                                                                                                                                                                                                                                             ###OOOXXXXXXooo888999000qqqwww***                                                                                                ",
"                                                                                                                                                                                                                                             ###OOOXXXXXXooo888999000qqqwww***                                                                                                ",
"                                                                                                                                                                                                                                       &&&&&&***@@@OOOoooOOO888888999qqq&&&&&&---                                                                                             ",
"                                                                                                                                                                                                                                       &&&&&&***@@@OOOoooOOO888888999qqq&&&&&&---                                                                                             ",
"                                                                                                                                                                                                                                       &&&&&&***@@@OOOoooOOO888888999qqq&&&&&&---                                                                                             ",
"                                                                                                                                                                                                                                       ------www%%%@@@+++OOO@@@000>>>;;;&&&&&&***;;;                                                                                          ",
"                                                                                                                                                                                                                                       ------www%%%@@@+++OOO@@@000>>>;;;&&&&&&***;;;                                                                                          ",
"                                                                                                                                                                                                                                       ------www%%%@@@+++OOO@@@000>>>;;;&&&&&&***;;;                                                                                          ",
"                                                                                                                                                                                                                                    ---::::::qqq&&&@@@++++++@@@--->>>:::---&&&******                                                                                          ",
"                                                                                                                                                                                                                                    ---::::::qqq&&&@@@++++++@@@--->>>:::---&&&******                                                                                          ",
"                                                                                                                                                                                                                                    ---::::::qqq&&&@@@++++++@@@--->>>:::---&&&******                                                                                          ",
"                                                                                                                                                                                                                              ***---;;;;;;:::777***@@@++++++@@@&&&;;;:::;;;***&&&&&&***                                                                                       ",
"                                                                                                                                                                                                                              ***---;;;;;;:::777***@@@++++++@@@&&&;;;:::;;;***&&&&&&***                                                                                       ",
"                                                                                                                                                                                                                              ***---;;;;;;:::777***@@@++++++@@@&&&;;;:::;;;***&&&&&&***                                                                                       ",
"                                                                                                                                                                                                                           ***;;;;;;------;;;777&&&@@@+++++++++###***::::::---&&&&&&***;;;                                                                                    ",
"                                                                                                                                                                                                                           ***;;;;;;------;;;777&&&@@@+++++++++###***::::::---&&&&&&***;;;                                                                                    ",
"                                                                                                                                                                                                                           ***;;;;;;------;;;777&&&@@@+++++++++###***::::::---&&&&&&***;;;                                                                                    ",
"                                                                                                                                                                                                                              ;;;---******---777&&&+++OOOOOOOOO+++%%%---:::;;;***&&&***---                                                                                    ",
"                                                                                                                                                                                                                              ;;;---******---777&&&+++OOOOOOOOO+++%%%---:::;;;***&&&***---                                                                                    ",
"                                                                                                                                                                                                                              ;;;---******---777&&&+++OOOOOOOOO+++%%%---:::;;;***&&&***---                                                                                    ",
"                                                               OOO+++                                                                                                                                                         ***------------qqq***@@@OOOOOOOOOOOO@@@&&&:::;;;***%%%***---:::                                                                                 ",
"                                                               OOO+++                                                                                                                                                         ***------------qqq***@@@OOOOOOOOOOOO@@@&&&:::;;;***%%%***---:::                                                                                 ",
"                                                               OOO+++                                                                                                                                                         ***------------qqq***@@@OOOOOOOOOOOO@@@&&&:::;;;***%%%***---:::                                                                                 ",
"                                                         ...XXXooo+++                                                                                                                                                      &&&***---;;;;;;---www***%%%OOOOOOoooOOOOOO###&&&***%%%%%%&&&---:::>>>                                                                              ",
"                                                         ...XXXooo+++                                                                                                                                                      &&&***---;;;;;;---www***%%%OOOOOOoooOOOOOO###&&&***%%%%%%&&&---:::>>>                                                                              ",
"                                                         ...XXXooo+++                                                                                                                                                      &&&***---;;;;;;---www***%%%OOOOOOoooOOOOOO###&&&***%%%%%%&&&---:::>>>                                                                              ",
"                                                   .........OOO+++                                                                                                                                                               :::;;;---------www%%%+++OOOXXXoooOOO+++############&&&---:::>>>>>>                                                                           ",
"                                                   .........OOO+++                                                                                                                                                               :::;;;---------www%%%+++OOOXXXoooOOO+++############&&&---:::>>>>>>                                                                           ",
"                                                   .........OOO+++                                                                                                                                                               :::;;;---------www%%%+++OOOXXXoooOOO+++############&&&---:::>>>>>>                                                                           ",
"                                                ......XXXOOO%%%---:::                                                                                                                                                               ---------;;;;;;***###OOOoooXXXXXXOOOOOO++++++###&&&---:::>>>>>>>>>                                                                        ",
"                                                ......XXXOOO%%%---:::                                                                                                                                                               ---------;;;;;;***###OOOoooXXXXXXOOOOOO++++++###&&&---:::>>>>>>>>>                                                                        ",
"                                                ......XXXOOO%%%---:::                                                                                                                                                               ---------;;;;;;***###OOOoooXXXXXXOOOOOO++++++###&&&---:::>>>>>>>>>                                                                        ",
"                                             ooooooOOOOOO%%%---:::>>>>>>>>>                                                                                                                                                         ***---:::>>>>>>---%%%+++OOOOOOoooOOOOOOOOO+++@@@$$$***;;;:::>>>>>>                                                                        ",
"                                             ooooooOOOOOO%%%---:::>>>>>>>>>                                                                                                                                                         ***---:::>>>>>>---%%%+++OOOOOOoooOOOOOOOOO+++@@@$$$***;;;:::>>>>>>                                                                        ",
"                                             ooooooOOOOOO%%%---:::>>>>>>>>>                                                                                                                                                         ***---:::>>>>>>---%%%+++OOOOOOoooOOOOOOOOO+++@@@$$$***;;;:::>>>>>>                                                                        ",
"                                       ++++++OOO+++###%%%---:::>>>>>>>>>>>>>>>>>>>>>>>>                                                                                                                                             ***:::>>>>>>      ***%%%###OOO++++++OOO++++++@@@###&&&---;;;:::>>>>>>                                                                     ",
"                                       ++++++OOO+++###%%%---:::>>>>>>>>>>>>>>>>>>>>>>>>                                                                                                                                             ***:::>>>>>>      ***%%%###OOO++++++OOO++++++@@@###&&&---;;;:::>>>>>>                                                                     ",
"                                       ++++++OOO+++###%%%---:::>>>>>>>>>>>>>>>>>>>>>>>>                                                                                                                                             ***:::>>>>>>      ***%%%###OOO++++++OOO++++++@@@###&&&---;;;:::>>>>>>                                                                     ",
"                                    +++@@@@@@###%%%***;;;:::>>>>>>>>>>>>>>>>>>>>>>>>>>>                                                                                                                                                >>>>>>         >>>---&&&%%%%%%%%%###@@@+++@@@###&&&***------;;;:::>>>                                                                  ",
"                                    +++@@@@@@###%%%***;;;:::>>>>>>>>>>>>>>>>>>>>>>>>>>>                                                                                                                                                >>>>>>         >>>---&&&%%%%%%%%%###@@@+++@@@###&&&***------;;;:::>>>                                                                  ",
"                                    +++@@@@@@###%%%***;;;:::>>>>>>>>>>>>>>>>>>>>>>>>>>>                                                                                                                                                >>>>>>         >>>---&&&%%%%%%%%%###@@@+++@@@###&&&***------;;;:::>>>                                                                  ",
"                                 ++++++@@@$$$***---:::>>>>>>>>>      >>>>>>>>>>>>>>>                                                                                                                                                                           ---------&&&###@@@+++@@@%%%************---:::>>>                                                               ",
"                                 ++++++@@@$$$***---:::>>>>>>>>>      >>>>>>>>>>>>>>>                                                                                                                                                                           ---------&&&###@@@+++@@@%%%************---:::>>>                                                               ",
"                                 ++++++@@@$$$***---:::>>>>>>>>>      >>>>>>>>>>>>>>>                                                                                                                                                                           ---------&&&###@@@+++@@@%%%************---:::>>>                                                               ",
"                           %%%+++OOOOOO@@@&&&;;;:::>>>>>>>>>                                                                                                                                                                                                      >>>:::---%%%+++OOOOOO%%%%%%&&&%%%&&&***;;;>>>                                                               ",
"                           %%%+++OOOOOO@@@&&&;;;:::>>>>>>>>>                                                                                                                                                                                                      >>>:::---%%%+++OOOOOO%%%%%%&&&%%%&&&***;;;>>>                                                               ",
"                           %%%+++OOOOOO@@@&&&;;;:::>>>>>>>>>                                                                                                                                                                                                      >>>:::---%%%+++OOOOOO%%%%%%&&&%%%&&&***;;;>>>                                                               ",
"                           ###+++OOOOOO+++&&&:::>>>>>>>>>         ++++++                                                                                                                                                                                             >>>;;;%%%OOOXXXOOOOOO@@@#########%%%===:::>>>                                                            ",
"                           ###+++OOOOOO+++&&&:::>>>>>>>>>         ++++++                                                                                                                                                                                             >>>;;;%%%OOOXXXOOOOOO@@@#########%%%===:::>>>                                                            ",
"                           ###+++OOOOOO+++&&&:::>>>>>>>>>         ++++++                                                                                                                                                                                             >>>;;;%%%OOOXXXOOOOOO@@@#########%%%===:::>>>                                                            ",
"                     ***&&&@@@OOOoooOOO###===:::>>>>>>:::;;;&&&++++++@@@%%%:::                                                                                                                                                                                       >>>---%%%XXXXXXXXXOOO++++++@@@@@@###&&&--->>>                                                            ",
"                     ***&&&@@@OOOoooOOO###===:::>>>>>>:::;;;&&&++++++@@@%%%:::                                                                                                                                                                                       >>>---%%%XXXXXXXXXOOO++++++@@@@@@###&&&--->>>                                                            ",
"                     ***&&&@@@OOOoooOOO###===:::>>>>>>:::;;;&&&++++++@@@%%%:::                                                                                                                                                                                       >>>---%%%XXXXXXXXXOOO++++++@@@@@@###&&&--->>>                                                            ",
"                     ***%%%+++OOOXXXOOO%%%---:::>>>:::;;;&&&###OOO+++###===>>>>>>                                                                                                                                                                                    ;;;---%%%OOOXXXoooOOOOOO+++++++++@@@###&&&;;;>>>                                                         ",
"                     ***%%%+++OOOXXXOOO%%%---:::>>>:::;;;&&&###OOO+++###===>>>>>>                                                                                                                                                                                    ;;;---%%%OOOXXXoooOOOOOO+++++++++@@@###&&&;;;>>>                                                         ",
"                     ***%%%+++OOOXXXOOO%%%---:::>>>:::;;;&&&###OOO+++###===>>>>>>                                                                                                                                                                                    ;;;---%%%OOOXXXoooOOOOOO+++++++++@@@###&&&;;;>>>                                                         ",
"                  >>>---%%%+++oooXXXOOO%%%;;;::::::---&&&@@@+++OOO+++%%%;;;>>>>>>                                                                                                                                                                                       ===%%%OOOOOOOOOOOOOOO++++++++++++@@@###***:::>>>                                                      ",
"                  >>>---%%%+++oooXXXOOO%%%;;;::::::---&&&@@@+++OOO+++%%%;;;>>>>>>                                                                                                                                                                                       ===%%%OOOOOOOOOOOOOOO++++++++++++@@@###***:::>>>                                                      ",
"                  >>>---%%%+++oooXXXOOO%%%;;;::::::---&&&@@@+++OOO+++%%%;;;>>>>>>                                                                                                                                                                                       ===%%%OOOOOOOOOOOOOOO++++++++++++@@@###***:::>>>                                                      ",
"                  >>>---%%%OOOXXXooo+++&&&;;;:::---&&&###++++++OOO###---                                                                                                                                                                                                &&&###+++OOOOOOOOOOOOOOO+++++++++@@@###%%%--->>>                                                      ",
"                  >>>---%%%OOOXXXooo+++&&&;;;:::---&&&###++++++OOO###---                                                                                                                                                                                                &&&###+++OOOOOOOOOOOOOOO+++++++++@@@###%%%--->>>                                                      ",
"                  >>>---%%%OOOXXXooo+++&&&;;;:::---&&&###++++++OOO###---                                                                                                                                                                                                &&&###+++OOOOOOOOOOOOOOO+++++++++@@@###%%%--->>>                                                      ",
"                  >>>---%%%OOOoooOOO###***------%%%@@@+++@@@###&&&---                                                                                                                                                                                                   %%%###+++OOOOOOOOOOOOOOOOOO+++++++++@@@###&&&;;;>>>                                                   ",
"                  >>>---%%%OOOoooOOO###***------%%%@@@+++@@@###&&&---                                                                                                                                                                                                   %%%###+++OOOOOOOOOOOOOOOOOO+++++++++@@@###&&&;;;>>>                                                   ",
"                  >>>---%%%OOOoooOOO###***------%%%@@@+++@@@###&&&---                                                                                                                                                                                                   %%%###+++OOOOOOOOOOOOOOOOOO+++++++++@@@###&&&;;;>>>                                                   ",
"                  >>>---%%%OOOOOOOOO###&&&&&&%%%@@@+++@@@%%%===;;;>>>                                                                                                                                                                                                   $$$@@@+++OOOOOOOOOOOOOOOOOOOOO+++++++++@@@%%%--->>>>>>                                                ",
"                  >>>---%%%OOOOOOOOO###&&&&&&%%%@@@+++@@@%%%===;;;>>>                                                                                                                                                                                                   $$$@@@+++OOOOOOOOOOOOOOOOOOOOO+++++++++@@@%%%--->>>>>>                                                ",
"                  >>>---%%%OOOOOOOOO###&&&&&&%%%@@@+++@@@%%%===;;;>>>                                                                                                                                                                                                   $$$@@@+++OOOOOOOOOOOOOOOOOOOOO+++++++++@@@%%%--->>>>>>                                                ",
"                  :::***###++++++@@@######@@@+++OOO+++###***:::>>>>>>>>>                                                                                                                                                                                                   ++++++OOOOOOOOOOOOOOOOOOOOOOOO++++++@@@###***;;;>>>                                                ",
"                  :::***###++++++@@@######@@@+++OOO+++###***:::>>>>>>>>>                                                                                                                                                                                                   ++++++OOOOOOOOOOOOOOOOOOOOOOOO++++++@@@###***;;;>>>                                                ",
"                  :::***###++++++@@@######@@@+++OOO+++###***:::>>>>>>>>>                                                                                                                                                                                                   ++++++OOOOOOOOOOOOOOOOOOOOOOOO++++++@@@###***;;;>>>                                                ",
"               >>>;;;***###++++++@@@@@@+++OOOOOOOOO+++%%%--->>>>>>>>>                                                                                                                                                                                                      ++++++OOOOOOOOOoooooooooOOOOOOOOO++++++@@@%%%---:::>>>                                             ",
"               >>>;;;***###++++++@@@@@@+++OOOOOOOOO+++%%%--->>>>>>>>>                                                                                                                                                                                                      ++++++OOOOOOOOOoooooooooOOOOOOOOO++++++@@@%%%---:::>>>                                             ",
"               >>>;;;***###++++++@@@@@@+++OOOOOOOOO+++%%%--->>>>>>>>>                                                                                                                                                                                                      ++++++OOOOOOOOOoooooooooOOOOOOOOO++++++@@@%%%---:::>>>                                             ",
"               >>>---%%%@@@+++@@@++++++OOOOOOOOO+++###&&&                                                                                                                                                                                                                  ++++++OOOOOOoooXXXXXXXXXXXXOOOOOOOOO+++@@@###&&&--->>>>>>                                          ",
"               >>>---%%%@@@+++@@@++++++OOOOOOOOO+++###&&&                                                                                                                                                                                                                  ++++++OOOOOOoooXXXXXXXXXXXXOOOOOOOOO+++@@@###&&&--->>>>>>                                          ",
"               >>>---%%%@@@+++@@@++++++OOOOOOOOO+++###&&&                                                                                                                                                                                                                  ++++++OOOOOOoooXXXXXXXXXXXXOOOOOOOOO+++@@@###&&&--->>>>>>                                          ",
"            >>>;;;***###+++++++++++++++OOOOOO+++###&&&                                                                                                                                                                                                                     ++++++OOOOOOoooXXX......XXXoooOOOOOO++++++@@@$$$&&&;;;>>>                                          ",
"            >>>;;;***###+++++++++++++++OOOOOO+++###&&&                                                                                                                                                                                                                     ++++++OOOOOOoooXXX......XXXoooOOOOOO++++++@@@$$$&&&;;;>>>                                          ",
"            >>>;;;***###+++++++++++++++OOOOOO+++###&&&                                                                                                                                                                                                                     ++++++OOOOOOoooXXX......XXXoooOOOOOO++++++@@@$$$&&&;;;>>>                                          ",
"         >>>:::---%%%@@@OOOOOO++++++OOOOOOOOO+++&&&;;;                                                                                                                                                                                                                     @@@++++++OOOoooXXX.........XXXoooOOOOOO++++++###%%%===:::>>>                                       ",
"         >>>:::---%%%@@@OOOOOO++++++OOOOOOOOO+++&&&;;;                                                                                                                                                                                                                     @@@++++++OOOoooXXX.........XXXoooOOOOOO++++++###%%%===:::>>>                                       ",
"         >>>:::---%%%@@@OOOOOO++++++OOOOOOOOO+++&&&;;;                                                                                                                                                                                                                     @@@++++++OOOoooXXX.........XXXoooOOOOOO++++++###%%%===:::>>>                                       ",
"         :::---&&&###+++OOOOOOOOOOOO+++++++++                                                                                                                                                                                                                              ###@@@+++OOOoooXXX............XXXOOOOOOOOO+++@@@###&&&;;;>>>                                       ",
"         :::---&&&###+++OOOOOOOOOOOO+++++++++                                                                                                                                                                                                                              ###@@@+++OOOoooXXX............XXXOOOOOOOOO+++@@@###&&&;;;>>>                                       ",
"         :::---&&&###+++OOOOOOOOOOOO+++++++++                                                                                                                                                                                                                              ###@@@+++OOOoooXXX............XXXOOOOOOOOO+++@@@###&&&;;;>>>                                       ",
"      :::---***$$$+++OOOOOOOOOOOOOOO+++                                                                                                                                                                                                                                    ###@@@+++OOOOOOXXX............XXXoooOOOOOO++++++###%%%---:::>>>                                    ",
"      :::---***$$$+++OOOOOOOOOOOOOOO+++                                                                                                                                                                                                                                    ###@@@+++OOOOOOXXX............XXXoooOOOOOO++++++###%%%---:::>>>                                    ",
"      :::---***$$$+++OOOOOOOOOOOOOOO+++                                                                                                                                                                                                                                    ###@@@+++OOOOOOXXX............XXXoooOOOOOO++++++###%%%---:::>>>                                    ",
"   >>>:::===%%%###+++OOOOOOOOOOOOOOO                                                                                                                                                                                                                                          @@@+++OOOOOOXXX...............XXXoooOOOOOO+++###%%%---;;;>>>>>>                                 ",
"   >>>:::===%%%###+++OOOOOOOOOOOOOOO                                                                                                                                                                                                                                          @@@+++OOOOOOXXX...............XXXoooOOOOOO+++###%%%---;;;>>>>>>                                 ",
"   >>>:::===%%%###+++OOOOOOOOOOOOOOO                                                                                                                                                                                                                                          @@@+++OOOOOOXXX...............XXXoooOOOOOO+++###%%%---;;;>>>>>>                                 ",
">>>:::---&&&###@@@++++++OOOOOOOOO+++                                                                                                                                                                                                                                          ###@@@+++OOOoooXXX...............XXXOOOOOO+++###%%%***;;;:::>>>                                 ",
">>>:::---&&&###@@@++++++OOOOOOOOO+++                                                                                                                                                                                                                                          ###@@@+++OOOoooXXX...............XXXOOOOOO+++###%%%***;;;:::>>>                                 ",
">>>:::---&&&###@@@++++++OOOOOOOOO+++                                                                                                                                                                                                                                          ###@@@+++OOOoooXXX...............XXXOOOOOO+++###%%%***;;;:::>>>                                 ",
";;;---&&&$$$@@@+++++++++++++++++++++                                                                                                                                                                                                                                          %%%###+++OOOoooXXX...............XXXoooOOO+++@@@###&&&---:::>>>>>>                              ",
";;;---&&&$$$@@@+++++++++++++++++++++                                                                                                                                                                                                                                          %%%###+++OOOoooXXX...............XXXoooOOO+++@@@###&&&---:::>>>>>>                              ",
";;;---&&&$$$@@@+++++++++++++++++++++                                                                                                                                                                                                                                          %%%###+++OOOoooXXX...............XXXoooOOO+++@@@###&&&---:::>>>>>>                              ",
"---&&&$$$@@@++++++++++++++++++@@@@@@                                                                                                                                                                                                                                          &&&###@@@OOOOOOXXXXXX...............XXXoooOOO+++@@@%%%---:::>>>>>>                              ",
"---&&&$$$@@@++++++++++++++++++@@@@@@                                                                                                                                                                                                                                          &&&###@@@OOOOOOXXXXXX...............XXXoooOOO+++@@@%%%---:::>>>>>>                              ",
"---&&&$$$@@@++++++++++++++++++@@@@@@                                                                                                                                                                                                                                          &&&###@@@OOOOOOXXXXXX...............XXXoooOOO+++@@@%%%---:::>>>>>>                              ",
"***%%%###@@@+++++++++++++++@@@@@@###                                                                                                                                                                                                                                             %%%@@@+++OOOoooXXX...............XXXXXXOOOOOO@@@###***;;;>>>>>>                              ",
"***%%%###@@@+++++++++++++++@@@@@@###                                                                                                                                                                                                                                             %%%@@@+++OOOoooXXX...............XXXXXXOOOOOO@@@###***;;;>>>>>>                              ",
"***%%%###@@@+++++++++++++++@@@@@@###                                                                                                                                                                                                                                             %%%@@@+++OOOoooXXX...............XXXXXXOOOOOO@@@###***;;;>>>>>>                              ",
"&&&%%%@@@++++++OOOOOOOOO+++@@@###                                                                                                                                                                                                                                                &&&###+++OOOOOOXXXXXX...............XXXoooOOO+++###&&&;;;:::>>>>>>                           ",
"&&&%%%@@@++++++OOOOOOOOO+++@@@###                                                                                                                                                                                                                                                &&&###+++OOOOOOXXXXXX...............XXXoooOOO+++###&&&;;;:::>>>>>>                           ",
"&&&%%%@@@++++++OOOOOOOOO+++@@@###                                                                                                                                                                                                                                                &&&###+++OOOOOOXXXXXX...............XXXoooOOO+++###&&&;;;:::>>>>>>                           ",
"%%%###@@@+++OOOOOOOOOOOO+++@@@%%%                                                                                                                                                                                                                                                &&&$$$@@@+++OOOoooXXX...............XXXXXXOOO+++@@@%%%---:::>>>>>>                           ",
"%%%###@@@+++OOOOOOOOOOOO+++@@@%%%                                                                                                                                                                                                                                                &&&$$$@@@+++OOOoooXXX...............XXXXXXOOO+++@@@%%%---:::>>>>>>                           ",
"%%%###@@@+++OOOOOOOOOOOO+++@@@%%%                                                                                                                                                                                                                                                &&&$$$@@@+++OOOoooXXX...............XXXXXXOOO+++@@@%%%---:::>>>>>>                           ",
"@@@@@@+++OOOOOOOOOoooOOO+++###%%%                                                                                                                                                                                                                                                ***&&&###+++OOOOOOXXXXXX...............XXXOOOOOO@@@&&&---;;;>>>>>>                           ",
"@@@@@@+++OOOOOOOOOoooOOO+++###%%%                                                                                                                                                                                                                                                ***&&&###+++OOOOOOXXXXXX...............XXXOOOOOO@@@&&&---;;;>>>>>>                           ",
"@@@@@@+++OOOOOOOOOoooOOO+++###%%%                                                                                                                                                                                                                                                ***&&&###+++OOOOOOXXXXXX...............XXXOOOOOO@@@&&&---;;;>>>>>>                           ",
"+++++++++OOOoooXXXXXXOOO+++###&&&                                                                                                                                                                                                                                                   ***$$$@@@+++OOOoooXXX............XXXXXXOOOOOO@@@%%%***;;;:::>>>>>>                        ",
"+++++++++OOOoooXXXXXXOOO+++###&&&                                                                                                                                                                                                                                                   ***$$$@@@+++OOOoooXXX............XXXXXXOOOOOO@@@%%%***;;;:::>>>>>>                        ",
"+++++++++OOOoooXXXXXXOOO+++###&&&                                                                                                                                                                                                                                                   ***$$$@@@+++OOOoooXXX............XXXXXXOOOOOO@@@%%%***;;;:::>>>>>>                        ",
"++++++OOOOOOXXXXXXXXXOOO+++$$$&&&                                                                                                                                                                                                                                                   ***%%%###+++OOOOOOXXXXXX.........XXXoooOOOOOO@@@###***---:::>>>>>>                        ",
"++++++OOOOOOXXXXXXXXXOOO+++$$$&&&                                                                                                                                                                                                                                                   ***%%%###+++OOOOOOXXXXXX.........XXXoooOOOOOO@@@###***---:::>>>>>>                        ",
"++++++OOOOOOXXXXXXXXXOOO+++$$$&&&                                                                                                                                                                                                                                                   ***%%%###+++OOOOOOXXXXXX.........XXXoooOOOOOO@@@###***---:::>>>>>>                        ",
"++++++OOOoooXXXXXXXXXOOO@@@%%%&&&                                                                                                                                                                                                                                                      &&&###+++OOOOOOoooXXXXXXXXXXXXXXXOOOOOO++++++###&&&---;;;>>>>>>                        ",
"++++++OOOoooXXXXXXXXXOOO@@@%%%&&&                                                                                                                                                                                                                                                      &&&###+++OOOOOOoooXXXXXXXXXXXXXXXOOOOOO++++++###&&&---;;;>>>>>>                        ",
"++++++OOOoooXXXXXXXXXOOO@@@%%%&&&                                                                                                                                                                                                                                                      &&&###+++OOOOOOoooXXXXXXXXXXXXXXXOOOOOO++++++###&&&---;;;>>>>>>                        "
};
