/* XPM */
static char *_1e3b640723c48118730bbc9cbb01536[] = {
/* columns rows colors chars-per-pixel */
"500 500 256 2 ",
"   c None",
".  c #0A0A0B",
"X  c #16060C",
"o  c #170914",
"O  c #0C1412",
"+  c #141414",
"@  c #1A1515",
"#  c #191A16",
"$  c #1C151A",
"%  c #1B1B1B",
"&  c #151918",
"*  c #0E100F",
"=  c #27091A",
"-  c #221C1D",
";  c #27161B",
":  c #32101B",
">  c #1B221C",
",  c #062B07",
"<  c #22211E",
"1  c #32301E",
"2  c #1C1C21",
"3  c #380B24",
"4  c #231D22",
"5  c #2B1A24",
"6  c #331C24",
"7  c #381728",
"8  c #301328",
"9  c #1D2322",
"0  c #163926",
"q  c #252425",
"w  c #2A2325",
"e  c #2C2529",
"r  c #2B2A2A",
"t  c #272827",
"y  c #33242B",
"u  c #342B2D",
"i  c #38252A",
"p  c #2C322C",
"a  c #392B33",
"s  c #343434",
"d  c #3C3B3B",
"f  c #393637",
"g  c #303230",
"h  c #44162C",
"j  c #481A35",
"k  c #58193B",
"l  c #480C2A",
"z  c #62133E",
"x  c #472A38",
"c  c #55263C",
"v  c #46373B",
"b  c #4A2D34",
"n  c #66223B",
"m  c #394437",
"M  c #225E25",
"N  c #41413F",
"B  c #48473B",
"V  c #52553C",
"C  c #3B3C41",
"Z  c #5D1C42",
"A  c #641A44",
"S  c #6C1B4A",
"D  c #691745",
"F  c #721C4D",
"G  c #771A4D",
"H  c #771D51",
"J  c #582744",
"K  c #483A43",
"L  c #583748",
"P  c #553149",
"I  c #672648",
"U  c #76254D",
"Y  c #67354C",
"T  c #7A2555",
"R  c #6B3855",
"E  c #773758",
"W  c #6D2D50",
"Q  c #793B62",
"!  c #3E4341",
"~  c #434343",
"^  c #4A4848",
"/  c #55464B",
"(  c #584954",
")  c #555357",
"_  c #4E534B",
"`  c #694658",
"'  c #75445A",
"]  c #685057",
"[  c #794865",
"{  c #725466",
"}  c #626C5F",
"|  c #86285B",
" . c #86355C",
".. c #902C5B",
"X. c #8C2B63",
"o. c #882B62",
"O. c #932C65",
"+. c #972C68",
"@. c #893864",
"#. c #94336B",
"$. c #9B346D",
"%. c #963969",
"&. c #9D3573",
"*. c #9C3B74",
"=. c #9D2F70",
"-. c #A3346C",
";. c #A33574",
":. c #A33B74",
">. c #A43679",
",. c #AA367B",
"<. c #A53B7A",
"1. c #AB3A7D",
"2. c #AB3975",
"3. c #B33A7B",
"4. c #A82F6F",
"5. c #861B59",
"6. c #884667",
"7. c #96466B",
"8. c #9A4776",
"9. c #8A5875",
"0. c #985779",
"q. c #88526E",
"w. c #A4447B",
"e. c #AB437D",
"r. c #A64979",
"t. c #B4467D",
"y. c #A6547C",
"u. c #B1527A",
"i. c #906B75",
"p. c #8B4D61",
"a. c #C0507E",
"s. c #6AA365",
"d. c #73EE74",
"f. c #6CD66C",
"g. c #3F8636",
"h. c #8F8F74",
"j. c #8DAD74",
"k. c #8AE47A",
"l. c #AE3B81",
"z. c #AC3E86",
"x. c #B33C82",
"c. c #BA3A85",
"v. c #BE2E85",
"b. c #C73B8E",
"n. c #9C5682",
"m. c #AC4382",
"M. c #AC4B83",
"N. c #A64983",
"B. c #B34384",
"V. c #B24B84",
"C. c #B44C8A",
"Z. c #BB4C8B",
"A. c #B94687",
"S. c #AC5384",
"D. c #AA5986",
"F. c #B4548B",
"G. c #BB548D",
"H. c #B45B8C",
"J. c #BB5B8D",
"K. c #B55485",
"L. c #BC5492",
"P. c #BD5B93",
"I. c #B85B95",
"U. c #BC4C92",
"Y. c #996E86",
"T. c #A8688A",
"R. c #B5638D",
"E. c #BC6394",
"W. c #BA6996",
"Q. c #AC7795",
"!. c #B97599",
"~. c #AA718E",
"^. c #BD78A3",
"/. c #BD68A3",
"(. c #C44A8C",
"). c #C3558E",
"_. c #C84B94",
"`. c #D5499B",
"'. c #C35593",
"]. c #C35C94",
"[. c #C45C9A",
"{. c #CB5B9B",
"}. c #CA5698",
"|. c #D3569C",
" X c #C36295",
".X c #C4639B",
"XX c #CB649C",
"oX c #C46B9C",
"OX c #CB6B9E",
"+X c #C56796",
"@X c #D1649E",
"#X c #C5739C",
"$X c #C2648D",
"%X c #D74CA3",
"&X c #CC5CA3",
"*X c #C95AA5",
"=X c #D454A4",
"-X c #D35BA4",
";X c #D758A8",
":X c #D355AC",
">X c #E254AC",
",X c #CC64A3",
"<X c #CC6BA2",
"1X c #CD64AB",
"2X c #CD6BAC",
"3X c #C568A2",
"4X c #D264A4",
"5X c #D26BA3",
"6X c #D364AB",
"7X c #DA63AB",
"8X c #D36CAC",
"9X c #DA6BAD",
"0X c #DB66A5",
"qX c #CC73A4",
"wX c #CD73AB",
"eX c #CD7BAA",
"rX c #C678A5",
"tX c #D273AC",
"yX c #D27AAB",
"uX c #D574A9",
"iX c #CD6BB1",
"pX c #D46CB1",
"aX c #DB6CB2",
"sX c #D666B3",
"dX c #D475B2",
"fX c #DB74B4",
"gX c #D47AB3",
"hX c #DB7CB4",
"jX c #DA7AB9",
"kX c #CE77B1",
"lX c #E26DB4",
"zX c #E276B7",
"xX c #E269AB",
"cX c #E14D9D",
"vX c #E472C2",
"bX c #77DC86",
"nX c #77BD87",
"mX c #AE8995",
"MX c #BA89A4",
"NX c #99AA91",
"BX c #C785AA",
"VX c #CC87B2",
"CX c #D483B3",
"ZX c #DB83BA",
"AX c #D886B7",
"SX c #D090B3",
"DX c #E286BC",
"FX c #CCAAB1",
"GX c #93D293",
"HX c #92F390",
"JX c #AEF6B2",
"KX c #A3E99C",
"LX c #C7EEA5",
"PX c #DE98C3",
"IX c #D0FBD0",
"UX c #EBEDE0",
/* pixels */
"                                                                                                                                                                                                                                                                                                                                                                                                                                                                                                                                                                                                                                                                                                                                                                                                                                                                                                                                                                                                                                        ",
"                                                                                                                                                                                                                                                                                                                                                                                                                                                                                                                                                                                                                                                                                                                                                                                                                                                                                                                                                                                                                                        ",
"                                                                                                                                                                                                                                                                                                                                                                                                                                                                                                                                                                                                                                                                                                                                                                                                                                                                                                                                                                                                                                        ",
"                                                                                                                                                                                                                                                                                                                                                                                                                                                                                                                                                                                                                                                                                                                                                                                                                                                                                                                                                                                                                                        ",
"                                                                                                                                                                                                                                                                                                                                                                                                                                                                                                                                                                                                                                                                                                                                                                                                                                                                                                                                                                                                                                        ",
"                                                                                                                                                                                                                                                                                                                                                                                                                                                                                                                                                                                                                                                                                                                                                                                                                                                                                                                                                                                                                                        ",
"                                                                                                                                                                                                                                                                                                                                                                                                                                                                                                                                                                                                                                                                                                                                                                                                                                                                                                                                                                                                                                        ",
"                                                                                                                                                                                                                                                                                                                                                                                                                                                                                                                                                                                                                                                                                                                                                                                                                                                                                                                                                                                                                                        ",
"                                                                                                                                                                                                                                                                                                                                                                                                                                                                                                                                                                                                                                                                                                                                                                                                                                                                                                                                                                                                                                        ",
"                                                                                                                                                                                                                                                                                                                                                                                                                                                                                                                                                                                                                                                                                                                                                                                                                                                                                                                                                                                                                                        ",
"                                                                                                                                                                                                                                                                                                                                                                                                                                                                                                                                                                                                                                                                                                                                                                                                                                                                                                                                                                                                                                        ",
"                                                                                                                                                                                                                                                                                                                                                                                                                                                                                                                                                                                                                                                                                                                                                                                                                                                                                                                                                                                                                                        ",
"                                                                                                                                                                                                                                                                                                                                                                                                                                                                                                                                                                                                                                                                                                                                                                                                                                                                                                                                                                                                                                        ",
"                                                                                                                                                                                                                                                                                                                                                                                                                                                                                                                                                                                                                                                                                                                                                                                                                                                                                                                                                                                                                                        ",
"                                                                                                                                                                                                                                                                                                                                                                                                                                                                                                                                                                                                                                                                                                                                                                                                                                                                                                                                                                                                                                        ",
"                                                                                                                                                                                                                                                                                                                                                                                                                                                                                                                                                                                                                                                                                                                                                                                                                                                                                                                                                                                                                                        ",
"                                                                                                                                                                                                                                                                                                                                                                                                                                                                                                                                                                                                                                                                                                                                                                                                                                                                                                                                                                                                                                        ",
"                                                                                                                                                                                                                                                                                                                                                                                                                                                                                                                                                                                                                                                                                                                                                                                                                                                                                                                                                                                                                                        ",
"                                                                                                                                                                                                                                                                                                                                                                                                                                                                                                                                                                                                                                                                                                                                                                                                                                                                                                                                                                                                                                        ",
"                                                                                                                                                                                                                                                                                                                                                                                                                                                                                                                                                                                                                                                                                                                                                                                                                                                                                                                                                                                                                                        ",
"                                                                                                                                                                                                                                                                                                                                                                                                                                                                                                                                                                                                                                                                                                                                                                                                                                                                                                                                                                                                                                        ",
"                                                                                                                                                                                                                                                                                                                                                                                                                                                                                                                                                                                                                                                                                                                                                                                                                                                                                                                                                                                                                                        ",
"                                                                                                                                                                                                                                                                                                                                                                                                                                                                                                                                                                                                                                                                                                                                                                                                                                                                                                                                                                                                                                        ",
"                                                                                                                                                                                                                                                                                                                                                                                                                                                                                                                                                                                                                                                                                                                                                                                                                                                                                                                                                                                                                                        ",
"                                                                                                                                                                                                                                                                                                                                                                                                                                                                                                                                                                                                                                                                                                                                                                                                                                                                                                                                                                                                                                        ",
"                                                                                                                                                                                                                                                                                                                                                                                                                                                                                                                                                                                                                                                                                                                                                                                                                                                                                                                                                                                                                                        ",
"                                                                                                                                                                                                                                                                                                                                                                                                                                                                                                                                                                                                                                                                                                                                                                                                                                                                                                                                                                                                                                        ",
"                                                                                                                                                                                                                                                                                                                                                                                                                                                                                                                                                                                                                                                                                                                                                                                                                                                                                                                                                                                                                                        ",
"                                                                                                                                                                                                                                                                                                                                                                                                                                                                                                                                                                                                                                                                                                                                                                                                                                                                                                                                                                                                                                        ",
"                                                                                                                                                                                                                                                                                                                                                                                                                                                                                                                                                                                                                                                                                                                                                                                                                                                                                                                                                                                                                                        ",
"                                                                                                                                                                                                                                                                                                                                                                                                                                                                                                                                                                                                                                                                                                                                                                                                                                                                                                                                                                                                                                        ",
"                                                                                                                                                                                                                                                                                                                                                                                                                                                                                                                                                                                                                                                                                                                                                                                                                                                                                                                                                                                                                                        ",
"                                                                                                                                                                                                                                                                                                                                                                                                                                                                                                                                                                                                                                                                                                                                                                                                                                                                                                                                                                                                                                        ",
"                                                                                                                                                                                                                                                                                                                                                                                                                                                                                                                                                                                                                                                                                                                                                                                                                                                                                                                                                                                                                                        ",
"                                                                                                                                                                                                                                                                                                                                                                                                                                                                                                                                                                                                                                                                                                                                                                                                                                                                                                                                                                                                                                        ",
"                                                                                                                                                                                                                                                                                                                                                                                                                                                                                                                                                                                                                                                                                                                                                                                                                                                                                                                                                                                                                                        ",
"                                                                                                                                                                                                                                                                                                                                                                                                                                                                                                                                                                                                                                                                                                                                                                                                                                                                                                                                                                                                                                        ",
"                                                                                                                                                                                                                                                                                                                                                                                                                                                                                                                                                                                                                                                                                                                                                                                                                                                                                                                                                                                                                                        ",
"                                                                                                                                                                                                                                                                                                                                                                                                                                                                                                                                                                                                                                                                                                                                                                                                                                                                                                                                                                                                                                        ",
"                                                                                                                                                                                                                                                                                                                                                                                                                                                                                                                                                                                                                                                                                                                                                                                                                                                                                                                                                                                                                                        ",
"                                                                                                                                                                                                                                                                                                                                                                                                                                                                                                                                                                                                                                                                                                                                                                                                                                                                                                                                                                                                                                        ",
"                                                                                                                                                                                                                                                                                                                                                                                                                                                                                                                                                                                                                                                                                                                                                                                                                                                                                                                                                                                                                                        ",
"                                                                                                                                                                                                                                                                                                                                                                                                                                                                                                                                                                                                                                                                                                                                                                                                                                                                                                                                                                                                                                        ",
"                                                                                                                                                                                                                                                                                                                                                                                                                                                                                                                                                                                                                                                                                                                                                                                                                                                                                                                                                                                                                                        ",
"                                                                                                                                                                                                                                                                                                                                                                                                                                                                                                                                                                                                                                                                                                                                                                                                                                                                                                                                                                                                                                        ",
"                                                                                                                                                                                                                                                                                                                                                                                                                                                                                                                                                                                                                                                                                                                                                                                                                                                                                                                                                                                                                                        ",
"                                                                                                                                                                                                                                                                                                                                                                                                                                                                                                                                                                                                                                                                                                                                                                                                                                                                                                                                                                                                                                        ",
"                                                                                                                                                                                                                                                                                                                                                                                                                                                                                                                                                                                                                                                                                                                                                                                                                                                                                                                                                                                                                                        ",
"                                                                                                                                                                                                                                                                                                                                                                                                                                                                                                                                                                                                                                                                                                                                                                                                                                                                                                                                                                                                                                        ",
"                                                                                                                                                                                                                                                                                                                                                                                                                                                                                                                                                                                                                                                                                                                                                                                                                                                                                                                                                                                                                                        ",
"                                                                                                                                                                                                                                                                                                                                                                                                                                                                                                                                                                                                                                                                                                                                                                                                                                                                                                                                                                                                                                        ",
"                                                                                                                                                                                                                                                                                                                                                                                                                                                                                                                                                                                                                                                                                                                                                                                                                                                                                                                                                                                                                                        ",
"                                                                                                                                                                                                                                                                                                                                                                                                                                                                                                                                                                                                                                                                                                                                                                                                                                                                                                                                                                                                                                        ",
"                                                                                                                                                                                                                                                                                                                                                                                                                                                                                                                                                                                                                                                                                                                                                                                                                                                                                                                                                                                                                                        ",
"                                                                                                                                                                                                                                                                                                                                                                                                                                                                                                                                                                                                                                                                                                                                                                                                                                                                                                                                                                                                                                        ",
"                                                                                                                                                                                                                                                                                                                                                                                                                                                                                                                                                                                                                                                                                                                                                                                                                                                                                                                                                                                                                                        ",
"                                                                                                                                                                                                                                                                                                                                                                                                                                                                                                                                                                                                                                                                                                                                                                                                                                                                                                                                                                                                                                        ",
"                                                                                                                                                                                                                                                                                                                                                                                                                                                                                                                                                                                                                                                                                                                                                                                                                                                                                                                                                                                                                                        ",
"                                                                                                                                                                                                                                                                                                                                                                                                                                                                                                                                                                                                                                                                                                                                                                                                                                                                                                                                                                                                                                        ",
"                                                                                                                                                                                                                                                                                                                                                                                                                                                                                                                                                                                                                                                                                                                                                                                                                                                                                                                                                                                                                                        ",
"                                                                                                                                                                                                                                                                                                                                                                                                                                                                                                                                                                                                                                                                                                                                                                                                                                                                                                                                                                                                                                        ",
"                                                                                                                                                                                                                                                                                                                                                                                                                                                                                                                                                                                                                                                                                                                                                                                                                                                                                                                                                                                                                                        ",
"                                                                                                                                                                                                                                                                                                                                                                                                                                                                                                                                                                                                                                                                                                                                                                                                                                                                                                                                                                                                                                        ",
"                                                                                                                                                                                                                                                                                                                                                                                                                                                                                                                                                                                                                                                                                                                                                                                                                                                                                                                                                                                                                                        ",
"                                                                                                                                                                                                                                                                                                                                                                                                                                                                                                                                                                                                                                                                                                                                                                                                                                                                                                                                                                                                                                        ",
"                                                                                                                                                                                                                                                                                                                                                                                                                                                                                                                                                                                                                                                                                                                                                                                                                                                                                                                                                                                                                                        ",
"                                                                                                                                                                                                                                                                                                                                                                                                                                                                                                                                                                                                                                                                                                                                                                                                                                                                                                                                                                                                                                        ",
"                                                                                                                                                                                                                                                                                                                                                                                                                                                                                                                                                                                                                                                                                                                                                                                                                                                                                                                                                                                                                                        ",
"                                                                                                                                                                                                                                                                                                                                                                                                                                                                                                                                                                                                                                                                                                                                                                                                                                                                                                                                                                                                                                        ",
"                                                                                                                                                                                                                                                                                                                                                                                                                                                                                                                                                                                                                                                                                                                                                                                                                                                                                                                                                                                                                                        ",
"                                                                                                                                                                                                                                                                                                                                                                                                                                                                                                                                                                                                                                                                                                                                                                                                                                                                                                                                                                                                                                        ",
"                                                                                                                                                                                                                                                                                                                                                                                                                                                                                                                                                                                                                                                                                                                                                                                                                                                                                                                                                                                                                                        ",
"                                                                                                                                                                                                                                                                                                                                                                                                                                                                                                                                                                                                                                                                                                                                                                                                                                                                                                                                                                                                                                        ",
"                                                                                                                                                                                                                                                                                                                                                                                                                                                                                                                                                                                                                                                                                                                                                                                                                                                                                                                                                                                                                                        ",
"                                                                                                                                                                                                                                                                                                                                                                                                                                                                                                                                                                                                                                                                                                                                                                                                                                                                                                                                                                                                                                        ",
"                                                                                                                                                                                                                                                                                                                                                                                                                                                                                                                                                                                                                                                                                                                                                                                                                                                                                                                                                                                                                                        ",
"                                                                                                                                                                                                                                                                                                                                                                                                                                                                                                                                                                                                                                                                                                                                                                                                                                                                                                                                                                                                                                        ",
"                                                                                                                                                                                                                                                                                                                                                                                                                                                                                                                                                                                                                                                                                                                                                                                                                                                                                                                                                                                                                                        ",
"                                                                                                                                                                                                                                                                                                                                                                                                                                                                                                                                                                                                                                                                                                                                                                                                                                                                                                                                                                                                                                        ",
"                                                                                                                                                                                                                                                                                                                                                                                                                                                                                                                                                                                                                                                                                                                                                                                                                                                                                                                                                                                                                                        ",
"                                                                                                                                                                                                                                                                                                                                                                                                                                                                                                                                                                                                                                                                                                                                                                                                                                                                                                                                                                                                                                        ",
"                                                                                                                                                                                                                                                                                                                                                                                                                                                                                                                                                                                                                                                                                                                                                                                                                                                                                                                                                                                                                                        ",
"                                                                                                                                                                                                                                                                                                                                                                                                                                                                                                                                                                                                                                                                                                                                                                                                                                                                                                                                                                                                                                        ",
"                                                                                                                                                                                                                                                                                                                                                                                                                                                                                                                                                                                                                                                                                                                                                                                                                                                                                                                                                                                                                                        ",
"                                                                                                                                                                                                                                                                                                                                                                                                                                                                                                                                                                                                                                                                                                                                                                                                                                                                                                                                                                                                                                        ",
"                                                                                                                                                                                                                                                                                                                                                                                                                                                                                                                                                                                                                                                                                                                                                                                                                                                                                                                                                                                                                                        ",
"                                                                                                                                                                                                                                                                                                                                                                                                                                                                                                                                                                                                                                                                                                                                                                                                                                                                                                                                                                                                                                        ",
"                                                                                                                                                                                                                                                                                                                                                                                                                                                                                                                                                                                                                                                                                                                                                                                                                                                                                                                                                                                                                                        ",
"                                                                                                                                                                                                                                                                                                                                                                                                                                                                                                                                                                                                                                                                                                                                                                                                                                                                                                                                                                                                                                        ",
"                                                                                                                                                                                                                                                                                                                                                                                                                                                                                                                                                                                                                                                                                                                                                                                                                                                                                                                                                                                                                                        ",
"                                                                                                                                                                                                                                                                                                                                                                                                                                                                                                                                                                                                                                                                                                                                                                                                                                                                                                                                                                                                                                        ",
"                                                                                                                                                                                                                                                                                                                                                                                                                                                                                                                                                                                                                                                                                                                                                                                                                                                                                                                                                                                                                                        ",
"                                                                                                                                                                                                                                                                                                                                                                                                                                                                                                                                                                                                                                                                                                                                                                                                                                                                                                                                                                                                                                        ",
"                                                                                                                                                                                                                                                                                                                                                                                                                                                                                                                                                                                                                                                                                                                                                                                                                                                                                                                                                                                                                                        ",
"                                                                                                                                                                                                                                                                                                                                                                                                                                                                                                                                                                                                                                                                                                                                                                                                                                                                                                                                                                                                                                        ",
"                                                                                                                                                                                                                                                                                                                                                                                                                                                                                                                                                                                                                                                                                                                                                                                                                                                                                                                                                                                                                                        ",
"                                                                                                                                                                                                                                                                                                                                                                                                                                                                                                                                                                                                                                                                                                                                                                                                                                                                                                                                                                                                                                        ",
"                                                                                                                                                                                                                                                                                                                                                                                                                                                                                                                                                                                                                                                                                                                                                                                                                                                                                                                                                                                                                                        ",
"                                                                                                                                                                                                                                                                                                                                                                                                                                                                                                                                                                                                                                                                                                                                                                                                                                                                                                                                                                                                                                        ",
"                                                                                                                                                                                                                                                                                                                                                                                                                                                                                                                                                                                                                                                                                                                                                                                                                                                                                                                                                                                                                                        ",
"                                                                                                                                                                                                                                                                                                                                                                                                                                                                                                                                                                                                                                                                                                                                                                                                                                                                                                                                                                                                                                        ",
"                                                                                                                                                                                                                                                                                                                                                                                                                                                                                                                                                                                                                                                                                                                                                                                                                                                                                                                                                                                                                                        ",
"                                                                                                                                                                                                                                                                                                                                                                                                                                                                                                                                                                                                                                                                                                                                                                                                                                                                                                                                                                                                                                        ",
"                                                                                                                                                                                                                                                                                                                                                                                                                                                                                                                                                                                                                                                                                                                                                                                                                                                                                                                                                                                                                                        ",
"                                                                                                                                                                                                                                                                                                                                                                                                                                                                                                                                                                                                                                                                                                                                                                                                                                                                                                                                                                                                                                        ",
"                                                                                                                                                                                                                                                                                                                                                                                                                                                                                                                                                                                                                                                                                                                                                                                                                                                                                                                                                                                                                                        ",
"                                                                                                                                                                                                                                                                                                                                                                                                                                                                                                                                                                                                                                                                                                                                                                                                                                                                                                                                                                                                                                        ",
"                                                                                                                                                                                                                                                                                                                                                                                                                                                                                                                                                                                                                                                                                                                                                                                                                                                                                                                                                                                                                                        ",
"                                                                                                                                                                                                                                                                                                                                                                                                                                                                                                                                                                                                                                                                                                                                                                                                                                                                                                                                                                                                                                        ",
"                                                                                                                                                                                                                                                                                                                                                                                                                                                                                                                                                                                                                                                                                                                                                                                                                                                                                                                                                                                                                                        ",
"                                                                                                                                                                                                                                                                                                                                                                                                                                                                                                                                                                                                                                                                                                                                                                                                                                                                                                                                                                                                                                        ",
"                                                                                                                                                                                                                                                                                                                                                                                                                                                                                                                                                                                                                                                                                                                                                                                                                                                                                                                                                                                                                                        ",
"                                                                                                                                                                                                                                                                                                                                                                                                                                                                                                                                                                                                                                                                                                                                                                                                                                                                                                                                                                                                                                        ",
"                                                                                                                                                                                                                                                                                                                                                                                                                                                                                                                                                                                                                                                                                                                                                                                                                                                                                                                                                                                                                                        ",
"                                                                                                                                                                                                                                                                                                                                                                                                                                                                                                                                                                                                                                                                                                                                                                                                                                                                                                                                                                                                                                        ",
"                                                                                                                                                                                                                                                                                                                                                                                                                                                                                                                                                                                                                                                                                                                                                                                                                                                                                                                                                                                                                                        ",
"                                                                                                                                                                                                                                                                                                                                                                                                                                                                                                                                                                                                                                                                                                                                                                                                                                                                                                                                                                                                                                        ",
"                                                                                                                                                                                                                                                                                                                                                                                                                                                                                                                                                                                                                                                                                                                                                                                                                                                                                                                                                                                                                                        ",
"                                                                                                                                                                                                                                                                                                                                                                                                                                                                                                                                                                                                                                                                                                                                                                                                                                                                                                                                                                                                                                        ",
"                                                                                                                                                                                                                                                                                                                                                                                                                                                                                                                                                                                                                                                                                                                                                                                                                                                                                                                                                                                                                                        ",
"                                                                                                                                                                                                                                                                                                                                                                                                                                                                                                                                                                                                                                                                                                                                                                                                                                                                                                                                                                                                                                        ",
"                                                                                                                                                                                                                                                                                                                                                                                                                                                                                                                                                                                                                                                                                                                                                                                                                                                                                                                                                                                                                                        ",
"                                                                                                                                                                                                                                                                                                                                                                                                                                                                                                                                                                                                                                                                                                                                                                                                                                                                                                                                                                                                                                        ",
"                                                                                                                                                                                                                                                                                                                                                                                                                                                                                                                                                                                                                                                                                                                                                                                                                                                                                                                                                                                                                                        ",
"                                                                                                                                                                                                                                                                                                                                                                                                                                                                                                                                                                                                                                                                                                                                                                                                                                                                                                                                                                                                                                        ",
"                                                                                                                                                                                                                                                                                                                                                                                                                                                                                                                                                                                                                                                                                                                                                                                                                                                                                                                                                                                                                                        ",
"                                                                                                                                                                                                                                                                                                                                                                                                                                                                                                                                                                                                                                                                                                                                                                                                                                                                                                                                                                                                                                        ",
"                                                                                                                                                                                                                                                                                                                                                                                                                                                                                                                                                                                                                                                                                                                                                                                                                                                                                                                                                                                                                                        ",
"                                                                                                                                                                                                                                                                                                                                                                                                                                                                                                                                                                                                                                                                                                                                                                                                                                                                                                                                                                                                                                        ",
"                                                                                                                                                                                                                                                                                                                                                                                                                                                                                                                                                                                                                                                                                                                                                                                                                                                                                                                                                                                                                                        ",
"                                                                                                                                                                                                                                                                                                                                                                                                                                                                                                                                                                                                                                                                                                                                                                                                                                                                                                                                                                                                                                        ",
"                                                                                                                                                                                                                                                                                                                                                                                                                                                                                                                                                                                                                                                                                                                                                                                                                                                                                                                                                                                                                                        ",
"                                                                                                                                                                                                                                                                                                                                                                                                                                                                                                                                                                                                                                                                                                                                                                                                                                                                                                                                                                                                                                        ",
"                                                                                                                                                                                                                                                                                                                                                                                                                                                                                                                                                                                                                                                                                                                                                                                                                                                                                                                                                                                                                                        ",
"                                                                                                                                                                                                                                                                                                                                                                                                                                                                                                                                                                                                                                                                                                                                                                                                                                                                                                                                                                                                                                        ",
"                                                                                                                                                                                                                                                                                                                                                                                                                                                                                                                                                                                                                                                                                                                                                                                                                                                                                                                                                                                                                                        ",
"                                                                                                                                                                                                                                                                                                                                                                                                                                                                                                                                                                                                                                                                                                                                                                                                                                                                                                                                                                                                                                        ",
"                                                                                                                                                                                                                                                                                                                                                                                                                                                                                                                                                                                                                                                                                                                                                                                                                                                                                                                                                                                                                                        ",
"                                                                                                                                                                                                                                                                                                                                                                                                                                                                                                                                                                                                                                                                                                                                                                                                                                                                                                                                                                                                                                        ",
"                                                                                                                                                                                                                                                                                                                                                                                                                                                                                                                                                                                                                                                                                                                                                                                                                                                                                                                                                                                                                                        ",
"                                                                                                                                                                                                                                                                                                                                                                                                                                                                                                                                                                                                                                                                                                                                                                                                                                                                                                                                                                                                                                        ",
"                                                                                                                                                                                                                                                                                                                                                                                                                                                                                                                                                                                                                                                                                                                                                                                                                                                                                                                                                                                                                                        ",
"                                                                                                                                                                                                                                                                                                                                                                                                                                                                                                                                                                                                                                                                                                                                                                                                                                                                                                                                                                                                                                        ",
"                                                                                                                                                                                                                                                                                                                                                                                                                                                                                                                                                                                                                                                                                                                                                                                                                                                                                                                                                                                                                                        ",
"                                                                                                                                                                                                                                                                                                                                                                                                                                                                                                                                                                                                                                                                                                                                                                                                                                                                                                                                                                                                                                        ",
"                                                                                                                                                                                                                                                                                                                                                                                                                                                                                                                                                                                                                                                                                                                                                                                                                                                                                                                                                                                                                                        ",
"                                                                                                                                                                                                                                                                                                                                                                                                                                                                                                                                                                                                                                                                                                                                                                                                                                                                                                                                                                                                                                        ",
"                                                                                                                                                                                                                                                                                                                                                                                                                                                                                                                                                                                                                                                                                                                                                                                                                                                                                                                                                                                                                                        ",
"                                                                                                                                                                                                                                                                                                                                                                                                                                                                                                                                                                                                                                                                                                                                                                                                                                                                                                                                                                                                                                        ",
"                                                                                                                                                                                                                                                                                                                                                                                                                                                                                                                                                                                                                                                                                                                                                                                                                                                                                                                                                                                                                                        ",
"                                                                                                                                                                                                                                                                                                                                                                                                                                                                                                                                                                                                                                                                                                                                                                                                                                                                                                                                                                                                                                        ",
"                                                                                                                                                                                                                                                                                                                                                                                                                                                                                                                                                                                                                                                                                                                                                                                                                                                                                                                                                                                                                                        ",
"                                                                                                                                                                                                                                                                                                                                                                                                                                                                                                                                                                                                                                                                                                                                                                                                                                                                                                                                                                                                                                        ",
"                                                                                                                                                                                                                                                                                                                                                                                                                                                                                                                                                                                                                                                                                                                                                                                                                                                                                                                                                                                                                                        ",
"                                                                                                                                                                                                                                                                                                                                                                                                                                                                                                                                                                                                                                                                                                                                                                                                                                                                                                                                                                                                                                        ",
"                                                                                                                                                                                                                                                                                                                                                                                                                                                                                                                                                                                                                                                                                                                                                                                                                                                                                                                                                                                                                                        ",
"                                                                                                                                                                                                                                                                                                                                                                                                                                                                                                                                                                                                                                                                                                                                                                                                                                                                                                                                                                                                                                        ",
"                                                                                                                                                                                                                                                                                                                                                                                                                                                                                                                                                                                                                                                                                                                                                                                                                                                                                                                                                                                                                                        ",
"                                                                                                                                                                                                                                                                                                                                                                                                                                                                                                                                                                                                                                                                                                                                                                                                                                                                                                                                                                                                                                        ",
"                                                                                                                                                                                                                                                                                                                                                                                                                                                                                                                                                                                                                                                                                                                                                                                                                                                                                                                                                                                                                                        ",
"                                                                                                                                                                                                                                                                                                                                                                                                                                                                                                                                                                                                                                                                                                                                                                                                                                                                                                                                                                                                                                        ",
"                                                                                                                                                                                                                                                                                                                                                                                                                                                                                                                                                                                                                                                                                                                                                                                                                                                                                                                                                                                                                                        ",
"                                                                                                                                                                                                                                                                                                                                                                                                                                                                                                                                                                                                                                                                                                                                                                                                                                                                                                                                                                                                                                        ",
"                                                                                                                                                                                                                                                                                                                                                                                                                                                                                                                                                                                                                                                                                                                                                                                                                                                                                                                                                                                                                                        ",
"                                                                                                                                                                                                                                                                                                                                                                                                                                                                                                                                                                                                                                                                                                                                                                                                                                                                                                                                                                                                                                        ",
"                                                                                                                                                                                                                                                                                                                                                                                                                                                                                                                                                                                                                                                                                                                                                                                                                                                                                                                                                                                                                                        ",
"                                                                                                                                                                                                                                                                                                                                                                                                                                                                                                                                                                                                                                                                                                                                                                                                                                                                                                                                                                                                                                        ",
"                                                                                                                                                                                                                                                                                                                                                                                                                                                                                                                                                                                                                                                                                                                                                                                                                                                                                                                                                                                                                                        ",
"                                                                                                                                                                                                                                                                                                                                                                                                                                                                                                                                                                                                                                                                                                                                                                                                                                                                                                                                                                                                                                        ",
"                                                                                                                                                                                                                                                                                                                                                                                                                                                                                                                                                                                                                                                                                                                                                                                                                                                                                                                                                                                                                                        ",
"                                                                                                                                                                                                                                                                                                                                                                                                                                                                                                                                                                                                                                                                                                                                                                                                                                                                                                                                                                                                                                        ",
"                                                                                                                                                                                                                                                                                                                                                                                                                                                                                                                                                                                                                                                                                                                                                                                                                                                                                                                                                                                                                                        ",
"                                                                                                                                                                                                                                                                                                                                                                                                                                                                                                                                                                                                                                                                                                                                                                                                                                                                                                                                                                                                                                        ",
"                                                                                                                                                                                                                                                                                                                                                                                                                                                                                                                                                                                                                                                                                                                                                                                                                                                                                                                                                                                                                                        ",
"                                                                                                                                                                                                                                                                                                                                                                                                                                                                                                                                                                                                                                                                                                                                                                                                                                                                                                                                                                                                                                        ",
"                                                                                                                                                                                                                                                                                                                                                                                                                                                                                                                                                                                                                                                                                                                                                                                                                                                                                                                                                                                                                                        ",
"                                                                                                                                                                                                                                                                                                                                                                                                                                                                                                                                                                                                                                                                                                                                                                                                                                                                                                                                                                                                                                        ",
"                                                                                                                                                                                                                                                                                                                                                                                                                                                                                                                                                                                                                                                                                                                                                                                                                                                                                                                                                                                                                                        ",
"                                                                                                                                                                                                                                                                                                                                                                                                                                                                                                                                                                                                                                                                                                                                                                                                                                                                                                                                                                                                                                        ",
"                                                                                                                                                                                                                                                                                                                                                                                                                                                                                                                                                                                                                                                                                                                                                                                                                                                                                                                                                                                                                                        ",
"                                                                                                                                                                                                                                                                                                                                                                                                                                                                                                                                                                                                                                                                                                                                                                                                                                                                                                                                                                                                                                        ",
"                                                                                                                                                                                                                                                                                                                                                                                                                                                                                                                                                                                                                                                                                                                                                                                                                                                                                                                                                                                                                                        ",
"                                                                                                                                                                                                                                                                                                                                                                                                                                                                                                                                                                                                                                                                                                                                                                                                                                                                                                                                                                                                                                        ",
"                                                                                                                                                                                                                                                                                                                                                                                                                                                                                                                                                                                                                                                                                                                                                                                                                                                                                                                                                                                                                                        ",
"                                                                                                                                                                                                                                                                                                                                                                                                                                                                                                                                                                                                                                                                                                                                                                                                                                                                                                                                                                                                                                        ",
"                                                                                                                                                                                                                                                                                                                                                                                                                                                                                                                                                                                                                                                                                                                                                                                                                                                                                                                                                                                                                                        ",
"                                                                                                                                                                                                                                                                                                                                                                                                                                                                                                                                                                                                                                                                                                                                                                                                                                                                                                                                                                                                                                        ",
"                                                                                                                                                                                                                                                                                                                                                                                                                                                                                                                                                                                                                                                                                                                                                                                                                                                                                                                                                                                                                                        ",
"                                                                                                                                                                                                                                                                                                                                                                                                                                                                                                                                                                                                                                                                                                                                                                                                                                                                                                                                                                                                                                        ",
"                                                                                                                                                                                                                                                                                                                                                                                                                                                                                                                                                                                                                                                                                                                                                                                                                                                                                                                                                                                                                                        ",
"                                                                                                                                                                                                                                                                                                                                                                                                                                                                                                                                                                                                                                                                                                                                                                                                                                                                                                                                                                                                                                        ",
"                                                                                                                                                                                                                                                                                                                                                                                                                                                                                                                                                                                                                                                                                                                                                                                                                                                                                                                                                                                                                                        ",
"                                                                                                                                                                                                                                                                                                                                                                                                                                                                                                                                                                                                                                                                                                                                                                                                                                                                                                                                                                                                                                        ",
"                                                                                                                                                                                                                                                                                                                                                                                                                                                                                                                                                                                                                                                                                                                                                                                                                                                                                                                                                                                                                                        ",
"                                                                                                                                                                                                                                                                                                                                                                                                                                                                                                                                                                                                                                                                                                                                                                                                                                                                                                                                                                                                                                        ",
"                                                                                                                                                                                                                                                                                                                                                                                                                                                                                                                                                                                                                                                                                                                                                                                                                                                                                                                                                                                                                                        ",
"                                                                                                                                                                                                                                                                                                                                                                                                                                                                                                                                                                                                                                                                                                                                                                                                                                                                                                                                                                                                                                        ",
"                                                                                                                                                                                                                                                                                                                                                                                                                                                                                                                                                                                                                                                                                                                                                                                                                                                                                                                                                                                                                                        ",
"                                                                                                                                                                                                                                                                                                                                                                                                                                                                                                                                                                                                                                                                                                                                                                                                                                                                                                                                                                                                                                        ",
"                                                                                                                                                                                                                                                                                                                                                                                                                                                                                                                                                                                                                                                                                                                                                                                                                                                                                                                                                                                                                                        ",
"                                                                                                                                                                                                                                                                                                                                                                                                                                                                                                                                                                                                                                                                                                                                                                                                                                                                                                                                                                                                                                        ",
"                                                                                                                                                                                                                                                                                                                                                                                                                                                                                                                                                                                                                                                                                                                                                                                                                                                                                                                                                                                                                                        ",
"                                                                                                                                                                                                                                                                                                                                                                                                                                                                                                                                                                                                                                                                                                                                                                                                                                                                                                                                                                                                                                        ",
"                                                                                                                                                                                                                                                                                                                                                                                                                                                                                                                                                                                                                                                                                                                                                                                                                                                                                                                                                                                                                                        ",
"                                                                                                                                                                                                                                                                                                                                                                                                                                                                                                                                                                                                                                                                                                                                                                                                                                                                                                                                                                                                                                        ",
"                                                                                                                                                                                                                                                                                                                                                                                                                                                                                                                                                                                                                                                                                                                                                                                                                                                                                                                                                                                                                                        ",
"                                                                                                                                                                                                                                                                                                                                                                                                                                                                                                                                                                                                                                                                                                                                                                                                                                                                                                                                                                                                                                        ",
"                                                                                                                                                                                                                                                                                                                                                                                                                                                                                                                                                                                                                                                                                                                                                                                                                                                                                                                                                                                                                                        ",
"                                                                                                                                                                                                                                                                                                                                                                                                                                                                                                                                                                                                                                                                                                                                                                                                                                                                                                                                                                                                                                        ",
"                                                                                                                                                                                                                                                                                                                                                                                                                                                                                                                                                                                                                                                                                                                                                                                                                                                                                                                                                                                                                                        ",
"                                                                                                                                                                                                                                                                                                                                                                                                                                                                                                                                                                                                                                                                                                                                                                                                                                                                                                                                                                                                                                        ",
"                                                                                                                                                                                                                                                                                                                                                                                                                                                                                                                                                                                                                                                                                                                                                                                                                                                                                                                                                                                                                                        ",
"                                                                                                                                                                                                                                                                                                                                                                                                                                                                                                                                                                                                                                                                                                                                                                                                                                                                                                                                                                                                                                        ",
"                                                                                                                                                                                                                                                                                                                                                                                                                                                                                                                                                                                                                                                                                                                                                                                                                                                                                                                                                                                                                                        ",
"                                                                                                                                                                                                                                                                                                                                                                                                                                                                                                                                                                                                                                                                                                                                                                                                                                                                                                                                                                                                                                        ",
"                                                                                                                                                                                                                                                                                                                                                                                                                                                                                                                                                                                                                                                                                                                                                                                                                                                                                                                                                                                                                                        ",
"                                                                                                                                                                                                                                                                                                                                                                                                                                                                                                                                                                                                                                                                                                                                                                                                                                                                                                                                                                                                                                        ",
"                                                                                                                                                                                                                                                                                                                                                                                                                                                                                                                                                                                                                                                                                                                                                                                                                                                                                                                                                                                                                                        ",
"                                                                                                                                                                                                                                                                                                                                                                                                                                                                                                                                                                                                                                                                                                                                                                                                                                                                                                                                                                                                                                        ",
"                                                                                                                                                                                                                                                                                                                                                                                                                                                                                                                                                                                                                                                                                                                                                                                                                                                                                                                                                                                                                                        ",
"                                                                                                                                                                                                                                                                                                                                                                                                                                                                                                                                                                                                                                                                                                                                                                                                                                                                                                                                                                                                                                        ",
"                                                                                                                                                                                                                                                                                                                                                                                                                                                                                                                                                                                                                                                                                                                                                                                                                                                                                                                                                                                                                                        ",
"                                                                                                                                                                                                                                                                                                                                                                                                                                                                                                                                                                                                                                                                                                                                                                                                                                                                                                                                                                                                                                        ",
"                                                                                                                                                                                                                                                                                                                                                                                                                                                                                                                                                                                                                                                                                                                                                                                                                                                                                                                                                                                                                                        ",
"                                                                                                                                                                                                                                                                                                                                                                                                                                                                                                                                                                                                                                                                                                                                                                                                                                                                                                                                                                                                                                        ",
"                                                                                                                                                                                                                                                                                                                                                                                                                                                                                                                                                                                                                                                                                                                                                                                                                                                                                                                                                                                                                                        ",
"                                                                                                                                                                                                                                                                                                                                                                                                                                                                                                                                                                                                                                                                                                                                                                                                                                                                                                                                                                                                                                        ",
"                                                                                                                                                                                                                                                                                                                                                                                                                                                                                                                                                                                                                                                                                                                                                                                                                                                                                                                                                                                                                                        ",
"                                                                                                                                                                                                                                                                                                                                                                                                                                                                                                                                                                                                                                                                                                                                                                                                                                                                                                                                                                                                                                        ",
"                                                                                                                                                                                                                                                                                                                                                                                                                                                                                                                                                                                                                                                                                                                                                                                                                                                                                                                                                                                                                                        ",
"                                                                                                                                                                                                                                                                                                                                                                                                                                                                                                                                                                                                                                                                                                                                                                                                                                                                                                                                                                                                                                        ",
"                                                                                                                                                                                                                                                                                                                                                                                                                                                                                                                                                                                                                                                                                                                                                                                                                                                                                                                                                                                                                                        ",
"                                                                                                                                                                                                                                                                                                                                                                                                                                                                                                                                                                                                                                                                                                                                                                                                                                                                                                                                                                                                                                        ",
"                                                                                                                                                                                                                                                                                                                                                                                                                                                                                                                                                                                                                                                                                                                                                                                                                                                                                                                                                                                                                                        ",
"                                                                                                                                                                                                                                                                                                                                                                                                                                                                                                                                                                                                                                                                                                                                                                                                                                                                                                                                                                                                                                        ",
"                                                                                                                                                                                                                                                                                                                                                                                                                                                                                                                                                                                                                                                                                                                                                                                                                                                                                                                                                                                                                                        ",
"                                                                                                                                                                                                                                                                                                                                                                                                                                                                                                                                                                                                                                                                                                                                                                                                                                                                                                                                                                                                                                        ",
"                                                                                                                                                                                                                                                                                                                                                                                                                                                                                                                                                                                                                                                                                                                                                                                                                                                                                                                                                                                                                                        ",
"                                                                                                                                                                                                                                                                                                                                                                                                                                                                                                                                                                                                                                                                                                                                                                                                                                                                                                                                                                                                                                        ",
"                                                                                                                                                                                                                                                                                                                                                                                                                                                                                                                                                                                                                                                                                                                                                                                                                                                                                                                                                                                                                                        ",
"                                                                                                                                                                                                                                                                                                                                                                                                                                                                                                                                                                                                                                                                                                                                                                                                                                                                                                                                                                                                                                        ",
"                                                                                                                                                                                                                                                                                                                                                                                                                                                                                                                                                                                                                                                                                                                                                                                                                                                                                                                                                                                                                                        ",
"                                                                                                                                                                                                                                                                                                                                                                                                                                                                                                                                                                                                                                                                                                                                                                                                                                                                                                                                                                                                                                        ",
"                                                                                                                                                                                                                                                                                                                                                                                                                                                                                                                                                                                                                                                                                                                                                                                                                                                                                                                                                                                                                                        ",
"                                                                                                                                                                                                                                                                                                                                                                                                                                                                                                                                                                                                                                                                                                                                                                                                                                                                                                                                                                                                                                        ",
"                                                                                                                                                                                                                                                                                                                                                                                                                                                                                                                                                                                                                                                                                                                                                                                                                                                                                                                                                                                                                                        ",
"                                                                                                                                                                                                                                                                                                                                                                                                                                                                                                                                                                                                                                                                                                                                                                                                                                                                                                                                                                                                                                        ",
"                                                                                                                                                                                                                                                                                                                                                                                                                                                                                                                                                                                                                                                                                                                                                                                                                                                                                                                                                                                                                                        ",
"                                                                                                                                                                                                                                                                                                                                                                                                                                                                                                                                                                                                                                                                                                                                                                                                                                                                                                                                                                                                                                        ",
"                                                                                                                                                                                                                                                                                                                                                                                                                                                                                                                                                                                                                                                                                                                                                                                                                                                                                                                                                                                                                                        ",
"                                                                                                                                                                                                                                                                                                                                                                                                                                                                                                                                                                                                                                                                                                                                                                                                                                                                                                                                                                                                                                        ",
"                                                                                                                                                                                                                                                                                                                                                                                                                                                                                                                                                                                                                                                                                                                                                                                                                                                                                                                                                                                                                                        ",
"                                                                                                                                                                                                                                                                                                                                                                                                                                                                                                                                                                                                                                                                                                                                                                                                                                                                                                                                                                                                                                        ",
"                                                                                                                                                                                                                                                                                                                                                                                                                                                                                                                                                                                                                                                                                                                                                                                                                                                                                                                                                                                                                                        ",
"                                                                                                                                                                                                                                                                                                                                                                                                                                                                                                                                                                                                                                                                                                                                                                                                                                                                                                                                                                                                                                        ",
"                                                                                                                                                                                                                                                                                                                                                                                                                                                                                                                                                                                                                                                                                                                                                                                                                                                                                                                                                                                                                                        ",
"                                                                                                                                                                                                                                                                                                                                                                                                                                                                                                                                                                                                                                                                                                                                                                                                                                                                                                                                                                                                                                        ",
"                                                                                                                                                                                                                                                                                                                                                                                                                                                                                                                                                                                                                                                                                                                                                                                                                                                                                                                                                                                                                                        ",
"                                                                                                                                                                                                                                                                                                                                                                                                                                                                                                                                                                                                                                                                                                                                                                                                                                                                                                                                                                                                                                        ",
"                                                                                                                                                                                                                                                                                                                                                                                                                                                                                                                                                                                                                                                                                                                                                                                                                                                                                                                                                                                                                                        ",
"                                                                                                                                                                                                                                                                                                                                                                                                                                                                                                                                                                                                                                                                                                                                                                                                                                                                                                                                                                                                                                        ",
"                                                                                                                                                                                                                                                                                                                                                                                                                                                                                                                                                                                                                                                                                                                                                                                                                                                                                                                                                                                                                                        ",
"                                                                                                                                                                                                                                                                                                                                                                                                                                                                                                                                                                                                                                                                                                                                                                                                                                                                                                                                                                                                                                        ",
"                                                                                                                                                                                                                                                                                                                                                                                                                                                                                                                                                                                                                                                                                                                                                                                                                                                                                                                                                                                                                                        ",
"                                                                                                                                                                                                                                                                                                                                                                                                                                                                                                                                                                                                                                                                                                                                                                                                                                                                                                                                                                                                                                        ",
"                                                                                                                                                                                                                                                                                                                                                                                                                                                                                                                                                                                                                                                                                                                                                                                                                                                                                                                                                                                                                                        ",
"                                                                                                                                                                                                                                                                                                                                                                                                                                                                                                                                                                                                                                                                                                                                                                                                                                                                                                                                                                                                                                        ",
"                                                                                                                                                                                                                                                                                                                                                                                                                                                                                                                                                                                                                                                                                                                                                                                                                                                                                                                                                                                                                                        ",
"                                                                                                                                                                                                                                                                                                                                                                                                                                                                                                                                                                                                                                                                                                                                                                                                                                                                                                                                                                                                                                        ",
"                                                                                                                                                                                                                                                                                                                                                                                                                                                                                                                                                                                                                                                                                                                                                                                                                                                                                                                                                                                                                                        ",
"                                                                                                                                                                                                                                                                                                                                                                                                                                                                                                                                                                                                                                                                                                                                                                                                                                                                                                                                                                                                                                        ",
"                                                                                                                                                                                                                                                                                                                                                                                                                                                                                                                                                                                                                                                                                                                                                                                                                                                                                                                                                                                                                                        ",
"                                                                                                                                                                                                                                                                                                                                                                                                                                                                                                                                                                                                                                                                                                                                                                                                                                                                                                                                                                                                                                        ",
"                                                                                                                                                                                                                                                                                                                                                                                                                                                                                                                                                                                                                                                                                                                                                                                                                                                                                                                                                                                                                                        ",
"                                                                                                                                                                                                                                                                                                                                                                                                                                                                                                                                                                                                                                                                                                                                                                                                                                                                                                                                                                                                                                        ",
"                                                                                                                                                                                                                                                                                                                                                                                                                                                                                                                                                                                                                                                                                                                                                                                                                                                                                                                                                                                                                                        ",
"                                                                                                                                                                                                                                                                                                                                                                                                                                                                                                                                                                                                                                                                                                                                                                                                                                                                                                                                                                                                                                        ",
"                                                                                                                                                                                                                                                                                                                                                                                                                                                                                                                                                                                                                                                                                                                                                                                                                                                                                                                                                                                                                                        ",
"                                                                                                                                                                                                                                                                                                                                                                                                                                                                                                                                                                                                                                                                                                                                                                                                                                                                                                                                                                                                                                        ",
"                                                                                                                                                                                                                                                                                                                                                                                                                                                                                                                                                                                                                                                                                                                                                                                                                                                                                                                                                                                                                                        ",
"                                                                                                                                                                                                                                                                                                                                                                                                                                                                                                                                                                                                                                                                                                                                                                                                                                                                                                                                                                                                                                        ",
"                                                                                                                                                                                                                                                                                                                                                                                                                                                                                                                                                                                                                                                                                                                                                                                                                                                                                                                                                                                                                                        ",
"                                                                                                                                                                                                                                                                                                                                                                                                                                                                                                                                                                                                                                                                                                                                                                                                                                                                                                                                                                                                                                        ",
"                                                                                                                                                                                                                                                                                                                                                                                                                                                                                                                                                                                                                                                                                                                                                                                                                                                                                                                                                                                                                                        ",
"                                                                                                                                                                                                                                                                                                                                                                                                                                                                                                                                                                                                                                                                                                                                                                                                                                                                                                                                                                                                                                        ",
"                                                                                                                                                                                                                                                                                                                                                                                                                                                                                                                                                                                                                                                                                                                                                                                                                                                                                                                                                                                                                                        ",
"                                                                                                                                                                                                                                                                                                                                                                                                                                                                                                                                                                                                                                                                                                                                                                                                                                                                                                                                                                                                                                        ",
"                                                                                                                                                                                                                                                                                                                                                                                                                                                                                                                                                                                                                                                                                                                                                                                                                                                                                                                                                                                                                                        ",
"                                                                                                                                                                                                                                                                                                                                                                                                                                                                                                                                                                                                                                                                                                                                                                                                                                                                                                                                                                                                                                        ",
"                                                                                                                                                                                                                                                                                                                                                                                                                                                                                                                                                                                                                                                                                                                                                                                                                                                                                                                                                                                                                                        ",
"                                                                                                                                                                                                                                                                                                                                                                                                                                                                                                                                                                                                                                                                                                                                                                                                                                                                                                                                                                                                                                        ",
"                                                                                                                                                                                                                                                                                                                                                                                                                                                                                                                                                                                                                                                                                                                                                                                                                                                                                                                                                                                                                                        ",
"                                                                                                                                                                                                                                                                                                                                                                                                                                                                                                                                                                                                                                                                                                                                                                                                                                                                                                                                                                                                                                        ",
"                                                                                                                                                                                                                                                                                                                                                                                                                                                                                                                                                                                                                                                                                                                                                                                                                                                                                                                                                                                                                                        ",
"                                                                                                                                                                                                                                                                                                                                                                                                                                                                                                                                                                                                                                                                                                                                                                                                                                                                                                                                                                                                                                        ",
"                                                                                                                                                                                                                                                                                                                                                                                                                                                                                                                                                                                                                                                                                                                                                                                                                                                                                                                                                                                                                                        ",
"                                                                                                                                                                                                                                                                                                                                                                                                                                                                                                                                                                                                                                                                                                                                                                                                                                                                                                                                                                                                                                        ",
"                                                                                                                                                                                                                                                                                                                                                                                                                                                                                                                                                                                                                                                                                                                                                                                                                                                                                                                                                                                                                                        ",
"                                                                                                                                                                                                                                                                                                                                                                                                                                                                                                                                                                                                                                                                                                                                                                                                                                                                                                                                                                                                                                        ",
"                                                                                                                                                                                                                                                                                                                                                                                                                                                                                                                                                                                                                                                                                                                                                                                                                                                                                                                                                                                                                                        ",
"                                                                                                                                                                                                                                                                                                                                                                                                                                                                                                                                                                                                                                                                                                                                                                                                                                                                                                                                                                                                                                        ",
"                                                                                                                                                                                                                                                                                                                                                                                                                                                                                                                                                                                                                                                                                                                                                                                                                                                                                                                                                                                                                                        ",
"                                                                                                                                                                                                                                                                                                                                                                                                                                                                                                                                                                                                                                                                                                                                                                                                                                                                                                                                                                                                                                        ",
"                                                                                                                                                                                                                                                                                                                                                                                                                                                                                                                                                                                                                                                                                                                                                                                                                                                                                                                                                                                                                                        ",
"                                                                                                                                                                                                                                                                                                                                                                                                                                                                                                                                                                                                                                                                                                                                                                                                                                                                                                                                                                                                                                        ",
"                                                                                                                                                                                                                                                                                                                                                                                                                                                                                                                                                                                                                                                                                                                                                                                                                                                                                                                                                                                                                                        ",
"                                                                                                                                                                                                                                                                                                                                                                                                                                                                                                                                                                                                                                                                                                                                                                                                                                                                                                                                                                                                                                        ",
"                                                                                                                                                                                                                                                                                                                                                                                                                                                                                                                                                                                                                                                                                                                                                                                                                                                                                                                                                                                                                                        ",
"                                                                                                                                                                                                                                                                                                                                                                                                                                                                                                                                                                                                                                                                                                                                                                                                                                                                                                                                                                                                                                        ",
"                                                                                                                                                                                                                                                                                                                                                                                                                                                                                                                                                                                                                                                                                                                                                                                                                                                                                                                                                                                                                                        ",
"                                                                                                                                                                                                                                                                                                                                                                                                                                                                                                                                                                                                                                                                                                                                                                                                                                                                                                                                                                                                                                        ",
"                                                                                                                                                                                                                                                                                                                                                                                                                                                                                                                                                                                                                                                                                                                                                                                                                                                                                                                                                                                                                                        ",
"                                                                                                                                                                                                                                                                                                                                                                                                                                                                                                                                                                                                                                                                                                                                                                                                                                                                                                                                                                                                                                        ",
"                                                                                                                                                                                                                                                                                                                                                                                                                                                                                                                                                                                                                                                                                                                                                                                                                                                                                                                                                                                                                                        ",
"                                                                                                                                                                                                                                                                                                                                                                                                                                                                                                                                                                  r f           r r t                                                                                                                                                                                                                                                                                                                                                                                                                                                   ",
"                                                                                                                                                                                                                                                                                                                                                                                                                                                                                                                                                                  s d           t t t                                                                                                                                                                                                                                                                                                                                                                                                                                                   ",
"                                                                                                                                                                                                                                                                                                                                                                                                                                                                                                                                                                  f ~         % t % q                                                                                                                                                                                                                                                                                                                                                                                                                                                   ",
"                                                                                                                                                                                                                                                                                                                                                                                                                                                                                                                                                                  f ~         q f t t                                                                                                                                                                                                                                                                                                                                                                                                                                                   ",
"                                                                                                                                                                                                                                                                                                                                                                                                                                                                                                                                                                  d ~ t t t t f d t s                                                                                                                                                                                                                                                                                                                                                                                                                                                   ",
"                                                                                                                                                                                                                                                                                                                                                                                                                                                                                                                                                                  f d t r t r s f r s                                                                                                                                                                                                                                                                                                                                                                                                                                                   ",
"                                                                                                                                                                                                                                                                                                                                                                                                                                                                                                                                                                O d ~ f f d s q < > %                                                                                                                                                                                                                                                                                                                                                                                                                                                   ",
"                                                                                                                                                                                                                                                                                                                                                                                                                                                                                                                                                              o * d ^ d f N d r q % >                                                                                                                                                                                                                                                                                                                                                                                                                                                   ",
"                                                                                                                                                                                                                                                                                                                                                                                                                                                                                                                                                      FXMXPXSXi e v ^ / / ^ ^ ~ K f g                                                                                                                                                                                                                                                                                                                                                                                                                                                   ",
"                                                                                                                                                                                                                                                                                                                                                                                                                                                                                                                                                      MXBXBXMXJ a f v / / / / ^ v a a P                                                                                                                                                                                                                                                                                                                                                                                                                                                 ",
"                                                                                                                                                                                                                                                                                                                                                                                                                                                                                                                                                      BXrXeXBXj a v / / / ( ] L 7 7 3 n.rXqXqXeXBX                                                                                                                                                                                                                                                                                                                                                                                                                                      ",
"                                                                                                                                                                                                                                                                                                                                                                                                                                                                                                                                                      rXoXqXrX9.9.9.9.q.q.9.9.6.E E T W.oXOX@X<XrXq.                                                                                                                                                                                                                                                                                                                                                                                                                                    ",
"                                                                                                                                                                                                                                                                                                                                                                                                                                                                                                                                                      rXqX<XoXeXCX#XR.E.].].].].G.].G.P.G.E..X<X3XVXVX9.                                                                                                                                                                                                                                                                                                                                                                                                                                ",
"                                                                                                                                                                                                                                                                                                                                                                                                                                                                                                                                                      oXOXXXXXuXuXuXXX}.}.}.|.}.|.(.].[..X3XW.wXwXkXBXT.                                                                                                                                                                                                                                                                                                                                                                                                                                ",
"                                                                                                                                                                                                                                                                                                                                                                                                                                                                                                                                              SXBXrXoXoX5X4X4X9XhX5X9X8X{.9XlX9X9XfXfXtXtXgXyXyXfXwXVXVXBXSXBX                                                                                                                                                                                                                                                                                                                                                                                                                          ",
"                                                                                                                                                                                                                                                                                                                                                                                                                                                                                                                                              DXyX.X].[.XXXX4X9XjX8XjX8X&X6X6X6X6XtXtXwXwXtXwXtXtXtXwXeXeXBXrXq.                                                                                                                                                                                                                                                                                                                                                                                                                        ",
"                                                                                                                                                                                                                                                                                                                                                                                                                                                                                                                                          MXCXyX5X'.).'.'.{.XX8X2X8XfXaX6X7X;X6X7XfXfXtXtXtXtXyXyXjXgXyXhXyXCXBXBX                                                                                                                                                                                                                                                                                                                                                                                                                      ",
"                                                                                                                                                                                                                                                                                                                                                                                                                                                                                                                                          SXyX5X@X(.(.'.(.{.XX2X8XjXjXaXaX7X-X-X6XaXfXfXfXyXyXyXyXgXdXdXfXtXZXSXSXi.                                                                                                                                                                                                                                                                                                                                                                                                                    ",
"                                                                                                                                                                                                                                                                                                                                                                                                                                                                                                                                          SXyXfX4X}.{.{._.|.@X,X1XjXzXzXaX6X&X,X&X6X8XtXfXuXuXuXyXyXwXtX8X<XCXrX7 y w                                                                                                                                                                                                                                                                                                                                                                                                                   ",
"                                                                                                                                                                                                                                                                                                                                                                                                                                                                                                                                          SXtXXX{.'.}.}._.'.'.].[.fXzXzXfX6X&X-X*X1X6X8XtXuXtXuXyXeXyXgX8X5XZX!.= 5 s g r                                                                                                                                                                                                                                                                                                                                                                                                               ",
"                                                                                                                                                                                                                                                                                                                                                                                                                                                                                                                                          VXwX8X8X6X8X8X6X8X<XwXqXgXhXzXzX7X;X|.;X;X6X8XfXdXdXgXeXeXwXtXtX8XgX^.8 5 g ! p                   q % %                                                                                                                                                                                                                                                                                                                                                                                       ",
"                                                                                                                                                                                                                                                                                                                                                                                                                                                                                                                                          VXtX6X6X2X2X2XwXqX!.MXmXMXrXtXzXzXlX;X;X;X-X6XaXfXtXeXVXyXtXtXdX2XgXrX8 4 d d >                   q q q -                                                                                                                                                                                                                                                                                                                                                                                     ",
"                                                                                                                                                                                                                                                                                                                                                                                                                                                                                                                                          VXjX4X5X8X2X2XqX!.NXNXNXNX!.tXjXzXzX6X-X;X:XsXfXjXyXBXeXeXdXfXwXwXgX^.5 r d d q o                 e e w <                                                                                                                                                                                                                                                                                                                                                                                     ",
"                                                                                                                                                                                                                                                                                                                                                                                                                                                                                                                                          VXjX6X5X5X2X2XqXmXj.j.j.j.mXrXDXvXzX9XlXsX:X:XsX8XuXyXyXyXjXfXkXwXjXrX; r d ^ 4 o !.SX            w q w <                                                                                                                                                                                                                                                                                                                                                                                     ",
"                                                                                                                                                                                                                                                                                                                                                                                                                                                                                                                                          BXwX6X5X5X8X2X2X!.mXj.f.s.h.mX#X8XzXzXzX8X-X;X;X6X9XuXyXuXlX9X8X2XuXrX7 9 d f 4 = T.#X            w - - -                                                                                                                                                                                                                                                                                                                                                                                     ",
"                                                                                                                                                                                                                                                                                                                                                                                                                                                                                                                                          ^.wX2X<X8X8X6X2XrXmXh.s.f.j.NX#X8XfXzXhX2X6X;X;X;X0X5XqXtXlXxX9X5X9X#X= 9 f s t = 9.!.mXMXMX]     - w - -                                                                                                                                                                                                                                                                                                                                                                                     ",
"                                                                                                                                                                                                                                                                                                                                                                                                                                                                                                                                          ^.rXwX,X8X8XsXpXqX!.h.j.s.j.NXoX-X7XfXCXCXzXaX:X;X7X,X<XtXzXlX9X{.].H.= q s d > $ ` i.Y.~.mX/ X X ; ; - w                                                                                                                                                                                                                                                                                                                                                                                     ",
"                                                                                                                                                                                                                                                                                                                                                                                                                                                                                                                                          ^.^.3X.X5X9X7XpX2XoX~.j.j.h.mX+X4XsXzXAXZXDXfX1X6X6X-X8XtX8X9X6X).J.R.j a % > > % ; : 7 : 6 ; ; y y ; @ -                                                                                                                                                                                                                                                                                                                                                                                     ",
"                                                                                                                                                                                                                                                                                                                                                                                                                                                                                                                                          rX/./..X<X9X7XsXsX,XoXi.h.mX!.<X6X6X8XqXCXAXyX2XsX:X-X4X@XXXXX2XJ.H.R.~.Y.5 X @ $ 6 6 7 6 ; ; ; ; ; w - w                                                                                                                                                                                                                                                                                                                                                                                     ",
"                                                                                                                                                                                                                                                                                                                                                                                                                                                                                                                                          rX/.I.E.<X0X6X6X6X1X3X!.!.#XXX3X1X1X8X,XCXPXPXDXjXsX6X-X{.{..XW.8.E E Y c b i a ^ f y i i ; y i w y u f a                                                                                                                                                                                                                                                                                                                                                                                     ",
"                                                                                                                                                                                                                                                                                                                                                                                                                                                                                                                                          wX/.C.F.<X4X4X6X6X*XpX2X1X6X6X2X2X2X1X8XdXgXDXDXZX1X4X-X{.P.8.9.[ L L L b v a i a u u a u y y y y w w u w                                                                                                                                                                                                                                                                                                                                                                                     ",
"                                                                                                                                                                                                                                                                                                                                                                                                                                                                                                                                          /.I.C.M.XX,X4X4X6X1X1X1X6X7X7X2X2X2X1XsXpXiXZXDXDXDXDX0X@XE.[ ` L / / L v v b a a a u u u w w w w w w w w e u a f f d ~ f                                                                                                                                                                                                                                                                                                                                                                     ",
"                                                                                                                                                                                                                                                                                                                                                                                                                                                                                                                                          ^.I.m.M.P.[.5X1X6XpXsX1X6X6X6X2X2X2X8XsXsXpXZXAXDXSXAX5X].E.Q ` K v v v v v b b i b i a g u r w w w w - w y u a a a a f s -                                                                                                                                                                                                                                                                                                                                                                   ",
"                                                                                                                                                                                                                                                                                                                                                                                                                                                                                                                                          ^.E.N.N.N.M.XX,X&X1X1X6X6X6X6X2X2X2X8XsXsXpXkXeXSXSXSX#XoX~.h x x x b v L v v v b v b f f f u y w w w w w e u a a a a u u e                                                                                                                                                                                                                                                                                                                                                                   ",
"                                                                                                                                                                                                                                                                                                                                                                                                                                                                                                                                          { 6.8.w.*.N..X<X1X8X1X4X4X1X2X5X5X6X8XiXiXiXiX3XVXSXSXBXBXQ.= 6 x i b b v v v f a v v f f a a i y w y w w w u f b a u u u e 4                                                                                                                                                                                                                                                                                                                                                                 ",
"                                                                                                                                                                                                                                                                                                                                                                                                                                                                                                                                          7 j 6.*.*.8.M.F.XX1X&X6X5X2X2X6X6X6X6X2X2XpXdXwXeXrXBXSXSXQ.= 6 b i b v v K v f f ~ ^ v v f u i 6 6 6 5 w y a v a u i u u w -                                                                                                                                                                                                                                                                                                                                                                 ",
"                                                                                                                                                                                                                                                                                                                                                                                                                                                                                                                                          ; j 0.N.N.N.8.w..X4X6X8X2X2X8X6X6X2X2XtX5X,X8X8X2X<XyXSXSX~.: = ; i i b b v v u a f v v v a i i 6 6 ; 5 w u f v v v v / / a $                                                                                                                                                                                                                                                                                                                                                                 ",
"                                                                                                                                                                                                                                                                                                                                                                                                                                                                                                                                          4 a q.8.*.N.w.w.[.{.6X8X2X2X2X2X2X2X2X<XuX8X8XaXaX1X5XqXBXBXY.{ o : b b a v v a a u i i i i i i 6 6 ; ; ; i u a a b v / ] v                                                                                                                                                                                                                                                                                                                                                                   ",
"                                                                                                                                                                                                                                                                                                                                                                                                                                                                                                                                          4 a { q.N.*.m.z.<.C.6X8X1X8X2X2X2X2X8X8X8X8X8X8XpX8X8XqXBXrXMXi.X 8 6 a v x a v v y u i i i i y i y y i i y a i i i x b b ; =                                                                                                                                                                                                                                                                                                                                                                 ",
"                                                                                                                                                                                                                                                                                                                                                                                                                                                                                                                                          4 5 x W 8.z.z.z.m.C.,X1X8X8X2X2X2X2X6X8X8X8X8X2X8X8X8XtXeXrXBX9.= = 7 6 x v x i a b i u i u i y y y y y 6 y i i i 7 7 6 i 6 7 i.~.                                                                                                                                                                                                                                                                                                                                                            ",
"                                                                                                                                                                                                                                                                                                                                                                                                                                                                                                                                          q 4 8 Z 8.N.m.z.m.m.C.[.8X2X2X2X2XpX8X8X8X6X6X2X8X8X2XgXeXrXBX~.[ x 8 7 i i b b b b i u u u u u u u a a a u i y y 6 6 6 i 6 = !.SX                                                                                                                                                                                                                                                                                                                                                            ",
"                                                                                                                                                                                                                                                                                                                                                                                                                                                                                                                                          < 5 y J 9.N.N.m.m.m.m.C.1X8X2X8X6X8X8X8X6X6X6X8X6X6X1X2XwX3X^.^.MX' : 8 6 i b L b i 6 i y y y u u a a f v a i 6 i y 6 6 i y 8 !.eXn.9.                                                                                                                                                                                                                                                                                                                                                        ",
"                                                                                                                                                                                                                                                                                                                                                                                                                                                                                                                                          % 4 y x [ 8.N.m.m.m.m.C.[.pX8X8X8X1X8X2X2X6X6X8X6X6X6X,X6X2X<XqXrXT.q.7 : 6 6 i i i i 6 6 6 6 i i i i i i 6 6 6 6 i i 6 w 5 8 !.yXCXBX                                                                                                                                                                                                                                                                                                                                                        ",
"                                                                                                                                                                                                                                                                                                                                                                                                                                                                                                                                          % - w a R [ N.m.m.m.C.N.C.,X6X8X9X6X8X2X2X2X6X6X6X6X6X6X7X7X8XtXqXBXSXJ : ; a y i 6 6 6 6 6 6 6 6 ; ; ; ; ; : 6 6 6 6 i a a 3 rXhXtXeXT.Y.                                                                                                                                                                                                                                                                                                                                                    ",
"                                                                                                                                                                                                                                                                                                                                                                                                                                                                                                                                          > w w y P R 8.N.z.m.m.N.8.G.,X6X6X8X8X2X2X2X6X7X7X6X6X;X7X;X*XXX5XqXBXY.{ 8 6 6 6 6 7 : : : : : ; ; ; ; ; ; 6 6 6 6 6 6 7 7 3 ^.gXeXCXBXBX                                                                                                                                                                                                                                                                                                                                                    ",
"                                                                                                                                                                                                                                                                                                                                                                                                                                                                                                                                          > < 5 a x P q.N.m.B.m.M.8.N.,X8X4XaX1X2X2X2X6X7X7X7X6X-X-X;X-X{.5X.XeXBXSXJ = = : = : 3 3 3 3 3 3 3 3 3 3 3 7 h 7 7 h h h l j eXeXgXrXwXrX6.'                                                                                                                                                                                                                                                                                                                                                 ",
"                                                                                                                                                                                                                                                                                                                                                                                                                                                                                                                                          < w w y v J E 8.C.C.B.N.8.#.#.,X6X6X6X2X2X2X6X7X7X6X6X*X*X*X-X-X4XOX3XrXBXSXSXBX~.T.D.H.I.I.I.I.I.I.E.W.W.W.W.W.!.rXrX!.!.!.rXyXgXgXeXgXqXrXSX                                                                                                                                                                                                                                                                                                                                                ",
"                                                                                                                                                                                                                                                                                                                                                                                                                                                                                                                                          q u u f v x J 0.M.m.m.N.8.@.@.P.3X4X6X2X2X2X6X7X7X7X6X&X&X-X-X-X4X4X<XwXVXSXVXVX!.E.P.}.}.*X}.*X*X&X&X&X,X,X,X,X,X2X<XoXoX#XqXgXCXAXgXyXyXyX#X                                                                                                                                                                                                                                                                                                                                                ",
"                                                                                                                                                                                                                                                                                                                                                                                                                                                                                                                                          t u f f v x J 7.D.G.C.M.%.E Q 8.F.3X8X6X2X2X6X7X;X7X7X-X-X-X-X;X-X4X,X2XwXCXgXAXeXwX8X4X6X6X6X6X6X6X6XpX8XtXtXtXtXtXyXyXyXyXyXhXhXjXAXyXeXyXeXBXBX                                                                                                                                                                                                                                                                                                                                            ",
"                                                                                                                                                                                                                                                                                                                                                                                                                                                                                                                                            g v f v v P J 8.N.8.r.@.R [ [ S..X4X2X2X6X8X7X7X7X7X-X-X-X;X;X-X-X4X1X2XtXwXhXCXhXfX6X7X6X6X6X6X6X6X6X8X8XtXwXqXwXwXZXAXCXCXgXhXyXgXAXeXyX#XqXrXE                                                                                                                                                                                                                                                                                                                                           ",
"                                                                                                                                                                                                                                                                                                                                                                                                                                                                                                                                              v v f a v J q.n.D.r.E Y R P 6.I.,X,X1X6X6X7X;X;X;X;X;X;X;X;X-X-X-X,X,X1X3XgXjXgXfX6X;X7X7X7X7X6X6X6X6X8XtXtXwXwXyXyXeXeXeXeXwXyXgXyXeXCXyXhXCXBXBX{                                                                                                                                                                                                                                                                                                                                       ",
"                                                                                                                                                                                                                                                                                                                                                                                                                                                                                                                                              4 u u u e a j k @.S.E J K 7 W S.XX4X4X6X8X7X;X;X;X;X;X;X;X;X=X=X-X-X-X&X{.tXdXgXfX6X7X7X6X7X6X6X4X6X8XtXtXtXyXyXyXCXCXVXeXrXrXyXyXhXyXCXZXZXyXCXrX~.                                                                                                                                                                                                                                                                                                                                      ",
"                                                                                                                                                                                                                                                                                                                                                                                                                                                                                                                                                  a f s f a h 6.y.E P K a P 8.].5X8X8X8X7X7X;X;X;X;X;X=X=X=X-X-X-X|.|.{.6X5X9XfX8XsXsX8X8X6X6X6XhXZXZXAXAXAXAXAXZXZXCXCXVXBXyXyX5XuXhXAXCXeXCXBXBXSX                                                                                                                                                                                                                                                                                                                                    ",
"                                                                                                                                                                                                                                                                                                                                                                                                                                                                                                                                                  r r p q a h 6.y.E L K x P 8. X5X8X8X7X7X;X;X;X;X;X;X=X*X*X&X-X-X=X=X|.-X{.8XfXfXfXjXjXjXhXzXzXZXZXZXAXCXCXCXAXZXCXCXCXCXCXCXZXzXzXDXAXAXCXCXCXVXBXQ.                                                                                                                                                                                                                                                                                                                                  ",
"                                                                                                                                                                                                                                                                                                                                                                                                                                                                                                                                                  p 9 t q y h 6.8.@.P K f x ` 0.oX8X9X6X;X>X>X;X;X;X=X-XG.S.F.}.|.=X%X>X=X&X6XfXfXdXgXZXkXZXDXDXZXZXZXZXZXZXZXZXZXZXCXCXZXZXZXZXZXZXZXZXAXAXAXAXAXSXSXSX                                                                                                                                                                                                                                                                                                                                ",
"                                                                                                                                                                                                                                                                                                                                                                                                                                                                                                                                                  s t t 5 8 3 6.0.Q P K K K ( [ E.1X6X-X;X;X%X;X;X;X;X|.u.8.r.G.'.`.%X>X=X-X-X6XtXgXCXAXkXhXhXhXhXhXhXZXhXhXZXZXhXhXhXhXhXhXhXhXhXhXZXCXAXCXAXZXAXCXBXSX                                                                                                                                                                                                                                                                                                                                ",
"                                                                                                                                                                                                                                                                                                                                                                                                                                                                                                                                                  f t e 8 j k @.0.' K K ! d f J H.,X;X-X;X;X-X;X;X;X;X{.u.7.8.F.P.'.%X`._.}.-X{.8XjXgXAXgXgXuXtX8XtXwXwXtXtXtXwXtX8X8X8XtXtXtX2XtXtXtXwXqXqXyXAXAXCXBXSX                                                                                                                                                                                                                                                                                                                                ",
"                                                                                                                                                                                                                                                                                                                                                                                                                                                                                                                                                e a w 5 8 Q r.r.@.R L ~ ! ! K L H.,X7X;X;X;X-X-X;X;X=X{.S.8.8.S.T | c._.|.=X;X{.aXhXZXCXgXtX5X9X8X8XwXwXtX8X8X2X8X8X8X8X8X8X8X8X8XtXtXwX2XwXgXZXAXCXCXSX                                                                                                                                                                                                                                                                                                                                ",
"                                                                                                                                                                                                                                                                                                                                                                                                                                                                                                                                            / v f f u y h 7.B.+.3 j L / ^ ~ f c R.5X7X6X;X;X;X;X;X;X=X{.M.8.*.r.W T B._._.}.|.{.fXhXZXAXjXtX8XfX8XtXtX8XuXuXuX8X8X8X8X8X8X8X8X8X8X8X8X8XtXtXhXhXCXgXCXSX                                                                                                                                                                                                                                                                                                                                ",
"                                                                                                                                                                                                                                                                                                                                                                                                                                                                                                                                          ] / b u f s f J N.x.3.D W ' L K ~ K P E.XX6X6X6X;X;X;X=X;X;X*XM.w.<.M.W W V.}._.|.|.{.6XtXZXZXhXtX8X9X8X8X8X8X8X8X8X8X6X6X8X8X8X8X8X8X8X6X6X6X6X8XtXtXtXyXCXSX                                                                                                                                                                                                                                                                                                                                ",
"                                                                                                                                                                                                                                                                                                                                                                                                                                                                                                                                          { { v v f s 5 h 8.3.(.B.r.0.Y / ^ d P R.{.-X6X6X:X;X;X%X;X;X=XL.L.Z.F.E R w.3.2._.=X;X&X1XjXZXjX8X9X9X8X8X8X8X9X9X8X8X8X8X8X8X8X8X8X8X8X8X8X8X8X8X8XtXtXqXCXVX                                                                                                                                                                                                                                                                                                                                ",
"                                                                                                                                                                                                                                                                                                                                                                                                                                                                                                                                          { { b v u d e 3 8.A.b.(.A.S.R L K f P R.}.{.6X8X1X-X7X=X%X%X%X*X*X}.G.E E w.2.4.|.=X=X{.,XgXZXjX8XfX9X8X8X8X8X8X8X8X8X8X8X8X8X8X8X8X8X8X8X8X8X8X8X8X8X8X<XAXVXT.                                                                                                                                                                                                                                                                                                                              ",
"                                                                                                                                                                                                                                                                                                                                                                                                                                                                                                                          mXmXQ.MX~.i.9.{ K L v s f s w 7 q.y.(._._.M.W R K K P J.'.].8X3X2X9X7X=X%X%X%X%X%X%X(.|  .e.2.-.}.;X=X&X,XgXjXjXdX8X9X8X8X8XpXpXpX8X8X8X8X8X8X8X8X8X8X8X8X8X8X8X8X8X8X2XtXAXVXBX~.                                                                                                                                                                                                                                                                                                                            ",
"                                                                                                                                                                                                                                                                                                                                                                                                                                                                                                                          SXBXBXCX!.~.Y.9.` L v v f d f a h 3 D _.(.C.8.9.3 = E G.).].wX3XwX8X8X*X=X%X%X%X%X%X_.:.w.).1.;.}.;X=X&X,XgXjXjXdX8X8X8XtXdXdXpXpX8X8X8X8X8X8X8X8X8X8X8X8X8X8X8X8X8X8X8XtXgXCXVXBX                                                                                                                                                                                                                                                                                                                            ",
"                                                                                                                                                                                                                                                                                                                                                                                                                                                                                                                          SXSXBXBX!.!.~.T.0.9.9.` / / v v 5 X J }._.{.S.y.k l H )._.L.wXrXqX5X8X4X;X%X%X%X%X%X%X}.}.}.,.=.'.=X=X&X,XdXjXgXdX8X8X8X8X8X8X8X8X8X8X8X8X8X8X8X8X8X8X8X8X8X8X8X8XpX8X2X8XgXAXeXBX                                                                                                                                                                                                                                                                                                                            ",
"                                                                                                                                                                                                                                                                                                                                                                                                                                                                                                                          PXAXVXCXW.W.W.R.D.y.0.' ' ` b b 7 = J G.c.}.].P.G G 5._.`.}.6X2X<X5X5X6XsX%X%X%X%X%X%X|.|.|.x.l.}.=X;X*X&XdXgXgXdX8X8X8X8X8X8X8X8X8X8X8X8X8X8X8X8X8X8X8X8X8X8X8X8XpX8X8X8XtXZXgXeX0.                                                                                                                                                                                                                                                                                                                          ",
"                                                                                                                                                                                                                                                                                                                                                                                                                                                                                                                          PXDXZXCX<X8XtX5XuXoXoXR.T.T.y.7.7. .8.A._.'.G.).G G 5._.`.`.;X-X5X5X<X6X8X|.`.`.%X%X%X`.`.;X=X=X;X=X-X-X{.fXgXdX8XpXaX8X8X8X8X8X8X8X8X8X8X8X8X8X8X8X8X8X8X8X8X8X8XpX8X,XjXZXZXwXrXBXQ.                                                                                                                                                                                                                                                                                                                        ",
"                                                                                                                                                                                                                                                                                                                                                                                                                                                                                                                          PXAXCXZXtX8XfX9X9X<XOX+X+X+Xu.r.%.| %.$.e.Z.].}...X.5.c.`.`.%X|.;X5X<X2X8X*X=X`.`.%X%X%X%X;X;X;X;X=X=X=X{.fXdXdXfX9XaX8X8X8X8X8X8X8X8X8X8X8X8X8X8X8X8X8X8X8X8X8X8XpX8X2XdXgXhXjXtXeXBX                                                                                                                                                                                                                                                                                                                        ",
"                                                                                                                                                                                                                                                                                                                                                                                                                                                                                                                          PXAXZXZXwX3X8X2X8XtXuX.X X Xw.| z 3 = 3 @.G.].}.{.3X5.z.*X=X%X`.=X4X8XtXtX6X7X|.`.=X:X%X%X:X%X%X=X=X=X-X*XaXdXjXpX9X9XaXpXpXpXpXpXpXpX8X8X8X8X8X8X8X8X8X8X8X8XpXpXpX8X8XtXdXdXdXdXeXBX                                                                                                                                                                                                                                                                                                                        ",
"                                                                                                                                                                                                                                                                                                                                                                                                                                                                                                                          PXAXZXhXtX,XjXfXtXtX<X@X].].7. .l o = = @.u.G.}.{.&X&.m.}.*X=X`.|.;X9XtXtX8XaX|.`.=X=X%X%X;X;X%X=X;X=X;X-XaXfXjXpX8X9XaXaXpXpXpXpXpXdX8X8X8X8X8X8X8X8X8X8X8X8XpXpXpXpXdX2XdX2XdXZXAXBXY                                                                                                                                                                                                                                                                                                                       ",
"                                                                                                                                                                                                                                                                                                                                                                                                                                                                                                            { [ [ R Q Q W.CXuX5X4X&X4X6XfXjX9X5X@X].K. .I x 6 8 h @.K.(.{.|.;X=X{.}.}._.}.}.`.>X9XtXpX6X|.=X=X=X%X;X%X%X|.|.;X;X;X-XaXfXdX8X8XpXaXaXaXaXpXpX2XwXtX8X8XpXpX8X8X8X8X8X8X8XpXpXpXpXpXpXpXpXgXZXCXeXeX!.9.                                                                                                                                                                                                                                                                                                                  ",
"                                                                                                                                                                                                                                                                                                                                                                                                                                                                                                            !.BXrX^.rXrXgXhXXX}.|.|.,X6X8XjX9X4X{.K.y.E c i 5 6 7 [ K.(.|.|.%X%X|._.}.U.H.oX(.`.9XtX8XfXaXxX|.=X;X;X;X%X|.|.=X;X;X-X9XaXfXdXfXpXpXsX6XaXfXgXgXgXtXuX8X8XpXpXpXpX8X8X8X8X8XpXpXpXpXpXpXpXgXCXVXeXqXCXT.                                                                                                                                                                                                                                                                                                                  ",
"                                                                                                                                                                                                                                                                                                                                                                                                                                                                                                            MXVXrXeXVXgXwX2XXX{.|.|.6X8XfXjX9X5XXXu.8.W x 6 ; 5 = R w.t.}.|.|.`.`._.}.I.Y.MXR.G.8XpX2XtXfX9X}.|.;X:X;X=X|.=X;X;X-X&X6XpXdXZXgXdXpX8X8XfXjXAXVXVXgXtXtX8XaX8X8XpX8XtXtXtXtX8X8XpXpX8X8XtXjXAXAXAXtX<X#XQ.Y.                                                                                                                                                                                                                                                                                                              ",
"                                                                                                                                                                                                                                                                                                                                                                                                                                                                                                            BXrXeXkXwXwXL.'.).(.|.-XaXfXjXjX9X5X].r.7.Y j 6 - 5 8 R %.2._.|.|.`.`._._.H.Y.NXmX~.3XsXtXdX8XtX.X,X:X:X=X=X=X=X=X;X=X&X1XpXdXDXhXdXdXtXtXtXgXCXBXeXjXdXtX8X9X8X8X8XtXtXwXwXtXtX8X8XfX8X8XtXkXCXCXgX<XuXoX!.Y.                                                                                                                                                                                                                                                                                                              ",
"                                                                                                                                                                                                                                                                                                                                                                                                                                                                                                            BXCXgXgXkXdX[.&X{.(.-X;XlXzXfXfX8XXX Xy.0.R x 6 w 6 7 R @.$.A.(.`.`.`.`.`.S.i.NXnXNXy.A.}.aX6XtXwXwX&X;X;X;X;X;X=X=X=X-X1XpXkXDXAXCXAXZXZXZXCXAXCXCXjXdXdXfXfXfXfXfXdXdXkXwXtXtXuXuXuXuXtXyXkXVXVXeX<X5X{. XW.~.                                                                                                                                                                                                                                                                                                            ",
"                                                                                                                                                                                                                                                                                                                                                                                                                                                                                                            BXyXgXjXgXjX}.{.}.(.-X4XlXjXfXfX5XXX$Xy.0.Y x w - 5 7 W %.+.-.2.b.`.`.`.`.G.i.NXbXf.mXR.=XlX6XtXwX2X{.|.=X;X;X=X=X=X=X=X:XpXdXZXAXCXCXAXAXAXCXCXCXCXZXZXZXhXzXzXzXZXZXZXAXAXAXAXAXAXZXZXZXAXSXSXSXCX<X8X4XXXOX#XT.                                                                                                                                                                                                                                                                                                          ",
"                                                                                                                                                                                                                                                                                                                                                                                                                                                                                                            rXyXeXgX2X8X'.}.|.-X7X7XaXfXfXfX4X Xu.7.' b i - - 5 7 W %.-.-.;.(.`.`.`.`.).i.GXbXd.GXh.{.>X;X9XfXfX{.|.|.`.=X:X=X=X%X=X;XaX8XZXVXCXSXSXAXAXAXAXAXZXZXZXCXgXyXyXCXAXVXVXVXVXSXSXSXSXBXBXrX!.T.T.R.D.w.*.V.G.J.!.~.                                                                                                                                                                                                                                                                                                          ",
"                                                                                                                                                                                                                                                                                                                                                                                                                                                                                                            ^.ZXCXhXwXtX{.}.|.-X7X7XaXaXfXfXXXJ.y.7.' x 5 < % 4 7 W %.-.O.$.A.(.`.`.cX(.i.KXHXd.f.s.Q.=X=XlX9X8X0X0XcX=X=X=X=X%X%X=X;XlX8XhXwXeXrXrXrXBXBXrXBXBXrXrX^.!.!.~.Q.!.Q.Q.Q.Q.Q.mXmXmXQ.Q.~.0.0.0.S.N.%.w.G.V. X!.~.                                                                                                                                                                                                                                                                                                          ",
"                                                                                                                                                                                                                                                                                                                                                                                                                                                                                                            BXCXyXyXoXXX'.(.-X4X;X9XlXzXfX8XXXJ.y.6.Y i w < > q 7 W %.-.%.#.$.2.b.`.b.(.i.LXKXk.f.d.NXmX_.>XaXuXuXxX7X=X|.=X;X%X=X%X|.7X}.{.V.w.8.7.E E R R ` R R R Y L / / / ( ( ( ( ( ( / ) ) ( L P c k T T @.%.*.V.G.].W.~.                                                                                                                                                                                                                                                                                                          ",
"                                                                                                                                                                                                                                                                                                                                                                                                                                                                                                            MXCXyXyXOXXX].L.-X4X7XaXlXfX9X,XP.u.7.R c 6 - # # $ 5 Y %.-.%.#.#.=.(._.cX(.p.LXLXk.d.f.f.NX/.:X&X5XuXuX7X;X|.|.=X%X=X=X|.;X_.).t.:.8.@.W R Y R ` R / / / / / / ( ( ) ( ( ) ) ) ) ) / v x c k E | $.8.w.F.G.E.W.T.                                                                                                                                                                                                                                                                                                          ",
"                                                                                                                                                                                                                                                                                                                                                                                                                                                                                                            MXCXyXyXOXXX].L.,X6X9XaXzXzXfX4XJ.u.7.R c y q % # @ 8 Y %.%.-.-.+.+.A.c.`.).i.LXKXk.d.f.f.j.mX3X;X7X9XuX8X-X;X=X=X|.|.|.|.|.(.A.-.$. .U Z J J c x x j x x a x a a a a a a a y u g s y 5 6 7 j U ..V.K.F.[..XoX!.~.                                                                                                                                                                                                                                                                                                          ",
"                                                                                                                                                                                                                                                                                                                                                                                                                                                                                                            BXCXeXuX.X].L.L.4X9X9XaXfXzXfX4XJ.y.6.Y c w < % & @ 8 Y @.$.-.-.-.+.+.3.cX(.i.j.f.d.HXHXHXk.NXQ.*X>X9XuX8X8X;X=X|.|.|.|.|.|.A.t.-.%.@.E Y J c j 7 7 7 7 7 7 7 a y y y u a w q w 4 5 ; ; ; : l I | K.J.J.XX.XoX!.T.                                                                                                                                                                                                                                                                                                          ",
"                                                                                                                                                                                                                                                                                                                                                                                                                                                                                                            SXCXyXuX].G.L.L.6XaX9X9XaXfX9XXXG.y.6.Y v w % & # $ = J  .$.2.2.4.-.+.3.b.(.i.GXf.d.HXHXk.k.GXi.A.>X;X9XpX8X7X=X{.{.|.|.`._.A.t.%.6.' Y / v B b b 1 i a i x x K x a s g p p f u 5 e ; ; ; = 7 I E K.G.G..XoXoX!.T.                                                                                                                                                                                                                                                                                                          ",
"                                                                                                                                                                                                                                                                                                                                                                                                                                                                                                    MXSXVXBXAXCXyXuX].).}.[.7XaX9X8XfXfX9XXXK.y.6.R K w < # # ; = J  .-.2.2.4.4.4.3.cX_.i.GXbXbXJXKXk.d.k.h.E._.%X7XpXpX7X*X*X{.|.|._.(.t.r.@.' ( d f B _ _ V V B B ^ ^ / / K d m m M M m p p f u i e 6 i J E E.P.P.<X3XrX!.~.                                                                                                                                                                                                                                                                                                          ",
"                                                                                                                                                                                                                                                                                                                                                                                                                                                                                                    BXrX^.VXVXZXhXhX].'.,X6X7XlXaXfXfXfX9X{.S.r.E J x 4 % # @ $ ; c  .$.e.2.4.4.4.4.v.A.Y.NXbXHXHXHXHXk.HXGXFXH._.>XxX9X7X4X;X=X=X|._.).r.8.E L ^ p 0 } s.s.s.s.s.j.NXNXNXNXNXs.s.s.g.g.M M V m u u e t 5 5 j D.E.E.<XoX!.Q.Y.                                                                                                                                                                                                                                                                                                          ",
"                                                                                                                                                                                                                                                                                                                                                                                                                                                                                                    BXgXCXAXAXAXhXhX{.].7X9XlXlXaXfXfXfX6XG.w.%.I c i ; % # @ $ = j U %.r.e.2.3.2.3.b.A.0.h.s.HXKXHXHXHXd.f.GXi.B.>X>XxX7X6X;X=X|.|.(.Z.w.7.Y K s 0 M GXGXKXKXJXJXIXUXUXUXUXUXIXIXJXKXHXf.f.s.M m s t t q ; h ~.E. XqX#X!.!.T.                                                                                                                                                                                                                                                                                                          ",
"                                                                                                                                                                                                                                                                                                                                                                                                                                                                                                    rXdXgXZXrXrXrXqX].}.xXxX7XaXfXaXzXzX6XG.:.%.I c j ; ; @ @ $ 5 h Z #.:.2.-.2.2.3.b.b.V.0.h.GXHXHXHXHXd.f.k.h.E.b.`.>X9XxX0X|.|.}.).K.7.p.Y K f 0 M f.k.k.KXJXIXIXUXUXUXUXIXIXIXJXKXKXf.f.k.M _ f g r q ; h ~.W.OXqXeX!.!.~.                                                                                                                                                                                                                                                                                                          ",
"                                                                                                                                                                                                                                                                                                                                                                                                                                                                                                    rXgXfXdX^.^.!.3XL.'.0XxX7XaXfXfXzXlX4X'.:.@.W c x ; $ @ @ @ o 7 Z @.e.).a.t.t.3.b.b.(.y.i.h.s.k.HXHXd.f.d.GX!.U.b.>X7X9X4X{.{._.(.u... .c x C 0 M HXd.k.JXJXIXIXIXUXUXIXIXIXIXJXJXJXbXf.f.g.} ~ s p t ; h ~.E.OX<X3XE.oXR.                                                                                                                                                                                                                                                                                                          ",
"                                                                                                                                                                                                                                                                                                                                                                                                                                                                                                    BXgXdXjX<XqX.X[.[.}.0XxXaXpXzXzXlXlX@X'.*. .I c x ; $ @ # # % y j @.e.}.).t.A.3.v.b.b.V.0.i.s.GXHXHXd.d.d.GXMXz.b.`.=X9X4X,X&X'.Z.t... .k j 4 O , k.d.d.HXHXJXJXJXJXJXJXJXJXJXJXJXHXbXd.d.s.s._ f s r ; 7 W.E.OXuXqXOXoXD.                                                                                                                                                                                                                                                                                                          ",
"                                                                                                                                                                                                                                                                                                                                                                                                                                                                                                    MXwX2X2X.XXXG.A.U.{.-X7X6X6XzXlXaXlX{.G.%. .k 7 6 $ @ # + + + o = W e.).K.t.V.1.c.v.c.A.u.i.h.GXGXHXd.d.d.KXMXm.b.b._.4X2X.X,XL.A.t...U l 3 4 > M k.HXd.HXHXHXHXKXKXGXGXGXbXbXf.bXbXf.d.d.f.} N g g t = 3 ~.E.].J.G.P..XqX!.MX                                                                                                                                                                                                                                                                                                      ",
"                                                                                                                                                                                                                                                                                                                                                                                                                                                                                                    BXwX2X8X[.[.Z.x.}.6X7X7XaXaXzXzXzX9X{.J.7.@.k 7 5 $ 2 & & O + . X W K.@X}.).Z.e.x.c.,.3.t.y.i.h.s.k.HXd.HXGXMXF._.b.(.6XZXgX.XC.m.e...U 3 = $ & , g.GXHXGXGXGXGXGXGXGXGXnXnXs.s.f.nXbXbXf.s._ f g p t 4 7 ~.J.].].].].].P.+X!.                                                                                                                                                                                                                                                                                                      ",
"                                                                                                                                                                                                                                                                                                                                                                                                                                                                                                    ^.rX2X8X].'.Z.1.'.-X-X4X6X8X6X9X9X].M.8. .W x 8 5 % 2 & & & + . X W S.4X}.).G.e.1.4.4.3.A.K.0.i.s.GXHXd.HXKXY.:.4.4.4.'.ZXkX.XV.e.w. .W : ; $ O , , , , , , , , , , , , , , , , , , , , , , < # % & # o 3 T.H.].].'.'.{.]. XOX#XMX                                                                                                                                                                                                                                                                                                  ",
"                                                                                                                                                                                                                                                                                                                                                                                                                                                                                                    ^.wX8X8XL.L.A.x.}.-X{.6X2XwXtXqXqXD.0.6.R L x 6 5 & + + & + + X X W F.xX0X}.].e.<.=.=.2.t.V.D.i.h.GXGXHXHXKXi.:.+.+.O.C.jXeX+Xe.e.w. .Y ; @ + % > # # , > > , , & + # + & O + O O O , > > < % # > & # $ 3 T.J.].].'.'.{.{.]. XE.!.                                                                                                                                                                                                                                                                                                  ",
"                                                                                                                                                                                                                                                                                                                                                                                                                                                                                                    !.3X[.'.m.3.x.1.}.}.'.<X^.^.^.~.T.0.9.R Y L K f s % & & % + + X X W F.9X@X}.].K.r.;.+.+.O.O.8.0.i.h.s.GXKXJX0.$.| O.O.V.gXrX Xt.t.:.E Y ; # d ! f v v u u s p p g u a r g s s a f s s s s u s s s t t 5 7 T.E. X].@X}.}.}.].XX XrX!.!.                                                                                                                                                                                                                                                                                              ",
"                                                                                                                                                                                                                                                                                                                                                                                                                                                                                                    ^.3XZ.}.x.3.3.c.A.F.H.0.Y.Y.~.Y.Y.9.9.L v / v s t # # & # + @ X o W N.lXlXxX@XK.V.*.O.O...O.r.y.~.Y.h.FXKXIX0.+.z D ..V.gXwX].B.x.,.| Y ; % m d K K v v f f d d f d d C C K K v v d m m d d d d d p t 5 7 ~.E..X.X]._.}.{.}.{.<XoXrX!.                                                                                                                                                                                                                                                                                              ",
"                                                                                                                                                                                                                                                                                                                                                                                                                                                                                                    /.*X'.(.B.3.3.B.w.0.0.[ { ) { Y.Y./ / K K f s e q & # # # # @ X o I 8.aXxX0X5XG.r.-.+.+...X.*.y.!.!.~.MXNXFX8.| = l  .K.gXwX}.B.x.1.@.R 5 % f d K v v d d f d d d d C C K ~ v v ~ N ! ~ d ~ ~ ! ~ s g q 7 T.D.G.G.'.Z.(.).'.G.]..XqXqXoX!.                                                                                                                                                                                                                                                                                          ",
"                                                                                                                                                                                                                                                                                                                                                                                                                                                                                                    I.&XU.B.2.2.:.*.@.[ { ( ) _ } } } ^ d v d f g t q # # @ # # & * X J @.8XlXxXuXJ.t.-.+.+.| X.O.$.+X#X!.BXSXSXe.X.X = T e.rX3X[.A.x.e.@.E 5 % ^ ) ) ( ^ ^ ^ ^ ~ ~ ^ ~ ^ ^ ^ ^ ^ ^ _ ^ ^ _ ^ ^ ) ) _ ! d u 7 T.R.P.].{.Z.Z.).].[.[.<X<XOX+XoX                                                                                                                                                                                                                                                                                          ",
"                                                                                                                                                                                                                                                                                                                                                                                                                                                                                                  3XpX&Xm.M.w.w.8.7.[ ` ) ) ) ) ^ ~ ~ m m f p s g t q # % @ # + O * o J 6.qX8X5X5XJ.u.-.-.+.| O.O.$.].OXoXAXAXAXe.o.X X I 7.rXeX.XA.t.e.@.R 5 # ! ^ ^ C d C C d d f d d d C C d d f d d d d f f f f f q 9 4 7 T.E.P.P.'.A.Z.'.'.L.G..XtX<X+XoX                                                                                                                                                                                                                                                                                          ",
"                                                                                                                                                                                                                                                                                                                                                                                                                                                                                                BX,X,X&XN.D.0.6.6.[ ` ) ) ) ) ) ~ d f m ! m s s r t q % - # # # O & ; J 6.qX<X<XqXE.F.:.=.+...-.;.2.K.P.F.dXkXwX:.| X X k 6.BXBX+XV.t.r.@.R 5 % m m d f f f C C f f d d C C C C d f m d d d s g s s g > & $ 7 ~.R.J.G.Z.x.'.{.'.{.}.3XtX5X+X+X                                                                                                                                                                                                                                                                                          ",
"                                                                                                                                                                                                                                                                                                                                                                                                                                                                                                rX2X6X&XD.9.q.L Y ( ( ) ) ) _ ) ~ ~ C f s f g g r t e < < # # + & * X h I S.H.R.^.W.I.w.-.+...2.3.B.e.V.M.wXgXyX;.| X X j 6.BXBX.XZ.t.r. .R 8 4 d f s f f f f C s s s d d C d d f f d d d d s s s f s > & $ 7 T.R.J.P.G.B.{.4X'.(.{.3XqXuXOXW.                                                                                                                                                                                                                                                                                          ",
"                                                                                                                                                                                                                                                                                                                                                                                                                                                                                                SXwX2X3XD.n.9.L / ( ) ) ( ( ^ ~ K d d f s s s s g e e q q & & + + * o j U u.y.D.^.!.E.w.;.=...=.3.c.t.u.F.qXeXCX;.#.X . 7 q.BXBX3XZ.A.e.@.E 7 5 a r t t t t e e e r y r r p r u w e r t y y q q 4 - q @ % 5 h T.R. X XG.1.'.,X'._.}.3XqXuX#X!.                                                                                                                                                                                                                                                                                          ",
"                                                                                                                                                                                                                                                                                                                                                                                                                                                                                                VXeXwX/.[ ` ] / ( ( ( ) ( ) ^ / K v K f s g r w e w w q q # & + & X X h n y.y.D.!.Q.R.8.&.=.5.+.=.,.t.t.K.D.D.D.G.D.X . i q.MXVX3XZ.A.e.O.E 3 8 ; # + + + + @ @ # @ @ @ # # @ @ @ @ # # ; ; @ @ @ @ @ + % w j T.R. XXX).1.'.5X{.-X(.C.L.J.J.!.                                                                                                                                                                                                                                                                                          ",
"                                                                                                                                                                                                                                                                                                                                                                                                                                                                                                VXVX^.Q.{ ( ) ^ _ ( ( / ^ ^ ~ ^ d v f f s s t t w e w w - % # # # X X 3 h 6.0.y.!.~.R.r.*.$.O.O.X.<.t.t.C.F.D.R.oXW.X X x R BXBX.XG.A.3.$.E 3 5 - # & & & # % % % @ @ @ % % % @ $ @ @ # $ % % % # @ + & 2 e x ~.E.+XXX).t.'.,XXX4XU.L.Z.Z.].rX                                                                                                                                                                                                                                                                                          ",
"                                                                                                                                                                                                                                                                                                                                                                                                                                                                                                SXrXq.9.] ) } / ( ] ] / ^ ^ ^ d d d s f g t r q t e w q - % # # @ X o 6 h ' 0.D.!.~.R.N.8.$.O.O.X.<.3.3.A.C.S.R.R.T.X X J R SXBXW.Z.A.3.O.E 3 ; % % & & & % % % % @ @ @ % % % @ $ $ % % # # # # @ @ & & 2 w j T.R.].).C.2.G.,XXX{.'.'.Z.(.'.oX                                                                                                                                                                                                                                                                                          ",
"                                                                                                                                                                                                                                                                                                                                                                                                                                                                                                AXeXq.9.[ { { R R [ ' L L d ^ ! ! p g s t q t t t t q q > > % & & * X o X k E @.Q.T.T.S.8.$.X.O.O.>.3.3.B.A.K.R.0.0.X X J W MXBXE.Z.B.2.O.E 3 = 4 4 2 2 9 9 4 2 q 4 4 4 q q q 4 q q q q 4 4 4 4 % 4 2 2 9 w 7 Y.R.E.E.F.w.G.XXXX,X,X&XZ.Z.C.H.                                                                                                                                                                                                                                                                                          ",
"                                                                                                                                                                                                                                                                                                                                                                                                                                                                                    Y.Y.Y.Y.Y.T.3XwXW.!.~.~.!.~.~.W.~.~.Y.K K ^ f t f s t t q t t q q 9 9 9 % & & O * X X h W @.~.Y.D.y.w.$.O.O.+.2.c.c._.'.]. XS.n.X o k E BXBXE.Z.t.2.O.E 3 $ w t t t q t q q q q q q q q q q q q q q 4 4 4 4 4 q q q q 5 7 Y.T.W.W.H.w.G..X.X.X,X,XZ.Z.C.S.                                                                                                                                                                                                                                                                                          ",
"                                                                                                                                                                                                                                                                                                                                                                                                                                                                                    !.!.^.!.rXeX.X,X.XoXW.oXoX.X.X.XW.!.T.P x a a a a e t t q t q q q 9 9 9 % & & O O X X h I @.Y.Y.n.8.*.$.O.X.O.=.3.x._.(.'.P.r.n.= = D  .#X#X].A.t.2...E 8 $ t t q q t q q q q q q q q q q q q q 4 4 4 4 - - q q q q 2 4 7 T.T.W.W.D.w.G.XX XP..X.XC.C.C.M.8.                                                                                                                                                                                                                                                                                        ",
"                                                                                                                                                                                                                                                                                                                                                                                                                                                                                    !.OX3XqXtXtX{.{.4X,XXX9X4X8X8X8XtXrX!.T.Y.q.q.9.L x w - t > q < > % 2 2 2 & & O O . X 3 k I 9.n.n.8.&.$.X.X.+.=.,.x.(.(.}.].H.R.W k | ..#X#XG.t.3.2.@.E 8 @ t t q q q q q q t q q q q q q q q t q q q q q q q q 4 q 4 4 7 T.~.!.!.H.w.G.XXXX.X<X.XF.Z.Z.V.S.R                                                                                                                                                                                                                                                                                       ",
"                                                                                                                                                                                                                                                                                                                                                                                                                                                                                    oX@X<X2X8X4X{.-X7X7X7X7X-X9XfXjXgXwXrXrXW.0.0.0.W J 7 6 w q < % % % % % % # & + & * o = l k q.0.S.*.&.$.O.O.o.o.=.;.A.A._.(.].J.7.U ....oX#XZ.3.3.-. .E 5 @ t q q q q q q q q q q q q q q q q q q q q 4 4 q % q 4 4 5 5 h T.R.W.W.K.w.K.@XXX X.X.X'.'.}.Z.G.H.                                                                                                                                                                                                                                                                                      ",
"                                                                                                                                                                                                                                                                                                                                                                                                                                                                                    oX}.{.[.6X-X{.;X;X7X7X=X;XsXvXpXgXdX<X<X.XK.K.w.8.7.I L 6 ; - % # # % - ; $ @ + @ * X o = l Q 8.r.#.O.+.| | o.5.O.=.Z.Z._._.'.].H.S.u.u.#XoXV.2.3.-. .E 5 # q q 4 4 q q q q q q q q q q q q q q q q q 4 4 4 & 9 4 - 5 6 h 0.8.D.H.y.%.u.].J.]..XXX{.{.|.(.Z.L.                                                                                                                                                                                                                                                                                      ",
"                                                                                                                                                                                                                                                                                                                                                                                                                                                                                     X}.{.}.}.-X{.;X7X7X7X;X7XaXjXpXgXdX1X5X'.).].e.e.M.%.7.h : ; # & O * @ ; ; @ @ @ * . X o 3 E @.r.X.| @.H T T | 5.+.Z.Z._.(._.].P.E.R.T.~.R.r.2.2.:. .R 5 % q < q q q q q q t t t t t t t q t t q q q q q q q > 4 5 6 x c 7.%.8.8.7.7.r.y.y.K.G.).].|.{._._.'.                                                                                                                                                                                                                                                                                      ",
"                                                                                                                                                                                                                                                                                                                                                                                                                                                                                    E.).{.}.}.{.-X;X;X;X;X7XaXfXfXpXfXdX,X{.(.A.A.m.A.A.-.w.T R 7 o O * + % ; ; @ @ @ * * . X = W @.7. .E @.W W I U 5.5.1.3.(.(._.}.'.I.R.T.~.~.r.2.-.-. .E 6 4 - - - - - % % % q < q q q q q q t t t q t t t q 9 > 4 5 5 x c 7.7.8.7.6.6.6.6.6.y.V.K.].{.]._.(.(.8.                                                                                                                                                                                                                                                                                    ",
"                                                                                                                                                                                                                                                                                                                                                                                                                                                                                    E.(.'.'.}.{.7X7X7X6X6XpXfXzXaXfXaX8X{.(.A.B.Z.B.B.t.2.:.%.6.3 = $ * * # * * # + + + O O . X Y E 6.E R ` P P Y I U | *.w.Z._.(._.(.G.H.T.T.D.w.:.-.$. .E 7 4 - % - - - < q q q q q q q q q t t t q q q q q q 9 9 t w y x c 6.6.7.6.[ ' ' ] ' 0.y.D.R.W.E.G.Z.].w.                                                                                                                                                                                                                                                                                    ",
"                                                                                                                                                                                                                                                                                                                                                                                                                                                                                    .X'.'.'.{.-XaXaX9XpXfXfXjXfXaXlX*X{.(.A.A.B.C.m.>.,.2.:.*.%.W Y L o X @ + # + + # O O . . . x R ' R L L L L P x Z I @.8.m.A.(.(.(.).H.D.y.y.8.-.-.$.@.E 7 - 4 - - - < q t t t t t t t t t t t t t t r r r r q t t e u a c E 6.6.[ ' ` ` ( ] q.9.0.Y.T.~.H.J.F.S.                                                                                                                                                                                                                                                                                    ",
"                                                                                                                                                                                                                                                                                                                                                                                                                                                                                    P.{.&X&X4X-XaXaX8XfXjXjXjXfXaXlX_.(.A.B.C.V.e.1.<.1.<.$.:.$.%.@.@.h 7 X . + O + # O . . . O a L ( L K K ~ K K y x J R 6.N.C.Z.Z.(.(.G.F.u.w.*.$.$.$.@.E x 6 q q < < q t t t t t t t t t t t t t t t t r r r q t t e r 5 h W 6.6.6.' ` L K / ] { { { 9.i.T.E.E.E.T.                                                                                                                                                                                                                                                                                  ",
"                                                                                                                                                                                                                                                                                                                                                                                                                                                                                  H.8X{.}.*XaXlXaXaXaXfXjXjXjXjXaXlX_.(.(.Z.Z.V.V.e.e.e.:.&.:.$.$.%.7.E ' = X * * + # * . . . & v / K K ~ ~ d f s q y a j J o.w.L.Z._.(.G.G.V.M.*.%.-.$...E c a q q q q t r s s f f f f f f f f f s s s f f f f f f f f f w j R  .6.6.' ' Y L / ^ / / / ( ] q.0.S.D.R.0.                                                                                                                                                                                                                                                                                ",
"                                                                                                                                                                                                                                                                                                                                                                                                                                                                                ^.wX1X4X6X6X7X7XaXaXaXfXfXfXjXjX,X6X'.Z.(.Z.A.B.t.:.:.:.:.:.;.;.;.$.%.@.E 3 7 X X * # * X X O q v K d f d f g p g q u y 7 j W *.H.C.(.(.Z.G.V.M.%.#.$.$...E Y x w q t t r f f f f f s f f f f f f f s s s s s s f f f f d e x Y E  .p.6. .R Y / / _ _ _ / ] p.7.8.D.H.0.                                                                                                                                                                                                                                                                                ",
"                                                                                                                                                                                                                                                                                                                                                                                                                                                                                eXfX&X1X6X4X6X6X8X9X9X9X9X9X9X9XG.}.Z.A.Z.A.B.A.t.:.w.w.$.&.+.-.=.-.O.#. .E E = X * @ * X X # t a a f s s g t r t - t e 7 x I @.D.M.Z.(.Z.Z.e.r.%.@.$.-... .R x 5 q t q r g s s f f f f s s f f s s s s s f f f s f f f ! f L R E  . . . .E Y / / ^ _ _ _ ] { p.6.D.y.T.                                                                                                                                                                                                                                                                                ",
"                                                                                                                                                                                                                                                                                                                                                                                                                                                                    Q.Q.!.^.BXqXhXhXhXuX8XhXZXwXtXhXhXuXOXXX4X@XG.G.Z.A.Z.A.3.3.t.:.:.:.;.&.$.$.+.$.X.#.X. .E : X o @ . . % q e y u s r r r r t t t q t 5 7 k E S.S.Z.(._._.V.8.%.@.$.%.O. .6.Y K 5 q q p s f s f d N N N N ~ N N N N N N N N N B ~ ~ m f f K Y R W E p. .W R ` / ^ ^ _ _ ^ / / ` 9.T.#XrXrXrXq.                                                                                                                                                                                                                                                                        ",
"                                                                                                                                                                                                                                                                                                                                                                                                                                                                    ^.eXqXoXqXuXhXzXhXtXqXhXZXyXhXhXuX5X5X5X0X0X'.'.A.B.A.B.A.B.t.:.<.:.;.$.$.+.O.O.X.X.| | | k h X . # & % < q w u g r r p r t t q 9 q - 8 3 J 8.r.V.A.(.(.B.N.*.%.%.*... . .R x 6 q 9 p p s f d d N N N ~ ~ N N N N N N N N N B N N m d d K L Y R E  .6. .R ` / ^ / / / ( ( / ` q.0.R.oXoXrX0.                                                                                                                                                                                                                                                                        ",
"                                                                                                                                                                                                                                                                                                                                                                                                                                                                  R.R.D.I.M.$.+.$.;.:.$.#.*.w.*.%.$.$.:.V.Z.Z.Z.{.XX(.).Z.3.3.2.1.:.2.:.;.$.+.O.O.X.X...| | | U I X X w t q t t q u s r r r t < q > % > # ; = 7 [ 0.V.A.(.b.B.V.W.E.D.H.7.8.@.E P i e q p p s d d N ~ N N ~ ~ N N N N N N ~ ~ ~ ~ N N m ~ ~ K K Y ' ' E E W R T.Y.Y.Y.mXY.Y.mXQ.~.Q.!.#XoX!.W.0.                                                                                                                                                                                                                                                                        ",
"                                                                                                                                                                                                                                                                                                                                                                                                                                                                ~.E.E.H.F.w.+.:.$.:.1.<.e.e.m.w.&.$.$.:.V.G.Z.G.XXXX).Z.A.t.t.3.2.:.2.:.-.-.+.O.O.X...| | | T U n : = y q q q > t r r r t t q % % % # # # # $ 5 [ 0.S.A.(.b.c.C.W.E.D.D.7.8. .E Y x e q r r s ~ ~ ~ ~ N N N N N ~ ~ ~ ~ ~ ~ ~ ~ ~ N N ~ ~ ~ K v L Y R W  . .E ~.~.~.~.Q.Q.Q.Q.Q.Q.~.!.W.W.!.W.T.                                                                                                                                                                                                                                                                        ",
"                                                                                                                                                                                                                                                                                                                                                                                                                                                                D.M.K.F.G.V.&.;.;.>.1.m.B.V.B.m.C.m.w.<.e.B.B.A.XX{.].(.Z.A.2.2.2.,.<.:.$.$.+.O.O.X...| ..| H U I c b i e q q q q q q q q 9 - % > % % % + + O q { 0.S.B.A.B.x.V.oX!.!.R.D.D.8.6.E L y q t r g ~ ~ ~ ~ ~ d ~ ~ ~ ~ ~ ~ ~ ~ ~ ~ ~ ~ N m ! ! m N v v L E E 0.R.D.W.#X!.!.!.!.!.!.!.!.W.W.W.!.rXrX#X!.i.                                                                                                                                                                                                                                                                    ",
"                                                                                                                                                                                                                                                                                                                                                                                                                                                                y.e.C.V.B.V.B.Z.Z.'.'.'.{.{.}.}.F.C.V.V.e.t.B.1.,.:.V.Z.'.].A.A.B.<.,.;.$.+.O.O...X.| | | | T U I I c y w t q t t q 9 q 9 % % - % % - - + O O 9 { 0.N.M.V.e.e.V.yXrXBXW.R.R.u.7.E Y i q t r s N ~ ~ ~ ~ ~ ~ ~ ~ ~ ~ ~ ~ ~ ~ ~ ~ ~ ! ! ~ ! N ~ ^ v v R R 6.R.R.#X+X+X#X#X!.!.!.oXW.E.E.E.oXqX<XqXoXT.                                                                                                                                                                                                                                                                    ",
"                                                                                                                                                                                                                                                                                                                                                                                                                                                                r.e.B.V.B.Z.Z.B.{.4X&X&X4X6X6X8X8X,X6X5X].'.L.m.:.&.:.:.B.G.Z.G.Z.<.2.;.=.+.O.O...| | | | T T U I c x a e r t p t q q q 9 % % % # % - ; @ # O 4 i.n.S.S.8.7.8.S.oXqXCXW.W.W.K.y. .R x e q t s d d ~ ~ ~ ~ ~ ~ ~ ~ ~ ~ ~ ~ ~ ~ ~ ~ ! ~ ~ N N ~ ^ / L L R 6.y.D.OXOXOX#X#X!.W.+X+XOXOX XP.P.].].].J.y.                                                                                                                                                                                                                                                                    ",
"                                                                                                                                                                                                                                                                                                                                                                                                                                                                M.B.Z.C.B.C.U.C.}.4X4X&X4X8X9XfXdX2XtX8X[.].'.e.:.&.+.$.w.M.V.V.Z.,.;.;.$.+.O.O.X.| | | | U T U I c x a e q > % q q 9 9 > 9 % % % % ; ; @ + * 4 Y.D.D.S.6.E @.r.oXqXCXW.W.+XK.r. .E x a q r g f f ! ~ ~ ~ ~ ~ ~ ~ ~ ~ ~ ~ ~ ~ ~ ~ ~ ~ ~ N N ~ ^ / / / L ' 0.y.oXOXOXoX#XW.W..X.X.XXXP.G.G.)._.).G.8.                                                                                                                                                                                                                                                                    ",
"                                                                                                                                                                                                                                                                                                                                                                                                                                                                S.l.m.Z.4X,X,X,X6X2X2X2X8X8X8XfXdXgX2X2X[.[.L.e.:.<.O.o.X.| O.:.e.B.1.;.$.+.O.X.| | | | T U T I I J x a e q q q q q q % % % 9 % % % $ $ @ * * = !.H.H.0.[ Y @.8.w.oXyX#X#X+XK.u.%.E L v q q g r f d ~ ^ ~ ~ ~ ~ ~ ~ ~ ~ ~ ~ ~ ~ ~ ~ K ~ ~ ~ ~ ~ _ ^ / ( ` [ 7.#XOX<XoXoXeXqX XXXXXXX].G.G.)._.).F.H.7.                                                                                                                                                                                                                                                                  ",
"                                                                                                                                                                                                                                                                                                                                                                                                                                                                M.B.A.Z.&X&X1X8X8X2X2X2XfXfXfXdXgXdXtX2XC.C.C.<.*.*.#.#.#.X.O.:.<.e.<.;.+.O.X.X.| | | | T U U I J J x y q q < - - q q % % 9 9 % % # $ $ + * * = !.H.H.0.[ Y @.w.:. XyX#XoX+XK.r.7.6.R K w q t t f d ! ^ ~ ~ ~ ~ ~ ~ ~ ~ ~ ~ ~ ~ ~ ~ ~ ~ K ~ N N ^ ^ ^ / ` [ q.W.oX<X3X3XqXqX.X<XXXXXXXXX].'._.(.K.F.K.y.                                                                                                                                                                                                                                                                ",
"                                                                                                                                                                                                                                                                                                                                                                                                                                                                w.B.L.[.,X&X1X8X2X2X2X2XgXgXdXtXkXwXdX8XC.C.U.m.M.M.<.:.*.| | X.X.O.$.:.$.+.O.O.| | | | T U U I J J x w q < - - - 4 4 % % 2 % % % # & & + * * = ~.H.H.8.' Y @.e.2.].uXOXOX+XK.r.7.6.R L e q q q f f ! ^ ~ ^ ^ ^ ^ ^ ^ ~ ~ ~ ~ ~ ^ ^ ^ ~ ^ ~ ~ ~ ~ ^ _ ^ ] { [ 0.D.E.oX3X<X<XOXXXXX<X<X.X].).(.(.G.G.Z.K.@.                                                                                                                                                                                                                                                              ",
"                                                                                                                                                                                                                                                                                                                                                                                                                                                                N.U.&X&X1X,X1X2X2X2X2XwXdXgXdXwXgXkX2X,XC.B.C.B.M.M.e.e.<.O.X.X.o.| O.&.$.+.O.| | | | T T U U S J J x y 4 < % # - - 4 % % 2 % % # # & & + * * = !.H.I.8.R W @.2.t.].OXOXOX XK.e.7.6.R L a w e q s f d _ ^ _ ^ ^ ^ ^ ^ ^ ^ ^ ~ ~ ~ ~ ~ ~ ~ ~ ~ ~ ^ _ _ ^ ) { ] q.8.S.E.qX<X<XtXqX<X<X3X.X].'.).).G.G.Z.C.D.0.                                                                                                                                                                                                                                                            ",
"                                                                                                                                                                                                                                                                                                                                                                                                                                                        [ q.q.H.L.*X&X*X1X1X2X8X2XdXdXdXgXgXgXkXkXwXL.C.C.B.m.C.m.m.<.<.w.<.*.#.#.X.X.X.X.O.+.| | | | T T F F S I J x 6 $ % # # # % % % % % % # # & $ $ + * . = !.I.E.0.' R #.t.B.).].].].J.K.u.u.8.E R x a e q s g d ^ ^ _ ~ ! ~ ~ ~ K K C v d f f d d d d f f f d d ~ / ( ] { 6.y.E.qXoX<XyXqXoXoXoXOXXXXX].G.Z.A.'.).V.H.6.[                                                                                                                                                                                                                                                         ",
"                                                                                                                                                                                                                                                                                                                                                                                                                                                        ~.W.oX.X,X&X&X*X6X6X8X8X8XdXjXdXdXgXgXgXdXdXC.m.Z.Z.B.Z.A.A.1.>.<.<.<.#.#.X.o.| X.+.#.X.| | T T H F F D S J c       + # # # % % % % % @ & & $ $ + * . = !.H.P.8.' ' %.Z.Z.).'.G.G.J.K.u.u.y. .R P x a w s s d ^ ^ ^ d s f f f f s s s s s s g s u u u r r t r s d v / ] ' 8.R.#XoXoXwX3XoXoXoXOX5X@X{.'.{.).Z.Z.V.G.D.D.                                                                                                                                                                                                                                                        ",
"                                                                                                                                                                                                                                                                                                                                                                                                                                                      ~.R.R.<X.X&X*X&X&XaXsX6X6X8XfXjXdXdXgXkXwXdXdXL.C.Z.A.x.B.B.m.1.>.>.<.1.&.#.#.X.o.X.| | | | | T T F S S D D A J         + & # % % % % $ @ & & $ $ @ X . ; ^.H.I.8.' ' 7.F.].'.L.G.G.J.J.K.r.y.6.E Y P a e g s f C f d s t t r r r r r r t t t t t e e e e r t t g s f v / Y 6.0.W.oXoXeXrXrXrXoX.XXX@X@X}.'.'.(.Z.).Z.K.D.                                                                                                                                                                                                                                                        ",
"                                                                                                                                                                                                                                                                                                                                                                                                                                                      T.W.3X6X[.*X*X&X1XaX6X8X8X8XfXjXgXgXgXyXwXP.[.C.C.A.A.B.B.1.1.,.1.>.>.1.>.&.#.X.| | H 5.X.| | H U F D S D D S J           & # # % % % $ @ & & $ $ + X * = ^.H.I.8.` ` 6.F.].L.L.G.G.J.J.S.w.y.7.@.R L v u r g s s r g t q q q q t t w w t q q q q q q t t t t t r r r u u x Y E 0.D.R.qXeXeXqX<XXX@X@X{.].{.G.].{.].]..XE.                                                                                                                                                                                                                                                        ",
"                                                                                                                                                                                                                                                                                                                                                                                                                                                      ~.E.,X&X*X*X&XsXpXpX2X8XfXdXjXjXgXtXhXgXhX[.'.Z.A.B.B.B.x.1.,.,.,.,.,.>.>.&.#.#.X.| H H H T | T T F S S D D D Y             @ % @ + # # @ % # & O O . * = !.K.H.8.` R 7.F.].].P.F.F.G.w.w.:.%.%.@.E Y x e t g g r r e q e q w w w w w w w t t t t t q q q t t t t e r r u a P Y @.D.H.qXqXqXqX.X].].].].]. X$XOXOXuXOXqXeXW.0.                                                                                                                                                                                                                                                    ",
"                                                                                                                                                                                                                                                                                                                                                                                                                                                      !..X&X*X:X*X1XsXpX8X2X2XdXtXdXgXgXdXhXtXtX[.'.Z.B.B.B.B.B.1.1.1.1.,.,.,.,.;.&.$.#.| T H H H T T U F S D D D D Y             * @ @ + # # # * + + O O O o = oXV.H.q.R [ %.K.].].P.H.G.G.:.:.*.%.%.@.E Y x e t r r q e q q q q q q q w w w w q t t t t t q q t t t t t t t e w x J E H.H.I.F.| o...+.+.+.%.w.7.%.%.%.7.%.7.8.7.7.6.                                                                                                                                                                                                                                                  ",
"                                                                                                                                                                                                                                                                                                                                                                                                                                                      !..X&X*X1X&X1XsXpXpX2XdXdXgXjXgXgXtXgX3X[.B.B.B.B.x.x.x.l.1.1.1.1.,.,.,.,.$.=.+.O.| T F F F F U F S D D A D A Y           q q 4 % # # # + + @ # + O . o = W.u.F.8.R R @.F.].].P.I.J.G.:.$.*.%.$.%.E Y x e r r t t q q q q q q q q w w w q q t t t t t q q t t t t t t t e y y 3 k 8.8.w.e.@.%.*.V.:.%.%.w.7.%.*.%.*.%.@. .@. . .6.                                                                                                                                                                                                                                                ",
"                                                                                                                                                                                                                                                                                                                                                                                                                                                      W..X&X*XsXsX6XpXpXiXiXdXdXgXgXdXgXtXgX.XP.m.m.B.B.B.B.x.1.,.,.,.,.,.,.,.>.;.$.+.O.| T H F F F F S D A A A S S Y           r t t t q % # % - - - @ O . o = !.K.S.%.I I #.].].].].P.P.J.:.$.$.$.$.%.E Y x e r r t t q q q q q q q q w w w q q t t t t t q q t t t t t t r r e 5 = l @.X.@.O.%.%.%.w.O.O.O.:.*.*.%.%.%.@.@. . .@. .6.E                                                                                                                                                                                                                                               ",
"                                                                                                                                                                                                                                                                                                                                                                                                                                                      W.[.&X*XpXpXpXpX2X2XdXdXgXgXdXtXgXtXgX.XL.B.B.B.B.x.x.1.1.,.,.,.,.,.,.>.>.>.=.+.X.| T H F S S S D A A A A D I Y         t q q q t q % % - - - - ; + * o = T.S.e.8.T U *.G.].].].P.P.J.:.*.$.%.$.%.E R x e t t t q t q q q q q q q q q q q q t t t t t q q q t t t t t t e e 5 7 j Q @.w.:.e.w.w.K.w.r.V.K.K.K.u.r.w.w.%. ..... . . .E                                                                                                                                                                                                                                             ",
"                                                                                                                                                                                                                                                                                                                                                                                                                                          Y.MXMXBX^.rX3X,X,X*X1XpX2X2X2X2XdXdXgXgXgXdXdXtXtXE.F.m.B.B.x.x.1.,.,.1.1.1.1.,.,.,.>.;.=.O.o.| T F S S S S D A A A A S I I         > t t t r t q < w 4 5 5 5 % + + = Y.D.J.G.D.8.K.G.].[. XP.P.G.:.$.$.$.$.%. .R x e t t t t q t t t t t e e w e e t q t t t t t q q q q t q t t t r r 6 = 3 I | M.V.Z.]..XtXqXuXXXXX<XOX X.X XJ.w.@.....%.%. .E '                                                                                                                                                                                                                                           ",
"                                                                                                                                                                                                                                                                                                                                                                                                                                          T.rXrXrXrXwX[.,X,X,XiXiX2X2X2XdXdXdXdXdXtXtXtX2X8XP.G.l.B.B.B.B.x.l.1.1.1.1.,.,.,.>.>.;.=.O.X.| T H F S S D D D A A A A I J       p q q t t r r t e u w 6 6 y 5 @ + o ` E F.C.F.S.F.].].[. XP.P.P.:.$.:.$.$.%. .E x e t r t t q t e e t t q q w q e t q t t t t t t q q t t q t t r r u u 8 7 E @.r.B.Z.]. XoXoX<X,X5X<XOX X X X XH.S.u.r...| U  .6.                                                                                                                                                                                                                                          ",
"                                                                                                                                                                                                                                                                                                                                                                                                                                        ~.rX^.3XqX2X2X[.1X&X1XpX2X2X2XwXdXgXgXdXgXgXdXtX3X.XC.m.B.B.x.1.1.,.,.1.1.1.,.,.>.>.>.;.=.+.X.| T H S S S S D D D D A z z I c       t < q 9 q q q q q e w 5 ; 5 - @ + o = j J.G.J.F.V.].].[. X].P.].:.-.;.$.%.%. .R x w e t t q t t q t t q q q w w e q t t t t t t t t q t t q q t t t e y 8 h 6.0.J.{.{.5XqXqXqXoXXXXXXXOX.X.XP.E.H.E.R.K.%.%. .T '                                                                                                                                                                                                                                           ",
"                                                                                                                                                                                                                                                                                                                                                                                                                                      T.R.E.wX.X,X6X,X&X[.1XiXpX2X2X2XdXdXgXgXgXgXtXtXdXP.F.G.m.B.x.x.1.1.1.,.,.,.,.,.>.>.>.>.&.=.O.X.| T F F S S F D D z z z A k l         t < q q q 9 q t e w w w 6 6 - @ + $ o 3 E.).G.M.].P.]..X XP.P.].:.;.&.$.$.%.E R x e e t t t t t t t q q q t t t t t t t t t t t t t t t q t q t t t e y 5 7 6.8.].'.XX5XqXqX3XoX3XXX<XOXOX.X XP.I.E.E.J.J.J.%.E 6.                                                                                                                                                                                                                                          ",
"                                                                                                                                                                                                                                                                                                                                                                                                                                      T.W.3XfX&X*X&X*X*X*X1X1X2XiXwXdXdXgXgXgXgXtXtXfXfXL.V.C.l.B.x.x.1.1.1.,.,.,.,.,.>.>.>.;.&.#.X.o.| H F S D D D z z z z k z k           % # # % 2 9 q t e w e w 5 5 - @ + + . = W.).Z.e.G.].]..X XP.].].:.;.;.$.$.#.E R x w e t t t t t q t @ @ @ @ @ @ @ # & # # # & & & & @ # @ % % q e t e y 5 7 6.8. X{.5X5XqXqXrX3X3XXXOXOXXXXXXX].P.I.E.E.J.J.H.8.7.                                                                                                                                                                                                                                          ",
"                                                                                                                                                                                                                                                                                                                                                                                                                                      T.3X[.,X*X*X*X*X1X1X1X1X2X2XkXgXgXgXgXgXgXgXdX,X.XC.B.B.B.B.x.1.1.1.1.,.,.,.,.,.>.>.>.;.&.%.o.| T F F F D S D D z z z k k k           & + # % q q q t e q e w 5 5 - @ + O . = #X].Z.e.G.].]..X.X].].].2.;.;.$.$.%. .R x e e t t t t t t t # # @ @ # # # # # # @ @ # # # # # # # # # t t e r y 8 7 E @.w.m..XXX<XqXqX<X<X<X<X<X@X@XXXXX XE.E.E. XJ.E.D.y.                                                                                                                                                                                                                                          ",
"                                                                                                                                                                                                                                                                                                                                                                                                                                      oX[.{.-X*X&X&X*X6X6XpX1XiX2XwXgXgXdXgXgXdXtXtXL.C.m.B.B.B.B.x.1.,.1.1.,.>.>.>.>.>.>.>.;.&.#.| | T F F S D D z z k k k k l             + @ # - t t q t e e w w - 5 - + # + . ; #X].).B.G.P.]..X.X].].].<.;.;.-.-.%. .E x e e t t t t t q t % % # # # # # # # # # # # # # # # # # # # t r r r y 8 h E  .*.w.<X<XtXqXqXqXqXqX<XOXOX5X4XXX.XE. XE.+X].E.W.R.                                                                                                                                                                                                                                          ",
"                                                                                                                                                                                                                                                                                                                                                                                                                                    !..X}.-X-X&X*X*X*X6X2XiXiXpXtXdXgXdXdXgXyXtXE..XF.C.m.1.l.B.B.1.1.,.1.1.,.>.>.>.>.>.;.;.&.&.@.| T F F D S D z z z k k j j                 @ @ - q 9 q t e e e w - 4 - + + + . = rX'.).B.L.L.[.[..X].].].,.;.;.-.-.%. .E x e e t t q t t q q % % % # # % # # % # # # % % % % # # # # # t r e r y 7 j @.@.8.w.W.E.qXoXqXqXuXqX<XOXOXXX4XXX.X XP..XP..X<XoXR.6.9.                                                                                                                                                                                                                                      ",
"                                                                                                                                                                                                                                                                                                                                                                                                                                  n.rX<X4X-X}.*X*X*X&X6X2XiXpXpXdXgXgXgXgXjXgXtXP.P.C.V.B.B.x.x.l.1.1.,.1.1.,.>.>.>.>.>.;.&.&.#.@. .T F F D S D z z k k k                     * o % 4 2 2 t e e w w 4 - % + @ * . $ rX).G.e.L.].[.[..X].].{.,.;.;.-.$.#. .R x w e t t q t q q q < % % % % % % % % % % % % % % % & # # q q t t t r y 7 k @.%.%.7.8.N.qXqXyXqXqXwXqX<X<XOX5X4XXXXX.XXX].XX.XoXW.R.T.T.'                                                                                                                                                                                                                                   ",
"                                                                                                                                                                                                                                                                                                                                                                                                                                  9.3XXX{.-X&X-X{.&X4X8X1XiXpXfXdXgXgXgXgXgXtXtX.XP.m.m.B.A.B.x.1.1.1.,.,.,.>.>.>.>.>.>.&.&.$.X.| T U F D S S D z k k j h                     X o ; 4 % % q t q w w 5 - % @ @ * O $ rXG.(.B.L.}.[.[.[.P.].{.2.;.;.-.$.%. .E x w e t t q q q q q % % # # # # # # # # # # # # # # % % % t q r t t e y 7 k @.7.8.8.7.S.rXqXuXqXqXqXqXqXOXOX@X@X5X5XXXXXXXXX]..X<XE.W.#X6.                                                                                                                                                                                                                                  ",
"                                                                                                                                                                                                                                                                                                                                                                                                                                  ~.<X,X-X-X*X}.{.4X6XpX1X2X8XfXgXgXgXgXyXtX<X<XP.L.m.B.l.B.B.x.1.1.1.,.,.>.>.>.>.>.>.:.&.&.#.o.T U F D D D D A k k j                           o % - % % q q % 4 4 % % # + @ * . o rXZ.G.B.'.'.[.[.P.P.].].1.;.>.-.-.%. .E x e e t t q q q q q % % # # # # # # # # # # # # # # # & # t t t t r e y h k @.7.7.8.8.8.H.H.OXuXqXqXqXqXOX.X.XXXXX<XXXXX{.{.5X.X.XuX#XW.T.6.                                                                                                                                                                                                                                ",
"                                                                                                                                                                                                                                                                                                                                                                                                                              Q.eXwX8X,X&X&X}.6X&X6X1X8X2XdXdXdXgXwXhXdXgXgXtX2XG.C.C.B.B.B.B.x.1.1.1.,.,.>.,.,.>.>.>.&.&.#.X.o.T H F S D A A A k k h                           . @ q # # q q # 2 % > > % + * * * = !.G.G.B.'.].[.[..XP.P.].,.;.;.-.-.%. .E x e e t e t t t q t 2 % # # # # @ # # # # # # # # & & # % t t t t e u y h k 6.%.8.8.8.8.8.8.qXqXqXqXqXqXqX<X<XOXOXOX<XOXXX.X.X.X<XuX5XOXR.T.i.                                7 c c c :                                                                                                                                                                                     ",
"                                                                                                                                                                                                                                                                                                                                                                                                                          Y.  W.wX,X,X&X&X&X}.6X6XpX6X8X2XdXdXdXgXyXhXdXgXdX2X[.C.C.B.m.x.x.x.1.1.1.,.,.,.>.,.,.>.<.>.&.#.#.X.| T H F S D D A k k c                             . + # # # % q q 9 > % % # + * + * = !.K.K.t.'.].[.[.].P.P.'.2.;.;.-.-.$. .E x e e t e t t t q t q % % # # # # # & & & & # # # # % 9 q t t t t e w i 7 k 6.%.8.8.8.8.8.8.3XqXqXqXqXqXqXqX<X<X<X5X<XOXXX.X.X.XXX<XXX+XoX!.Y.                              6 3 ' ' Y c                                                                                                                                                                                     ",
"                                                                                                                                                                                                                                                                                                                                                                                                                          Q.^.wXtX[.[.&X&X&X&XsX6XpX8X2X2XjXgXdXgXyXgXwXgXwX[.F.m.m.m.m.x.x.l.,.1.1.,.,.,.>.,.>.>.>.&.&.#.X.o.T H S F D D D A k k                               f s t % # % % % 2 % % # + + * * * = !.K.K.V.G.].[.[.].P.P.].,.;.;.-.-.%. .E x w e t e t t t q t t q % # # # # # # & & # # # # # q t q t t t t q e y 7 c 6.%.8.8.8.8.8.8.H.E.qXqXqXqXqXqX<XOXOX<X<XOXXXXXXXXXXXXX5X5XoX!.~.                              b 7 c ` c L                                                                                                                                                                                     ",
"                                                                                                                                                                                                                                                                                                                                                                                                                      Y.~.rXwX3XtX&X[.&X&X1X6XsX6XpX1X2X2XgXgXdXgXgXjXtXdX2XL.C.e.m.B.B.x.l.l.1.1.1.,.,.,.>.,.>.>.>.&.&.#.X.o.T T S D D D A A k j                               s t % % % % % # % # % % # + * * * = !.J.].G.G.C.[.[.].P.P.].<.;.;.-.-.$. .E x w e t e t t t t t t t q % # # # # # # # # @ @ @ @ q t q t t t t q e y 7 k %.%.*.*.8.w.8.w.M.S.rXqXqXqXwXwXqX<X<XOX<XOXOXOX<X<XOX.X XOXeX!.!.Q.~.                          ( ` PXPXPXFX                                                                                                                                                                                    ",
"                                                                                                                                                                                                                                                                                                                                                                                                                      MX^.3X,X1X1X,X&X,X&X1XpX6X6X6X1XdXdXgXgXgXtXgXjXtXtX3XC.C.m.B.B.x.x.x.x.1.1.<.,.>.,.,.>.>.>.>.&.&.#.X.| T F S A D z z k j 7                               s f s t q % # % % % % % # + + * * = !. XXX].G.V.}.[.P.P.P.].2.;.;.-.-.$. .E x w e t t t t t t t q t t t q q t t t t t t t q q q q t t t t t t t t y 7 k @.@.#.*.*.N.w.r.r.r.W.W.qXqXqXqXtXqX<XOX<XOXOX<X5X<XOX.X5X.X+X#X!.!.Q.                            L UXUXUXPX                                                                                                                                                                                    ",
"                                                                                                                                                                                                                                                                                                                                                                                                                      BXrX8X,X1X&X,X,X1X6X6XaX6XpX2X2XjXdXgXgXgXtXtXdXwX.XP.C.C.m.B.B.x.l.1.3.1.1.<.>.>.,.>.>.>.>.;.&.#.X.o.T T S D A A k k l                                 % r s s t t t t q 2 % % & + + + * o = !..X.X.XC.M.}.[.].P.P.].,.;.;.-.-.$. .E x e e t t t t t t t t t t t t t t t r r r r r t t t t t t t t e t t t y 7 k @.@.#.*.*.w.*.w.w.8.D.N.qXqXqXqXqXqX<X<X<XOXOX<X<X<XXX.X+XuX+XoX#X!.!.MXQ.                        L q.9.i.{                                                                                                                                                                                     ",
"                                                                                                                                                                                                                                                                                                                                                                                                                      !.qX,X1X&X*X1X1X6XpX6XpXpX6XpX8XjXdXgXdXgXgXtXtX2XP.L.C.C.B.B.x.x.x.3.1.1.,.>.>.>.>.>.>.>.;.&.&.#.X.o.T F S A A A k j 3                                 t t t s f f f t % 4 < % # + @ # # o = ^..X.X.XV.M.}.].].P.P.].<.;.;.-.-.$. .E x e e t t t t t t t t t t e t t t t t t t t t t t t t t t e e t t t t e 7 k @.@.#.*.>.<.<.w.r.N.N.8.oX3XqXwXtXtXtXtX<X<XOXOXOXOXOX.XOXoXoXoX#XoX#X!.!.                      b Y i.p.9.                                                                                                                                                                                      ",
"                                                                                                                                                                                                                                                                                                                                                                                                                      rX3X1X*X*X*X1X*XsXaX1X1X2X2XfXdXgXdXjXgXtXtX<X3X[.V.C.m.B.B.x.x.x.x.x.3.,.,.>.>.>.>.>.>.>.&.&.$.O.X.| T S S A Z k k h                                 t q q t r s f s r t q q q > - - % % o = rX<XXX.XV.V.].'.P.P.P.].<.;.;.-.-.$. .E x e e r t t t t t t t t t t t t t t t t t t t t t t t q t e t t t t t e 7 k @.o.#.&.*.>.<.w.w.M.r.N.N.H.oXqXqXqXuXtX<X<XOXOXOXOXOXOXOX.XOXE.#X#X#X#X!.Q.                    L ' T.0.0.                                                                                                                                                                                      ",
"                                                                                                                                                                                                                                                                                                                                                                                                                      3X3X*X*X*X*XpXpXsXpXpX1XiX1XfXdXdXgXgXgXtXtXXX[.G.B.V.B.B.x.x.x.x.x.x.1.,.>.>.>.>.>.>.>.>.&.&.#.#.o.T H S S A k k j                                   % % q t t g s s s s q % % > - < q 4 4 = rX<XXX.XM.V.].[.P.P.P.].:.;.;.-.-.%. .E x e e t t t t t t t t t t t t t t t t t t t t t t t t t t t t t t t q e 7 k @.@.#.&.*.*.<.w.w.w.r.r.N.r.W.qXwXqXwXtXuXtXuXOXOX5X<XOXoX.X.XOXOXOX#X#X!.!.Q.                  J 6.R.7.8.E                                                                                                                                                                                     ",
"                                                                                                                                                                                                                                                                                                                                                                                                                    D.W.,X&X*X*X*XpXpX6XpXpX2XpX2XdXgXdXgXgXgXdXtX.XP.C.B.B.B.B.x.x.x.x.x.l.1.,.>.>.>.>.>.>.>.>.&.&.O.X.| T H S D A k k                                     % # % q t t r r r s r t r t q - 4 2 2 = rX<X.X].m.M.L.'.P.P.P.].<.;.;.-.-.%. .E x y e r t t e q t e t t t t t t t t t t t t t t t t t t t t t t t t t e 7 k @.@.#.&.*.*.<.<.e.w.r.N.8.8.E.qXwXqXqXtXtXtXqXOXOXOX<XOXqXOXOXOXOXoXoXoXW.!.!.Q.                E 7.$Xu.u. .                                                                                                                                                                                    ",
"                                                                                                                                                                                                                                                                                                                                                                                                                  !.wX[.,X*X*X*X1XpXpX2XpX2X2XfXdXdXgXgXgXgXdXgXtX.XL.C.B.B.B.B.x.x.x.3.1.1.1.,.>.>.>.>.>.>.>.>.&.&.X.o.T F S D D D A c                                     # # # # q t t t t r u s s p t 4 q 2 2 = rX<XXX[.M.V.Z.L.P.P.P.].,.;.;.-.-.%. .E v y r r t t t t t t t t t t t t t t q q q q q q q t t t t t t t t t t e 7 k @.#.#.&.&.*.:.<.<.e.N.N.N.M.E.oXqXqXqXyXyXyXuXqXOXOXOXOXqXOX.X.X+X+XoXoXqXqXE.W.MX              W 7.K.u.u. .                                                                                                                                                                                    ",
"                                                                                                                                                                                                                                                                                                                                                                                                                T.^.3X,X&X*X&XpXpXpXpX2X2X2X2XdXgXdXgXgXgXgXgXgXtX].C.V.B.B.x.B.x.x.x.1.1.1.1.<.>.>.>.>.>.>.>.>.&.&.X.| T S S D D D A J                                     # + + # % q q q t t u s s p q q q 2 $ = ^.<XXXXXG.G.Z.C.L.P.L.L.<.;.;.-.-.%. .E x y e t t t t t t t t t t q t t t t q q q q q q q q t t t t t t t t t y 7 k @.#.#.&.&.&.:.:.<.e.w.r.w.8.r.D.oXqXqXwXyXyXyXuXqXqXOXOX<XOX.XXXXX+X.XoXoXOXOX#X!.              U %.$Xu.u. .                                                                                                                                                                                    ",
"                                                                                                                                                                                                                                                                                                                                                                                                              MXrXE.P.&X&X*X&XaXpXpX8X2X2X2X2XdXgXdXgXgXgXgXgXtXuXP.C.V.B.B.x.x.x.3.3.1.1.1.<.>.>.>.>.>.>.>.>.&.&.#.o.| T S S D D D Z J                                     # + + # % q q q t t s s s r - 2 4 2 $ = ^.<X,X4X.XXXG.C.G.P.G.L.e.:.;.-.-.%. .E x y e t e t t t t t t t t t t t t t q q q q q q t t t t t t t t t t t y 7 k @.#.#.&.&.&.>.>.>.<.e.e.N.r.r.S.oX<XyXwXqXqXyXyXqX#XOXOXqXOX<X@XXXXX X XOX+XoX#X!.!.Q.mX        n | J.r.r.                                                                                                                                                                                      ",
"                                                                                                                                                                                                                                                                                                                                                                                                              BX3X*X&X*X*X6X&XpX8X8X2X2X2X2XtXdXgXdXgXgXdXgXdX<X3XG.C.B.B.A.x.x.3.3.3.1.1.1.<.>.>.>.>.>.>.>.&.&.#.O.| T H S S A D A Z J                                     # + + # # % % q t t r p p q % 2 q 2 o = !.OX,X4XXXXXG.C.G.P.G.L.e.;.;.-.-.%. .E x w e t t t t t t t t t t t t t t q t q q q q t t t t t t t t t t t t e 7 k @.#.#.&.&.&.>.>.>.<.e.e.w.w.w.w.D.I.qXqXqXyXyXqXqXqXqX#XqXOX5X5X@XXX{.{.]. X XoX#X#X!.!.Q.Y.    U ..y.7.%.                                                                                                                                                                                      ",
"                                                                                                                                                                                                                                                                                                                                                                                                              rXE.,X&X*X*XsX8X2X2X2X2X2X2XdXdXdXgXdXgXgXdXgXtXP.P.C.V.B.B.B.x.x.3.3.1.1.1.1.>.>.>.>.>.>.>.>.&.&.#.X.| T H D S D D A Z J                                     # + + # # % % 4 q t t t r q % 2 q 2 o = !.<X,X4XXXXXZ.B.F.P.F.G.<.;.;.-.;.%. .E x y e t e t t t t t t t t t t q q t q q q q q q t t t t t t t t t t q y 7 k @.#.#.&.*.&.>.>.>.>.<.<.w.w.w.w.M.F.qXqXqXqXyXyXyXyXqX#XOX<X<X5X5X@X{.{.{.OXOX!.#XoX#X#XQ.MX      U | T                                                                                                                                                                                         ",
"                                                                                                                                                                                                                                                                                                                                                                                                              rX3X*X*X&X*X1XjX2X2X2X8X2X2XdXgXdXgXdXgXgXtXgXwXF.Z.B.B.B.x.B.x.x.x.3.1.1.1.<.>.>.>.>.>.>.>.>.>.&.O.X.T T F D S A D D A J                                     + + + # # # % % q q 9 t r q % 2 4 $ . o !.<X<X5XXXXXZ.B.F.P.F.G.e.;.;.;.;.%. .E P y e t t q t t q q t t t t q q q q q q q q q q t q t t t t t t t t t y 7 k @.#.#.#.&.&.&.>.>.>.>.>.e.w.M.M.M.M.I.S.oXqXyXyXyXyXqXoXqX<X<X<X5X@X{.}.{.J.oXoX+XOXOXoX!.Q.      k                                                                                                                                                                                             ",
"                                                                                                                                                                                                                                                                                                                                                                                                              kX[.*X*X*X&X1X2XiX2X2X2X2X2XdXdXdXgXdXjXtXgXgX2XF.B.B.B.B.x.x.x.x.x.l.1.,.,.>.>.>.>.>.>.>.>.>.;.$.X.| H F S D D S S D I J                                       + * # # # # # % q 9 t e q % % 4 4 O = !.,X2X2X2X,XZ.B.G.G.G.G.e.;.;.;.;.$. .E x e e r t t t q t q t t t t q q q q t q q q t t t q t t t t q t t t e 6 6 j E o.o.#.&.&.>.>.>.<.<.1.m.m.m.M.M.M.N.N.#XrXeXeXyXeXeXqXqXqXOXOX5X5X@XXX].].].J. XOXOX XoX!.                                                                                                                                                                                                    ",
"                                                                                                                                                                                                                                                                                                                                                                                                          T.W.2X[.*X&X6XsXpXiX2X2X2X2XpXdXdXdXdXtXtXgXtXtX,XP.M.B.B.B.B.x.x.x.l.l.l.1.,.,.>.>.>.>.>.>.>.>.>.;.$.X.T H F S D D D D D J x                                         + + + # # # # q 9 q e q % % % 2 . o !.<X<X<X<XXXL.A.G.G.H.G.e.;.>.;.;.$.X.E x e e r t t t q t q t t t t q q q q t q q q t t t q t t t t t t t t e 6 8 h R T o.#.&.&.;.:.>.>.1.1.<.e.e.m.N.M.N.N.rXrXqXeXyXyXyXyXqXqXOXOX<X<X<XXX].].].]. XOXOX+XOXW.                                                                                                                                                                                                    ",
"                                                                                                                                                                                                                                                                                                                                                                                                        q.^.E.,X*X*X&XsXpXpX2X2X2X2X2XdXdXdXdXdXgXgXhXwX2XP.F.C.B.B.B.x.x.x.l.l.l.l.l.,.,.>.>.;.;.>.>.>.>.;.&.#.| T H S S D A D D D Z                                           + + + # # # & 9 9 q e q > 9 2 2 . o W.<X<X<X<XXXG.B.G.G.H.H.e.;.>.;.;.$. .E x e t t t t t q t q t t t t t q q q t q q q t t t q t t t t t t t t e 6 8 j R T | #.&.&.&.&.>.>.<.1.<.<.<.e.m.M.N.r.H.H.E.rXqXeXwXtXeXqXOXOXOXOX<XOX.XXX X].]. XXX XoX#X                                                                                                                                                                                                    ",
"                                                                                                                                                                                                                                                                                                                                                                                                      MXW.W.[.{.*X&X1X1XiXiX2X2X2X2X8XdXdXdXdXdXtXdXwX[.P.C.M.V.B.B.x.x.x.x.l.l.l.1.,.,.>.>.;.;.>.>.>.>.>.;.$.O.| T S S A D A A F D                                               + + # # # # q % q - % & % % $ . o W.<XOX<X<X,XZ.V.G.G.H.J.e.;.>.;.;.%. .E x e t t t t t q t q t t t t t q q q t q q q t t t q t t t t t t t t e 6 7 j R T | #.&.&.&.&.>.>.<.1.<.<.<.<.m.M.M.N.r.D.R.qXeXyXyXyXyXqXqXOXOXOX<X<X5XXX X].].].].J.+XW. .                                                                                                                                                                                                  ",
"                                                                                                                                                                                                                                                                                                                                                                                                      ^.W.{.|._.-X1X1XiXiXiX8X8X2XfXjXdXdXgXgXdXwXtX,XF.C.m.m.B.B.B.x.x.x.x.l.l.1.1.1.,.>.>.>.>.>.>.>.>.;.&.#.X.T T S A A A A A D k                                                 + # # # # q % % - % & & % 2 . o W.XXoXOX<X<XG.V.L.P.I.I.e.-.:.;.;.$. .E x w t t t t t t t q t t t t t q q q t q q q t t t q q q t t t t t t w w 7 j E E | #.&.&.&.;.>.>.<.1.1.1.1.<.e.M.M.M.N.S.H.3XqXeXqXyXyXeXqXOXOXOX<X<X5XXX].].].].].].R.W.8.E Y                                                                                                                                                                                               ",
"                                                                                                                                                                                                                                                                                                                                                                                                      rXP.{.|.=X-X1XiXiXiX2X2X6X8XdXjXdXdXgXgXkXgXtX,XF.C.B.C.B.B.x.x.x.x.x.l.l.1.1.,.,.>.>.>.>.,.,.,.>.;.&.#.X.T U S A A A A A A J                                                 # + # # # % - 4 < % > > 9 q . = W.XXoXoXXXXXV.M.F.H.H.H.e.:.:.;.&.$. .E x w e t t t t t t t t t t t t q q q t q q q t t t q q q t t t t t t w w 6 h E E o.#.&.&.&.;.>.>.<.1.1.1.1.1.<.m.M.e.e.S.S.E.E.rXqXyXyXeXqXqXqXOX<X<X5XXXXX X X].].].E.R.8.7.6.R                                                                                                                                                                                             ",
"                                                                                                                                                                                                                                                                                                                                                                                                      qX[.|.|.|.-XiX2XiX2X2X2X8X8XfXjXdXdXdXgXkXdX<X[.C.B.B.A.x.x.x.x.l.1.1.l.l.,.,.,.,.>.>.>.>.,.,.>.;.&.#.X.o.T F A A D D D A I k                                                   + # + + # @ $ # % & & 2 4 X = W..X.X.X.X.XF.M.H.H.H.H.e.*.:.;.&.$.X.E x e w t t t t q t q t t t t t q q q t q q q t t t q t t t t q q t t w 6 7 h E Q o.#.&.&.&.&.>.>.>.<.,.1.1.1.<.e.m.M.M.K.M.H.H.<XqXyXeXyXyXqXqXOXOXOXOXOX@X.XXX].].].$X XK.K.u.y.0.9.{                                                                                                                                                                                       ",
"                                                                                                                                                                                                                                                                                                                                                                                                  n.D.3X}.-X|.=X6XiXiX2X2X2X8XaXfXfXdXdXdXgXgXdXgX.XG.m.B.x.A.x.x.x.l.l.1.1.l.l.,.,.,.,.,.,.>.>.>.>.;.&.#.#.X.| T S S A D D D A k                                                       # # + # @ @ % % % % q e X = E.]..X.X.X.XP.F.I.H.D.H.w.$.:.;.&.$.X.E x e w t q q t q t q t t t t t q q q t q q q t t q q t t t t q q t t w y 7 j E Q o.#.$.&.&.&.>.>.>.>.,.1.1.1.<.e.m.M.m.K.e.F.S.oXqXeXeXyXyXyXqXqXOXOXOX5X5XOXXX X X X X XK.K.K.+XoX!.Y.                                                                                                                                                                                      ",
"                                                                                                                                                                                                                                                                                                                                                                                                T.W.3X,X&X}.-X&XsX2XiX2X2X1X8XjXfXjXdXdXtXdXdXwX2X.XC.B.B.A.A.c.x.x.x.x.x.x.1.1.,.,.,.,.>.>.>.>.>.>.;.&.O.X.| T T D S D z S S k J                                                       + + + + $ ; % % % t w 5 X 3 H.XX.X.X.X]..XE.F.M.D.D.e.$.:.:.;.:.%.E x w w t t q t q t q q q q q q q q q q q q t t t q q q t t t q q t t w 6 7 j E E | #.&.&.&.&.>.&.>.>.,.,.,.1.1.1.e.e.m.M.m.r.w.oXqXqXeXyXyXyXqX#XOXOXOXOX5X5X5X@XXX].]. X].J.).+XOXoX~.9.L                                                                                                                                                                                   ",
"                                                                                                                                                                                                                                                                                                                                                                                            mXQ.W.3X,XP.[.[.8X6XiXiXiX2X8XpXfXjXdXdXdXdXdXdXtX2XP.L.C.B.x.A.c.c.x.x.x.x.l.x.1.1.,.,.,.,.>.>.>.>.>.>.&.&.X.X.T T F D S S D A A I                                                           * + @ o o o + o 5 x K Y W E.].P.P..X.X.XE.F.M.D.D.r.$.:.:.;.*.%.E v w w t t q t q t q q q q q q q q q q q t t t t q t q t t t q q t t 5 6 7 j E E | #.$.&.&.;.>.>.>.>.,.,.,.1.1.1.1.e.m.m.e.M.r..XoXtXqXeXyXyXyXyXqXqXOXOXOXOXOX@XXXXXXXXX].).).].$XE.W.~.6.                                                                                                                                                                                  ",
"                                                                                                                                                                                                                                                                                                                                                                                            Q.#X.X,X&X[.&X,XpX2XiXiX2X2X8XfXjXdXdXdXdXdXgXdXwX3XC.C.B.B.c.c.x.x.x.x.x.x.l.l.1.1.,.,.,.,.>.>.>.>.>.;.#.O.o.| T F F F D D D A z Z                                                             + @ o o o $ o = J c Q @.P.[..X.XXX]..XP.K.r.D.D.e.$.:.:.:.:.%.E v e w t t q t q t q q q q q t t q t t t t t t t t t q t t t q q t t 6 6 7 j E E o.#.$.&.&.;.>.>.>.>.>.>.1.1.1.1.1.<.m.m.e.M.w.M.M.E.qXqXqXeXyXyXyXqX#XOXOXOXOXOX5XOXOX X).].].J.E.+XE.#XW.~.                                                                                                                                                                                ",
"                                                                                                                                                                                                                                                                                                                                                                                            !.3X[.*X&X[.1X2XiX2XiXpX2X2X8XfXdXdXdXdXdXdXdXtX,X[.C.B.B.B.B.c.x.x.x.x.x.x.l.1.1.,.,.,.,.,.,.>.>.>.;.&.O.X.| T H F S S D A S A I J                                                             * + o o o o = 7 [ q.D.I.[.[..X].].P.].I.S.y.D.D.e.$.:.:.:.:.%.E c w w t q q t q t q q q q q t t t t t t t t t t t t q t t t q q t e w 6 7 j E E o.#.$.&.&.;.>.>.>.>.>.>.,.1.1.1.,.,.m.m.m.M.e.e.w.I.qXeXyXyXyXyXyXyXeXqXqX<XOX5X5XOXOX+X XXX XP.E.#X X+X+XR.6.                                                                                                                                                                              ",
"                                                                                                                                                                                                                                                                                                                                                                                            W..X{.[.*X*X2X2XtX2X2XpXpX2X8XdXgXgXgXdXtXtXdX8X,X].B.B.B.B.x.x.x.l.l.l.x.x.1.1.,.,.,.,.,.,.,.,.,.>.;.&.O.o.T T H F F D D S A k I j                                                               * o o o X = l 6.8.S.P.P.[.[.[.XXXX].I.S.y.D.D.r.$.:.:.:.*.%.E c w q t t t t q t q q q q q t t t t t t t t t t t t q t t t q q t e w 6 7 j E o.o.#.$.&.&.>.>.>.>.>.>.>.>.<.1.1.1.,.1.e.m.M.M.M.r.H.oXqXyXyXeXeXyXyXyXeXqXOXOXOXOXOX<XOXOX.X XP.E.oXuX X XE.7.                                                                                                                                                                              ",
"                                                                                                                                                                                                                                                                                                                                                                                      Q.  D.oX<X[.[.,X&X2XiXiX2X2X2XdXdXdXgXgXgXgXgXdXtXtX,X[.L.B.B.B.x.x.x.x.x.l.x.x.x.1.1.,.,.,.,.,.,.,.,.,.>.;.&.O.o.T T H F S D S Z Z J J                                                                 . . X o = J I 7.%.w.P.].[..XP.].]. XP.S.y.y.D.w.$.-.:.:.*.%. .P w q t t t t q t q q q q t t t t t t t t t t t t t q t t t q q t e w 6 7 j E o.o.O.$.&.&.>.>.>.>.>.>.>.>.<.1.1.1.1.1.1.m.m.e.e.w.r.S.W.eXyXeXeXeXeXyXqX#XoXOXOX<XOXOXOX5XXX].].E.E.J.XX.X+XE.~.                                                                                                                                                                            ",
"                                                                                                                                                                                                                                                                                                                                                                                    Q.T.R.I..X3X[.*X1X1XpXpX2X2X8XpXfXdXgXgXgXgXgXgXdXtX<X[.L.Z.B.B.B.x.x.x.x.x.l.c.x.l.1.,.,.,.,.,.,.,.,.,.,.>.&.$.X.| T T F S D S A k J c                                                                       o o = E  .7.$.V.'.].[..XP.[.{.].P.S.y.y.D.w.$.;.:.;.*.%. .P w q t t t t q t q q q q t t q t t q q t t t t t q q t t t q q t e w 6 7 j E o.o.#.$.&.&.&.&.&.>.>.>.>.>.>.<.1.1.1.1.>.m.m.m.V.M.M.N.E.eXyXeXyXBXeXyXeXqXqXqX<X<XOXoXOXOXXXXX{.].].].<X<XOXE.W.6.                                                                                                                                                                          ",
"                                                                                                                                                                                                                                                                                                                                                                                    ~.W.I..XP..X3X3XpX1X2X2X2X8XjXdXdXdXgXgXgXgXgXgXtX2X.XL.C.B.B.B.B.x.x.x.x.l.l.x.l.l.1.,.,.,.,.,.,.,.,.,.,.>.&.#.| | H T S D S S A I J                                                                             =  . .#.:.V.L.].P..XP.[.].].J.S.y.y.D.r.$.:.:.:.:.%. .L w q t t t t q t q q q q t t t t t q q t t t t q q q t t t q q t e e 6 7 j E Q o.#.$.&.&.&.&.&.>.>.>.>.>.>.>.1.1.1.1.>.m.m.m.M.M.M.r.E.qXeXqXeXeXeXeXeXeXyXyXuX<XOXOXOXOX5X@XXX{.].].XX.X XoXW.W.                                                                                                                                                                          ",
"                                                                                                                                                                                                                                                                                                                                                                                    ~.W.E.P.P.E./.3X2X2X2X2X2X2XdXgXdXgXdXgXjXgXgXwXgX.XP.L.Z.A.Z.A.x.x.x.x.x.x.x.x.3.1.1.1.,.,.,.,.,.,.,.,.>.;.&.O.| T F F S S S S A I j                                                                               E | X.%.V.V..X].].].].[.P.H.S.r.D.D.w.%.:.:.:.:.%.6.P w e t t t q t t t t t t t q q t t t t t t t t t t t q q t t q q e w 6 7 j E E o.O.#.$.&.;.;.>.>.>.>.>.;.;.>.>.1.l.1.l.l.l.B.m.M.M.M.P.<XwXwXyXgXeXeXeXeXyXyXqX<XOX<X<XOX5X5XXX].{.].'.'.]..X.XE.D.                                                                                                                                                                        ",
"                                                                                                                                                                                                                                                                                                                                                                                    ~.W.I.P.P.E.3X2X2X2X2X2X2X2XdXgXgXgXdXgXgXgXgXwXdXP.L.L.Z.Z.Z.A.x.x.x.x.x.x.x.3.1.1.1.1.,.,.,.,.,.,.,.,.>.;.&.O.| | H F S S S S A I j                                                                               6.%.*.*.:.w.P.P.].].[.[.P.J.S.y.D.D.r.%.$.:.:.:.%.6.P 5 e t t t q t t t t t t t q q t t t t t t t t t t t q q t t q q e w 6 7 j E o.o.O.#.$.&.;.;.;.>.>.>.>.;.;.;.:.<.1.l.l.l.z.m.m.m.M.m.F.P..X3XqXyXeXeXeXeXeXyXqX<XOX<X5XOXOXOX.X].].].'.'.].{.XX XE.W.                                                                                                                                                                      ",
"                                                                                                                                                                                                                                                                                                                                                                                    ~.E.I.I.P..X2X2X2X2X2X2X2X2XgXdXdXgXdXgXgXgXgXwXdXI.C.C.C.Z.B.c.x.x.x.x.x.x.3.3.1.1.,.,.,.,.,.,.,.,.,.,.>.;.#.O.| | H F S S S S A I j                                                                               8.w.w.$.$.w.P.P.].].L.P.P.J.S.y.D.D.r.$.$.:.:.*.%.6.P 5 e t t t q t t t t t t t q t t t t q q t t q t q t t q t t q t e w 6 7 j E o.o.O.+.$.&.;.;.;.;.>.>.>.;.;.;.:.>.<.,.l.1.1.l.e.m.M.M.M.M.P..X<XyXeXeXeXeXeXyXqX<XOXXX<XOXOXOX.X].].].'.'.].].]. X+XR.9.                                                                                                                                                                    ",
"                                                                                                                                                                                                                                                                                                                                                                                    ~.E.I.I.P.3X3X2X2X2X2X2XtXdXdXwXdXgXdXgXgXgXgXtXdXI.C.C.Z.U.B.x.x.x.x.x.x.x.3.1.1.1.,.,.1.,.,.,.,.,.,.,.>.;.#.O.| | F F S S S S A I j                                                                               7.7.*.$.*.w.P.P.].].L.P.L.H.S.S.D.D.r.$.$.:.$.*.%. .P w e t t t q t t t t t t t t t t t q q t t t q q q t t q t t q t e w 6 7 j E o.o.O.#.$.&.&.;.&.;.>.>.>.;.;.&.:.>.>.,.l.1.<.z.e.m.M.M.M.M.P.oXqXeXeXeXrXrXeXwXqX<XOXXX<XXXXXOX.X].].'.].].].{.].].E.R.0.                                                                                                                                                                    "
};
