/* XPM */
static char *_f1039e4ae694178aad56c34650d9c80[] = {
/* columns rows colors chars-per-pixel */
"366 192 32 1 ",
"  c None",
". c #FCCCB0",
"X c #FCBC9C",
"o c #FCB890",
"O c #FCB080",
"+ c #FCA470",
"@ c #FC9C60",
"# c #F0945C",
"$ c #E88C58",
"% c #DC8854",
"& c #D08050",
"* c #C87C4C",
"= c #BC7848",
"- c #B47044",
"; c #A86840",
": c #9C6038",
"> c #885830",
", c black",
"< c black",
"1 c black",
"2 c black",
"3 c black",
"4 c black",
"5 c black",
"6 c black",
"7 c black",
"8 c black",
"9 c black",
"0 c black",
"q c black",
"w c black",
"e c black",
/* pixels */
"                                                                                                                                                                                                                                                                                                                                                                              ",
"                                                                                                                                                                                                                                                                                                                                                                              ",
"                                                                                                                                                                                                                                                                                                                                                                              ",
"                                                                                                                                                                                                                                                                                                                                                                              ",
"                                                                                                                                                                                                                                                                                                                                                                              ",
"                                                                                                                                                                                                                                                                                                                                                                              ",
"                                                                                                                                                                                                                                                                                                                                                                              ",
"                                                                                                                                                                                                                                                                                                                                                                              ",
"                                                                                                                                                                                                                                                                                                                                                                              ",
"                                                                                                                                                                                                                                                                                                                                                                              ",
"                                                                                                                                                                                                                                                                                                                                                                              ",
"                                                                                                                                                                                                                                                                                                                                                                              ",
"                                                                                                                                                                                                                                                                                                                                                                              ",
"                                                                                                                                                                                                                                                                                                                                                                              ",
"                                                                                                                                                                                                                                                                                                                                                                              ",
"                                                                                                                                                                                                                                                                                                                                                                              ",
"                                                                                                                                                                                                                                                                                                                                                                              ",
"                                                                                                                                                                                                                                                                                                                                                                              ",
"                                                                                                                                                                                                                                                                                                                                                                              ",
"                                                                                                                                                                                                                                                                                                                                                                              ",
"                                                                                                                                                                                                                                                                                                                                                                              ",
"                                                                                                                                                                                                                                                                                                                                                                              ",
"                                                                                                                                                                                                                                                                                                                                                                              ",
"                                                                                                                                                                                                                                                                                                                                                                              ",
"                                                                                                                                                                                                                                                                                                                                                                              ",
"                                                                                                                                                                                                                                                                                                                                                                              ",
"                                                                                                                                                                                                                                                                                                                                                                              ",
"                                                                                                                                                                                                                                                                                                                                                                              ",
"                                                                                                                                                                                                                                                                                                                                                                              ",
"                                                                                                                                                                                                                                                                                                                                                                              ",
"                                                                                                                                                                                                                                                                                                                                                                              ",
"                                                                                                                                                                                                                                                                                                                                                                              ",
"                                                                                                                                                                                                                                                                                                                                                                              ",
"                                                                                                                                                                                                                                                                                                                                                                              ",
"                                                                                                                                                                                                                                                                                                                                                                              ",
"                                                                                                                                                                                                                                                                                                                                                                              ",
"                                                                                                                                                                                                                                                                                                                                                                              ",
"                                                                                                                                                                                                                                                                                                                                                                              ",
"                                                                                                                                                                                                                                                                                                                                                                              ",
"                                                                                                                                                                                                                                                                                                                                                                              ",
"                                                                                                                                                                                                                                                                                                                                                                              ",
"                                                                                                                                                                                                                                                                                                                                                                              ",
"                                                                                                                                                                                                                                                                                                                                                                              ",
"                                                                                                                                                                                                                                                                                                                                                                              ",
"                                                                                                                                                                                                                                                                                                                                                                              ",
"                                                                                                                                                                                                                                                                                                                                                                              ",
"                                                                                                                                                                                                                                                                                                                                                                              ",
"                                                                                                                                                                                                                                                                                                                                                                              ",
"                                                                                                                                                                                                                                                                                                                                                                              ",
"                                                                                                                                                                                                                                                                                                                                                                              ",
"                                                                                                                                                                                                                                                                                                                                                                              ",
"                                                                                                                                                                                                                                                                                                                                                                              ",
"                                                                                                                                                                                                                                                                                                                                                                              ",
"                                                                                                                                                                                                                                                                                                                                                                              ",
"                                                                                                                                                                                                                                                                                                                                                                              ",
"                                                                                                                                                                                                                                                                                                                                                                              ",
"                                                                                                                                                                                                                                                                                                                                                                              ",
"                                                                                                                                                                                                                                                                                                                                                                              ",
"                                                                                                                                                                                                                                                                                                                                                                              ",
"                                                                                                                                                                                                                                                                                                                                                                              ",
"                                                                                                                                                                                                                                                                                                                                                                              ",
"                                                                                                                                                                                                                                                                                                                                                                              ",
"                                                                                                                                                                                                                                                                                                                                                                              ",
"                                                                                                                                                                                                                                                                                                                                                                              ",
"                                                                                                                                                                                                                                                                                                                                                                              ",
"                                                                                                                                                                                                                                                                                                                                                                              ",
"                                                                                                                                                                                                                                                                                                                                                                              ",
"                                                                                                                                                                                                                                                                                                                                                                              ",
"                                                                                                                                                                                                                                                                                                                                                                              ",
"                                                                                                                                                                                                                                                                                                                                                                              ",
"                                                                                                                                                                                                                                                                                                                                                                              ",
"                                                                                                                                                                                                                                                                                                                                                                              ",
"                                                                                                                                                                                                                                                                                                                                                                              ",
"                                                                                                                                                                                                                                                                                                                                                                              ",
"                                                                                                                                                                                                                                                                                                                                                                              ",
"                                                                                                                                                                                                                                                                                                                                                                              ",
"                                                                                                                                                                                                                                                                                                                                                                              ",
"                                                                                                                                                                                                                                                                                                                                                                              ",
"                                                                                                                                                                                                                                                                                                                                                                              ",
"                                                                                                                                                                                                                                                                                                                                                                              ",
"                                                                                                                                                                                                                                                                                                                                                                              ",
"                                                                                                                                                                                                                                                                                                                                                                              ",
"                                                                                                                                                                                                                                                                                                                                                                              ",
"                                                                                                                                                                                                                                                                                                                                                                              ",
"                                                                                                                                                                                                                                                                                                                                                                              ",
"                                                                                                                                                                                                                                                                                                                                                                              ",
"                                                                                                                                                                                                                                                                                                                                                                              ",
"                                                                                                                                                                                                                                                                                                                                                                              ",
"                                                                                                                                                                                                                                                                                                                                                                              ",
"                                                                                                                                                                                                                                                                                                                                                                              ",
"                                                                                                                                                                                                                                                                                                                                                                              ",
"                                                                                                                                                                                                                                                                                                                                                                              ",
"                                                                                                                                                                                                                                                                                                                                                                              ",
"                                                                                                                                                                                                                                                                                                                                                                              ",
"                                                                                                                                                                                                                                                                                                                                                                              ",
"                                                                                                                                                                                                                                                                                                                                                                              ",
"                                                                                                                                                                                                                                                                                                                                                                              ",
"                                                                                                                                                                                                                                                                                                                                                                              ",
"                                                                                                                                                                                                                                                                                                                                                                              ",
"                                                                                                                                                                                                                                                                                                                                                                              ",
"                                                                                                                                                                                                                                                                                                                                                                              ",
"                                                                                                                                                                                                                                                                                                                                                                              ",
"                                                                                                                                                                                                                                                                                                                                                                              ",
"                                                                                                                                                                                                                                                                                                                                                                              ",
"                                                                                                                                                                                                                                                                                                                                                                              ",
"                                                                                                                                                                                                                                                                                                                                                                              ",
"                                                                                                                                                                                                                                                                                                                                                                              ",
"                                                                                                                                                                                                                                                                                                                                                                              ",
"                                                                                                                                                                                                                                                                                                                                                                              ",
"                                                                                                                                                                                                                                                                                                                                                                              ",
"                                                                                                                                                                                                                                                                                                                                                                              ",
"                                                                                                                                                                                                                                                                                                                                                                              ",
"                                                                                                                                                                                                                                                                                                                                                                              ",
"                                                                                                                                                                                                                                                                                                                                                                              ",
"                                                                                                                                                                                                                                                                                                                                                                              ",
"                                                                                                                                                                                                                                                                                                                                                                              ",
"                                                                                                                                                                                                                                                                                                                                                                              ",
"                                                                                                                                                                                                                                                                                                                                                                              ",
"                                                                                                                                                                                                                                                                                                                                                                              ",
"                                                                                                                                                                                                                                                                                                                                                                              ",
"                                                                                                                                                                                                                                                                                                                                                                              ",
"                                                                                                                                                                                                                                                                                                                                                                              ",
"                                                                                                                                                                                                                                                                                                                                                                              ",
"                                                                                                                                                                                                                                                                                                                                                                              ",
"                                                                                                                                                                                                                                                                                                                                                                              ",
"                                                                                                                                                                                                                                                                                                                                                                              ",
"                                                                                                                                                                                                                                                                                                                                                                              ",
"                                                                                                                                                                                                                                                                                                                                                                              ",
"                                                                                                                                                                                                                                                                                                                                                                              ",
"                                                                                                                                                                                                                                                                                                                                                                              ",
"                                                                                                                                                                                                                                                                                                                                                                              ",
"                                                                                                                                                                                                                                                                                                                                                                              ",
"                                                                                                                                                                                                                                                                                                                                                                              ",
"                                                                                                                                                                                                                                                                                                                                                                              ",
"                                                                                                                                                                                                                                                                                                                                                                              ",
"                                                                                                                                                                                                                                                                                                                                                                              ",
"                                                                                                                                                                                                                                                                                                                                                                              ",
"                                                                                                                                                                                                                                                                                                                                                                              ",
"                                                                                                                                                                                                                                                                                                                                                                              ",
"                                                                                                                                                                                                                                                                                                                                                                              ",
"                                                                                                                                                                                                                                                                                                                                                                              ",
"                                                                                                                                                                                                                                                   +++###                                                                                                                     ",
"                                                                                                                                                                                                                                                   +++###                                                                                                                     ",
"                                                                                                                                                                                                                                                   +++###                                                                                                                     ",
"                                                                                                                                                                                                                                          ++++++++++++@@@###                                                                                                                  ",
"                                                                                                                                                                                                                                          ++++++++++++@@@###                                                                                                                  ",
"                                                                                                                                                                                                                                          ++++++++++++@@@###                                                                                                                  ",
"                                                                                                                                                                                                                                       @@@@@@++++++++++++@@@###&&&***************:::                                                                                          ",
"                                                                                                                                                                                                                                       @@@@@@++++++++++++@@@###&&&***************:::                                                                                          ",
"                                                                                                                                                                                                                                       @@@@@@++++++++++++@@@###&&&***************:::                                                                                          ",
"                                                                                                                                                                                                                                    &&&%%%###@@@+++OOOOOOOOO@@@$$$&&&&&&*********---                                                                                          ",
"                                                                                                                                                                                                                                    &&&%%%###@@@+++OOOOOOOOO@@@$$$&&&&&&*********---                                                                                          ",
"                                                                                                                                                                                                                                    &&&%%%###@@@+++OOOOOOOOO@@@$$$&&&&&&*********---                                                                                          ",
"                                                                                                                                                                                                               +++++++++++++++@@@   ***&&&%%%###@@@OOOOOOOOO+++@@@###%%%&&&*********:::>>>                                                                                    ",
"                                                                                                                                                                                                               +++++++++++++++@@@   ***&&&%%%###@@@OOOOOOOOO+++@@@###%%%&&&*********:::>>>                                                                                    ",
"                                                                                                                                                                                                               +++++++++++++++@@@   ***&&&%%%###@@@OOOOOOOOO+++@@@###%%%&&&*********:::>>>                                                                                    ",
"                                                                                                                                                                                                            +++OOOOOOOOOOOO+++@@@&&&******&&&&&&###+++OOOOOOOOO+++@@@###$$$&&&&&&&&&---:::>>>>>>                                                                              ",
"                                                                                                                                                                                                            +++OOOOOOOOOOOO+++@@@&&&******&&&&&&###+++OOOOOOOOO+++@@@###$$$&&&&&&&&&---:::>>>>>>                                                                              ",
"                                                                                                                                                                                                            +++OOOOOOOOOOOO+++@@@&&&******&&&&&&###+++OOOOOOOOO+++@@@###$$$&&&&&&&&&---:::>>>>>>                                                                              ",
"                                                                                                                                                                                                               oooXXXXXXoooOOO+++%%%***===******===%%%###+++++++++OOO+++@@@#########&&&---:::>>>                                                                              ",
"                                                                                                                                                                                                               oooXXXXXXoooOOO+++%%%***===******===%%%###+++++++++OOO+++@@@#########&&&---:::>>>                                                                              ",
"                                                                                                                                                                                                               oooXXXXXXoooOOO+++%%%***===******===%%%###+++++++++OOO+++@@@#########&&&---:::>>>                                                                              ",
"                                                                                                                                                                                                               ......XXXXXXOOOOOO###***;;;;;;;;;;;;---&&&%%%@@@OOOOOOOOOOOO+++@@@@@@###&&&---:::>>>                                                                           ",
"                                                                                                                                                                                                               ......XXXXXXOOOOOO###***;;;;;;;;;;;;---&&&%%%@@@OOOOOOOOOOOO+++@@@@@@###&&&---:::>>>                                                                           ",
"                                                                                                                                                                                                               ......XXXXXXOOOOOO###***;;;;;;;;;;;;---&&&%%%@@@OOOOOOOOOOOO+++@@@@@@###&&&---:::>>>                                                                           ",
"                                                                                                                                                                                                                  ...XXXXXXOOO+++###===;;;::::::>>>>>>;;;***###OOOoooXXXoooOOO++++++@@@%%%***---::::::                                                                        ",
"                                                                                                                                                                                                                  ...XXXXXXOOO+++###===;;;::::::>>>>>>;;;***###OOOoooXXXoooOOO++++++@@@%%%***---::::::                                                                        ",
"                                                                                                                                                                                                                  ...XXXXXXOOO+++###===;;;::::::>>>>>>;;;***###OOOoooXXXoooOOO++++++@@@%%%***---::::::                                                                        ",
"                                                                                                                                                                                                                     ooooooOOO+++###***------;;;:::>>>:::---%%%+++oooXXXXXXoooOOO+++@@@###%%%***---;;;:::                                                                     ",
"                                                                                                                                                                                                                     ooooooOOO+++###***------;;;:::>>>:::---%%%+++oooXXXXXXoooOOO+++@@@###%%%***---;;;:::                                                                     ",
"                                                                                                                                                                                                                     ooooooOOO+++###***------;;;:::>>>:::---%%%+++oooXXXXXXoooOOO+++@@@###%%%***---;;;:::                                                                     ",
"                                                                                                                                                                                                                           ++++++###%%%%%%%%%===;;;>>>:::;;;&&&@@@OOOXXX...XXXoooOOO+++@@@###%%%&&&---:::>>>                                                                  ",
"                                                                                                                                                                                                                           ++++++###%%%%%%%%%===;;;>>>:::;;;&&&@@@OOOXXX...XXXoooOOO+++@@@###%%%&&&---:::>>>                                                                  ",
"                                                                                                                                                                                                                           ++++++###%%%%%%%%%===;;;>>>:::;;;&&&@@@OOOXXX...XXXoooOOO+++@@@###%%%&&&---:::>>>                                                                  ",
"                                                                                                                                                                                                                              +++@@@@@@@@@+++###===::::::;;;***###+++oooXXX...XXXoooOOO+++@@@###&&&***---                                                                     ",
"                                                                                                                                                                                                                              +++@@@@@@@@@+++###===::::::;;;***###+++oooXXX...XXXoooOOO+++@@@###&&&***---                                                                     ",
"                                                                                                                                                                                                                              +++@@@@@@@@@+++###===::::::;;;***###+++oooXXX...XXXoooOOO+++@@@###&&&***---                                                                     ",
"                                                                                                                                                                                                                              +++++++++++++++@@@%%%---;;;---***%%%@@@OOOXXX......XXXOOO++++++@@@%%%&&&***:::                                                                  ",
"                                                                                                                                                                                                                              +++++++++++++++@@@%%%---;;;---***%%%@@@OOOXXX......XXXOOO++++++@@@%%%&&&***:::                                                                  ",
"                                                                                                                                                                                                                              +++++++++++++++@@@%%%---;;;---***%%%@@@OOOXXX......XXXOOO++++++@@@%%%&&&***:::                                                                  ",
"                                                                                                                                                                                                                              +++++++++++++++@@@@@@%%%&&&***&&&%%%@@@OOOXXX......XXXoooOOO+++@@@###&&&******                                                                  ",
"                                                                                                                                                                                                                              +++++++++++++++@@@@@@%%%&&&***&&&%%%@@@OOOXXX......XXXoooOOO+++@@@###&&&******                                                                  ",
"                                                                                                                                                                                                                              +++++++++++++++@@@@@@%%%&&&***&&&%%%@@@OOOXXX......XXXoooOOO+++@@@###&&&******                                                                  ",
"                                                                                                                                                                                                                                 ++++++++++++++++++@@@###%%%&&&&&&%%%OOOXXX.........XXXOOO++++++###%%%******                                                                  ",
"                                                                                                                                                                                                                                 ++++++++++++++++++@@@###%%%&&&&&&%%%OOOXXX.........XXXOOO++++++###%%%******                                                                  ",
"                                                                                                                                                                                                                                 ++++++++++++++++++@@@###%%%&&&&&&%%%OOOXXX.........XXXOOO++++++###%%%******                                                                  ",
"                                                                                                                                                                                                                                 ###++++++++++++OOOOOOOOO@@@%%%&&&%%%OOOXXX.........XXXoooOOO+++###%%%******;;;                                                               ",
"                                                                                                                                                                                                                                 ###++++++++++++OOOOOOOOO@@@%%%&&&%%%OOOXXX.........XXXoooOOO+++###%%%******;;;                                                               ",
"                                                                                                                                                                                                                                 ###++++++++++++OOOOOOOOO@@@%%%&&&%%%OOOXXX.........XXXoooOOO+++###%%%******;;;                                                               ",
"                                                                                                                                                                                                                                    +++++++++OOOooooooOOOOOO@@@######OOOXXX............XXXOOO+++###%%%******---:::                                                            ",
"                                                                                                                                                                                                                                    +++++++++OOOooooooOOOOOO@@@######OOOXXX............XXXOOO+++###%%%******---:::                                                            ",
"                                                                                                                                                                                                                                    +++++++++OOOooooooOOOOOO@@@######OOOXXX............XXXOOO+++###%%%******---:::                                                            "
};
