/* XPM */
static char *_2649d6ea17948e3c74c3296c2743e220z8RyHBZvtylFwqh[] = {
/* columns rows colors chars-per-pixel */
"366 192 26 1 ",
"  c None",
". c gray22",
"X c #484848",
"o c gray33",
"O c #7C7C7C",
"+ c #885830",
"@ c #9C6038",
"# c #A86840",
"$ c #B47044",
"% c #BC7848",
"& c #C87C4C",
"* c #D08050",
"= c #DC8854",
"- c #E88C58",
"; c #F0945C",
": c #FC9C60",
"> c #FCA470",
", c gray66",
"< c #FCB080",
"1 c #FCB890",
"2 c #FCBC9C",
"3 c #FCCCB0",
"4 c #C0C0C0",
"5 c #D0D0D0",
"6 c gainsboro",
"7 c gray99",
/* pixels */
"                                                                                                                                                                                                                                                                                                                                                                              ",
"                                                                                                                                                                                                                                                                                                                                                                              ",
"                                                                                                                                                                                                                                                                                                                                                                              ",
"                                                                                                                                                                                                                                                                                                                                                                              ",
"                                                                                                                                                                                                                                                                                                                                                                              ",
"                                                                                                                                                                                                                                                                                                                                                                              ",
"                                                                                                                                                                                                                                                                                                                                                                              ",
"                                                                                                                                                                                                                                                                                                                                                                              ",
"                                                                                                                                                                                                                                                                                                                                                                              ",
"                                                                                                                                                                                                                                                                                                                                                                              ",
"                                                                                                                                                                                                                                                                                                                                                                              ",
"                                                                                                                                                                                                                                                                                                                                                                              ",
"                                                                                                                                                                                                                                                                                                                                                                              ",
"                                                                                                                                                                                                                                                                                                                                                                              ",
"                                                                                                                                                                                                                                                                                                                                                                              ",
"                                                                                                                                                                                                                                                                                                                                                                              ",
"                                                                                                                                                                                                                                                                                                                                                                              ",
"                                                                                                                                                                                                                                                                                                                                                                              ",
"                                                                                                                                                                                                                                                                                                                                                                              ",
"                                                                                                                                                                                                                                                                                                                                                                              ",
"                                                                                                                                                                                                                                                                                                                                                                              ",
"                                                                                                                                                                                                                                                                                                                                                                              ",
"                                                                                                                                                                                                                                                                                                                                                                              ",
"                                                                                                                                                                                                                                                                                                                                                                              ",
"                                                                                                                                                                                                                                                                                                                                                                              ",
"                                                                                                                                                                                                                                                                                                                                                                              ",
"                                                                                                                                                                                                                                                                                                                                                                              ",
"                                                                                                                                                                                                                                                                                                                                                                              ",
"                                                                                                                                                                                                                                                                                                                                                                              ",
"                                                                                                                                                                                                                                                                                                                                                                              ",
"                                                                                                                                                                                                                                                                                                                                                                              ",
"                                                                                                                                                                                                                                                                                                                                                                              ",
"                                                                                                                                                                                                                                                                                                                                                                              ",
"                                                                                                                                                                                                                                                                                                                                                                              ",
"                                                                                                                                                                                                                                                                                                                                                                              ",
"                                                                                                                                                                                                                                                                                                                                                                              ",
"                                                                                                                                                                                                                                                                                                                                                                              ",
"                                                                                                                                                                                                                                                                                                                                                                              ",
"                                                                                                                                                                                                                                                                                                                                                                              ",
"                                                                                                                                                                                                                                                                                                                                                                              ",
"                                                                                                                                                                                                                                                                                                                                                                              ",
"                                                                                                                                                                                                                                                                                                                                                                              ",
"                                                                                                                                                                                                                                                                                                                                                                              ",
"                                                                                                                                                                                                                                                                                                                                                                              ",
"                                                                                                                                                                                                                                                                                                                                                                              ",
"                                                                                                                                                                                                                                                                                                                                                                              ",
"                                                                                                                                                                                                                                                                                                                                                                              ",
"                                                                                                                                                                                                                                                                                                                                                                              ",
"                                                                                                                                                                                                                                                                                                                                                                              ",
"                                                                                                                                                                                                                                                                                                                                                                              ",
"                                                                                                                                                                                                                                                                                                                                                                              ",
"                                                                                                                                                                                                                                                                                                                                                                              ",
"                                                                                                                                                                                                                                                                                                                                                                              ",
"                                                                                                                                                                                                                                                                                                                                                                              ",
"                                                                                                                                                                                                                                                                                                                                                                              ",
"                                                                                                                                                                                                                                                                                                                                                                              ",
"                                                                                                                                                                                                                                                                                                                                                                              ",
"                                                                                                                                                                                                                                                                                                                                                                              ",
"                                                                                                                                                                                                                                                                                                                                                                              ",
"                                                                                                                                                                                                                                                                                                                                                                              ",
"                                                                                                                                                                                                                                                                                                                                                                              ",
"                                                                                                                                                                                                                                                                                                                                                                              ",
"                                                                                                                                                                                                                                                                                                                                                                              ",
"                                                                                                                                                                                                                                                                                                                                                                              ",
"                                                                                                                                                                                                                                                                                                                                                                              ",
"                                                                                                                                                                                                                                                                                                                                                                              ",
"                                                                                                                                                                                                                                                                                                                                                                              ",
"                                                                                                                                                                                                                                                                                                                                                                              ",
"                                                                                                                                                                                                                                                                                                                                                                              ",
"                                                                                                                                                                                                                                                                                                                                                                              ",
"                                                                                                                                                                                                                                                                                                                                                                              ",
"                                                                                                                                                                                                                                                                                                                                                                              ",
"                                                                                                                                                                                                                                                                                                                                                                              ",
"                                                                                                                                                                                                                                                                                                                                                                              ",
"                                                                                                                                                                                                                                                                                                                                                                              ",
"                                                                                                                                                                                                                                                                                                                                                                              ",
"                                                                                                                                                                                                                                                                                                                                                                              ",
"                                                                                                                                                                                                                                                                                                                                                                              ",
"                                                                                                                                                                                                                                                                                                                                                                              ",
"                                                                                                                                                                                                                                                                                                                                                                              ",
"                                                                                                                                                                                                                                                                                                                                                                              ",
"                                                                                                                                                                                                                                                                                                                                                                              ",
"                                                                                                                                                                                                                                                                                                                                                                              ",
"                                                                                                                                                                                                                                                                                                                                                                              ",
"                                                                                                                                                                                                                                                                                                                                                                              ",
"                                                                                                                                                                                                                                                                                                                                                                              ",
"                                                                                                                                                                                                                                                                                                                                                                              ",
"                                                                                                                                                                                                                                                                                                                                                                              ",
"                                                                                                                                                                                                                                                                                                                                                                              ",
"                                                                                                                                                                                                                                                                                                                                                                              ",
"                                                                                                                                                                                                                                                                                                                                                                              ",
"                                                                                                                                                                                                                                                                                                                                                                              ",
"                                                                                                                                                                                                                                                                                                                                                                              ",
"                                                                                                                                                                                                                                                                                                                                                                              ",
"                                                                                                                                                                                                                                                                                                                                                                              ",
"                                                                                                                                                                                                                                                                                                                                                                              ",
"                                                                                                                                                                                                                                                                                                                                                                              ",
"                                                                                                                                                                                                                                                                                                                                                                              ",
"                                                                                                                                                                                                                                                                                                                                                                              ",
"                                                                                                                                                                                                                                                                                                                                                                              ",
"                                                                                                                                                                                                                                                                                                                                                                              ",
"                                                                                                                                                                                                                                                                                                                                                                              ",
"                                                                                                                                                                                                                                                                                                                                                                              ",
"                                                                                                                                                                                                                                                                                                                                                                              ",
"                                                                                                                                                                                                                                                                                                                                                                              ",
"                                                                                                                                                                                                                                                                                                                                                                              ",
"                                                                                                                                                                                                                                                                                                                                                                              ",
"                                                                                                                                                                                                                                                                                                                                                                              ",
"                                                                                                                                                                                                                                                                                                                                                                              ",
"                                                                                                                                                                                                                                                                                                                                                                              ",
"                                                                                                                                                                                                                                                                                                                                                                              ",
"                                                                                                                                                                                                                                                                                                                                                                              ",
"                                                                                                                                                                                                                                                                                                                                                                              ",
"                                                                                                                                                                                                                                                                                                                                                                              ",
"                                                                                                                                                                                                                                                                                                                                                                              ",
"                                                                                                                                                                                                                                                                                                                                                                              ",
"                                                                                                                                                                                                                                                                                                                                                                              ",
"                                                                                                                                                                                                                                                                                                                                                                              ",
"                                                                                                                                                                                                                                                                                                                                                                              ",
"                                                                                                                                                                                                                                                                                                                                                                              ",
"                                                                                                                                                                                                                                                                                                                                                                              ",
"                                                                                                                                                                                                                                                                                                                                                                              ",
"                                                                                                                                                                                                                                                                                                                                                                              ",
"                                                                                                                                                                                                                                                                                                                                                                              ",
"                                                                                                                                                                                                                                                                                                                                                                              ",
"                                                                                                                                                                                                                                                                                                                                                                              ",
"                                                                                                                                                                                                                                                                                                                                                                              ",
"                                                                                                                                                                                                                                                                                                                                                                              ",
"                                                                                                                                                                                                                                                                                                                                                                              ",
"                                                                                                                                                                                                                                                                                                                                                                              ",
"                                                                                                                                                                                                                                                                                                                                                                              ",
"                                                                                                                                                                                                                                                                                                                                                                              ",
"                                                                                                                                                                                                                                                                                                                                                                              ",
"                                                                                                                                                                                                                                                                                                                                                                              ",
"                                                                                                                                                                                                                                                                                                                                                                              ",
"                                                                                                                                                                                                                                                                                                                                                                              ",
"                                                                                                                                                                                                                                                                                                                                                                              ",
"                                                                                                                                                                                                                                                                                                                                                                              ",
"                                                                                                                                                                                                                                                                                                                                                                              ",
"                                                                                                                                                                                                                                                                                                                                                                              ",
"                                                                                                                                                                                                                                                                                                                                                                              ",
"                                                                                                                                                                                                                                                                                                                                                                              ",
"                                                                                                                                                                                                                                                                                                                                                                              ",
"                                                                                                                                                                                                                                                                                                                                                                              ",
"                                                                                                                                                                                                ,,,                                                                                                                                                                           ",
"                                                                                                                                                                                                ,,,                                                                                                                                                                           ",
"                                                                                                                                                                                                ,,,                                                                                                                                                                           ",
"                                                                                                                                                                                                777ooo                                                                                                                                                                        ",
"                                                                                                                                                                                                777ooo                                                                                                                                                                        ",
"                                                                                                                                                                                                777ooo                                                                                                                                                                        ",
"                                                                                                                                                                                                777,,,ooo                                                                                                                                                                     ",
"                                                                                                                                                                                                777,,,ooo                                                                                                                                                                     ",
"                                                                                                                                                                                                777,,,ooo                                                                                                                                                                     ",
"                                                                                                                                                                                                777,,,,,,ooo                                                                                                                                                                  ",
"                                                                                                                                                                                                777,,,,,,ooo                                                                                                                                                                  ",
"                                                                                                                                                                                                777,,,,,,ooo                                                                                                                                                                  ",
"                                                                                                                                                                                                777444,,,,,,ooo                                                                                                                                                               ",
"                                                                                                                                                                                                777444,,,,,,ooo                                                                                                                                                               ",
"                                                                                                                                                                                                777444,,,,,,ooo                                                                                                                                                               ",
"                                                                                                                                                                                                777666,,,,,,,,,ooo                                                                                                                                                            ",
"                                                                                                                                                                                                777666,,,,,,,,,ooo                                                                                                                                                            ",
"                                                                                                                                                                                                777666,,,,,,,,,ooo                                                                                                                                                            ",
"                                                                                                                                                                                                555777444,,,,,,,,,ooo                                                                                                                                                         ",
"                                                                                                                                                                                                555777444,,,,,,,,,ooo                                                                                                                                                         ",
"                                                                                                                                                                                                555777444,,,,,,,,,ooo                                                                                                                                                         ",
"                                                                                                                                                                                                   777666,,,,,,,,,OOOooo                                                                                                                                                      ",
"                                                                                                                                                                                                   777666,,,,,,,,,OOOooo                                                                                                                                                      ",
"                                                                                                                                                                                                   777666,,,,,,,,,OOOooo                                                                                                                                                      ",
"                                                                                                                                                                                                   555777444,,,,,,,,,OOOooo                                                                                                                                                   ",
"                                                                                                                                                                                                   555777444,,,,,,,,,OOOooo                                                                                                                                                   ",
"                                                                                                                                                                                                   555777444,,,,,,,,,OOOooo                                                                                                                                                   ",
"                                                                                                                                                                                                      777666444,,,,,,,,,OOOooo                                                                                                                                                ",
"                                                                                                                                                                                                      777666444,,,,,,,,,OOOooo                                                                                                                                                ",
"                                                                                                                                                                                                      777666444,,,,,,,,,OOOooo                                                                                                                                                ",
"                                                                                                                                                                                                         777666,,,,,,,,,,,,OOOooo                                                                                                                                             ",
"                                                                                                                                                                                                         777666,,,,,,,,,,,,OOOooo                                                                                                                                             ",
"                                                                                                                                                                                                         777666,,,,,,,,,,,,OOOooo                                                                                                                                             ",
"                                                                                                         >>>222<<<<<<222222222                                                                           OOOooooooXXXXXXXXXXXXXXXXXXXXXXXXXXXXXX                                                                                                                              ",
"                                                                                                         >>>222<<<<<<222222222                                                                           OOOooooooXXXXXXXXXXXXXXXXXXXXXXXXXXXXXX                                                                                                                              ",
"                                                                                                         >>>222<<<<<<222222222                                                                           OOOooooooXXXXXXXXXXXXXXXXXXXXXXXXXXXXXX                                                                                                                              ",
"                                                                                                   <<<>>><<<<<<<<<<<<<<<<<<<<<222                                                               oooXXX.......................................XXX                                                                                                                              ",
"                                                                                                   <<<>>><<<<<<<<<<<<<<<<<<<<<222                                                               oooXXX.......................................XXX                                                                                                                              ",
"                                                                                                   <<<>>><<<<<<<<<<<<<<<<<<<<<222                                                               oooXXX.......................................XXX                                                                                                                              ",
"                                                                                                222:::>>>>>>111111<<<>>>===>>>222                                                            ooo...............:::111333333222<<<:::%%%@@@...XXX                                                                                                                              ",
"                                                                                                222:::>>>>>>111111<<<>>>===>>>222                                                            ooo...............:::111333333222<<<:::%%%@@@...XXX                                                                                                                              ",
"                                                                                                222:::>>>>>>111111<<<>>>===>>>222                                                            ooo...............:::111333333222<<<:::%%%@@@...XXX                                                                                                                              ",
"                                                                                             222;;;;;;:::>>>111222<<<===&&&***                                                               XXX.........+++:::333333333333333111<<<:::---$$$                                                                                                                                 ",
"                                                                                             222;;;;;;:::>>>111222<<<===&&&***                                                               XXX.........+++:::333333333333333111<<<:::---$$$                                                                                                                                 ",
"                                                                                             222;;;;;;:::>>>111222<<<===&&&***                                                               XXX.........+++:::333333333333333111<<<:::---$$$                                                                                                                                 ",
"                                                                                          222;;;======:::>>>111222222===###                                                                        ......---111333333333333333222<<<<<<:::---%%%                                                                                                                              ",
"                                                                                          222;;;======:::>>>111222222===###                                                                        ......---111333333333333333222<<<<<<:::---%%%                                                                                                                              ",
"                                                                                          222;;;======:::>>>111222222===###                                                                        ......---111333333333333333222<<<<<<:::---%%%                                                                                                                              "
};
