/* XPM */
static char *_3ef5be958eb4956b0fcb46a0a801ee4[] = {
/* columns rows colors chars-per-pixel */
"366 192 32 1 ",
"  c None",
". c #FCCCB0",
"X c #FCBC9C",
"o c #FCB890",
"O c #FCB080",
"+ c #FCA470",
"@ c #FC9C60",
"# c #F0945C",
"$ c #E88C58",
"% c #DC8854",
"& c #D08050",
"* c #C87C4C",
"= c #BC7848",
"- c #B47044",
"; c #A86840",
": c #9C6038",
"> c #885830",
", c black",
"< c black",
"1 c black",
"2 c black",
"3 c black",
"4 c black",
"5 c black",
"6 c black",
"7 c black",
"8 c black",
"9 c black",
"0 c black",
"q c black",
"w c black",
"e c black",
/* pixels */
"                                                                                                                                                                                                                                                                                                                                                                              ",
"                                                                                                                                                                                                                                                                                                                                                                              ",
"                                                                                                                                                                                                                                                                                                                                                                              ",
"                                                                                                                                                                                                                                                                                                                                                                              ",
"                                                                                                                                                                                                                                                                                                                                                                              ",
"                                                                                                                                                                                                                                                                                                                                                                              ",
"                                                                                                                                                                                                                                                                                                                                                                              ",
"                                                                                                                                                                                                                                                                                                                                                                              ",
"                                                                                                                                                                                                                                                                                                                                                                              ",
"                                                                                                                                                                                                                                                                                                                                                                              ",
"                                                                                                                                                                                                                                                                                                                                                                              ",
"                                                                                                                                                                                                                                                                                                                                                                              ",
"                                                                                                                                                                                                                                                                                                                                                                              ",
"                                                                                                                                                                                                                                                                                                                                                                              ",
"                                                                                                                                                                                                                                                                                                                                                                              ",
"                                                                                                                                                                                                                                                                                                                                                                              ",
"                                                                                                                                                                                                                                                                                                                                                                              ",
"                                                                                                                                                                                                                                                                                                                                                                              ",
"                                                                                                                                                                                                                                                                                                                                                                              ",
"                                                                                                                                                                                                                                                                                                                                                                              ",
"                                                                                                                                                                                                                                                                                                                                                                              ",
"                                                                                                                                                                                                                                                                                                                                                                              ",
"                                                                                                                                                                                                                                                                                                                                                                              ",
"                                                                                                                                                                                                                                                                                                                                                                              ",
"                                                                                                                                                                                                                                                                                                                                                                              ",
"                                                                                                                                                                                                                                                                                                                                                                              ",
"                                                                                                                                                                                                                                                                                                                                                                              ",
"                                                                                                                                                                                                                                                                                                                                                                              ",
"                                                                                                                                                                                                                                                                                                                                                                              ",
"                                                                                                                                                                                                                                                                                                                                                                              ",
"                                                                                                                                                                                                                                                                                                                                                                              ",
"                                                                                                                                                                                                                                                                                                                                                                              ",
"                                                                                                                                                                                                                                                                                                                                                                              ",
"                                                                                                                                                                                                                                                                                                                                                                              ",
"                                                                                                                                                                                                                                                                                                                                                                              ",
"                                                                                                                                                                                                                                                                                                                                                                              ",
"                                                                                                                                                                                                                                                                                                                                                                              ",
"                                                                                                                                                                                                                                                                                                                                                                              ",
"                                                                                                                                                                                                                                                                                                                                                                              ",
"                                                                                                                                                                                                                                                                                                                                                                              ",
"                                                                                                                                                                                                                                                                                                                                                                              ",
"                                                                                                                                                                                                                                                                                                                                                                              ",
"                                                                                                                                                                                                                                                                                                                                                                              ",
"                                                                                                                                                                                                                                                                                                                                                                              ",
"                                                                                                                                                                                                                                                                                                                                                                              ",
"                                                                                                                                                                                                                                                                                                                                                                              ",
"                                                                                                                                                                                                                                                                                                                                                                              ",
"                                                                                                                                                                                                                                                                                                                                                                              ",
"                                                                                                                                                                                                                                                                                                                                                                              ",
"                                                                                                                                                                                                                                                                                                                                                                              ",
"                                                                                                                                                                                                                                                                                                                                                                              ",
"                                                                                                                                                                                                                                                                                                                                                                              ",
"                                                                                                                                                                                                                                                                                                                                                                              ",
"                                                                                                                                                                                                                                                                                                                                                                              ",
"                                                                                                                                                                                                                                                                                                                                                                              ",
"                                                                                                                                                                                                                                                                                                                                                                              ",
"                                                                                                                                                                                                                                                                                                                                                                              ",
"                                                                                                                                                                                                   +++                                                                                                                                                                        ",
"                                                                                                                                                                                                   +++                                                                                                                                                                        ",
"                                                                                                                                                                                                   +++                                                                                                                                                                        ",
"                                                                                                                                                                                                ###++++++                                                                                                                                                                     ",
"                                                                                                                                                                                                ###++++++                                                                                                                                                                     ",
"                                                                                                                                                                                                ###++++++                                                                                                                                                                     ",
"                                                                                                                                                                                             ---###@@@+++OOO                                                                                                                                                                  ",
"                                                                                                                                                                                             ---###@@@+++OOO                                                                                                                                                                  ",
"                                                                                                                                                                                             ---###@@@+++OOO                                                                                                                                                                  ",
"                                                                                                                                                                                                &&&@@@+++OOOOOO                                                                                                                                                               ",
"                                                                                                                                                                                                &&&@@@+++OOOOOO                                                                                                                                                               ",
"                                                                                                                                                                                                &&&@@@+++OOOOOO                                                                                                                                                               ",
"                                                                                                                                                                                                      ######+++++++++                                                                                                                                                         ",
"                                                                                                                                                                                                      ######+++++++++                                                                                                                                                         ",
"                                                                                                                                                                                                      ######+++++++++                                                                                                                                                         ",
"                                                                                                                                                                                                      ---&&&%%%@@@++++++###&&&***                                                                                                                                             ",
"                                                                                                                                                                                                      ---&&&%%%@@@++++++###&&&***                                                                                                                                             ",
"                                                                                                                                                                                                      ---&&&%%%@@@++++++###&&&***                                                                                                                                             ",
"                                                                                                                                                                                                         ;;;***###++++++@@@$$$&&&***:::>>>                                                                                                                                    ",
"                                                                                                                                                                                                         ;;;***###++++++@@@$$$&&&***:::>>>                                                                                                                                    ",
"                                                                                                                                                                                                         ;;;***###++++++@@@$$$&&&***:::>>>                                                                                                                                    ",
"                                                                                                                                                                                                   ---::::::---%%%OOOOOOOOO@@@$$$&&&---:::>>>                                                                                                                                 ",
"                                                                                                                                                                                                   ---::::::---%%%OOOOOOOOO@@@$$$&&&---:::>>>                                                                                                                                 ",
"                                                                                                                                                                                                   ---::::::---%%%OOOOOOOOO@@@$$$&&&---:::>>>                                                                                                                                 ",
"                                                                                                                                                                                                   ;;;::::::---%%%OOOoooOOO+++@@@$$$&&&;;;:::>>>                                                                                                                              ",
"                                                                                                                                                                                                   ;;;::::::---%%%OOOoooOOO+++@@@$$$&&&;;;:::>>>                                                                                                                              ",
"                                                                                                                                                                                                   ;;;::::::---%%%OOOoooOOO+++@@@$$$&&&;;;:::>>>                                                                                                                              ",
"                                                                                                                                                                                                ;;;:::>>>>>>;;;%%%OOOXXXXXXOOO+++@@@%%%***;;;>>>                                                                                                                              ",
"                                                                                                                                                                                                ;;;:::>>>>>>;;;%%%OOOXXXXXXOOO+++@@@%%%***;;;>>>                                                                                                                              ",
"                                                                                                                                                                                                ;;;:::>>>>>>;;;%%%OOOXXXXXXOOO+++@@@%%%***;;;>>>                                                                                                                              ",
"                                                                                                                                                                                             ***---;;;::::::---%%%OOOXXXXXXoooOOO@@@$$$&&&---:::>>>                                                                                                                           ",
"                                                                                                                                                                                             ***---;;;::::::---%%%OOOXXXXXXoooOOO@@@$$$&&&---:::>>>                                                                                                                           ",
"                                                                                                                                                                                             ***---;;;::::::---%%%OOOXXXXXXoooOOO@@@$$$&&&---:::>>>                                                                                                                           ",
"                                                                                                                                                                                          %%%%%%%%%***======&&&@@@OOOXXXXXXoooOOO######%%%%%%***;;;                                                                                                                           ",
"                                                                                                                                                                                          %%%%%%%%%***======&&&@@@OOOXXXXXXoooOOO######%%%%%%***;;;                                                                                                                           ",
"                                                                                                                                                                                          %%%%%%%%%***======&&&@@@OOOXXXXXXoooOOO######%%%%%%***;;;                                                                                                                           ",
"                                                                                                                                                                                       @@@######@@@#########@@@OOOOOOXXXXXXOOO+++###@@@++++++%%%&&&***:::                                                                                                                     ",
"                                                                                                                                                                                       @@@######@@@#########@@@OOOOOOXXXXXXOOO+++###@@@++++++%%%&&&***:::                                                                                                                     ",
"                                                                                                                                                                                       @@@######@@@#########@@@OOOOOOXXXXXXOOO+++###@@@++++++%%%&&&***:::                                                                                                                     ",
"                                                                                                                                                                                       @@@@@@###@@@@@@@@@@@@+++OOOOOOoooOOO+++######+++OOOoooOOO###&&&***;;;                                                                                                                  ",
"                                                                                                                                                                                       @@@@@@###@@@@@@@@@@@@+++OOOOOOoooOOO+++######+++OOOoooOOO###&&&***;;;                                                                                                                  ",
"                                                                                                                                                                                       @@@@@@###@@@@@@@@@@@@+++OOOOOOoooOOO+++######+++OOOoooOOO###&&&***;;;                                                                                                                  ",
"                                                                                                                                                                                          &&&&&&&&&%%%%%%###@@@+++OOO+++###%%%&&&&&&+++OOOoooOOO+++###%%%&&&***:::                                                                                                            ",
"                                                                                                                                                                                          &&&&&&&&&%%%%%%###@@@+++OOO+++###%%%&&&&&&+++OOOoooOOO+++###%%%&&&***:::                                                                                                            ",
"                                                                                                                                                                                          &&&&&&&&&%%%%%%###@@@+++OOO+++###%%%&&&&&&+++OOOoooOOO+++###%%%&&&***:::                                                                                                            ",
"                                                                                                                                                                                             ::::::;;;---***%%%###@@@%%%***---;;;***%%%OOOOOOOOO+++@@@@@@###%%%===:::                                                                                                         ",
"                                                                                                                                                                                             ::::::;;;---***%%%###@@@%%%***---;;;***%%%OOOOOOOOO+++@@@@@@###%%%===:::                                                                                                         ",
"                                                                                                                                                                                             ::::::;;;---***%%%###@@@%%%***---;;;***%%%OOOOOOOOO+++@@@@@@###%%%===:::                                                                                                         ",
"                                                                                                                                                                                          >>>>>>>>>>>>:::;;;---   %%%***:::>>>:::;;;***###@@@++++++++++++@@@###&&&***;;;:::                                                                                                   ",
"                                                                                                                                                                                          >>>>>>>>>>>>:::;;;---   %%%***:::>>>:::;;;***###@@@++++++++++++@@@###&&&***;;;:::                                                                                                   ",
"                                                                                                                                                                                          >>>>>>>>>>>>:::;;;---   %%%***:::>>>:::;;;***###@@@++++++++++++@@@###&&&***;;;:::                                                                                                   ",
"      >>>>>>                                                                                                                                                                                          >>>:::>>>         >>>>>>>>>:::---&&&###@@@++++++++++++@@@###%%%***;;;:::                                                                                                ",
"      >>>>>>                                                                                                                                                                                          >>>:::>>>         >>>>>>>>>:::---&&&###@@@++++++++++++@@@###%%%***;;;:::                                                                                                ",
"      >>>>>>                                                                                                                                                                                          >>>:::>>>         >>>>>>>>>:::---&&&###@@@++++++++++++@@@###%%%***;;;:::                                                                                                ",
"      >>>>>>                                                                                                                                                                                                               >>>   >>>:::===%%%@@@++++++++++++++++++@@@$$$&&&---;;;>>>                                                                                          ",
"      >>>>>>                                                                                                                                                                                                               >>>   >>>:::===%%%@@@++++++++++++++++++@@@$$$&&&---;;;>>>                                                                                          ",
"      >>>>>>                                                                                                                                                                                                               >>>   >>>:::===%%%@@@++++++++++++++++++@@@$$$&&&---;;;>>>                                                                                          ",
">>>>>>>>>>>>                                                                                                                                                                                                                        :::---&&&###@@@++++++OOOOOOOOOOOO+++@@@%%%***;;;>>>                                                                                       ",
">>>>>>>>>>>>                                                                                                                                                                                                                        :::---&&&###@@@++++++OOOOOOOOOOOO+++@@@%%%***;;;>>>                                                                                       ",
">>>>>>>>>>>>                                                                                                                                                                                                                        :::---&&&###@@@++++++OOOOOOOOOOOO+++@@@%%%***;;;>>>                                                                                       ",
">>>>>>>>>                                                                                                                                                                                                                           >>>---***%%%###@@@+++OOOOOOooooooOOOOOO@@@%%%***;;;>>>                                                                                    ",
">>>>>>>>>                                                                                                                                                                                                                           >>>---***%%%###@@@+++OOOOOOooooooOOOOOO@@@%%%***;;;>>>                                                                                    ",
">>>>>>>>>                                                                                                                                                                                                                           >>>---***%%%###@@@+++OOOOOOooooooOOOOOO@@@%%%***;;;>>>                                                                                    ",
">>>>>>                                                                                                                                                                                                                                 :::---&&&$$$@@@+++OOOOOOoooXXXXXXoooOOO+++###***;;;:::>>>                                                                              ",
">>>>>>                                                                                                                                                                                                                                 :::---&&&$$$@@@+++OOOOOOoooXXXXXXoooOOO+++###***;;;:::>>>                                                                              ",
">>>>>>                                                                                                                                                                                                                                 :::---&&&$$$@@@+++OOOOOOoooXXXXXXoooOOO+++###***;;;:::>>>                                                                              ",
">>>>>>                                                                                                                                                                                                                                 >>>---***%%%###++++++OOOoooXXXXXXXXXoooOOO+++###&&&---:::>>>                                                                           ",
">>>>>>                                                                                                                                                                                                                                 >>>---***%%%###++++++OOOoooXXXXXXXXXoooOOO+++###&&&---:::>>>                                                                           ",
">>>>>>                                                                                                                                                                                                                                 >>>---***%%%###++++++OOOoooXXXXXXXXXoooOOO+++###&&&---:::>>>                                                                           ",
"      +++%%%:::>>>                                                                                                                                                                                                                        ;;;***&&&$$$@@@+++OOOOOOoooXXX...XXXXXXOOOOOO###&&&---:::>>>                                                                        ",
"      +++%%%:::>>>                                                                                                                                                                                                                        ;;;***&&&$$$@@@+++OOOOOOoooXXX...XXXXXXOOOOOO###&&&---:::>>>                                                                        ",
"      +++%%%:::>>>                                                                                                                                                                                                                        ;;;***&&&$$$@@@+++OOOOOOoooXXX...XXXXXXOOOOOO###&&&---:::>>>                                                                        ",
"   +++@@@===>>>>>>>>>                                                                                                                                                                                                                        ***&&&%%%###@@@+++OOOoooXXX.........XXXOOO+++###&&&---::::::                                                                     ",
"   +++@@@===>>>>>>>>>                                                                                                                                                                                                                        ***&&&%%%###@@@+++OOOoooXXX.........XXXOOO+++###&&&---::::::                                                                     ",
"   +++@@@===>>>>>>>>>                                                                                                                                                                                                                        ***&&&%%%###@@@+++OOOoooXXX.........XXXOOO+++###&&&---::::::                                                                     ",
"   ++++++%%%;;;                                                                                                                                                                                                                                 ***&&&$$$@@@+++OOOOOOoooXXX.........XXXOOO+++###&&&===---:::                                                                  ",
"   ++++++%%%;;;                                                                                                                                                                                                                                 ***&&&$$$@@@+++OOOOOOoooXXX.........XXXOOO+++###&&&===---:::                                                                  ",
"   ++++++%%%;;;                                                                                                                                                                                                                                 ***&&&$$$@@@+++OOOOOOoooXXX.........XXXOOO+++###&&&===---:::                                                                  ",
"+++++++++%%%                                                                                                                                                                                                                                    ******%%%###@@@+++OOOoooXXX.........XXXoooOOO+++###%%%***---:::                                                               ",
"+++++++++%%%                                                                                                                                                                                                                                    ******%%%###@@@+++OOOoooXXX.........XXXoooOOO+++###%%%***---:::                                                               ",
"+++++++++%%%                                                                                                                                                                                                                                    ******%%%###@@@+++OOOoooXXX.........XXXoooOOO+++###%%%***---:::                                                               ",
"###OOOOOO###                                                                                                                                                                                                                                    :::---&&&%%%@@@+++OOOOOOXXX............XXXOOOOOO@@@###%%%&&&***:::>>>                                                         ",
"###OOOOOO###                                                                                                                                                                                                                                    :::---&&&%%%@@@+++OOOOOOXXX............XXXOOOOOO@@@###%%%&&&***:::>>>                                                         ",
"###OOOOOO###                                                                                                                                                                                                                                    :::---&&&%%%@@@+++OOOOOOXXX............XXXOOOOOO@@@###%%%&&&***:::>>>                                                         ",
"+++OOO&&&---                                                                                                                                                                                                                                       :::===%%%###++++++OOOoooXXX.........XXXXXXOOO+++@@@###%%%&&&---::::::                                                      ",
"+++OOO&&&---                                                                                                                                                                                                                                       :::===%%%###++++++OOOoooXXX.........XXXXXXOOO+++@@@###%%%&&&---::::::                                                      ",
"+++OOO&&&---                                                                                                                                                                                                                                       :::===%%%###++++++OOOoooXXX.........XXXXXXOOO+++@@@###%%%&&&---::::::                                                      ",
"++++++===;;;>>>>>>                                                                                                                                                                                                                                 :::;;;&&&###@@@+++OOOoooXXX............XXXoooOOO+++@@@@@@%%%***------:::                                                   ",
"++++++===;;;>>>>>>                                                                                                                                                                                                                                 :::;;;&&&###@@@+++OOOoooXXX............XXXoooOOO+++@@@@@@%%%***------:::                                                   ",
"++++++===;;;>>>>>>                                                                                                                                                                                                                                 :::;;;&&&###@@@+++OOOoooXXX............XXXoooOOO+++@@@@@@%%%***------:::                                                   ",
"###+++%%%===>>>>>>>>>                                                                                                                                                                                                                              >>>:::===%%%@@@+++OOOOOOoooXXX............XXXOOO++++++@@@###%%%&&&***---:::                                                ",
"###+++%%%===>>>>>>>>>                                                                                                                                                                                                                              >>>:::===%%%@@@+++OOOOOOoooXXX............XXXOOO++++++@@@###%%%&&&***---:::                                                ",
"###+++%%%===>>>>>>>>>                                                                                                                                                                                                                              >>>:::===%%%@@@+++OOOOOOoooXXX............XXXOOO++++++@@@###%%%&&&***---:::                                                ",
"@@@+++###***>>>>>>                                                                                                                                                                                                                                    >>>;;;&&&###@@@+++OOOoooXXX............XXXOOO+++++++++@@@@@@%%%&&&---:::>>>>>>                                          ",
"@@@+++###***>>>>>>                                                                                                                                                                                                                                    >>>;;;&&&###@@@+++OOOoooXXX............XXXOOO+++++++++@@@@@@%%%&&&---:::>>>>>>                                          ",
"@@@+++###***>>>>>>                                                                                                                                                                                                                                    >>>;;;&&&###@@@+++OOOoooXXX............XXXOOO+++++++++@@@@@@%%%&&&---:::>>>>>>                                          ",
"+++@@@%%%---                                                                                                                                                                                                                                          >>>>>>---%%%@@@++++++OOOoooXXX......XXXoooOOO+++++++++++++++@@@%%%***---:::>>>                                          ",
"+++@@@%%%---                                                                                                                                                                                                                                          >>>>>>---%%%@@@++++++OOOoooXXX......XXXoooOOO+++++++++++++++@@@%%%***---:::>>>                                          ",
"+++@@@%%%---                                                                                                                                                                                                                                          >>>>>>---%%%@@@++++++OOOoooXXX......XXXoooOOO+++++++++++++++@@@%%%***---:::>>>                                          ",
"OOO++++++&&&                                                                                                                                                                                                                                             >>>;;;***$$$@@@+++OOOOOOoooXXXXXXoooOOO++++++++++++++++++@@@###%%%***---:::>>>                                       ",
"OOO++++++&&&                                                                                                                                                                                                                                             >>>;;;***$$$@@@+++OOOOOOoooXXXXXXoooOOO++++++++++++++++++@@@###%%%***---:::>>>                                       ",
"OOO++++++&&&                                                                                                                                                                                                                                             >>>;;;***$$$@@@+++OOOOOOoooXXXXXXoooOOO++++++++++++++++++@@@###%%%***---:::>>>                                       ",
"OOO+++###                                                                                                                                                                                                                                                >>>>>>;;;&&&###@@@++++++OOOOOOOOOOOO++++++++++++++++++++++++@@@###%%%***;;;>>>>>>                                    ",
"OOO+++###                                                                                                                                                                                                                                                >>>>>>;;;&&&###@@@++++++OOOOOOOOOOOO++++++++++++++++++++++++@@@###%%%***;;;>>>>>>                                    ",
"OOO+++###                                                                                                                                                                                                                                                >>>>>>;;;&&&###@@@++++++OOOOOOOOOOOO++++++++++++++++++++++++@@@###%%%***;;;>>>>>>                                    ",
"OOO+++###;;;                                                                                                                                                                                                                                                >>>:::---%%%@@@+++++++++++++++++++++++++++++++++++++++++++++@@@###%%%===;;;>>>                                    ",
"OOO+++###;;;                                                                                                                                                                                                                                                >>>:::---%%%@@@+++++++++++++++++++++++++++++++++++++++++++++@@@###%%%===;;;>>>                                    ",
"OOO+++###;;;                                                                                                                                                                                                                                                >>>:::---%%%@@@+++++++++++++++++++++++++++++++++++++++++++++@@@###%%%===;;;>>>                                    ",
"OOO###&&&                                                                                                                                                                                                                                                   >>>>>>;;;&&&###@@@+++++++++++++++++++++++++++++++++++++++++++++@@@###&&&---:::>>>                                 ",
"OOO###&&&                                                                                                                                                                                                                                                   >>>>>>;;;&&&###@@@+++++++++++++++++++++++++++++++++++++++++++++@@@###&&&---:::>>>                                 ",
"OOO###&&&                                                                                                                                                                                                                                                   >>>>>>;;;&&&###@@@+++++++++++++++++++++++++++++++++++++++++++++@@@###&&&---:::>>>                                 ",
"OOO+++                                                                                                                                                                                                                                                         >>>>>>---%%%@@@++++++++++++++++++++++++++++++++++++++++++++++++@@@###&&&;;;>>>>>>                              ",
"OOO+++                                                                                                                                                                                                                                                         >>>>>>---%%%@@@++++++++++++++++++++++++++++++++++++++++++++++++@@@###&&&;;;>>>>>>                              ",
"OOO+++                                                                                                                                                                                                                                                         >>>>>>---%%%@@@++++++++++++++++++++++++++++++++++++++++++++++++@@@###&&&;;;>>>>>>                              ",
"OOO+++                                                                                                                                                                                                                                                            >>>;;;***$$$@@@++++++++++++++++++++++++++++++++++++++++++++++++@@@%%%===;;;>>>>>>                           ",
"OOO+++                                                                                                                                                                                                                                                            >>>;;;***$$$@@@++++++++++++++++++++++++++++++++++++++++++++++++@@@%%%===;;;>>>>>>                           ",
"OOO+++                                                                                                                                                                                                                                                            >>>;;;***$$$@@@++++++++++++++++++++++++++++++++++++++++++++++++@@@%%%===;;;>>>>>>                           ",
"OOO+++                                                                                                                                                                                                                                                            >>>>>>;;;&&&###@@@+++++++++++++++++++++++++++++++++++++++++++++@@@###&&&;;;:::>>>>>>                        ",
"OOO+++                                                                                                                                                                                                                                                            >>>>>>;;;&&&###@@@+++++++++++++++++++++++++++++++++++++++++++++@@@###&&&;;;:::>>>>>>                        ",
"OOO+++                                                                                                                                                                                                                                                            >>>>>>;;;&&&###@@@+++++++++++++++++++++++++++++++++++++++++++++@@@###&&&;;;:::>>>>>>                        ",
"+++                                                                                                                                                                                                                                                                  >>>>>>---%%%@@@++++++++++++++++++++++++++++++++++++++++++++++++@@@%%%===;;;>>>>>>;;;                     ",
"+++                                                                                                                                                                                                                                                                  >>>>>>---%%%@@@++++++++++++++++++++++++++++++++++++++++++++++++@@@%%%===;;;>>>>>>;;;                     ",
"+++                                                                                                                                                                                                                                                                  >>>>>>---%%%@@@++++++++++++++++++++++++++++++++++++++++++++++++@@@%%%===;;;>>>>>>;;;                     ",
"OOO+++                                                                                                                                                                                                                                                                  >>>;;;&&&@@@@@@+++++++++++++++++++++++++++++++++++++++++++++@@@###&&&---::::::>>>                     ",
"OOO+++                                                                                                                                                                                                                                                                  >>>;;;&&&@@@@@@+++++++++++++++++++++++++++++++++++++++++++++@@@###&&&---::::::>>>                     ",
"OOO+++                                                                                                                                                                                                                                                                  >>>;;;&&&@@@@@@+++++++++++++++++++++++++++++++++++++++++++++@@@###&&&---::::::>>>                     ",
"OOO                                                                                                                                                                                                                                                                     >>>>>>---%%%@@@+++++++++++++++++++++++++++@@@@@@######@@@@@@+++@@@###&&&---:::>>>>>>                  ",
"OOO                                                                                                                                                                                                                                                                     >>>>>>---%%%@@@+++++++++++++++++++++++++++@@@@@@######@@@@@@+++@@@###&&&---:::>>>>>>                  ",
"OOO                                                                                                                                                                                                                                                                     >>>>>>---%%%@@@+++++++++++++++++++++++++++@@@@@@######@@@@@@+++@@@###&&&---:::>>>>>>                  ",
"OOO++++++                                                                                                                                                                                                                                                                  >>>:::***%%%##############################%%%%%%%%%###@@@++++++@@@%%%***---:::>>>>>>               ",
"OOO++++++                                                                                                                                                                                                                                                                  >>>:::***%%%##############################%%%%%%%%%###@@@++++++@@@%%%***---:::>>>>>>               ",
"OOO++++++                                                                                                                                                                                                                                                                  >>>:::***%%%##############################%%%%%%%%%###@@@++++++@@@%%%***---:::>>>>>>               ",
"OOO+++@@@                                                                                                                                                                                                                                                                     >>>;;;***%%%%%%%%%&&&&&&******&&&&&&&&&&&&***&&&%%%@@@++++++@@@###%%%***;;;:::>>>               ",
"OOO+++@@@                                                                                                                                                                                                                                                                     >>>;;;***%%%%%%%%%&&&&&&******&&&&&&&&&&&&***&&&%%%@@@++++++@@@###%%%***;;;:::>>>               ",
"OOO+++@@@                                                                                                                                                                                                                                                                     >>>;;;***%%%%%%%%%&&&&&&******&&&&&&&&&&&&***&&&%%%@@@++++++@@@###%%%***;;;:::>>>               "
};
