/* XPM */
static char *_f5819bb70fb4cabaf945c6b07ce462b[] = {
/* columns rows colors chars-per-pixel */
"366 192 32 1 ",
"  c None",
". c #FCCCB0",
"X c #FCBC9C",
"o c #FCB890",
"O c #FCB080",
"+ c #FCA470",
"@ c #FC9C60",
"# c #F0945C",
"$ c #E88C58",
"% c #DC8854",
"& c #D08050",
"* c #C87C4C",
"= c #BC7848",
"- c #B47044",
"; c #A86840",
": c #9C6038",
"> c #885830",
", c gainsboro",
"< c #C0C0C0",
"1 c #B4B4B4",
"2 c #989898",
"3 c gray55",
"4 c #7C7C7C",
"5 c gray44",
"6 c gray33",
"7 c #484848",
"8 c gray22",
"9 c #2C2C2C",
"0 c #202020",
"q c black",
"w c black",
"e c black",
/* pixels */
"                                                                                                                                                                                                                                                                                                                                                                              ",
"                                                                                                                                                                                                                                                                                                                                                                              ",
"                                                                                                                                                                                                                                                                                                                                                                              ",
"                                                                                                                                                                                                                                                                                                                                                                              ",
"                                                                                                                                                                                                                                                                                                                                                                              ",
"                                                                                                                                                                                                                                                                                                                                                                              ",
"                                                                                                                                                                                                                                                                                                                                                                              ",
"                                                                                                                                                                                                                                                                                                                                                                              ",
"                                                                                                                                                                                                                                                                                                                                                                              ",
"                                                                                                                                                                                                                                                                                                                                                                              ",
"                                                                                                                                                                                                                                                                                                                                                                              ",
"                                                                                                                                                                                                                                                                                                                                                                              ",
"                                                                                                                                                                                                                                                                                                                                                                              ",
"                                                                                                                                                                                                                                                                                                                                                                              ",
"                                                                                                                                                                                                                                                                                                                                                                              ",
"                                                                                                                                                                                                                                                                                                                                                                              ",
"                                                                                                                                                                                                                                                                                                                                                                              ",
"                                                                                                                                                                                                                                                                                                                                                                              ",
"                                                                                                                                                                                                                                                                                                                                                                              ",
"                                                                                                                                                                                                                                                                                                                                                                              ",
"                                                                                                                                                                                                                                                                                                                                                                              ",
"                                                                                                                                                                                                                                                                                                                                                                              ",
"                                                                                                                                                                                                                                                                                                                                                                              ",
"                                                                                                                                                                                                                                                                                                                                                                              ",
"                                                                                                                                                                                                                                                                                                                                                                              ",
"                                                                                                                                                                                                                                                                                                                                                                              ",
"                                                                                                                                                                                                                                                                                                                                                                              ",
"                                                                                                                                                                                                                                                                                                                                                                              ",
"                                                                                                                                                                                                                                                                                                                                                                              ",
"                                                                                                                                                                                                                                                                                                                                                                              ",
"                                                                                                                                                                                                                                                                                                                                                                              ",
"                                                                                                                                                                                                                                                                                                                                                                              ",
"                                                                                                                                                                                                                                                                                                                                                                              ",
"                                                                                                                                                                                                                                                                                                                                                                              ",
"                                                                                                                                                                                                                                                                                                                                                                              ",
"                                                                                                                                                                                                                                                                                                                                                                              ",
"                                                                                                                                                                                                                                                                                                                                                                              ",
"                                                                                                                                                                                                                                                                                                                                                                              ",
"                                                                                                                                                                                                                                                                                                                                                                              ",
"                                                                                                                                                                                                                                                                                                                                                                              ",
"                                                                                                                                                                                                                                                                                                                                                                              ",
"                                                                                                                                                                                                                                                                                                                                                                              ",
"                                                                                                                                                                                                                                                                                                                                                                              ",
"                                                                                                                                                                                                                                                                                                                                                                              ",
"                                                                                                                                                                                                                                                                                                                                                                              ",
"                                                                                                                                                                                                                                                                                                                                                                              ",
"                                                                                                                                                                                                                                                                                                                                                                              ",
"                                                                                                                                                                                                                                                                                                                                                                              ",
"                                                                                                                                                                                                                                                                                                                                                                              ",
"                                                                                                                                                                                                                                                                                                                                                                              ",
"                                                                                                                                                                                                                                                                                                                                                                              ",
"                                                                                                                                                                                                                                                                                                                                                                              ",
"                                                                                                                                                                                                                                                                                                                                                                              ",
"                                                                                                                                                                                                                                                                                                                                                                              ",
"                                                                                                                        +++                                                                                                                                                                                                                                                   ",
"                                                                                                                        +++                                                                                                                                                                                                                                                   ",
"                                                                                                                        +++                                                                                                                                                                                                                                                   ",
"                                                                                                                     OOO++++++                                                                                                                                                                                                                                                ",
"                                                                                                                     OOO++++++                                                                                                                                                                                                                                                ",
"                                                                                                                     OOO++++++                                                                                                                                                                                                                                                ",
"                                                                                                                  XXXOOO+++###                                                                                                                                                                                                                                                ",
"                                                                                                                  XXXOOO+++###                                                                                                                                                                                                                                                ",
"                                                                                                                  XXXOOO+++###                                                                                                                                                                                                                                                ",
"                                                                                                                  OOO+++###                                                                                                                                                                                                                                                :::",
"                                                                                                                  OOO+++###                                                                                                                                                                                                                                                :::",
"                                                                                                                  OOO+++###                                                                                                                                                                                                                                                :::",
"                                                                                                               +++@@@###&&&                                                                                                                                                                                                                                    >>>:::;;;------",
"                                                                                                               +++@@@###&&&                                                                                                                                                                                                                                    >>>:::;;;------",
"                                                                                                               +++@@@###&&&                                                                                                                                                                                                                                    >>>:::;;;------",
"                                                                                                            OOO+++###&&&                                                                                                                                                                                                                                 >>>::::::;;;------***",
"                                                                                                            OOO+++###&&&                                                                                                                                                                                                                                 >>>::::::;;;------***",
"                                                                                                            OOO+++###&&&                                                                                                                                                                                                                                 >>>::::::;;;------***",
"                                                                                                         oooOOO@@@%%%***   >>>                                                                                                                                                                                                                     :::---===---;;;---===******",
"                                                                                                         oooOOO@@@%%%***   >>>                                                                                                                                                                                                                     :::---===---;;;---===******",
"                                                                                                         oooOOO@@@%%%***   >>>                                                                                                                                                                                                                     :::---===---;;;---===******",
"                                                                                                      OOOXXXOOO###***;;;>>>>>>                                                                                                                                                                                                                     ===%%%%%%&&&***************",
"                                                                                                      OOOXXXOOO###***;;;>>>>>>                                                                                                                                                                                                                     ===%%%%%%&&&***************",
"                                                                                                      OOOXXXOOO###***;;;>>>>>>                                                                                                                                                                                                                     ===%%%%%%&&&***************",
"                                                                                                      XXXoooOOO%%%--->>>>>>>>>                                                                                                                                                                                                                  ===OOO+++###%%%%%%%%%&&&&&&000",
"                                                                                                      XXXoooOOO%%%--->>>>>>>>>                                                                                                                                                                                                                  ===OOO+++###%%%%%%%%%&&&&&&000",
"                                                                                                      XXXoooOOO%%%--->>>>>>>>>                                                                                                                                                                                                                  ===OOO+++###%%%%%%%%%&&&&&&000",
"                                                                                                   oooXXXOOO@@@&&&>>>>>>>>>                                                                                                                                                                                                               :::===++++++%%%&&&%%%@@@###%%%999000",
"                                                                                                   oooXXXOOO@@@&&&>>>>>>>>>                                                                                                                                                                                                               :::===++++++%%%&&&%%%@@@###%%%999000",
"                                                                                                   oooXXXOOO@@@&&&>>>>>>>>>                                                                                                                                                                                                               :::===++++++%%%&&&%%%@@@###%%%999000",
"                                                                                                OOOXXXXXXOOO###***>>>   >>>>>>                                                                                                                                                                                                      >>>>>>;;;%%%OOO+++&&&&&&###@@@888&&&999888",
"                                                                                                OOOXXXXXXOOO###***>>>   >>>>>>                                                                                                                                                                                                      >>>>>>;;;%%%OOO+++&&&&&&###@@@888&&&999888",
"                                                                                                OOOXXXXXXOOO###***>>>   >>>>>>                                                                                                                                                                                                      >>>>>>;;;%%%OOO+++&&&&&&###@@@888&&&999888",
"                                                                                             ###OOOooooooOOO%%%--->>>>>>>>>>>>>>>                                                                                                                                                                                                >>>>>>>>>===%%%OOO%%%&&&%%%######888777777777",
"                                                                                             ###OOOooooooOOO%%%--->>>>>>>>>>>>>>>                                                                                                                                                                                                >>>>>>>>>===%%%OOO%%%&&&%%%######888777777777",
"                                                                                             ###OOOooooooOOO%%%--->>>>>>>>>>>>>>>                                                                                                                                                                                                >>>>>>>>>===%%%OOO%%%&&&%%%######888777777777",
"                                                                                             ###OOOoooooo+++%%%>>>>>>>>>>>>>>>                                                                                                                                                                                          ::::::>>>>>>>>>>>>---===%%%&&&%%%++++++%%%666666666777",
"                                                                                             ###OOOoooooo+++%%%>>>>>>>>>>>>>>>                                                                                                                                                                                          ::::::>>>>>>>>>>>>---===%%%&&&%%%++++++%%%666666666777",
"                                                                                             ###OOOoooooo+++%%%>>>>>>>>>>>>>>>                                                                                                                                                                                          ::::::>>>>>>>>>>>>---===%%%&&&%%%++++++%%%666666666777",
"                                                                                          &&&@@@OOOoooOOO+++&&&>>>>>>>>>            ++++++                                                                                                                                                                  ;;;------------::::::;;;;;;::::::;;;;;;===%%%OOOOOO%%%555666777777",
"                                                                                          &&&@@@OOOoooOOO+++&&&>>>>>>>>>            ++++++                                                                                                                                                                  ;;;------------::::::;;;;;;::::::;;;;;;===%%%OOOOOO%%%555666777777",
"                                                                                          &&&@@@OOOoooOOO+++&&&>>>>>>>>>            ++++++                                                                                                                                                                  ;;;------------::::::;;;;;;::::::;;;;;;===%%%OOOOOO%%%555666777777",
"                                                                                          %%%@@@OOOOOOOOO@@@&&&>>>>>>>>>---###OOO++++++++++++                                                                                                                                                   >>>:::;;;;;;&&&%%%&&&===;;;;;;---&&&&&&---:::>>>>>>---%%%XXXOOO%%%555666777777",
"                                                                                          %%%@@@OOOOOOOOO@@@&&&>>>>>>>>>---###OOO++++++++++++                                                                                                                                                   >>>:::;;;;;;&&&%%%&&&===;;;;;;---&&&&&&---:::>>>>>>---%%%XXXOOO%%%555666777777",
"                                                                                          %%%@@@OOOOOOOOO@@@&&&>>>>>>>>>---###OOO++++++++++++                                                                                                                                                   >>>:::;;;;;;&&&%%%&&&===;;;;;;---&&&&&&---:::>>>>>>---%%%XXXOOO%%%555666777777",
"                                                                                          %%%@@@+++OOOOOO@@@***;;;;;;***%%%+++OOOOOO++++++                                                                                                                                                   :::::::::;;;***###+++###===;;;===%%%+++@@@&&&;;;>>>>>>---%%%XXXOOO%%%555777777666",
"                                                                                          %%%@@@+++OOOOOO@@@***;;;;;;***%%%+++OOOOOO++++++                                                                                                                                                   :::::::::;;;***###+++###===;;;===%%%+++@@@&&&;;;>>>>>>---%%%XXXOOO%%%555777777666",
"                                                                                          %%%@@@+++OOOOOO@@@***;;;;;;***%%%+++OOOOOO++++++                                                                                                                                                   :::::::::;;;***###+++###===;;;===%%%+++@@@&&&;;;>>>>>>---%%%XXXOOO%%%555777777666",
"                                                                                    >>>***###@@@+++OOOOOO@@@%%%***&&&###+++OOOOOOOOO+++                                                                                                                                                   ---&&&---;;;---&&&@@@@@@&&&---===%%%OOOOOO+++%%%---:::>>>===+++...OOO%%%555777888666",
"                                                                                    >>>***###@@@+++OOOOOO@@@%%%***&&&###+++OOOOOOOOO+++                                                                                                                                                   ---&&&---;;;---&&&@@@@@@&&&---===%%%OOOOOO+++%%%---:::>>>===+++...OOO%%%555777888666",
"                                                                                    >>>***###@@@+++OOOOOO@@@%%%***&&&###+++OOOOOOOOO+++                                                                                                                                                   ---&&&---;;;---&&&@@@@@@&&&---===%%%OOOOOO+++%%%---:::>>>===+++...OOO%%%555777888666",
"                                                                                 >>>:::---%%%@@@+++++++++OOO+++@@@@@@@@@+++OOO                                                                                                                                                      :::---###%%%***---&&&++++++###===---%%%XXX...ooo@@@%%%---:::>>>===+++XXXOOO555777777888666",
"                                                                                 >>>:::---%%%@@@+++++++++OOO+++@@@@@@@@@+++OOO                                                                                                                                                      :::---###%%%***---&&&++++++###===---%%%XXX...ooo@@@%%%---:::>>>===+++XXXOOO555777777888666",
"                                                                                 >>>:::---%%%@@@+++++++++OOO+++@@@@@@@@@+++OOO                                                                                                                                                      :::---###%%%***---&&&++++++###===---%%%XXX...ooo@@@%%%---:::>>>===+++XXXOOO555777777888666",
"                                                                              ;;;---;;;;;;&&&###++++++OOOooooooOOO+++@@@%%%                                                                                                                                                         ;;;&&&######&&&%%%+++OOO+++&&&;;;===+++XXXXXXOOO###&&&---:::>>>===+++XXX###555777888888666",
"                                                                              ;;;---;;;;;;&&&###++++++OOOooooooOOO+++@@@%%%                                                                                                                                                         ;;;&&&######&&&%%%+++OOO+++&&&;;;===+++XXXXXXOOO###&&&---:::>>>===+++XXX###555777888888666",
"                                                                              ;;;---;;;;;;&&&###++++++OOOooooooOOO+++@@@%%%                                                                                                                                                         ;;;&&&######&&&%%%+++OOO+++&&&;;;===+++XXXXXXOOO###&&&---:::>>>===+++XXX###555777888888666",
"                                                                           ***&&&&&&&&&&&&$$$@@@+++OOOoooXXXXXXXXXOOO%%%                                                                                                                                                            ===###@@@%%%%%%+++XXXOOO###===---&&&OOOXXXOOO@@@%%%&&&---::::::&&&OOOOOO%%%666777888666555",
"                                                                           ***&&&&&&&&&&&&$$$@@@+++OOOoooXXXXXXXXXOOO%%%                                                                                                                                                            ===###@@@%%%%%%+++XXXOOO###===---&&&OOOXXXOOO@@@%%%&&&---::::::&&&OOOOOO%%%666777888666555",
"                                                                           ***&&&&&&&&&&&&$$$@@@+++OOOoooXXXXXXXXXOOO%%%                                                                                                                                                            ===###@@@%%%%%%+++XXXOOO###===---&&&OOOXXXOOO@@@%%%&&&---::::::&&&OOOOOO%%%666777888666555",
"                                                                        &&&%%%#########@@@++++++OOOOOOOOOXXX...                                                                                                                                                                     ###OOO@@@&&&%%%OOO...OOO%%%---===%%%XXXooo+++%%%&&&***;;;;;;===+++XXXOOO777666888888666555",
"                                                                        &&&%%%#########@@@++++++OOOOOOOOOXXX...                                                                                                                                                                     ###OOO@@@&&&%%%OOO...OOO%%%---===%%%XXXooo+++%%%&&&***;;;;;;===+++XXXOOO777666888888666555",
"                                                                        &&&%%%#########@@@++++++OOOOOOOOOXXX...                                                                                                                                                                     ###OOO@@@&&&%%%OOO...OOO%%%---===%%%XXXooo+++%%%&&&***;;;;;;===+++XXXOOO777666888888666555",
"                                                                     %%%######@@@+++OOOOOOoooOOOOOOOOOOOOOOO                                                                                                                                                                     ===OOOXXXOOO&&&&&&+++XXXOOO%%%---&&&+++...OOO%%%&&&***---:::---%%%XXXXXXOOO555777888888666555",
"                                                                     %%%######@@@+++OOOOOOoooOOOOOOOOOOOOOOO                                                                                                                                                                     ===OOOXXXOOO&&&&&&+++XXXOOO%%%---&&&+++...OOO%%%&&&***---:::---%%%XXXXXXOOO555777888888666555",
"                                                                     %%%######@@@+++OOOOOOoooOOOOOOOOOOOOOOO                                                                                                                                                                     ===OOOXXXOOO&&&&&&+++XXXOOO%%%---&&&+++...OOO%%%&&&***---:::---%%%XXXXXXOOO555777888888666555",
"                                                                  %%%@@@@@@@@@+++OOOOOOXXXXXXXXXoooOOOOOO                                                                                                                                                                        ===+++...OOO&&&&&&+++XXXOOO###&&&%%%OOOXXX+++%%%***---:::>>>===+++XXXOOO###555777888777666555",
"                                                                  %%%@@@@@@@@@+++OOOOOOXXXXXXXXXoooOOOOOO                                                                                                                                                                        ===+++...OOO&&&&&&+++XXXOOO###&&&%%%OOOXXX+++%%%***---:::>>>===+++XXXOOO###555777888777666555",
"                                                                  %%%@@@@@@@@@+++OOOOOOXXXXXXXXXoooOOOOOO                                                                                                                                                                        ===+++...OOO&&&&&&+++XXXOOO###&&&%%%OOOXXX+++%%%***---:::>>>===+++XXXOOO###555777888777666555",
"                                                            &&&%%%@@@@@@+++++++++OOOoooXXX...XXXoooOOO+++                                                                                                                                                                        ===+++XXXOOO&&&&&&+++XXXOOO###%%%+++OOOOOO%%%&&&---;;;>>>:::===+++OOO###555777777888777555555",
"                                                            &&&%%%@@@@@@+++++++++OOOoooXXX...XXXoooOOO+++                                                                                                                                                                        ===+++XXXOOO&&&&&&+++XXXOOO###%%%+++OOOOOO%%%&&&---;;;>>>:::===+++OOO###555777777888777555555",
"                                                            &&&%%%@@@@@@+++++++++OOOoooXXX...XXXoooOOO+++                                                                                                                                                                        ===+++XXXOOO&&&&&&+++XXXOOO###%%%+++OOOOOO%%%&&&---;;;>>>:::===+++OOO###555777777888777555555",
"                                                         &&&%%%###@@@+++++++++++++++OOOoooXXXXXXoooOOO                                                                                                                                                                           ===+++XXXOOO&&&&&&+++XXXOOO%%%%%%###OOO%%%&&&***;;;;;;;;;===%%%++++++%%%555777888666666555555",
"                                                         &&&%%%###@@@+++++++++++++++OOOoooXXXXXXoooOOO                                                                                                                                                                           ===+++XXXOOO&&&&&&+++XXXOOO%%%%%%###OOO%%%&&&***;;;;;;;;;===%%%++++++%%%555777888666666555555",
"                                                         &&&%%%###@@@+++++++++++++++OOOoooXXXXXXoooOOO                                                                                                                                                                           ===+++XXXOOO&&&&&&+++XXXOOO%%%%%%###OOO%%%&&&***;;;;;;;;;===%%%++++++%%%555777888666666555555",
"                                                      &&&%%%###@@@++++++++++++++++++OOOOOOoooOOOOOO+++                                                                                                                                                                           ===+++XXXOOO&&&&&&+++ooo###***===&&&%%%&&&***---;;;---&&&###@@@@@@###&&&555777888666555555555",
"                                                      &&&%%%###@@@++++++++++++++++++OOOOOOoooOOOOOO+++                                                                                                                                                                           ===+++XXXOOO&&&&&&+++ooo###***===&&&%%%&&&***---;;;---&&&###@@@@@@###&&&555777888666555555555",
"                                                      &&&%%%###@@@++++++++++++++++++OOOOOOoooOOOOOO+++                                                                                                                                                                           ===+++XXXOOO&&&&&&+++ooo###***===&&&%%%&&&***---;;;---&&&###@@@@@@###&&&555777888666555555555",
"                                                   ***&&&###@@@+++++++++++++++++++++++++++OOOOOO+++                                                                                                                                                                              ;;;%%%XXXOOO&&&&&&+++OOO###---------******===---***%%%@@@++++++@@@%%%&&&555777888666555555555",
"                                                   ***&&&###@@@+++++++++++++++++++++++++++OOOOOO+++                                                                                                                                                                              ;;;%%%XXXOOO&&&&&&+++OOO###---------******===---***%%%@@@++++++@@@%%%&&&555777888666555555555",
"                                                   ***&&&###@@@+++++++++++++++++++++++++++OOOOOO+++                                                                                                                                                                              ;;;%%%XXXOOO&&&&&&+++OOO###---------******===---***%%%@@@++++++@@@%%%&&&555777888666555555555",
"                                             :::***&&&%%%###++++++OOOOOOOOOOOO+++++++++++++++++++++                                                                                                                                                                              000===OOOOOO&&&&&&%%%OOO%%%---------***===***%%%###OOOOOO++++++###%%%***555777888666555555444",
"                                             :::***&&&%%%###++++++OOOOOOOOOOOO+++++++++++++++++++++                                                                                                                                                                              000===OOOOOO&&&&&&%%%OOO%%%---------***===***%%%###OOOOOO++++++###%%%***555777888666555555444",
"                                             :::***&&&%%%###++++++OOOOOOOOOOOO+++++++++++++++++++++                                                                                                                                                                              000===OOOOOO&&&&&&%%%OOO%%%---------***===***%%%###OOOOOO++++++###%%%***555777888666555555444",
"                                          :::---***%%%###@@@+++OOOOOOOOOOOOOOOOOO++++++@@@###$$$                                                                                                                                                                                 000000###%%%===&&&%%%###%%%---;;;;;;---***%%%+++OOOXXXOOOOOO+++###%%%***555777888666555444222",
"                                          :::---***%%%###@@@+++OOOOOOOOOOOOOOOOOO++++++@@@###$$$                                                                                                                                                                                 000000###%%%===&&&%%%###%%%---;;;;;;---***%%%+++OOOXXXOOOOOO+++###%%%***555777888666555444222",
"                                          :::---***%%%###@@@+++OOOOOOOOOOOOOOOOOO++++++@@@###$$$                                                                                                                                                                                 000000###%%%===&&&%%%###%%%---;;;;;;---***%%%+++OOOXXXOOOOOO+++###%%%***555777888666555444222",
"                                       :::---***%%%###@@@+++OOOOOOoooXXXoooOOOOOO+++@@@###%%%---                                                                                                                                                                                 999777555---;;;---***%%%***;;;:::;;;===%%%+++OOOXXX...XXXOOO+++###%%%555555777888666444222<<<",
"                                       :::---***%%%###@@@+++OOOOOOoooXXXoooOOOOOO+++@@@###%%%---                                                                                                                                                                                 999777555---;;;---***%%%***;;;:::;;;===%%%+++OOOXXX...XXXOOO+++###%%%555555777888666444222<<<",
"                                       :::---***%%%###@@@+++OOOOOOoooXXXoooOOOOOO+++@@@###%%%---                                                                                                                                                                                 999777555---;;;---***%%%***;;;:::;;;===%%%+++OOOXXX...XXXOOO+++###%%%555555777888666444222<<<",
"                                    :::---***%%%###@@@+++OOOOOOoooXXXXXXXXXOOOOOO+++###%%%***                                                                                                                                                                                    888666555666>>>;;;------;;;::::::---%%%+++OOOXXX......oooOOO@@@###&&&555777888888555222<<<<<<",
"                                    :::---***%%%###@@@+++OOOOOOoooXXXXXXXXXOOOOOO+++###%%%***                                                                                                                                                                                    888666555666>>>;;;------;;;::::::---%%%+++OOOXXX......oooOOO@@@###&&&555777888888555222<<<<<<",
"                                    :::---***%%%###@@@+++OOOOOOoooXXXXXXXXXOOOOOO+++###%%%***                                                                                                                                                                                    888666555666>>>;;;------;;;::::::---%%%+++OOOXXX......oooOOO@@@###&&&555777888888555222<<<<<<",
"                                 :::---***%%%###@@@++++++OOOOOOXXXXXXXXXoooOOO+++@@@$$$&&&---                                                                                                                                                                                    777555333666777000::::::::::::---%%%@@@OOOooo......XXXOOO+++@@@%%%&&&555777777555222222<<<,,,",
"                                 :::---***%%%###@@@++++++OOOOOOXXXXXXXXXoooOOO+++@@@$$$&&&---                                                                                                                                                                                    777555333666777000::::::::::::---%%%@@@OOOooo......XXXOOO+++@@@%%%&&&555777777555222222<<<,,,",
"                                 :::---***%%%###@@@++++++OOOOOOXXXXXXXXXoooOOO+++@@@$$$&&&---                                                                                                                                                                                    777555333666777000::::::::::::---%%%@@@OOOooo......XXXOOO+++@@@%%%&&&555777777555222222<<<,,,",
"                              :::---***&&&###@@@++++++OOOOOOXXXXXXXXXXXXOOOOOO+++###&&&---                                                                                                                                                                                       777555333555555333555>>>>>>;;;&&&@@@+++OOOXXX......oooOOO+++###%%%***555777777555222111111<<<",
"                              :::---***&&&###@@@++++++OOOOOOXXXXXXXXXXXXOOOOOO+++###&&&---                                                                                                                                                                                       777555333555555333555>>>>>>;;;&&&@@@+++OOOXXX......oooOOO+++###%%%***555777777555222111111<<<",
"                              :::---***&&&###@@@++++++OOOOOOXXXXXXXXXXXXOOOOOO+++###&&&---                                                                                                                                                                                       777555333555555333555>>>>>>;;;&&&@@@+++OOOXXX......oooOOO+++###%%%***555777777555222111111<<<",
"                           ;;;---***&&&%%%###++++++OOOOOOXXXXXXXXXXXXOOOOOO+++@@@%%%***;;;                                                                                                                                                                                    777777555333333333555666888>>>===###+++OOOooo......XXXOOO++++++###%%%***555666777555333222222333",
"                           ;;;---***&&&%%%###++++++OOOOOOXXXXXXXXXXXXOOOOOO+++@@@%%%***;;;                                                                                                                                                                                    777777555333333333555666888>>>===###+++OOOooo......XXXOOO++++++###%%%***555666777555333222222333",
"                           ;;;---***&&&%%%###++++++OOOOOOXXXXXXXXXXXXOOOOOO+++@@@%%%***;;;                                                                                                                                                                                    777777555333333333555666888>>>===###+++OOOooo......XXXOOO++++++###%%%***555666777555333222222333",
"                        ------***&&&%%%###@@@+++OOOOOOXXXXXX...XXXoooOOO+++@@@###***;;;                                                                                                                                                                                       777555555333333555666666888;;;&&&@@@+++OOOXXX......XXXOOO++++++###%%%***555666777777666666666555",
"                        ------***&&&%%%###@@@+++OOOOOOXXXXXX...XXXoooOOO+++@@@###***;;;                                                                                                                                                                                       777555555333333555666666888;;;&&&@@@+++OOOXXX......XXXOOO++++++###%%%***555666777777666666666555",
"                        ------***&&&%%%###@@@+++OOOOOOXXXXXX...XXXoooOOO+++@@@###***;;;                                                                                                                                                                                       777555555333333555666666888;;;&&&@@@+++OOOXXX......XXXOOO++++++###%%%***555666777777666666666555",
"                  >>>;;;---******&&&###@@@+++OOOOOOXXX.........XXXOOOOOO+++###%%%***:::                                                                                                                                                                                       888666555555555777666888999---%%%+++OOOooo.........XXXOOO++++++###%%%666555666777888888888888000",
"                  >>>;;;---******&&&###@@@+++OOOOOOXXX.........XXXOOOOOO+++###%%%***:::                                                                                                                                                                                       888666555555555777666888999---%%%+++OOOooo.........XXXOOO++++++###%%%666555666777888888888888000",
"                  >>>;;;---******&&&###@@@+++OOOOOOXXX.........XXXOOOOOO+++###%%%***:::                                                                                                                                                                                       888666555555555777666888999---%%%+++OOOooo.........XXXOOO++++++###%%%666555666777888888888888000",
"               >>>:::;;;---***&&&%%%@@@+++OOOoooXXX.........XXXoooOOOOOO+++###&&&---                                                                                                                                                                                          999777666777999999999000000---%%%+++OOOXXX.........XXXOOO++++++###%%%666666666666999000000888   ",
"               >>>:::;;;---***&&&%%%@@@+++OOOoooXXX.........XXXoooOOOOOO+++###&&&---                                                                                                                                                                                          999777666777999999999000000---%%%+++OOOXXX.........XXXOOO++++++###%%%666666666666999000000888   ",
"               >>>:::;;;---***&&&%%%@@@+++OOOoooXXX.........XXXoooOOOOOO+++###&&&---                                                                                                                                                                                          999777666777999999999000000---%%%+++OOOXXX.........XXXOOO++++++###%%%666666666666999000000888   ",
"            >>>>>>;;;---******&&&###@@@OOOoooXXX............XXXOOOOOO+++@@@$$$***;;;                                                                                                                                                                                          000999999777999000000000000---%%%+++OOOXXX.........XXXOOO++++++###%%%888666666777777999000      ",
"            >>>>>>;;;---******&&&###@@@OOOoooXXX............XXXOOOOOO+++@@@$$$***;;;                                                                                                                                                                                          000999999777999000000000000---%%%+++OOOXXX.........XXXOOO++++++###%%%888666666777777999000      ",
"            >>>>>>;;;---******&&&###@@@OOOoooXXX............XXXOOOOOO+++@@@$$$***;;;                                                                                                                                                                                          000999999777999000000000000---%%%+++OOOXXX.........XXXOOO++++++###%%%888666666777777999000      ",
"         >>>>>>:::---******&&&%%%@@@+++OOOXXX............XXXoooOOOOOO+++###%%%--->>>                                                                                                                                                                                          :::000999999000000000000:::---%%%+++OOOXXX.........XXXOOO++++++###%%%999777666777999000000      ",
"         >>>>>>:::---******&&&%%%@@@+++OOOXXX............XXXoooOOOOOO+++###%%%--->>>                                                                                                                                                                                          :::000999999000000000000:::---%%%+++OOOXXX.........XXXOOO++++++###%%%999777666777999000000      ",
"         >>>>>>:::---******&&&%%%@@@+++OOOXXX............XXXoooOOOOOO+++###%%%--->>>                                                                                                                                                                                          :::000999999000000000000:::---%%%+++OOOXXX.........XXXOOO++++++###%%%999777666777999000000      ",
"      >>>>>>:::;;;---******&&&###@@@+++OOOXXX............XXXOOOOOO+++@@@###&&&;;;                                                                                                                                                                                                000000000000OOO###===:::;;;&&&@@@OOOXXX.........oooOOO++++++###%%%000999888777999000000      ",
"      >>>>>>:::;;;---******&&&###@@@+++OOOXXX............XXXOOOOOO+++@@@###&&&;;;                                                                                                                                                                                                000000000000OOO###===:::;;;&&&@@@OOOXXX.........oooOOO++++++###%%%000999888777999000000      ",
"      >>>>>>:::;;;---******&&&###@@@+++OOOXXX............XXXOOOOOO+++@@@###&&&;;;                                                                                                                                                                                                000000000000OOO###===:::;;;&&&@@@OOOXXX.........oooOOO++++++###%%%000999888777999000000      ",
"   >>>>>>:::;;;---******&&&%%%@@@++++++OOOXXX............XXXOOO++++++@@@$$$***:::                                                                                                                                                                                                ===+++XXX...ooo@@@***::::::===###OOOooo......XXXOOO++++++@@@###&&&***000888888999000         ",
"   >>>>>>:::;;;---******&&&%%%@@@++++++OOOXXX............XXXOOO++++++@@@$$$***:::                                                                                                                                                                                                ===+++XXX...ooo@@@***::::::===###OOOooo......XXXOOO++++++@@@###&&&***000888888999000         ",
"   >>>>>>:::;;;---******&&&%%%@@@++++++OOOXXX............XXXOOO++++++@@@$$$***:::                                                                                                                                                                                                ===+++XXX...ooo@@@***::::::===###OOOooo......XXXOOO++++++@@@###&&&***000888888999000         ",
">>>>>>>>>:::---******&&&%%%###@@@++++++OOOXXX............XXXOOO+++@@@###&&&***                                                                                                                                                                                                >>>:::===+++OOOOOO@@@***:::>>>;;;&&&+++OOOoooXXXOOOOOO++++++@@@%%%&&&***000000   000            ",
">>>>>>>>>:::---******&&&%%%###@@@++++++OOOXXX............XXXOOO+++@@@###&&&***                                                                                                                                                                                                >>>:::===+++OOOOOO@@@***:::>>>;;;&&&+++OOOoooXXXOOOOOO++++++@@@%%%&&&***000000   000            ",
">>>>>>>>>:::---******&&&%%%###@@@++++++OOOXXX............XXXOOO+++@@@###&&&***                                                                                                                                                                                                >>>:::===+++OOOOOO@@@***:::>>>;;;&&&+++OOOoooXXXOOOOOO++++++@@@%%%&&&***000000   000            ",
">>>>>>:::;;;---******&&&###@@@+++++++++OOOXXX............XXXOOO+++###&&&***:::                                                                                                                                                                                                :::;;;---===%%%###%%%===:::>>>:::---%%%+++OOOOOOOOO+++++++++###%%%***---:::>>>                  ",
">>>>>>:::;;;---******&&&###@@@+++++++++OOOXXX............XXXOOO+++###&&&***:::                                                                                                                                                                                                :::;;;---===%%%###%%%===:::>>>:::---%%%+++OOOOOOOOO+++++++++###%%%***---:::>>>                  ",
">>>>>>:::;;;---******&&&###@@@+++++++++OOOXXX............XXXOOO+++###&&&***:::                                                                                                                                                                                                :::;;;---===%%%###%%%===:::>>>:::---%%%+++OOOOOOOOO+++++++++###%%%***---:::>>>                  ",
">>>>>>:::---******&&&%%%@@@++++++++++++OOOOOOXXX......XXXoooOOO+++###&&&;;;                                                                                                                                                                                                   ---&&&===------&&&%%%---:::>>>>>>:::---&&&%%%%%%%%%###@@@@@@###&&&***;;;>>>                     ",
">>>>>>:::---******&&&%%%@@@++++++++++++OOOOOOXXX......XXXoooOOO+++###&&&;;;                                                                                                                                                                                                   ---&&&===------&&&%%%---:::>>>>>>:::---&&&%%%%%%%%%###@@@@@@###&&&***;;;>>>                     ",
">>>>>>:::---******&&&%%%@@@++++++++++++OOOOOOXXX......XXXoooOOO+++###&&&;;;                                                                                                                                                                                                   ---&&&===------&&&%%%---:::>>>>>>:::---&&&%%%%%%%%%###@@@@@@###&&&***;;;>>>                     ",
">>>:::;;;---***&&&%%%###@@@++++++++++++OOOOOOoooXXXXXXoooOOO+++@@@$$$***:::                                                                                                                                                                                             >>>;;;%%%@@@###&&&***&&&%%%===;;;>>>>>>>>>:::;;;------===%%%@@@@@@%%%&&&---;;;>>>                     ",
">>>:::;;;---***&&&%%%###@@@++++++++++++OOOOOOoooXXXXXXoooOOO+++@@@$$$***:::                                                                                                                                                                                             >>>;;;%%%@@@###&&&***&&&%%%===;;;>>>>>>>>>:::;;;------===%%%@@@@@@%%%&&&---;;;>>>                     ",
">>>:::;;;---***&&&%%%###@@@++++++++++++OOOOOOoooXXXXXXoooOOO+++@@@$$$***:::                                                                                                                                                                                             >>>;;;%%%@@@###&&&***&&&%%%===;;;>>>>>>>>>:::;;;------===%%%@@@@@@%%%&&&---;;;>>>                     ",
"::::::---******&&&###@@@++++++++++++++++++OOOOOOOOOOOOOOO+++@@@###&&&***                                                                                                                                                                                                ;;;&&&###+++@@@#########@@@%%%***---;;;:::>>>>>>::::::---&&&######&&&***;;;:::>>>                     ",
"::::::---******&&&###@@@++++++++++++++++++OOOOOOOOOOOOOOO+++@@@###&&&***                                                                                                                                                                                                ;;;&&&###+++@@@#########@@@%%%***---;;;:::>>>>>>::::::---&&&######&&&***;;;:::>>>                     ",
"::::::---******&&&###@@@++++++++++++++++++OOOOOOOOOOOOOOO+++@@@###&&&***                                                                                                                                                                                                ;;;&&&###+++@@@#########@@@%%%***---;;;:::>>>>>>::::::---&&&######&&&***;;;:::>>>                     "
};
