/* XPM */
static char *_46275273aac4cf89140d193780ef45e[] = {
/* columns rows colors chars-per-pixel */
"366 192 32 1 ",
"  c None",
". c #FCCCB0",
"X c #FCBC9C",
"o c #FCB890",
"O c #FCB080",
"+ c #FCA470",
"@ c #FC9C60",
"# c #F0945C",
"$ c #E88C58",
"% c #DC8854",
"& c #D08050",
"* c #C87C4C",
"= c #BC7848",
"- c #B47044",
"; c #A86840",
": c #9C6038",
"> c #885830",
", c black",
"< c black",
"1 c black",
"2 c black",
"3 c black",
"4 c black",
"5 c black",
"6 c black",
"7 c black",
"8 c black",
"9 c black",
"0 c black",
"q c black",
"w c black",
"e c black",
/* pixels */
"                                                                                                                                                                                                                                                                                                                                                                              ",
"                                                                                                                                                                                                                                                                                                                                                                              ",
"                                                                                                                                                                                                                                                                                                                                                                              ",
"                                                                                                                                                                                                                                                                                                                                                                              ",
"                                                                                                                                                                                                                                                                                                                                                                              ",
"                                                                                                                                                                                                                                                                                                                                                                              ",
"                                                                                                                                                                                                                                                                                                                                                                              ",
"                                                                                                                                                                                                                                                                                                                                                                              ",
"                                                                                                                                                                                                                                                                                                                                                                              ",
"                                                                                                                                                                                                                                                                                                                                                                              ",
"                                                                                                                                                                                                                                                                                                                                                                              ",
"                                                                                                                                                                                                                                                                                                                                                                              ",
"                                                                                                                                                                                                                                                                                                                                                                              ",
"                                                                                                                                                                                                                                                                                                                                                                              ",
"                                                                                                                                                                                                                                                                                                                                                                              ",
"                                                                                                                                                                                                                                                                                                                                                                              ",
"                                                                                                                                                                                                                                                                                                                                                                              ",
"                                                                                                                                                                                                                                                                                                                                                                              ",
"                                                                                                                                                                                                                                                                                                                                                                              ",
"                                                                                                                                                                                                                                                                                                                                                                              ",
"                                                                                                                                                                                                                                                                                                                                                                              ",
"                                                                                                                                                                                                                                                                                                                                                                              ",
"                                                                                                                                                                                                                                                                                                                                                                              ",
"                                                                                                                                                                                                                                                                                                                                                                              ",
"                                                                                                                                                                                                                                                                                                                                                                              ",
"                                                                                                                                                                                                                                                                                                                                                                              ",
"                                                                                                                                                                                                                                                                                                                                                                              ",
"                                                                                                                                                                                                                                                                                                                                                                              ",
"                                                                                                                                                                                                                                                                                                                                                                              ",
"                                                                                                                                                                                                                                                                                                                                                                              ",
"                                                                                                                                                                                                                                                                                                                                                                              ",
"                                                                                                                                                                                                                                                                                                                                                                              ",
"                                                                                                                                                                                                                                                                                                                                                                              ",
"                                                                                                                                                                                                                                                                                                                                                                              ",
"                                                                                                                                                                                                                                                                                                                                                                              ",
"                                                                                                                                                                                                                                                                                                                                                                              ",
"                                                                                                                                                                                                                                                                                                                                                                              ",
"                                                                                                                                                                                                                                                                                                                                                                              ",
"                                                                                                                                                                                                                                                                                                                                                                              ",
"                                                                                                                                                                                                                                                                                                                                                                              ",
"                                                                                                                                                                                                                                                                                                                                                                              ",
"                                                                                                                                                                                                                                                                                                                                                                              ",
"                                                                                                                                                                                                                                                                                                                                                                              ",
"                                                                                                                                                                                                                                                                                                                                                                              ",
"                                                                                                                                                                                                                                                                                                                                                                              ",
"                                                                                                                                                                                                                                                                                                                                                                              ",
"                                                                                                                                                                                                                                                                                                                                                                              ",
"                                                                                                                                                                                                                                                                                                                                                                              ",
"                                                                                                                                                                                                                                                                                                                                                                              ",
"                                                                                                                                                                                                                                                                                                                                                                              ",
"                                                                                                                                                                                                                                                                                                                                                                              ",
"                                                                                                                                                                                                                                                                                                                                                                              ",
"                                                                                                                                                                                                                                                                                                                                                                              ",
"                                                                                                                                                                                                                                                                                                                                                                              ",
"                                                                                                                                                                                                                                                                                                                                                                              ",
"                                                                                                                                                                                                                                                                                                                                                                              ",
"                                                                                                                                                                                                                                                                                                                                                                              ",
"                                                                                                                                                                                                                                                                                                                                                                              ",
"                                                                                                                                                                                                                                                                                                                                                                              ",
"                                                                                                                                                                                                                                                                                                                                                                              ",
"                                                                                                                                                                                                                                                                                                                                                                              ",
"                                                                                                                                                                                                                                                                                                                                                                              ",
"                                                                                                                                                                                                                                                                                                                                                                              ",
"                                                                                                                                                                                                                                                                                                                                                                              ",
"                                                                                                                                                                                                                                                                                                                                                                              ",
"                                                                                                                                                                                                                                                                                                                                                                              ",
"                                                                                                                                                                                                                                                                                                                                                                              ",
"                                                                                                                                                                                                                                                                                                                                                                              ",
"                                                                                                                                                                                                                                                                                                                                                                              ",
"                                                                                                                                                                                                                                                                                                                                                                              ",
"                                                                                                                                                                                                                                                                                                                                                                              ",
"                                                                                                                                                                                                                                                                                                                                                                              ",
"                                                                                                                                                                                                                                                                                                                                                                              ",
"                                                                                                                                                                                                                                                                                                                                                                              ",
"                                                                                                                                                                                                                                                                                                                                                                              ",
"                                                                                                                                                                                                                                                                                                                                                                              ",
"                                                                                                                                                                                                                                                                                                                                                                              ",
"                                                                                                                                                                                                                                                                                                                                                                              ",
"                                                                                                                                                                                                                                                                                                                                                                              ",
"                                                                                                                                                                                                                                                                                                                                                                              ",
"                                                                                                                                                                                                                                                                                                                                                                              ",
"                                                                                                                                                                                                                                                                                                                                                                              ",
"                                                                                                                                                                                                                                                                                                                                                                              ",
"                                                                                                                                                                                                                                                                                                                                                                              ",
"                                                                                                                                                                                                                                                                                                                                                                              ",
"                                                                                                                                                                                                                                                                                                                                                                              ",
"                                                                                                                                                                                                                                                                                                                                                                              ",
"                                                                                                                                                                                                                                                                                                                                                                              ",
"                                                                                                                                                                                                                                                                                                                                                                              ",
"                                                                                                                                                                                                                                                                                                                                                                              ",
"                                                                                                                                                                                                                                                                                                                                                                              ",
"                                                                                                                                                                                                                                                                                                                                                                              ",
"                                                                                                                                                                                                                                                                                                                                                                              ",
"                                                                                                                                                                                                                                                                                                                                                                              ",
"                                                                                                                                                                                                                                                                                                                                                                              ",
"                                                                                                                                                                                                                                                                                                                                                                              ",
"                                                                                                                                                                                                                                                                                                                                                                              ",
"                                                                                                                                                                                                                                                                                                                                                                              ",
"                                                                                                                                                                                                                                                                                                                                                                              ",
"                                                                                                                                                                                                                                                                                                                                                                              ",
"                                                                                                                                                                                                                                                                                                                                                                              ",
"                                                                                                                                                                                                                                                                                                                                                                              ",
"                                                                                                                                                                                                                                                                                                                                                                              ",
"                                                                                                                                                                                                                                                                                                                                                                              ",
"                                                                                                                                                                                                                                                                                                                                                                              ",
"                                                                                                                                                                                                                                                                                                                                                                              ",
"                                                                                                                                                                                                                                                                                                                                                                              ",
"                                                                                                                                                                                                                                                                                                                                                                              ",
"                                                                                                                                                                                                                                                                                                                                                                              ",
"                                                                                                                                                                                                                                                                                                                                                                              ",
"                                                                                                                                                                                                                                                                                                                                                                              ",
"                                                                                                                                                                                                                                                                                                                                                                              ",
"                                                                                                                                                                                                                                                                                                                                                                              ",
"                                                                                                                                                                                                                                                                                                                                                                              ",
"                                                                                                                                                                                                                                                                                                                                                                              ",
"                                                                                                                                                                                                                                                                                                                                                                              ",
"                                                                                                                                                                                                                                                                                                                                                                              ",
"                                                                                                                                                                                                                                                                                                                                                                              ",
"                                                                                                                                                                                                                                                                                                                                                                              ",
"                                                                                                                                                                                                                                                                                                                                                                              ",
"                                                                                                                                                                                                                                                                                                                                                                              ",
"                                                                                                                                                                                                                                                                                                                                                                              ",
"                                                                                                                                                                                                                                                                                                                                                                              ",
"                                                                                                                                                                                                                                                                                                                                                                              ",
"                                                                                                                                                                                                                                                                                                                                                                              ",
"                                                                                                                                                                                                                                                                                                                                                                              ",
"                                                                                                                                                                                                                                                                                                                                                                              ",
"                                                                                                                                                                                                                                                                                                                                                                              ",
"                                                                                                                                                                                                                                                                                                                                                                              ",
"                                                                                                                                                                                                                                                                                                                                                                              ",
"                                                                                                                                                                                                                                                                                                                                                                              ",
"                                                                                                                                                                                                                                                                                                                                                                              ",
"                                                                                                                                                                                                                                                                                                                                                                              ",
"                                                                                                                                                                                                                                                                                                                                                                              ",
"                                                                                                                                                                                                                                                                                                                                                                              ",
"                                                                                                                                                                                                                                                                                                                                                                              ",
"                                                                                                                                                                                                                                                                                                                                                                              ",
"                                                                                                                                                                                                                                                                                                                                                                              ",
"                                                                                                                                                                                                                                                                                                                                                                              ",
"                                                                                                                                                                                                                                                                                                                                                                              ",
"                                                                                                                                                                                                                                                                                                                                                                              ",
"                                                                                                                                                                                                                                                                                                                                                                              ",
"                                                                                                                                                                                                                                                                                                                                                                              ",
"                                                                                                                                                                                                                                                                                                                                                                              ",
"                                                                                                                                                                                                                                                                                                                                                                              ",
"                                                                                                                                                                                                                                                                                                                                                                              ",
"                                                                                                                                                                                                                                                                                                                                                                              ",
"                                                                                                                                                                                                                                                                                                                                                                              ",
"                                                                                                                                                                                                                                                                                                                                                                              ",
"                                                                                                                                                                                                                                                                                                                                                                              ",
"                                                                                                                                                                                    +++++++++                                                                                                                                                                                 ",
"                                                                                                                                                                                    +++++++++                                                                                                                                                                                 ",
"                                                                                                                                                                                    +++++++++                                                                                                                                                                                 ",
"                                                                                                                                                                                 &&&###@@@+++++++++                                                                                                                                                                           ",
"                                                                                                                                                                                 &&&###@@@+++++++++                                                                                                                                                                           ",
"                                                                                                                                                                                 &&&###@@@+++++++++                                                                                                                                                                           ",
"                                                                                                                                                                                 ***&&&%%%###@@@@@@++++++@@@+++@@@%%%---;;;:::>>>                                                                                                                                             ",
"                                                                                                                                                                                 ***&&&%%%###@@@@@@++++++@@@+++@@@%%%---;;;:::>>>                                                                                                                                             ",
"                                                                                                                                                                                 ***&&&%%%###@@@@@@++++++@@@+++@@@%%%---;;;:::>>>                                                                                                                                             ",
"                                                                                                                                                                              ---******&&&&&&%%%###@@@+++OOOOOO+++###%%%&&&***;;;:::>>>                                                                                                                                       ",
"                                                                                                                                                                              ---******&&&&&&%%%###@@@+++OOOOOO+++###%%%&&&***;;;:::>>>                                                                                                                                       ",
"                                                                                                                                                                              ---******&&&&&&%%%###@@@+++OOOOOO+++###%%%&&&***;;;:::>>>                                                                                                                                       ",
"                                                                                                                                                                           ###%%%***===******&&&%%%@@@OOOOOOOOOOOO+++@@@######%%%&&&===;;;>>>                                                                                                                                 ",
"                                                                                                                                                                           ###%%%***===******&&&%%%@@@OOOOOOOOOOOO+++@@@######%%%&&&===;;;>>>                                                                                                                                 ",
"                                                                                                                                                                           ###%%%***===******&&&%%%@@@OOOOOOOOOOOO+++@@@######%%%&&&===;;;>>>                                                                                                                                 ",
"                                                                                                                                                                        &&&###@@@%%%&&&************%%%+++OOOXXXoooOOOOOO+++@@@@@@@@@%%%===::::::                                                                                                                              ",
"                                                                                                                                                                        &&&###@@@%%%&&&************%%%+++OOOXXXoooOOOOOO+++@@@@@@@@@%%%===::::::                                                                                                                              ",
"                                                                                                                                                                        &&&###@@@%%%&&&************%%%+++OOOXXXoooOOOOOO+++@@@@@@@@@%%%===::::::                                                                                                                              ",
"                                                                                                                                                                        ---%%%@@@@@@###%%%&&&------&&&###+++OOOXXXXXXOOOOOO+++++++++@@@%%%===---:::                                                                                                                           ",
"                                                                                                                                                                        ---%%%@@@@@@###%%%&&&------&&&###+++OOOXXXXXXOOOOOO+++++++++@@@%%%===---:::                                                                                                                           ",
"                                                                                                                                                                        ---%%%@@@@@@###%%%&&&------&&&###+++OOOXXXXXXOOOOOO+++++++++@@@%%%===---:::                                                                                                                           ",
"                                                                                                                                                                        :::***###@@@++++++%%%&&&======&&&%%%+++OOOoooOOOOOO+++++++++@@@###%%%***---:::                                                                                                                        ",
"                                                                                                                                                                        :::***###@@@++++++%%%&&&======&&&%%%+++OOOoooOOOOOO+++++++++@@@###%%%***---:::                                                                                                                        ",
"                                                                                                                                                                        :::***###@@@++++++%%%&&&======&&&%%%+++OOOoooOOOOOO+++++++++@@@###%%%***---:::                                                                                                                        ",
"                                                                                                                                                                           ;;;&&&###OOOOOO+++###&&&***---***%%%+++OOOOOO+++++++++++++++@@@###%%%***---:::                                                                                                                     ",
"                                                                                                                                                                           ;;;&&&###OOOOOO+++###&&&***---***%%%+++OOOOOO+++++++++++++++@@@###%%%***---:::                                                                                                                     ",
"                                                                                                                                                                           ;;;&&&###OOOOOO+++###&&&***---***%%%+++OOOOOO+++++++++++++++@@@###%%%***---:::                                                                                                                     ",
"                                                                                                                                                                              ;;;%%%+++OOOOOO+++$$$***;;;;;;***%%%###@@@@@@+++OOOOOOOOO+++@@@###&&&***---                                                                                                                     ",
"                                                                                                                                                                              ;;;%%%+++OOOOOO+++$$$***;;;;;;***%%%###@@@@@@+++OOOOOOOOO+++@@@###&&&***---                                                                                                                     ",
"                                                                                                                                                                              ;;;%%%+++OOOOOO+++$$$***;;;;;;***%%%###@@@@@@+++OOOOOOOOO+++@@@###&&&***---                                                                                                                     ",
"                                                                                                                                                                              >>>&&&+++OOOoooOOO###***---;;;;;;***&&&$$$@@@OOOOOOoooOOOOOO+++###%%%&&&***;;;                                                                                                                  ",
"                                                                                                                                                                              >>>&&&+++OOOoooOOO###***---;;;;;;***&&&$$$@@@OOOOOOoooOOOOOO+++###%%%&&&***;;;                                                                                                                  ",
"                                                                                                                                                                              >>>&&&+++OOOoooOOO###***---;;;;;;***&&&$$$@@@OOOOOOoooOOOOOO+++###%%%&&&***;;;                                                                                                                  ",
"                                                                                                                                                                                    ###OOOOOOOOO@@@%%%***------&&&%%%###+++OOOXXXXXXXXXOOO+++@@@###%%%***---:::                                                                                                               ",
"                                                                                                                                                                                    ###OOOOOOOOO@@@%%%***------&&&%%%###+++OOOXXXXXXXXXOOO+++@@@###%%%***---:::                                                                                                               ",
"                                                                                                                                                                                    ###OOOOOOOOO@@@%%%***------&&&%%%###+++OOOXXXXXXXXXOOO+++@@@###%%%***---:::                                                                                                               ",
"                                                                                                                                                                                    %%%@@@OOOOOO+++@@@$$$&&&%%%######@@@OOOoooXXX...XXXoooOOO+++@@@###&&&***---                                                                                                               ",
"                                                                                                                                                                                    %%%@@@OOOOOO+++@@@$$$&&&%%%######@@@OOOoooXXX...XXXoooOOO+++@@@###&&&***---                                                                                                               ",
"                                                                                                                                                                                    %%%@@@OOOOOO+++@@@$$$&&&%%%######@@@OOOoooXXX...XXXoooOOO+++@@@###&&&***---                                                                                                               ",
"                                                                                                                                                                                       ###+++OOOOOOOOO+++@@@@@@@@@@@@+++OOOXXX.........XXXOOO+++@@@###%%%***---:::                                                                                                            ",
"                                                                                                                                                                                       ###+++OOOOOOOOO+++@@@@@@@@@@@@+++OOOXXX.........XXXOOO+++@@@###%%%***---:::                                                                                                            ",
"                                                                                                                                                                                       ###+++OOOOOOOOO+++@@@@@@@@@@@@+++OOOXXX.........XXXOOO+++@@@###%%%***---:::                                                                                                            "
};
