/* XPM */
static char *_c1c34645bc7486a9789307cba51fb08[] = {
/* columns rows colors chars-per-pixel */
"366 192 32 1 ",
"  c None",
". c #FCCCB0",
"X c #FCBC9C",
"o c #FCB890",
"O c #FCB080",
"+ c #FCA470",
"@ c #FC9C60",
"# c #F0945C",
"$ c #E88C58",
"% c #DC8854",
"& c #D08050",
"* c #C87C4C",
"= c #BC7848",
"- c #B47044",
"; c #A86840",
": c #9C6038",
"> c #885830",
", c black",
"< c black",
"1 c black",
"2 c black",
"3 c black",
"4 c black",
"5 c black",
"6 c black",
"7 c black",
"8 c black",
"9 c black",
"0 c black",
"q c black",
"w c black",
"e c black",
/* pixels */
"                                                                                                                                                                                                                                                                                                                                                                              ",
"                                                                                                                                                                                                                                                                                                                                                                              ",
"                                                                                                                                                                                                                                                                                                                                                                              ",
"                                                                                                                                                                                                                                                                                                                                                                              ",
"                                                                                                                                                                                                                                                                                                                                                                              ",
"                                                                                                                                                                                                                                                                                                                                                                              ",
"                                                                                                                                                                                                                                                                                                                                                                              ",
"                                                                                                                                                                                                                                                                                                                                                                              ",
"                                                                                                                                                                                                                                                                                                                                                                              ",
"                                                                                                                                                                                                                                                                                                                                                                              ",
"                                                                                                                                                                                                                                                                                                                                                                              ",
"                                                                                                                                                                                                                                                                                                                                                                              ",
"                                                                                                                                                                                                                                                                                                                                                                              ",
"                                                                                                                                                                                                                                                                                                                                                                              ",
"                                                                                                                                                                                                                                                                                                                                                                              ",
"                                                                                                                                                                                                                                                                                                                                                                              ",
"                                                                                                                                                                                                                                                                                                                                                                              ",
"                                                                                                                                                                                                                                                                                                                                                                              ",
"                                                                                                                                                                                                                                                                                                                                                                              ",
"                                                                                                                                                                                                                                                                                                                                                                              ",
"                                                                                                                                                                                                                                                                                                                                                                              ",
"                                                                                                                                                                                                                                                                                                                                                                              ",
"                                                                                                                                                                                                                                                                                                                                                                              ",
"                                                                                                                                                                                                                                                                                                                                                                              ",
"                                                                                                                                                                                                                                                                                                                                                                              ",
"                                                                                                                                                                                                                                                                                                                                                                              ",
"                                                                                                                                                                                                                                                                                                                                                                              ",
"                                                                                                                                                                                                                                                                                                                                                                              ",
"                                                                                                                                                                                                                                                                                                                                                                              ",
"                                                                                                                                                                                                                                                                                                                                                                              ",
"                                                                                                                                                                                                                                                                                                                                                                              ",
"                                                                                                                                                                                                                                                                                                                                                                              ",
"                                                                                                                                                                                                                                                                                                                                                                              ",
"                                                                                                                                                                                                                                                                                                                                                                              ",
"                                                                                                                                                                                                                                                                                                                                                                              ",
"                                                                                                                                                                                                                                                                                                                                                                              ",
"                                                                                                                                                                                                                                                                                                                                                                              ",
"                                                                                                                                                                                                                                                                                                                                                                              ",
"                                                                                                                                                                                                                                                                                                                                                                              ",
"                                                                                                                                                                                                                                                                                                                                                                              ",
"                                                                                                                                                                                                                                                                                                                                                                              ",
"                                                                                                                                                                                                                                                                                                                                                                              ",
"                                                                                                                                                                                                                                                                                                                                                                              ",
"                                                                                                                                                                                                                                                                                                                                                                              ",
"                                                                                                                                                                                                                                                                                                                                                                              ",
"                                                                                                                                                                                                                                                                                                                                                                              ",
"                                                                                                                                                                                                                                                                                                                                                                              ",
"                                                                                                                                                                                                                                                                                                                                                                              ",
"                                                                                                                                                                                                                                                                                                                                                                              ",
"                                                                                                                                                                                                                                                                                                                                                                              ",
"                                                                                                                                                                                                                                                                                                                                                                              ",
"                                                                                                                                                                                                                                                                                                                                                                              ",
"                                                                                                                                                                                                                                                                                                                                                                              ",
"                                                                                                                                                                                                                                                                                                                                                                              ",
"                                                                                                                                                                                                                                                                                                                                                                              ",
"                                                                                                                                                                                                                                                                                                                                                                              ",
"                                                                                                                                                                                                                                                                                                                                                                              ",
"                                                                                                                                                                                                                                                                                                                                                                              ",
"                                                                                                                                                                                                                                                                                                                                                                              ",
"                                                                                                                                                                                                                                                                                                                                                                              ",
"                                                                                                                                                                                                                                                                                                                                                                              ",
"                                                                                                                                                                                                                                                                                                                                                                              ",
"                                                                                                                                                                                                                                                                                                                                                                              ",
"                                                                                                                                                                                                                                                                                                                                                                              ",
"                                                                                                                                                                                                                                                                                                                                                                              ",
"                                                                                                                                                                                                                                                                                                                                                                              ",
"                                                                                                                                                                                                                                                                                                                                                                              ",
"                                                                                                                                                                                                                                                                                                                                                                              ",
"                                                                                                                                                                                                                                                                                                                                                                              ",
"                                                                                                                                                                                                                                                                                                                                                                              ",
"                                                                                                                                                                                                                                                                                                                                                                              ",
"                                                                                                                                                                                                                                                                                                                                                                              ",
"                                                                                                                                                                                                                                                                                                                                                                              ",
"                                                                                                                                                                                                                                                                                                                                                                              ",
"                                                                                                                                                                                                                                                                                                                                                                              ",
"                                                                                                                                                                                                                                                                                                                                                                              ",
"                                                                                                                                                                                                                                                                                                                                                                              ",
"                                                                                                                                                                                                                                                                                                                                                                              ",
"                                                                                                                                                                                                                                                                                                                                                                              ",
"                                                                                                                                                                                                                                                                                                                                                                              ",
"                                                                                                                                                                                                                                                                                                                                                                              ",
"                                                                                                                                                                                                                                                                                                                                                                              ",
"                                                                                                                                                                                                                                                                                                                                                                              ",
"                                                                                                                                                                                                                                                                                                                                                                              ",
"                                                                                                                                                                                                                                                                                                                                                                              ",
"                                                                                                                                                                                                                                                                                                                                                                              ",
"                                                                                                                                                                                                                                                                                                                                                                              ",
"                                                                                                                                                                                                                                                                                                                                                                              ",
"                                                                                                                                                                                                                                                                                                                                                                              ",
"                                                                                                                                                                                                                                                                                                                                                                              ",
"                                                                                                                                                                                                                                                                                                                                                                              ",
"                                                                                                                                                                                                                                                                                                                                                                              ",
"                                                                                                                                                                                                                                                                                                                                                                              ",
"                                                                                                                                                                                                                                                                                                                                                                              ",
"                                                                                                                                                                                                                                                                                                                                                                              ",
"                                                                                                                                                                                                                                                                                                                                                                              ",
"                                                                                                                                                                                                                                                                                                                                                                              ",
"                                                                                                                                                                                                                                                                                                                                                                              ",
"                                                                                                                                                                                                                                                                                                                                                                              ",
"                                                                                                                                                                                                                                                                                                                                                                              ",
"                                                                                                                                                                                                                                                                                                                                                                              ",
"                                                                                                                                                                                                                                                                                                                                                                              ",
"                                                                                                                                                                                                                                                                                                                                                                              ",
"                                                                                                                                                                                                                                                                                                                                                                              ",
"                                                                                                                                                                                                                                                                                                                                                                              ",
"                                                                                                                                                                                                                                                                                                                                                                              ",
"                                                                                                                                                                                                                                                                                                                                                                              ",
"                                                                                                                                                                                                                                                                                                                                                                              ",
"                                                                                                                                                                                                                                                                                                                                                                              ",
"                                                                                                                                                                                                                                                                                                                                                                              ",
"                                                                                                                                                                                                                                                                                                                                                                              ",
"                                                                                                                                                                                                                                                                                                                                                                              ",
"                                                                                                                                                                                                                                                                                                                                                                              ",
"                                                                                                                                                                                                                                                                                                                                                                              ",
"                                                                                                                                                                                                                                                                                                                                                                              ",
"                                                                                                                                                                                                                                                                                                                                                                              ",
"                                                                                                                                                                                                                                                                                                                                                                              ",
"                                                                                                                                                                                                                                                                                                                                                                              ",
"                                                                                                                                                                                                                                                                                                                                                                              ",
"                                                                                                                                                                                                                                                                                                                                                                              ",
"                                                                                                                                                                                                                                                                                                                                                                              ",
"                                                                                                                                                                                                                                                                                                                                                                              ",
"                                                                                                                                                                                                                                                                                                                                                                              ",
"                                                                                                                                                                                                                                                                                                                                                                              ",
"                                                                                                                                                                                                                                                                                                                                                                              ",
"                                                                                                                                                                                                                                                                                                                                                                              ",
"                                                                                                                                                                                                                                                                                                                                                                              ",
"                                                                                                                                                                                                                                                                                                                                                                              ",
"                                                                                                                                                                                                                                                                                                                                                                              ",
"                                                                                                                                                                                                                                                                                                                                                                              ",
"                                                                                                                                                                                                                                                                                                                                                                              ",
"                                                                                                                                                                                                                                                                                                                                                                              ",
"                                                                                                                                                                                                                                                                                                                                                                              ",
"                                                                                                                                                                                                                                                                                                                                                                              ",
"                                                                                                                                                                                                                                                                                                                                                                              ",
"                                                                                                                                                                                                                                                                                                                                                                              ",
"                                                                                                                                                                                                                                                                                                                                                                              ",
"                                                                                                                                                                                                                                                                                                                                                                              ",
"                                                                                                                                                                                                                                                                                                                                                                              ",
"                                                                                                                                                                                                                                                                                                                                                                              ",
"                                                                                                                                                                                                                                                                                                                                                                              ",
"                                                                                                                                                                                                                                                                                                                                                                              ",
"                                                                                                                                                                                                                                                                                                                                                                              ",
"                                                                                                                                                                                                                                                                                                                                                                              ",
"                                                                                                                                                                                                                                                                                                                                                                              ",
"                                                                                                                                                                                                                                                                                                                                                                              ",
"                                                                                                                                                                                                                                                                                                                                                                              ",
"                                                                                                                                                                                                                                                                                                                                                                              ",
"                                                                                                                                                                                                                                                                                                                                                                              ",
"                                                                                                                                                                                                                                                                                                                                                                              ",
"                                                                                                                                                                                                                                                                                                                                                                              ",
"                                                                                                                                                                                                                                                                                                                                                                              ",
"                                                                                                                                                                                                                                                                                                                                                                              ",
"                                                                                                                                                                                                                                                                                                                                                                              ",
"                                                                                                                                                                                                                                                                                                                                                                              ",
"                                                                                                                                                                                                                                                                                                                                                                              ",
"                                                                                                                                                                                                                                                                                                                                                                              ",
"                                                                                                                                                                                                                                                                                                                                                                              ",
"                                                                                                                                                                                                                                                                                                                                                                              ",
"                                                                                                                                                                                                                                                                                                                                                                              ",
"                                                                                                                                                                                                                                                                                                                                                                              ",
"                                                                                                                                                                                                                                                                                                                                                                              ",
"                                                                                                                                                                                                                                                                                                                                                                              ",
"                                                                                                                                                                                                                                                                                                                                                                              ",
"                                                                                                                                                                                                                                                                                                                                                                              ",
"                                                                                                                                                      ************;;;:::                                                                                                                                                                                                      ",
"                                                                                                                                                      ************;;;:::                                                                                                                                                                                                      ",
"                                                                                                                                                      ************;;;:::                                                                                                                                                                                                      ",
"                                                                                                                                 ##################&&&&&&&&&&&&&&&***---------:::>>>                                                                                                                                                                                          ",
"                                                                                                                                 ##################&&&&&&&&&&&&&&&***---------:::>>>                                                                                                                                                                                          ",
"                                                                                                                                 ##################&&&&&&&&&&&&&&&***---------:::>>>                                                                                                                                                                                          ",
"                                                                                                                              ++++++++++++OOOOOO+++@@@$$$%%%$$$$$$%%%%%%%%%%%%***===;;;:::>>>                                                                                                                                                                                 ",
"                                                                                                                              ++++++++++++OOOOOO+++@@@$$$%%%$$$$$$%%%%%%%%%%%%***===;;;:::>>>                                                                                                                                                                                 ",
"                                                                                                                              ++++++++++++OOOOOO+++@@@$$$%%%$$$$$$%%%%%%%%%%%%***===;;;:::>>>                                                                                                                                                                                 ",
"                                                                                                                           +++OOOOOOOOOoooXXXXXXoooOOO@@@@@@@@@+++++++++OOO+++@@@%%%&&&***===;;;::::::                                                                                                                                                                        ",
"                                                                                                                           +++OOOOOOOOOoooXXXXXXoooOOO@@@@@@@@@+++++++++OOO+++@@@%%%&&&***===;;;::::::                                                                                                                                                                        ",
"                                                                                                                           +++OOOOOOOOOoooXXXXXXoooOOO@@@@@@@@@+++++++++OOO+++@@@%%%&&&***===;;;::::::                                                                                                                                                                        ",
"                                                                                                                        +++OOOOOOoooXXX.........XXXOOO+++@@@+++OOOOOOXXXXXXOOOOOO@@@######%%%&&&***&&&&&&***:::                                                                                                                                                               ",
"                                                                                                                        +++OOOOOOoooXXX.........XXXOOO+++@@@+++OOOOOOXXXXXXOOOOOO@@@######%%%&&&***&&&&&&***:::                                                                                                                                                               ",
"                                                                                                                        +++OOOOOOoooXXX.........XXXOOO+++@@@+++OOOOOOXXXXXXOOOOOO@@@######%%%&&&***&&&&&&***:::                                                                                                                                                               ",
"                                                                                                                     +++OOOOOOoooXXX............XXXOOO@@@###@@@OOOXXX...XXXoooOOO+++++++++@@@@@@######$$$&&&&&&***:::                                                                                                                                                         ",
"                                                                                                                     +++OOOOOOoooXXX............XXXOOO@@@###@@@OOOXXX...XXXoooOOO+++++++++@@@@@@######$$$&&&&&&***:::                                                                                                                                                         ",
"                                                                                                                     +++OOOOOOoooXXX............XXXOOO@@@###@@@OOOXXX...XXXoooOOO+++++++++@@@@@@######$$$&&&&&&***:::                                                                                                                                                         ",
"                                                                                                                     +++OOOOOOoooXXXXXX.........XXX+++###%%%@@@OOOXXXXXXoooOOOOOO+++++++++++++++@@@@@@@@@###$$$&&&***---;;;>>>                                                                                                                                                ",
"                                                                                                                     +++OOOOOOoooXXXXXX.........XXX+++###%%%@@@OOOXXXXXXoooOOOOOO+++++++++++++++@@@@@@@@@###$$$&&&***---;;;>>>                                                                                                                                                ",
"                                                                                                                     +++OOOOOOoooXXXXXX.........XXX+++###%%%@@@OOOXXXXXXoooOOOOOO+++++++++++++++@@@@@@@@@###$$$&&&***---;;;>>>                                                                                                                                                ",
"                                                                                                                     OOOOOOOOOOOOOOOoooXXX...XXXooo+++###&&&###OOOXXXoooOOOOOO+++++++++++++++++++++++++++@@@@@@###%%%&&&===---::::::>>>>>>                                                                                                                                    ",
"                                                                                                                     OOOOOOOOOOOOOOOoooXXX...XXXooo+++###&&&###OOOXXXoooOOOOOO+++++++++++++++++++++++++++@@@@@@###%%%&&&===---::::::>>>>>>                                                                                                                                    ",
"                                                                                                                     OOOOOOOOOOOOOOOoooXXX...XXXooo+++###&&&###OOOXXXoooOOOOOO+++++++++++++++++++++++++++@@@@@@###%%%&&&===---::::::>>>>>>                                                                                                                                    ",
"                                                                                                                  OOOOOO+++++++++OOOOOOXXX...XXXOOO@@@%%%&&&%%%+++OOOOOOOOO++++++++++++++++++++++++++++++++++++@@@######%%%&&&===;;;:::>>>>>>>>>                                                                                                                              ",
"                                                                                                                  OOOOOO+++++++++OOOOOOXXX...XXXOOO@@@%%%&&&%%%+++OOOOOOOOO++++++++++++++++++++++++++++++++++++@@@######%%%&&&===;;;:::>>>>>>>>>                                                                                                                              ",
"                                                                                                                  OOOOOO+++++++++OOOOOOXXX...XXXOOO@@@%%%&&&%%%+++OOOOOOOOO++++++++++++++++++++++++++++++++++++@@@######%%%&&&===;;;:::>>>>>>>>>                                                                                                                              "
};
