/* XPM */
static char *_523193f312a41c3bde74e7252bcf3d5[] = {
/* columns rows colors chars-per-pixel */
"366 192 32 1 ",
"  c None",
". c #FCCCB0",
"X c #FCBC9C",
"o c #FCB890",
"O c #FCB080",
"+ c #FCA470",
"@ c #FC9C60",
"# c #F0945C",
"$ c #E88C58",
"% c #DC8854",
"& c #D08050",
"* c #C87C4C",
"= c #BC7848",
"- c #B47044",
"; c #A86840",
": c #9C6038",
"> c #885830",
", c black",
"< c black",
"1 c black",
"2 c black",
"3 c black",
"4 c black",
"5 c black",
"6 c black",
"7 c black",
"8 c black",
"9 c black",
"0 c black",
"q c black",
"w c black",
"e c black",
/* pixels */
"                                                                                                                                                                                                                                                                                                                                                                              ",
"                                                                                                                                                                                                                                                                                                                                                                              ",
"                                                                                                                                                                                                                                                                                                                                                                              ",
"                                                                                                                                                                                                                                                                                                                                                                              ",
"                                                                                                                                                                                                                                                                                                                                                                              ",
"                                                                                                                                                                                                                                                                                                                                                                              ",
"                                                                                                                                                                                                                                                                                                                                                                              ",
"                                                                                                                                                                                                                                                                                                                                                                              ",
"                                                                                                                                                                                                                                                                                                                                                                              ",
"                                                                                                                                                                                                                                                                                                                                                                              ",
"                                                                                                                                                                                                                                                                                                                                                                              ",
"                                                                                                                                                                                                                                                                                                                                                                              ",
"                                                                                                                                                                                                                                                                                                                                                                              ",
"                                                                                                                                                                                                                                                                                                                                                                              ",
"                                                                                                                                                                                                                                                                                                                                                                              ",
"                                                                                                                                                                                                                                                                                                                                                                              ",
"                                                                                                                                                                                                                                                                                                                                                                              ",
"                                                                                                                                                                                                                                                                                                                                                                              ",
"                                                                                                                                                                                                                                                                                                                                                                              ",
"                                                                                                                                                                                                                                                                                                                                                                              ",
"                                                                                                                                                                                                                                                                                                                                                                              ",
"                                                                                                                                                                                                                                                                                                                                                                              ",
"                                                                                                                                                                                                                                                                                                                                                                              ",
"                                                                                                                                                                                                                                                                                                                                                                              ",
"                                                                                                                                                                                                                                                                                                                                                                              ",
"                                                                                                                                                                                                                                                                                                                                                                              ",
"                                                                                                                                                                                                                                                                                                                                                                              ",
"                                                                                                                                                                                                                                                                                                                                                                              ",
"                                                                                                                                                                                                                                                                                                                                                                              ",
"                                                                                                                                                                                                                                                                                                                                                                              ",
"                                                                                                                                                                                                                                                                                                                                                                              ",
"                                                                                                                                                                                                                                                                                                                                                                              ",
"                                                                                                                                                                                                                                                                                                                                                                              ",
"                                                                                                                                                                                                                                                                                                                                                                              ",
"                                                                                                                                                                                                                                                                                                                                                                              ",
"                                                                                                                                                                                                                                                                                                                                                                              ",
"                                                                                                                                                                                                                                                                                                                                                                              ",
"                                                                                                                                                                                                                                                                                                                                                                              ",
"                                                                                                                                                                                                                                                                                                                                                                              ",
"                                                                                                                                                                                                                                                                                                                                                                              ",
"                                                                                                                                                                                                                                                                                                                                                                              ",
"                                                                                                                                                                                                                                                                                                                                                                              ",
"                                                                                                                                                                                                                                                                                                                                                                              ",
"                                                                                                                                                                                                                                                                                                                                                                              ",
"                                                                                                                                                                                                                                                                                                                                                                              ",
"                                                                                                                                                                                                                                                                                                                                                                              ",
"                                                                                                                                                                                                                                                                                                                                                                              ",
"                                                                                                                                                                                                                                                                                                                                                                              ",
"                                                                                                                                                                                                                                                                                                                                                                              ",
"                                                                                                                                                                                                                                                                                                                                                                              ",
"                                                                                                                                                                                                                                                                                                                                                                              ",
"                                                                                                                                                                                                                                                                                                                                                                              ",
"                                                                                                                                                                                                                                                                                                                                                                              ",
"                                                                                                                                                                                                                                                                                                                                                                              ",
"                                                                                                                                                                                                                                                                                                                                                                              ",
"                                                                                                                                                                                                                                                                                                                                                                              ",
"                                                                                                                                                                                                                                                                                                                                                                              ",
"                                                                                                                                                                                                                                                                                                                                                                              ",
"                                                                                                                                                                                                                                                                                                                                                                              ",
"                                                                                                                                                                                                                                                                                                                                                                              ",
"                                                                                                                                                                                                                                                                                                                                                                              ",
"                                                                                                                                                                                                                                                                                                                                                                              ",
"                                                                                                                                                                                                                                                                                                                                                                              ",
"                                                                                                                                                                                                                                                                                                                                                                              ",
"                                                                                                                                                                                                                                                                                                                                                                              ",
"                                                                                                                                                                                                                                                                                                                                                                              ",
"                                                                                                                                                                                                                                                                                                                                                                              ",
"                                                                                                                                                                                                                                                                                                                                                                              ",
"                                                                                                                                                                                                                                                                                                                                                                              ",
"                                                                                                                                                                                                                                                                                                                                                                              ",
"                                                                                                                                                                                                                                                                                                                                                                              ",
"                                                                                                                                                                                                                                                                                                                                                                              ",
"                                                                                                                                                                                                                                                                                                                                                                              ",
"                                                                                                                                                                                                                                                                                                                                                                              ",
"                                                                                                                                                                                                                                                                                                                                                                              ",
"                                                                                                                                                                                                                                                                                                                                                                              ",
"                                                                                                                                                                                                                                                                                                                                                                              ",
"                                                                                                                                                                                                                                                                                                                                                                              ",
"                                                                                                                                                                                                                                                                                                                                                                              ",
"                                                                                                                                                                                                                                                                                                                                                                              ",
"                                                                                                                                                                                                                                                                                                                                                                              ",
"                                                                                                                                                                                                                                                                                                                                                                              ",
"                                                                                                                                                                                                                                                                                                                                                                              ",
"                                                                                                                                                                                                                                                                                                                                                                              ",
"                                                                                                                                                                                                                                                                                                                                                                              ",
"                                                                                                                                                                                                                                                                                                                                                                              ",
"                                                                                                                                                                                                                                                                                                                                                                              ",
"                                                                                                                                                                                                                                                                                                                                                                              ",
"                                                                                                                                                                                                                                                                                                                                                                              ",
"                                                                                                                                                                                                                                                                                                                                                                              ",
"                                                                                                                                                                                                                                                                                                                                                                              ",
"                                                                                                                                                                                                                                                                                                                                                                              ",
"                                                                                                                                                                                                                                                                                                                                                                              ",
"                                                                                                                                                                                                                                                                                                                                                                              ",
"                                                                                                                                                                                                                                                                                                                                                                              ",
"                                                                                                                                                                                                                                                                                                                                                                              ",
"                                                                                                                                                                                                                                                                                                                                                                              ",
"                                                                                                                                                                                                                                                                                                                                                                              ",
"                                                                                                                                                                                                                                                                                                                                                                              ",
"                                                                                                                                                                                                                                                                                                                                                                              ",
"                                                                                                                                                                                                                                                                                                                                                                              ",
"                                                                                                                                                                                                                                                                                                                                                                              ",
"                                                                                                                                                                                                                                                                                                                                                                              ",
"                                                                                                                                                                                                                                                                                                                                                                              ",
"                                                                                                                                                                                                                                                                                                                                                                              ",
"                                                                                                                                                                                                                                                                                                                                                                              ",
"                                                                                                                                                                                                                                                                                                                                                                              ",
"                                                                                                                                                                                                                                                                                                                                                                              ",
"                                                                                                                                                                                                                                                                                                                                                                              ",
"                                                                                                                                                                                                                                                                                                                                                                              ",
"                                                                                                                                                                                                                                                                                                                                                                              ",
"                                                                                                                                                                                                                                                                                                                                                                              ",
"                                                                                                                                                                                                                                                                                                                                                                              ",
"                                                                                                                                                                                                                                                                                                                                                                              ",
"                                                                                                                                                                                                                                                                                                                                                                              ",
"                                                                                                                                                                                                                                                                                                                                                                              ",
"                                                                                                                                                                                                                                                                                                                                                                              ",
"                                                                                                                                                                                                                                                                                                                                                                              ",
"                                                                                                                                                                                                                                                                                                                                                                              ",
"                                                                                                                                                                                                                                                                                                                                                                              ",
"                                                                                                                                                                                                                                                                                                                                                                              ",
"                                                                                                                                                                                                                                                                                                                                                                              ",
"                                                                                                                                                                                                                                                                                                                                                                              ",
"                                                                                                                                                                                                                                                                                                                                                                              ",
"                                                                                                                                                                                                                                                                                                                                                                              ",
"                                                                                                                                                                                                                                                                                                                                                                              ",
"                                                                                                                                                                                                                                                                                                                                                                              ",
"                                                                                                                                                                                                                                                                                                                                                                              ",
"                                                                                                                                                                                                                                                                                                                                                                              ",
"                                                                                                                                                                                                                                                                                                                                                                              ",
"                                                                                                                                                                                                                                                                                                                                                                              ",
"                                                                                                                                                                                                                                                                                                                                                                              ",
"                                                                                                                                                                                                                                                                                                                                                                              ",
"                                                                                                                                                                                                                                                                                                                                                                              ",
"                                                                                                                                                                                                                                                                                                                                                                              ",
"                                                                                                                                                                                                                                                                                                                                                                              ",
"                                                                                                                                                                                                                                                                                                                                                                              ",
"                                                                                                                                                                                                                                                                                                                                                                              ",
"                                                                                                                           ###$$$&&&---:::>>>>>>>>>>>>>>>                                                                                                                                                                                                                     ",
"                                                                                                                           ###$$$&&&---:::>>>>>>>>>>>>>>>                                                                                                                                                                                                                     ",
"                                                                                                                           ###$$$&&&---:::>>>>>>>>>>>>>>>                                                                                                                                                                                                                     ",
"                                                                                                                     OOOOOO+++@@@###&&&***---;;;;;;::::::>>>>>>>>>                                                                                                                                                                                                            ",
"                                                                                                                     OOOOOO+++@@@###&&&***---;;;;;;::::::>>>>>>>>>                                                                                                                                                                                                            ",
"                                                                                                                     OOOOOO+++@@@###&&&***---;;;;;;::::::>>>>>>>>>                                                                                                                                                                                                            ",
"                                                                                                                  XXXXXXoooOOOOOO+++@@@###%%%&&&***---;;;:::::::::;;;                                                                                                                                                                                                         ",
"                                                                                                                  XXXXXXoooOOOOOO+++@@@###%%%&&&***---;;;:::::::::;;;                                                                                                                                                                                                         ",
"                                                                                                                  XXXXXXoooOOOOOO+++@@@###%%%&&&***---;;;:::::::::;;;                                                                                                                                                                                                         ",
"                                                                                                               OOOXXXXXX...XXXXXXOOOOOO+++@@@###&&&***---------***&&&&&&&&&---                                                                                                                                                                                                ",
"                                                                                                               OOOXXXXXX...XXXXXXOOOOOO+++@@@###&&&***---------***&&&&&&&&&---                                                                                                                                                                                                ",
"                                                                                                               OOOXXXXXX...XXXXXXOOOOOO+++@@@###&&&***---------***&&&&&&&&&---                                                                                                                                                                                                ",
"                                                                                                            +++OOOoooXXX...XXXXXXXXXoooOOO+++###%%%******&&&###@@@######%%%%%%&&&***---                                                                                                                                                                                       ",
"                                                                                                            +++OOOoooXXX...XXXXXXXXXoooOOO+++###%%%******&&&###@@@######%%%%%%&&&***---                                                                                                                                                                                       ",
"                                                                                                            +++OOOoooXXX...XXXXXXXXXoooOOO+++###%%%******&&&###@@@######%%%%%%&&&***---                                                                                                                                                                                       ",
"                                                                                                         +++OOOOOOOOOOOOooooooXXXXXXoooOOO+++###&&&***&&&###OOOOOO++++++@@@######%%%&&&&&&%%%                                                                                                                                                                                 ",
"                                                                                                         +++OOOOOOOOOOOOooooooXXXXXXoooOOO+++###&&&***&&&###OOOOOO++++++@@@######%%%&&&&&&%%%                                                                                                                                                                                 ",
"                                                                                                         +++OOOOOOOOOOOOooooooXXXXXXoooOOO+++###&&&***&&&###OOOOOO++++++@@@######%%%&&&&&&%%%                                                                                                                                                                                 ",
"                                                                                                      &&&OOOOOO+++@@@@@@+++OOOOOOXXXoooOOO+++$$$******%%%OOOXXXoooOOO+++++++++@@@@@@######@@@@@@###&&&                                                                                                                                                                        ",
"                                                                                                      &&&OOOOOO+++@@@@@@+++OOOOOOXXXoooOOO+++$$$******%%%OOOXXXoooOOO+++++++++@@@@@@######@@@@@@###&&&                                                                                                                                                                        ",
"                                                                                                      &&&OOOOOO+++@@@@@@+++OOOOOOXXXoooOOO+++$$$******%%%OOOXXXoooOOO+++++++++@@@@@@######@@@@@@###&&&                                                                                                                                                                        ",
"                                                                                                         ++++++%%%&&&&&&%%%@@@OOOOOOoooOOO@@@&&&---&&&###OOOXXXoooOOO++++++OOO+++++++++++++++@@@######%%%&&&&&&                                                                                                                                                               ",
"                                                                                                         ++++++%%%&&&&&&%%%@@@OOOOOOoooOOO@@@&&&---&&&###OOOXXXoooOOO++++++OOO+++++++++++++++@@@######%%%&&&&&&                                                                                                                                                               ",
"                                                                                                         ++++++%%%&&&&&&%%%@@@OOOOOOoooOOO@@@&&&---&&&###OOOXXXoooOOO++++++OOO+++++++++++++++@@@######%%%&&&&&&                                                                                                                                                               ",
"                                                                                                      OOO+++%%%***;;;---***%%%+++OOOOOO+++%%%---;;;===%%%OOOOOOOOOOOO+++OOOOOOOOOOOOOOOOOOOOO++++++@@@@@@###$$$%%%&&&---;;;                                                                                                                                                   ",
"                                                                                                      OOO+++%%%***;;;---***%%%+++OOOOOO+++%%%---;;;===%%%OOOOOOOOOOOO+++OOOOOOOOOOOOOOOOOOOOO++++++@@@@@@###$$$%%%&&&---;;;                                                                                                                                                   ",
"                                                                                                      OOO+++%%%***;;;---***%%%+++OOOOOO+++%%%---;;;===%%%OOOOOOOOOOOO+++OOOOOOOOOOOOOOOOOOOOO++++++@@@@@@###$$$%%%&&&---;;;                                                                                                                                                   ",
"                                                                                                      +++###***;;;;;;---***$$$+++OOOOOO###***;;;:::;;;&&&###++++++++++++OOOOOOOOOOOOOOOOOOOOOOOOOOOOOO++++++@@@###$$$&&&***------;;;                                                                                                                                          ",
"                                                                                                      +++###***;;;;;;---***$$$+++OOOOOO###***;;;:::;;;&&&###++++++++++++OOOOOOOOOOOOOOOOOOOOOOOOOOOOOO++++++@@@###$$$&&&***------;;;                                                                                                                                          ",
"                                                                                                      +++###***;;;;;;---***$$$+++OOOOOO###***;;;:::;;;&&&###++++++++++++OOOOOOOOOOOOOOOOOOOOOOOOOOOOOO++++++@@@###$$$&&&***------;;;                                                                                                                                          ",
"                                                                                                   +++@@@%%%---;;;---&&&%%%@@@++++++@@@%%%--->>>>>>>>>;;;===%%%###@@@++++++OOOOOOOOOoooXXXooooooOOOOOOOOOOOOOOO+++@@@###$$$%%%&&&***------:::                                                                                                                                 ",
"                                                                                                   +++@@@%%%---;;;---&&&%%%@@@++++++@@@%%%--->>>>>>>>>;;;===%%%###@@@++++++OOOOOOOOOoooXXXooooooOOOOOOOOOOOOOOO+++@@@###$$$%%%&&&***------:::                                                                                                                                 ",
"                                                                                                   +++@@@%%%---;;;---&&&%%%@@@++++++@@@%%%--->>>>>>>>>;;;===%%%###@@@++++++OOOOOOOOOoooXXXooooooOOOOOOOOOOOOOOO+++@@@###$$$%%%&&&***------:::                                                                                                                                 ",
"                                                                                                   @@@###&&&***   %%%###@@@@@@@@@###%%%===:::         >>>:::***&&&######@@@++++++OOOOOOooooooXXXXXXXXXXXXoooOOOOOOOOO+++@@@@@@###$$$%%%&&&***---:::                                                                                                                           ",
"                                                                                                   @@@###&&&***   %%%###@@@@@@@@@###%%%===:::         >>>:::***&&&######@@@++++++OOOOOOooooooXXXXXXXXXXXXoooOOOOOOOOO+++@@@@@@###$$$%%%&&&***---:::                                                                                                                           ",
"                                                                                                   @@@###&&&***   %%%###@@@@@@@@@###%%%===:::         >>>:::***&&&######@@@++++++OOOOOOooooooXXXXXXXXXXXXoooOOOOOOOOO+++@@@@@@###$$$%%%&&&***---:::                                                                                                                           ",
"                                                                                                +++@@@&&&***&&&+++OOOOOO###%%%&&&***---;;;>>>               :::***&&&%%%###@@@@@@+++OOOOOOOOOoooXXXXXXXXXXXXXXXoooOOOOOOOOO++++++@@@@@@###$$$&&&&&&---;;;;;;>>>                                                                                                               ",
"                                                                                                +++@@@&&&***&&&+++OOOOOO###%%%&&&***---;;;>>>               :::***&&&%%%###@@@@@@+++OOOOOOOOOoooXXXXXXXXXXXXXXXoooOOOOOOOOO++++++@@@@@@###$$$&&&&&&---;;;;;;>>>                                                                                                               ",
"                                                                                                +++@@@&&&***&&&+++OOOOOO###%%%&&&***---;;;>>>               :::***&&&%%%###@@@@@@+++OOOOOOOOOoooXXXXXXXXXXXXXXXoooOOOOOOOOO++++++@@@@@@###$$$&&&&&&---;;;;;;>>>                                                                                                               ",
"                                                                                                +++%%%===---%%%%%%%%%&&&******:::::::::>>>>>>>>>               :::---===&&&%%%###@@@++++++OOOOOOoooXXXXXX......XXXXXXoooOOOOOO+++++++++++++++@@@###%%%&&&***---;;;                                                                                                            ",
"                                                                                                +++%%%===---%%%%%%%%%&&&******:::::::::>>>>>>>>>               :::---===&&&%%%###@@@++++++OOOOOOoooXXXXXX......XXXXXXoooOOOOOO+++++++++++++++@@@###%%%&&&***---;;;                                                                                                            ",
"                                                                                                +++%%%===---%%%%%%%%%&&&******:::::::::>>>>>>>>>               :::---===&&&%%%###@@@++++++OOOOOOoooXXXXXX......XXXXXXoooOOOOOO+++++++++++++++@@@###%%%&&&***---;;;                                                                                                            ",
"                                                                                                   &&&;;;   &&&&&&;;;::::::      >>>>>>>>>>>>                     ::::::---***%%%###@@@++++++OOOOOOOOOoooXXX.........XXXoooOOO++++++++++++++++++++++++@@@###%%%&&&&&&***:::                                                                                                   ",
"                                                                                                   &&&;;;   &&&&&&;;;::::::      >>>>>>>>>>>>                     ::::::---***%%%###@@@++++++OOOOOOOOOoooXXX.........XXXoooOOO++++++++++++++++++++++++@@@###%%%&&&&&&***:::                                                                                                   ",
"                                                                                                   &&&;;;   &&&&&&;;;::::::      >>>>>>>>>>>>                     ::::::---***%%%###@@@++++++OOOOOOOOOoooXXX.........XXXoooOOO++++++++++++++++++++++++@@@###%%%&&&&&&***:::                                                                                                   ",
"                                                                                                                                       >>>>>>                        >>>:::---===&&&$$$###@@@++++++OOOOOOOOOXXX.........XXXoooOOO++++++++++++++++++++++++@@@@@@######%%%&&&***:::                                                                                             ",
"                                                                                                                                       >>>>>>                        >>>:::---===&&&$$$###@@@++++++OOOOOOOOOXXX.........XXXoooOOO++++++++++++++++++++++++@@@@@@######%%%&&&***:::                                                                                             ",
"                                                                                                                                       >>>>>>                        >>>:::---===&&&$$$###@@@++++++OOOOOOOOOXXX.........XXXoooOOO++++++++++++++++++++++++@@@@@@######%%%&&&***:::                                                                                             ",
"                                                                                                                                                                           ::::::---&&&%%%###@@@+++++++++OOOoooXXX......XXXoooOOO+++++++++++++++++++++++++++++++++@@@@@@###&&&***---:::                                                                                       ",
"                                                                                                                                                                           ::::::---&&&%%%###@@@+++++++++OOOoooXXX......XXXoooOOO+++++++++++++++++++++++++++++++++@@@@@@###&&&***---:::                                                                                       ",
"                                                                                                                                                                           ::::::---&&&%%%###@@@+++++++++OOOoooXXX......XXXoooOOO+++++++++++++++++++++++++++++++++@@@@@@###&&&***---:::                                                                                       ",
"                                                                                                                                                                              >>>:::---***%%%###@@@@@@++++++OOOXXX.........oooOOO+++++++++++++++++++++++++++++++++++++++@@@###%%%&&&***::::::>>>                                                                              ",
"                                                                                                                                                                              >>>:::---***%%%###@@@@@@++++++OOOXXX.........oooOOO+++++++++++++++++++++++++++++++++++++++@@@###%%%&&&***::::::>>>                                                                              ",
"                                                                                                                                                                              >>>:::---***%%%###@@@@@@++++++OOOXXX.........oooOOO+++++++++++++++++++++++++++++++++++++++@@@###%%%&&&***::::::>>>                                                                              "
};
