/* XPM */
static char *c5ae08b0473d4572f683b22086d4e27bErU9o914TphLJ4Lo[] = {
/* columns rows colors chars-per-pixel */
"366 192 32 1 ",
"  c None",
". c #202020",
"X c #2C2C2C",
"o c gray22",
"O c #484848",
"+ c gray33",
"@ c gray44",
"# c #7C7C7C",
"$ c #885830",
"% c #9C6038",
"& c #A86840",
"* c #B47044",
"= c #BC7848",
"- c #C87C4C",
"; c #D08050",
": c #DC8854",
"> c #E88C58",
", c #F0945C",
"< c #FC9C60",
"1 c #FCA470",
"2 c gray55",
"3 c #989898",
"4 c gray66",
"5 c #B4B4B4",
"6 c #FCB080",
"7 c #FCB890",
"8 c #FCBC9C",
"9 c #FCCCB0",
"0 c #C0C0C0",
"q c #D0D0D0",
"w c gainsboro",
"e c #ECECEC",
/* pixels */
"                                                                                                                                                                                                                                                                                                                                                                              ",
"                                                                                                                                                                                                                                                                                                                                                                              ",
"                                                                                                                                                                                                                                                                                                                                                                              ",
"                                                                                                                                                                                                                                                                                                                                                                              ",
"                                                                                                                                                                                                                                                                                                                                                                              ",
"                                                                                                                                                                                                                                                                                                                                                                              ",
"                                                                                                                                                                                                                                                                                                                                                                              ",
"                                                                                                                                                                                                                                                                                                                                                                              ",
"                                                                                                                                                                                                                                                                                                                                                                              ",
"                                                                                                                                                                                                                                                                                                                                                                              ",
"                                                                                                                                                                                                                                                                                                                                                                              ",
"                                                                                                                                                                                                                                                                                                                                                                              ",
"                                                                                                                                                                                                                                                                                                                                                                              ",
"                                                                                                                                                                                                                                                                                                                                                                              ",
"                                                                                                                                                                                                                                                                                                                                                                              ",
"                                                                                                                                                                                                                                                                                                                                                                              ",
"                                                                                                                                                                                                                                                                                                                                                                              ",
"                                                                                                                                                                                                                                                                                                                                                                              ",
"                                                                                                                                                                                                                                                                                                                                                                              ",
"                                                                                                                                                                                                                                                                                                                                                                              ",
"                                                                                                                                                                                                                                                                                                                                                                              ",
"                                                                                                                                                                                                                                                                                                                                                                              ",
"                                                                                                                                                                                                                                                                                                                                                                              ",
"                                                                                                                                                                                                                                                                                                                                                                              ",
"                                                                                                                                                                                                                                                                                                                                                                              ",
"                                                                                                                                                                                                                                                                                                                                                                              ",
"                                                                                                                                                                                                                                                                                                                                                                              ",
"                                                                                                                                                                                                                                                                                                                                                                              ",
"                                                                                                                                                                                                                                                                                                                                                                              ",
"                                                                                                                                                                                                                                                                                                                                                                              ",
"                                                                                                                                                                                                                                                                                                                                                                              ",
"                                                                                                                                                                                                                                                                                                                                                                              ",
"                                                                                                                                                                                                                                                                                                                                                                              ",
"                                                                                                                                                                                                                                                                                                                                                                              ",
"                                                                                                                                                                                                                                                                                                                                                                              ",
"                                                                                                                                                                                                                                                                                                                                                                              ",
"                                                                                                                                                                                                                                                                                                                                                                              ",
"                                                                                                                                                                                                                                                                                                                                                                              ",
"                                                                                                                                                                                                                                                                                                                                                                              ",
"                                                                                                                                                                                                                                                                                                                                                                              ",
"                                                                                                                                                                                                                                                                                                                                                                              ",
"                                                                                                                                                                                                                                                                                                                                                                              ",
"                                                                                                                                                                                                                                                                                                                                                                              ",
"                                                                                                                                                                                                                                                                                                                                                                              ",
"                                                                                                                                                                                                                                                                                                                                                                              ",
"                                                                                                                                                                                                                                                                                                                                                                              ",
"                                                                                                                                                                                                                                                                                                                                                                              ",
"                                                                                                                                                                                                                                                                                                                                                                              ",
"                                                                                                                                                                                                                                                                                                                                                                              ",
"                                                                                                                                                                                                                                                                                                                                                                              ",
"                                                                                                                                                                                                                                                                                                                                                                              ",
"                                                                                                                                                                                                                                                                                                                                                                              ",
"                                                                                                                                                                                                                                                                                                                                                                              ",
"                                                                                                                                                                                                                                                                                                                                                                              ",
"                                                                                                                                                                                                                                                                                                                                                                              ",
"                                                                                                                                                                                                                                                                                                                                                                              ",
"                                                                                                                                                                                                                                                                                                                                                                              ",
"                                                                                                                                                                                                                                                                                                                                                                              ",
"                                                                                                                                                                                                                                                                                                                                                                              ",
"                                                                                                                                                                                                                                                                                                                                                                              ",
"                                                                                                                                                                                                                                                                                                                                                                              ",
"                                                                                                                                                                                                                                                                                                                                                                              ",
"                                                                                                                                                                                                                                                                                                                                                                              ",
"                                                                                                                  111                                                                                                                                                                                                                                                         ",
"                                                                                                                  111                                                                                                                                                                                                                                                         ",
"                                                                                                                  111                                                                                                                                                                                                                                                         ",
"                                                                                                               666111111                                                                                                                                                                                                                                                      ",
"                                                                                                               666111111                                                                                                                                                                                                                                                      ",
"                                                                                                               666111111                                                                                                                                                                                                                                                      ",
"                                                                                                            888666<<<:::                                                                                                                                                                                                                                                      ",
"                                                                                                            888666<<<:::                                                                                                                                                                                                                                                      ",
"                                                                                                            888666<<<:::                                                                                                                                                                                                                                                      ",
"                                                                                                            666<<<:::                                                                                                                                                                                                                                                         ",
"                                                                                                            666<<<:::                                                                                                                                                                                                                                                         ",
"                                                                                                            666<<<:::                                                                                                                                                                                                                                                         ",
"                                                                                                         111<<<:::***                                                                                                                                                                                                                     111111                              ",
"                                                                                                         111<<<:::***                                                                                                                                                                                                                     111111                              ",
"                                                                                                         111<<<:::***                                                                                                                                                                                                                     111111                              ",
"                                                                                                         <<<,,,---      $$$$$$                                                                                                                                                                                                      ***<<<111<<<:::                           ",
"                                                                                                         <<<,,,---      $$$$$$                                                                                                                                                                                                      ***<<<111<<<:::                           ",
"                                                                                                         <<<,,,---      $$$$$$                                                                                                                                                                                                      ***<<<111<<<:::                           ",
"                                                                                                      111<<<:::***$$$$$$$$$$$$$$$                                                                                                                                                                                                ---,,,,,,<<<:::;;;                           ",
"                                                                                                      111<<<:::***$$$$$$$$$$$$$$$                                                                                                                                                                                                ---,,,,,,<<<:::;;;                           ",
"                                                                                                      111<<<:::***$$$$$$$$$$$$$$$                                                                                                                                                                                                ---,,,,,,<<<:::;;;                           ",
"                                                                                                   111<<<,,,---&&&$$$$$$$$$$$$                                                                                                                                                                                             &&&---:::,,,,,,:::;;;;;;                     OOOXXX",
"                                                                                                   111<<<,,,---&&&$$$$$$$$$$$$                                                                                                                                                                                             &&&---:::,,,,,,:::;;;;;;                     OOOXXX",
"                                                                                                   111<<<,,,---&&&$$$$$$$$$$$$                                                                                                                                                                                             &&&---:::,,,,,,:::;;;;;;                     OOOXXX",
"                                                                                                111111<<<;;;***%%%$$$$$$$$$                                                                                                                                                                                             ***---;;;:::,,,;;;======---...            OOOooooooOOO",
"                                                                                                111111<<<;;;***%%%$$$$$$$$$                                                                                                                                                                                             ***---;;;:::,,,;;;======---...            OOOooooooOOO",
"                                                                                                111111<<<;;;***%%%$$$$$$$$$                                                                                                                                                                                             ***---;;;:::,,,;;;======---...            OOOooooooOOO",
"                                                                                             666666111,,,---&&&$$$$$$                                                                                                                                                                                                   ,,,::::::;;;;;;===***===XXXoooooo   +++ooooooOOOOOO+++",
"                                                                                             666666111,,,---&&&$$$$$$                                                                                                                                                                                                   ,,,::::::;;;;;;===***===XXXoooooo   +++ooooooOOOOOO+++",
"                                                                                             666666111,,,---&&&$$$$$$                                                                                                                                                                                                   ,,,::::::;;;;;;===***===XXXoooooo   +++ooooooOOOOOO+++",
"                                                                                          666777666666,,,---%%%            $$$                                                                                                                                                                                       888111,,,;;;===***======oooOOOOOOoooOOOooooooOOO+++@@@@@@",
"                                                                                          666777666666,,,---%%%            $$$                                                                                                                                                                                       888111,,,;;;===***======oooOOOOOOoooOOOooooooOOO+++@@@@@@",
"                                                                                          666777666666,,,---%%%            $$$                                                                                                                                                                                       888111,,,;;;===***======oooOOOOOOoooOOOooooooOOO+++@@@@@@",
"                                                                                       666666777777666:::***%%%$$$$$$$$$$$$$$$$$$                                                                                                                                                                              ;;;666666111:::***&&&***::::::+++++++++OOOOOOOOOOOO+++@@@@@@@@@",
"                                                                                       666666777777666:::***%%%$$$$$$$$$$$$$$$$$$                                                                                                                                                                              ;;;666666111:::***&&&***::::::+++++++++OOOOOOOOOOOO+++@@@@@@@@@",
"                                                                                       666666777777666:::***%%%$$$$$$$$$$$$$$$$$$                                                                                                                                                                              ;;;666666111:::***&&&***::::::+++++++++OOOOOOOOOOOO+++@@@@@@@@@",
"                                                                                    111666777888777111;;;&&&%%%$$$$$$$$$$$$$$$$$$                                                                                                                                                                           ***:::<<<111:::===&&&***:::,,,,,,@@@+++OOOOOO++++++@@@@@@@@@@@@@@@",
"                                                                                    111666777888777111;;;&&&%%%$$$$$$$$$$$$$$$$$$                                                                                                                                                                           ***:::<<<111:::===&&&***:::,,,,,,@@@+++OOOOOO++++++@@@@@@@@@@@@@@@",
"                                                                                    111666777888777111;;;&&&%%%$$$$$$$$$$$$$$$$$$                                                                                                                                                                           ***:::<<<111:::===&&&***:::,,,,,,@@@+++OOOOOO++++++@@@@@@@@@@@@@@@",
"                                                                                 ,,,111666777888666,,,---&&&$$$$$$$$$$$$$$$%%%      111                                                                                                                                                               $$$%%%***;;;::::::===&&&***:::111<<<:::@@@+++OOO+++@@@@@@@@@@@@@@@@@@@@@",
"                                                                                 ,,,111666777888666,,,---&&&$$$$$$$$$$$$$$$%%%      111                                                                                                                                                               $$$%%%***;;;::::::===&&&***:::111<<<:::@@@+++OOO+++@@@@@@@@@@@@@@@@@@@@@",
"                                                                                 ,,,111666777888666,,,---&&&$$$$$$$$$$$$$$$%%%      111                                                                                                                                                               $$$%%%***;;;::::::===&&&***:::111<<<:::@@@+++OOO+++@@@@@@@@@@@@@@@@@@@@@",
"                                                                              :::<<<111666888777111:::***%%%$$$               ,,,<<<,,,;;;                                                                                                                                                      &&&$$$%%%%%%***===;;;---&&&%%%===:::666,,,;;;@@@OOOooo+++@@@@@@@@@@@@@@@@@@@@@",
"                                                                              :::<<<111666888777111:::***%%%$$$               ,,,<<<,,,;;;                                                                                                                                                      &&&$$$%%%%%%***===;;;---&&&%%%===:::666,,,;;;@@@OOOooo+++@@@@@@@@@@@@@@@@@@@@@",
"                                                                              :::<<<111666888777111:::***%%%$$$               ,,,<<<,,,;;;                                                                                                                                                      &&&$$$%%%%%%***===;;;---&&&%%%===:::666,,,;;;@@@OOOooo+++@@@@@@@@@@@@@@@@@@@@@",
"                                                                           ;;;<<<111666777888666111;;;&&&$$$$$$         ,,,111<<<:::;;;                                                                                                                                                      :::***%%%&&&***---======***%%%%%%===111666:::;;;@@@OOOooo+++@@@@@@@@@@@@@@@@@@@@@",
"                                                                           ;;;<<<111666777888666111;;;&&&$$$$$$         ,,,111<<<:::;;;                                                                                                                                                      :::***%%%&&&***---======***%%%%%%===111666:::;;;@@@OOOooo+++@@@@@@@@@@@@@@@@@@@@@",
"                                                                           ;;;<<<111666777888666111;;;&&&$$$$$$         ,,,111<<<:::;;;                                                                                                                                                      :::***%%%&&&***---======***%%%%%%===111666:::;;;@@@OOOooo+++@@@@@@@@@@@@@@@@@@@@@",
"                                                                        &&&:::<<<111666888888666<<<;;;&&&%%%%%%&&&;;;,,,111,,,:::;;;                                                                                                                                                   ***,,,;;;***&&&;;;::::::===&&&%%%$$$%%%===,,,<<<:::---@@@OOOooo+++@@@@@@@@@@@@@@@@@@@@@",
"                                                                        &&&:::<<<111666888888666<<<;;;&&&%%%%%%&&&;;;,,,111,,,:::;;;                                                                                                                                                   ***,,,;;;***&&&;;;::::::===&&&%%%$$$%%%===,,,<<<:::---@@@OOOooo+++@@@@@@@@@@@@@@@@@@@@@",
"                                                                        &&&:::<<<111666888888666<<<;;;&&&%%%%%%&&&;;;,,,111,,,:::;;;                                                                                                                                                   ***,,,;;;***&&&;;;::::::===&&&%%%$$$%%%===,,,<<<:::---@@@OOOooo+++@@@@@@@@@@@@@@@@@@@@@",
"                                                                        ***:::<<<666777888888666<<<;;;***&&&***---,,,111666,,,;;;                                                                                                                                                ;;;;;;,,,:::---******:::666666:::***%%%$$$%%%===,,,,,,:::---+++OOOooo+++@@@@@@@@@@@@@@@###222",
"                                                                        ***:::<<<666777888888666<<<;;;***&&&***---,,,111666,,,;;;                                                                                                                                                ;;;;;;,,,:::---******:::666666:::***%%%$$$%%%===,,,,,,:::---+++OOOooo+++@@@@@@@@@@@@@@@###222",
"                                                                        ***:::<<<666777888888666<<<;;;***&&&***---,,,111666,,,;;;                                                                                                                                                ;;;;;;,,,:::---******:::666666:::***%%%$$$%%%===,,,,,,:::---+++OOOooo+++@@@@@@@@@@@@@@@###222",
"                                                                     $$$---,,,111666777777777666<<<,,,;;;;;;;;;>>><<<111666:::                                                                                                                                                ---;;;:::,,,:::******;;;666888666:::***%%%$$$$$$***:::,,,:::OOO+++oooooo+++@@@@@@@@@@@@@@@222444",
"                                                                     $$$---,,,111666777777777666<<<,,,;;;;;;;;;>>><<<111666:::                                                                                                                                                ---;;;:::,,,:::******;;;666888666:::***%%%$$$$$$***:::,,,:::OOO+++oooooo+++@@@@@@@@@@@@@@@222444",
"                                                                     $$$---,,,111666777777777666<<<,,,;;;;;;;;;>>><<<111666:::                                                                                                                                                ---;;;:::,,,:::******;;;666888666:::***%%%$$$$$$***:::,,,:::OOO+++oooooo+++@@@@@@@@@@@@@@@222444",
"                                                                     %%%---,,,111666666666666666111111111<<<<<<<<<111<<<,,,                                                                                                                                                ---------:::,,,;;;&&&***:::777999666:::***%%%$$$%%%===,,,,,,:::@@@OOOoooOOO+++@@@@@@@@@@@@###444qqq",
"                                                                     %%%---,,,111666666666666666111111111<<<<<<<<<111<<<,,,                                                                                                                                                ---------:::,,,;;;&&&***:::777999666:::***%%%$$$%%%===,,,,,,:::@@@OOOoooOOO+++@@@@@@@@@@@@###444qqq",
"                                                                     %%%---,,,111666666666666666111111111<<<<<<<<<111<<<,,,                                                                                                                                                ---------:::,,,;;;&&&***:::777999666:::***%%%$$$%%%===,,,,,,:::@@@OOOoooOOO+++@@@@@@@@@@@@###444qqq",
"                                                                     %%%---,,,111111666666666666666666666666666111<<<:::***%%%                                                                                                                                          <<<;;;------:::<<<;;;%%%***:::888999666:::***%%%$$$&&&;;;<<<,,,:::@@@OOOoooOOO@@@@@@@@@@@@@@@222555www",
"                                                                     %%%---,,,111111666666666666666666666666666111<<<:::***%%%                                                                                                                                          <<<;;;------:::<<<;;;%%%***:::888999666:::***%%%$$$&&&;;;<<<,,,:::@@@OOOoooOOO@@@@@@@@@@@@@@@222555www",
"                                                                     %%%---,,,111111666666666666666666666666666111<<<:::***%%%                                                                                                                                          <<<;;;------:::<<<;;;%%%***:::888999666:::***%%%$$$&&&;;;<<<,,,:::@@@OOOoooOOO@@@@@@@@@@@@@@@222555www",
"                                                                  $$$%%%;;;,,,111111111666666666777888888666666111,,,***%%%                                                                                                                                          111<<<:::---;;;:::666;;;%%%***:::888888666:::***%%%$$$***:::111,,,:::@@@OOOooo+++@@@@@@@@@@@@###444qqqeee",
"                                                                  $$$%%%;;;,,,111111111666666666777888888666666111,,,***%%%                                                                                                                                          111<<<:::---;;;:::666;;;%%%***:::888888666:::***%%%$$$***:::111,,,:::@@@OOOooo+++@@@@@@@@@@@@###444qqqeee",
"                                                                  $$$%%%;;;,,,111111111666666666777888888666666111,,,***%%%                                                                                                                                          111<<<:::---;;;:::666;;;%%%***:::888888666:::***%%%$$$***:::111,,,:::@@@OOOooo+++@@@@@@@@@@@@###444qqqeee",
"                                                               %%%%%%***:::<<<111111111111666666777777666111111,,,                                                                                                                                                   666111:::---;;;111666;;;%%%***:::666666111;;;&&&%%%%%%===,,,<<<,,,:::@@@OOOooo+++@@@@@@@@@###333000wwweee",
"                                                               %%%%%%***:::<<<111111111111666666777777666111111,,,                                                                                                                                                   666111:::---;;;111666;;;%%%***:::666666111;;;&&&%%%%%%===,,,<<<,,,:::@@@OOOooo+++@@@@@@@@@###333000wwweee",
"                                                               %%%%%%***:::<<<111111111111666666777777666111111,,,                                                                                                                                                   666111:::---;;;111666;;;%%%***:::666666111;;;&&&%%%%%%===,,,<<<,,,:::@@@OOOooo+++@@@@@@@@@###333000wwweee",
"                                                            %%%******;;;,,,111666666111111666666666111<<<,,,:::                                                                                                                                                      888666,,,;;;:::111666;;;%%%***:::666111:::***%%%$$$&&&;;;<<<<<<,,,:::@@@OOOooo+++@@@@@@###333000wwweeeeee",
"                                                            %%%******;;;,,,111666666111111666666666111<<<,,,:::                                                                                                                                                      888666,,,;;;:::111666;;;%%%***:::666111:::***%%%$$$&&&;;;<<<<<<,,,:::@@@OOOooo+++@@@@@@###333000wwweeeeee",
"                                                            %%%******;;;,,,111666666111111666666666111<<<,,,:::                                                                                                                                                      888666,,,;;;:::111666;;;%%%***:::666111:::***%%%$$$&&&;;;<<<<<<,,,:::@@@OOOooo+++@@@@@@###333000wwweeeeee",
"                                                         &&&---;;;:::,,,111666666666666111111111<<<,,,;;;;;;                                                                                                                                                         999777111:::;;;111666;;;%%%***:::<<<:::***%%%$$$%%%===,,,111111,,,:::@@@OOOooo+++@@@###333000wwwwwwqqq000",
"                                                         &&&---;;;:::,,,111666666666666111111111<<<,,,;;;;;;                                                                                                                                                         999777111:::;;;111666;;;%%%***:::<<<:::***%%%$$$%%%===,,,111111,,,:::@@@OOOooo+++@@@###333000wwwwwwqqq000",
"                                                         &&&---;;;:::,,,111666666666666111111111<<<,,,;;;;;;                                                                                                                                                         999777111:::;;;111666;;;%%%***:::<<<:::***%%%$$$%%%===,,,111111,,,:::@@@OOOooo+++@@@###333000wwwwwwqqq000",
"                                                      %%%---:::,,,,,,<<<666777888888666111<<<,,,>>>;;;---                                                                                                                                                            888777111;;;;;;111666:::&&&***---;;;***%%%%%%&&&===:::111666666<<<:::@@@OOOooo+++###333000wwwwww000444333",
"                                                      %%%---:::,,,,,,<<<666777888888666111<<<,,,>>>;;;---                                                                                                                                                            888777111;;;;;;111666:::&&&***---;;;***%%%%%%&&&===:::111666666<<<:::@@@OOOooo+++###333000wwwwww000444333",
"                                                      %%%---:::,,,,,,<<<666777888888666111<<<,,,>>>;;;---                                                                                                                                                            888777111;;;;;;111666:::&&&***---;;;***%%%%%%&&&===:::111666666<<<:::@@@OOOooo+++###333000wwwwww000444333",
"                                                $$$%%%---:::<<<111<<<111666777888888666111,,,:::;;;                                                                                                                                                                  666111111;;;;;;:::666:::*********&&&%%%%%%***;;;,,,111777888777111>>>@@@OOOooo@@@333000wwwwww000333###@@@",
"                                                $$$%%%---:::<<<111<<<111666777888888666111,,,:::;;;                                                                                                                                                                  666111111;;;;;;:::666:::*********&&&%%%%%%***;;;,,,111777888777111>>>@@@OOOooo@@@333000wwwwww000333###@@@",
"                                                $$$%%%---:::<<<111<<<111666777888888666111,,,:::;;;                                                                                                                                                                  666111111;;;;;;:::666:::*********&&&%%%%%%***;;;,,,111777888777111>>>@@@OOOooo@@@333000wwwwww000333###@@@",
"                                             %%%***===;;;,,,<<<111111111666666888888666111>>>;;;                                                                                                                                                                     ---;;;:::;;;;;;:::111:::;;;***%%%$$$$$$&&&;;;,,,111666888999888666,,,@@@OOOOOO@@@333555000555333###@@@   ",
"                                             %%%***===;;;,,,<<<111111111666666888888666111>>>;;;                                                                                                                                                                     ---;;;:::;;;;;;:::111:::;;;***%%%$$$$$$&&&;;;,,,111666888999888666,,,@@@OOOOOO@@@333555000555333###@@@   ",
"                                             %%%***===;;;,,,<<<111111111666666888888666111>>>;;;                                                                                                                                                                     ---;;;:::;;;;;;:::111:::;;;***%%%$$$$$$&&&;;;,,,111666888999888666,,,@@@OOOOOO@@@333555000555333###@@@   ",
"                                          %%%***---;;;,,,<<<111111111111111666666666666,,,;;;                                                                                                                                                                           ***;;;;;;===;;;,,,,,,;;;&&&%%%$$$$$$***:::<<<666888999999777111>>>@@@OOOOOO@@@222333333222###         ",
"                                          %%%***---;;;,,,<<<111111111111111666666666666,,,;;;                                                                                                                                                                           ***;;;;;;===;;;,,,,,,;;;&&&%%%$$$$$$***:::<<<666888999999777111>>>@@@OOOOOO@@@222333333222###         ",
"                                          %%%***---;;;,,,<<<111111111111111666666666666,,,;;;                                                                                                                                                                           ***;;;;;;===;;;,,,,,,;;;&&&%%%$$$$$$***:::<<<666888999999777111>>>@@@OOOOOO@@@222333333222###         ",
"                                    $$$$$$&&&***;;;:::<<<111111111111111111666666666111>>>;;;                                                                                                                                                                              ,,,;;;===;;;::::::***%%%$$$$$$%%%===,,,111666888999888666111:::@@@+++OOOOOO+++++++++@@@            ",
"                                    $$$$$$&&&***;;;:::<<<111111111111111111666666666111>>>;;;                                                                                                                                                                              ,,,;;;===;;;::::::***%%%$$$$$$%%%===,,,111666888999888666111:::@@@+++OOOOOO+++++++++@@@            ",
"                                    $$$$$$&&&***;;;:::<<<111111111111111111666666666111>>>;;;                                                                                                                                                                              ,,,;;;===;;;::::::***%%%$$$$$$%%%===,,,111666888999888666111:::@@@+++OOOOOO+++++++++@@@            ",
"                              $$$$$$%%%&&&***---:::,,,<<<111111111111111111111111111<<<:::                                                                                                                                                                              XXXOOO@@@ooo******---&&&%%%$$$%%%***;;;<<<666777888999888666<<<:::@@@+++OOOoooooooooooo               ",
"                              $$$$$$%%%&&&***---:::,,,<<<111111111111111111111111111<<<:::                                                                                                                                                                              XXXOOO@@@ooo******---&&&%%%$$$%%%***;;;<<<666777888999888666<<<:::@@@+++OOOoooooooooooo               ",
"                              $$$$$$%%%&&&***---:::,,,<<<111111111111111111111111111<<<:::                                                                                                                                                                              XXXOOO@@@ooo******---&&&%%%$$$%%%***;;;<<<666777888999888666<<<:::@@@+++OOOoooooooooooo               ",
"                           $$$$$$%%%***---;;;:::,,,<<<111111111111111111111111111<<<>>>                                                                                                                                                                                 ooo+++@@@+++OOO******&&&%%%$$$&&&;;;,,,111666888999999888666<<<>>>+++++++++XXX......                  ",
"                           $$$$$$%%%***---;;;:::,,,<<<111111111111111111111111111<<<>>>                                                                                                                                                                                 ooo+++@@@+++OOO******&&&%%%$$$&&&;;;,,,111666888999999888666<<<>>>+++++++++XXX......                  ",
"                           $$$$$$%%%***---;;;:::,,,<<<111111111111111111111111111<<<>>>                                                                                                                                                                                 ooo+++@@@+++OOO******&&&%%%$$$&&&;;;,,,111666888999999888666<<<>>>+++++++++XXX......                  ",
"                        $$$$$$&&&***------;;;,,,<<<111111666666666111111111111<<<,,,;;;                                                                                                                                                                                 OOO@@@222@@@@@@222@@@ooo&&&%%%***:::<<<666777888999888777666111,,,ooo++++++OOOXXX...                  ",
"                        $$$$$$&&&***------;;;,,,<<<111111666666666111111111111<<<,,,;;;                                                                                                                                                                                 OOO@@@222@@@@@@222@@@ooo&&&%%%***:::<<<666777888999888777666111,,,ooo++++++OOOXXX...                  ",
"                        $$$$$$&&&***------;;;,,,<<<111111666666666111111111111<<<,,,;;;                                                                                                                                                                                 OOO@@@222@@@@@@222@@@ooo&&&%%%***:::<<<666777888999888777666111,,,ooo++++++OOOXXX...                  ",
"                     $$$$$$&&&***------;;;:::<<<111111666666666666666111111<<<,,,:::                                                                                                                                                                                    OOO@@@222222222@@@+++ooo***%%%***:::<<<666888999999888666666111,,,XXXOOO+++OOOXXX...                  ",
"                     $$$$$$&&&***------;;;:::<<<111111666666666666666111111<<<,,,:::                                                                                                                                                                                    OOO@@@222222222@@@+++ooo***%%%***:::<<<666888999999888666666111,,,XXXOOO+++OOOXXX...                  ",
"                     $$$$$$&&&***------;;;:::<<<111111666666666666666111111<<<,,,:::                                                                                                                                                                                    OOO@@@222222222@@@+++ooo***%%%***:::<<<666888999999888666666111,,,XXXOOO+++OOOXXX...                  ",
"                  $$$$$$&&&***------;;;:::,,,<<<111666666888888777666111111<<<,,,;;;                                                                                                                                                                                    OOO@@@222222@@@+++oooXXX***%%%***:::<<<666888999999888666111<<<,,,...XXXooooooXXX...                  ",
"                  $$$$$$&&&***------;;;:::,,,<<<111666666888888777666111111<<<,,,;;;                                                                                                                                                                                    OOO@@@222222@@@+++oooXXX***%%%***:::<<<666888999999888666111<<<,,,...XXXooooooXXX...                  ",
"                  $$$$$$&&&***------;;;:::,,,<<<111666666888888777666111111<<<,,,;;;                                                                                                                                                                                    OOO@@@222222@@@+++oooXXX***%%%***:::<<<666888999999888666111<<<,,,...XXXooooooXXX...                  ",
"               $$$$$$%%%&&&---------;;;,,,<<<111111666777888888777666111<<<,,,:::;;;                                                                                                                                                                                    ooo+++@@@@@@OOOXXX......***&&&***:::111666777888888777666111<<<:::---......   ...                     ",
"               $$$$$$%%%&&&---------;;;,,,<<<111111666777888888777666111<<<,,,:::;;;                                                                                                                                                                                    ooo+++@@@@@@OOOXXX......***&&&***:::111666777888888777666111<<<:::---......   ...                     ",
"               $$$$$$%%%&&&---------;;;,,,<<<111111666777888888777666111<<<,,,:::;;;                                                                                                                                                                                    ooo+++@@@@@@OOOXXX......***&&&***:::111666777888888777666111<<<:::---......   ...                     ",
"            $$$$$$$$$&&&***------;;;:::<<<111111666666888888888666666111<<<,,,;;;                                                                                                                                                                                       XXXOOO+++OOOXXX.........---***---:::111666666777777666111111,,,;;;***%%%$$$$$$                        ",
"            $$$$$$$$$&&&***------;;;:::<<<111111666666888888888666666111<<<,,,;;;                                                                                                                                                                                       XXXOOO+++OOOXXX.........---***---:::111666666777777666111111,,,;;;***%%%$$$$$$                        ",
"            $$$$$$$$$&&&***------;;;:::<<<111111666666888888888666666111<<<,,,;;;                                                                                                                                                                                       XXXOOO+++OOOXXX.........---***---:::111666666777777666111111,,,;;;***%%%$$$$$$                        ",
"         $$$$$$$$$%%%&&&---------;;;,,,<<<111111666777888888777666111<<<,,,:::;;;                                                                                                                                                                                       ...XXXXXXXXX............---------:::<<<111666666666111111<<<,,,;;;***%%%$$$$$$                        ",
"         $$$$$$$$$%%%&&&---------;;;,,,<<<111111666777888888777666111<<<,,,:::;;;                                                                                                                                                                                       ...XXXXXXXXX............---------:::<<<111666666666111111<<<,,,;;;***%%%$$$$$$                        ",
"         $$$$$$$$$%%%&&&---------;;;,,,<<<111111666777888888777666111<<<,,,:::;;;                                                                                                                                                                                       ...XXXXXXXXX............---------:::<<<111666666666111111<<<,,,;;;***%%%$$$$$$                        ",
"      $$$$$$$$$$$$&&&***------;;;:::<<<111111666666888888888666666111<<<,,,;;;---                                                                                                                                                                                          ............666111:::;;;---===---:::<<<111111<<<<<<,,,,,,:::---***%%%$$$                           ",
"      $$$$$$$$$$$$&&&***------;;;:::<<<111111666666888888888666666111<<<,,,;;;---                                                                                                                                                                                          ............666111:::;;;---===---:::<<<111111<<<<<<,,,,,,:::---***%%%$$$                           ",
"      $$$$$$$$$$$$&&&***------;;;:::<<<111111666666888888888666666111<<<,,,;;;---                                                                                                                                                                                          ............666111:::;;;---===---:::<<<111111<<<<<<,,,,,,:::---***%%%$$$                           ",
"   $$$$$$$$$$$$%%%***---------;;;,,,<<<111111666777888888888666111<<<,,,;;;---                                                                                                                                                                                                &&&===:::111111,,,;;;---***&&&***;;;:::::::::;;;:::::::::;;;***%%%$$$                           ",
"   $$$$$$$$$$$$%%%***---------;;;,,,<<<111111666777888888888666111<<<,,,;;;---                                                                                                                                                                                                &&&===:::111111,,,;;;---***&&&***;;;:::::::::;;;:::::::::;;;***%%%$$$                           ",
"   $$$$$$$$$$$$%%%***---------;;;,,,<<<111111666777888888888666111<<<,,,;;;---                                                                                                                                                                                                &&&===:::111111,,,;;;---***&&&***;;;:::::::::;;;:::::::::;;;***%%%$$$                           ",
"$$$$$$$$$$$$%%%&&&---------;;;:::<<<<<<111666777888999999888666111<<<,,,;;;&&&                                                                                                                                                                                                $$$&&&***;;;,,,,,,,,,;;;***%%%%%%&&&************;;;::::::;;;***%%%$$$                           ",
"$$$$$$$$$$$$%%%&&&---------;;;:::<<<<<<111666777888999999888666111<<<,,,;;;&&&                                                                                                                                                                                                $$$&&&***;;;,,,,,,,,,;;;***%%%%%%&&&************;;;::::::;;;***%%%$$$                           ",
"$$$$$$$$$$$$%%%&&&---------;;;:::<<<<<<111666777888999999888666111<<<,,,;;;&&&                                                                                                                                                                                                $$$&&&***;;;,,,,,,,,,;;;***%%%%%%&&&************;;;::::::;;;***%%%$$$                           ",
"$$$$$$$$$$$$&&&***------;;;:::,,,<<<111111666888999999999888666111,,,;;;---                                                                                                                                                                                                   $$$%%%&&&&&&;;;:::<<<:::===%%%$$$$$$$$$%%%&&&===:::<<<,,,;;;&&&$$$$$$                           ",
"$$$$$$$$$$$$&&&***------;;;:::,,,<<<111111666888999999999888666111,,,;;;---                                                                                                                                                                                                   $$$%%%&&&&&&;;;:::<<<:::===%%%$$$$$$$$$%%%&&&===:::<<<,,,;;;&&&$$$$$$                           ",
"$$$$$$$$$$$$&&&***------;;;:::,,,<<<111111666888999999999888666111,,,;;;---                                                                                                                                                                                                   $$$%%%&&&&&&;;;:::<<<:::===%%%$$$$$$$$$%%%&&&===:::<<<,,,;;;&&&$$$$$$                           ",
"$$$$$$$$$%%%&&&---------;;;,,,<<<111111666666888999999888777666<<<:::---&&&                                                                                                                                                                                                   $$$&&&******;;;,,,111<<<:::===*********===;;;,,,<<<<<<,,,---&&&$$$                              ",
"$$$$$$$$$%%%&&&---------;;;,,,<<<111111666666888999999888777666<<<:::---&&&                                                                                                                                                                                                   $$$&&&******;;;,,,111<<<:::===*********===;;;,,,<<<<<<,,,---&&&$$$                              ",
"$$$$$$$$$%%%&&&---------;;;,,,<<<111111666666888999999888777666<<<:::---&&&                                                                                                                                                                                                   $$$&&&******;;;,,,111<<<:::===*********===;;;,,,<<<<<<,,,---&&&$$$                              "
};
