/* XPM */
static char *_cc483d07f04464d9296054b02c0bac8[] = {
/* columns rows colors chars-per-pixel */
"366 192 32 1 ",
"  c None",
". c #FCCCB0",
"X c #FCBC9C",
"o c #FCB890",
"O c #FCB080",
"+ c #FCA470",
"@ c #FC9C60",
"# c #F0945C",
"$ c #E88C58",
"% c #DC8854",
"& c #D08050",
"* c #C87C4C",
"= c #BC7848",
"- c #B47044",
"; c #A86840",
": c #9C6038",
"> c #885830",
", c black",
"< c black",
"1 c black",
"2 c black",
"3 c black",
"4 c black",
"5 c black",
"6 c black",
"7 c black",
"8 c black",
"9 c black",
"0 c black",
"q c black",
"w c black",
"e c black",
/* pixels */
"                                                                                                                                                                                                                                                                                                                                                                              ",
"                                                                                                                                                                                                                                                                                                                                                                              ",
"                                                                                                                                                                                                                                                                                                                                                                              ",
"                                                                                                                                                                                                                                                                                                                                                                              ",
"                                                                                                                                                                                                                                                                                                                                                                              ",
"                                                                                                                                                                                                                                                                                                                                                                              ",
"                                                                                                                                                                                                                                                                                                                                                                              ",
"                                                                                                                                                                                                                                                                                                                                                                              ",
"                                                                                                                                                                                                                                                                                                                                                                              ",
"                                                                                                                                                                                                                                                                                                                                                                              ",
"                                                                                                                                                                                                                                                                                                                                                                              ",
"                                                                                                                                                                                                                                                                                                                                                                              ",
"                                                                                                                                                                                                                                                                                                                                                                              ",
"                                                                                                                                                                                                                                                                                                                                                                              ",
"                                                                                                                                                                                                                                                                                                                                                                              ",
"                                                                                                                                                                                                                                                                                                                                                                              ",
"                                                                                                                                                                                                                                                                                                                                                                              ",
"                                                                                                                                                                                                                                                                                                                                                                              ",
"                                                                                                                                                                                                                                                                                                                                                                              ",
"                                                                                                                                                                                                                                                                                                                                                                              ",
"                                                                                                                                                                                                                                                                                                                                                                              ",
"                                                                                                                                                                                                                                                                                                                                                                              ",
"                                                                                                                                                                                                                                                                                                                                                                              ",
"                                                                                                                                                                                                                                                                                                                                                                              ",
"                                                                                                                                                                                                                                                                                                                                                                              ",
"                                                                                                                                                                                                                                                                                                                                                                              ",
"                                                                                                                                                                                                                                                                                                                                                                              ",
"                                                                                                                                                                                                                                                                                                                                                                              ",
"                                                                                                                                                                                                                                                                                                                                                                              ",
"                                                                                                                                                                                                                                                                                                                                                                              ",
"                                                                                                                                                                                                                                                                                                                                                                              ",
"                                                                                                                                                                                                                                                                                                                                                                              ",
"                                                                                                                                                                                                                                                                                                                                                                              ",
"                                                                                                                                                                                                                                                                                                                                                                              ",
"                                                                                                                                                                                                                                                                                                                                                                              ",
"                                                                                                                                                                                                                                                                                                                                                                              ",
"                                                                                                                                                                                                                                                                                                                                                                              ",
"                                                                                                                                                                                                                                                                                                                                                                              ",
"                                                                                                                                                                                                                                                                                                                                                                              ",
"                                                                                                                                                                                                                                                                                                                                                                              ",
"                                                                                                                                                                                                                                                                                                                                                                              ",
"                                                                                                                                                                                                                                                                                                                                                                              ",
"                                                                                                                                                                                                                                                                                                                                                                              ",
"                                                                                                                                                                                                                                                                                                                                                                              ",
"                                                                                                                                                                                                                                                                                                                                                                              ",
"                                                                                                                                                                                                                                                                                                                                                                              ",
"                                                                                                                                                                                                                                                                                                                                                                              ",
"                                                                                                                                                                                                                                                                                                                                                                              ",
"                                                                                                                                                                                                                                                                                                                                                                              ",
"                                                                                                                                                                                                                                                                                                                                                                              ",
"                                                                                                                                                                                                                                                                                                                                                                              ",
"                                                                                                                                                                                                                                                                                                                                                                              ",
"                                                                                                                                                                                                                                                                                                                                                                              ",
"                                                                                                                                                                                                                                                                                                                                                                              ",
"                                                                                                                                                                                                                                                                                                                                                                              ",
"                                                                                                                                                                                                                                                                                                                                                                              ",
"                                                                                                                                                                                                                                                                                                                                                                              ",
"                                                                                                                                                                                                                                                                                                                                                                              ",
"                                                                                                                                                                                                                                                                                                                                                                              ",
"                                                                                                                                                                                                                                                                                                                                                                              ",
"                                                                                                                                                                                                                                                                                                                                                                              ",
"                                                                                                                                                                                                                                                                                                                                                                              ",
"                                                                                                                                                                                                                                                                                                                                                                              ",
"                                                                                                                                                                                                                                                                                                                                                                              ",
"                                                                                                                                                                                                                                                                                                                                                                              ",
"                                                                                                                                                                                                                                                                                                                                                                              ",
"                                                                                                                                                                                                                                                                                                                                                                              ",
"                                                                                                                                                                                                                                                                                                                                                                              ",
"                                                                                                                                                                                                                                                                                                                                                                              ",
"                                                                                                                                                                                                                                                                                                                                                                              ",
"                                                                                                                                                                                                                                                                                                                                                                              ",
"                                                                                                                                                                                                                                                                                                                                                                              ",
"                                                                                                                                                                                                                                                                                                                                                                              ",
"                                                                                                                                                                                                                                                                                                                                                                              ",
"                                                                                                                                                                                                                                                                                                                                                                              ",
"                                                                                                                                                                                                                                                                                                                                                                              ",
"                                                                                                                                                                                                                                                                                                                                                                              ",
"                                                                                                                                                                                                                                                                                                                                                                              ",
"                                                                                                                                                                                                                                                                                                                                                                              ",
"                                                                                                                                                                                                                                                                                                                                                                              ",
"                                                                                                                                                                                                                                                                                                                                                                              ",
"                                                                                                                                                                                                                                                                                                                                                                              ",
"                                                                                                                                                                                                                                                                                                                                                                              ",
"                                                                                                                                                                                                                                                                                                                                                                              ",
"                                                                                                                                                                                                                                                                                                                                                                              ",
"                                                                                                                                                                                                                                                                                                                                                                              ",
"                                                                                                                                                                                                                                                                                                                                                                              ",
"                                                                                                                                                                                                                                                                                                                                                                              ",
"                                                                                                                                                                                                                                                                                                                                                                              ",
"                                                                                                                                                                                                                                                                                                                                                                              ",
"                                                                                                                                                                                                                                                                                                                                                                              ",
"                                                                                                                                                                                                                                                                                                                                                                              ",
"                                                                                                                                                                                                                                                                                                                                                                              ",
"                                                                                                                                                                                                                                                                                                                                                                              ",
"                                                                                                                                                                                                                                                                                                                                                                              ",
"                                                                                                                                                                                                                                                                                                                                                                              ",
"                                                                                                                                                                                                                                                                                                                                                                              ",
"                                                                                                                                                                                                                                                                                                                                                                              ",
"                                                                                                                                                                                                                                                                                                                                                                              ",
"                                                                                                                                                                                                                                                                                                                                                                              ",
"                                                                                                                                                                                                                                                                                                                                                                              ",
"                                                                                                                                                                                                                                                                                                                                                                              ",
"                                                                                                                                                      +++OOO                                                                                                                                                                                                                  ",
"                                                                                                                                                      +++OOO                                                                                                                                                                                                                  ",
"                                                                                                                                                      +++OOO                                                                                                                                                                                                                  ",
"                                                                                                                                                   ###+++OOOXXX......XXXOOO+++@@@***                                                                                                                                                                                          ",
"                                                                                                                                                   ###+++OOOXXX......XXXOOO+++@@@***                                                                                                                                                                                          ",
"                                                                                                                                                   ###+++OOOXXX......XXXOOO+++@@@***                                                                                                                                                                                          ",
"                                                                                                                                                ---&&&@@@OOOoooXXXXXXoooOOO+++@@@%%%--->>>                                                                                                                                                                                    ",
"                                                                                                                                                ---&&&@@@OOOoooXXXXXXoooOOO+++@@@%%%--->>>                                                                                                                                                                                    ",
"                                                                                                                                                ---&&&@@@OOOoooXXXXXXoooOOO+++@@@%%%--->>>                                                                                                                                                                                    ",
"                                                                                                                                                &&&&&&###+++OOOOOOOOOOOOOOO++++++###***;;;:::                                                                                                                                                                                 ",
"                                                                                                                                                &&&&&&###+++OOOOOOOOOOOOOOO++++++###***;;;:::                                                                                                                                                                                 ",
"                                                                                                                                                &&&&&&###+++OOOOOOOOOOOOOOO++++++###***;;;:::                                                                                                                                                                                 ",
"                                                                                                                                             @@@%%%&&&###+++OOO+++@@@###@@@+++OOO+++$$$&&&&&&&&&                                                                                                                                                                              ",
"                                                                                                                                             @@@%%%&&&###+++OOO+++@@@###@@@+++OOO+++$$$&&&&&&&&&                                                                                                                                                                              ",
"                                                                                                                                             @@@%%%&&&###+++OOO+++@@@###@@@+++OOO+++$$$&&&&&&&&&                                                                                                                                                                              ",
"                                                                                                                                          @@@%%%&&&&&&###OOOOOO@@@%%%%%%###OOOOOOOOO+++#########%%%                                                                                                                                                                           ",
"                                                                                                                                          @@@%%%&&&&&&###OOOOOO@@@%%%%%%###OOOOOOOOO+++#########%%%                                                                                                                                                                           ",
"                                                                                                                                          @@@%%%&&&&&&###OOOOOO@@@%%%%%%###OOOOOOOOO+++#########%%%                                                                                                                                                                           ",
"                                                                                                                                             ******%%%+++OOOOOO%%%***&&&###OOOoooOOO+++++++++@@@@@@%%%***:::                                                                                                                                                                  ",
"                                                                                                                                             ******%%%+++OOOOOO%%%***&&&###OOOoooOOO+++++++++@@@@@@%%%***:::                                                                                                                                                                  ",
"                                                                                                                                             ******%%%+++OOOOOO%%%***&&&###OOOoooOOO+++++++++@@@@@@%%%***:::                                                                                                                                                                  ",
"                                                                                                                                                   @@@+++OOO+++%%%---***%%%+++OOOOOO++++++++++++@@@###%%%&&&***;;;:::                                                                                                                                                         ",
"                                                                                                                                                   @@@+++OOO+++%%%---***%%%+++OOOOOO++++++++++++@@@###%%%&&&***;;;:::                                                                                                                                                         ",
"                                                                                                                                                   @@@+++OOO+++%%%---***%%%+++OOOOOO++++++++++++@@@###%%%&&&***;;;:::                                                                                                                                                         ",
"                                                                                                                                          ###$$$$$$###@@@@@@###***---;;;***%%%+++OOO+++++++++++++++@@@@@@###%%%***---;;;:::>>>                                                                                                                                                ",
"                                                                                                                                          ###$$$$$$###@@@@@@###***---;;;***%%%+++OOO+++++++++++++++@@@@@@###%%%***---;;;:::>>>                                                                                                                                                ",
"                                                                                                                                          ###$$$$$$###@@@@@@###***---;;;***%%%+++OOO+++++++++++++++@@@@@@###%%%***---;;;:::>>>                                                                                                                                                ",
"                                                                                                                                 OOOOOO%%%&&&*********&&&&&&***---;;;:::;;;---%%%@@@@@@++++++++++++OOOOOO+++@@@###%%%***---;;;:::>>>                                                                                                                                          ",
"                                                                                                                                 OOOOOO%%%&&&*********&&&&&&***---;;;:::;;;---%%%@@@@@@++++++++++++OOOOOO+++@@@###%%%***---;;;:::>>>                                                                                                                                          ",
"                                                                                                                                 OOOOOO%%%&&&*********&&&&&&***---;;;:::;;;---%%%@@@@@@++++++++++++OOOOOO+++@@@###%%%***---;;;:::>>>                                                                                                                                          ",
"                                                                                                                              +++%%%%%%&&&;;;:::::::::;;;;;;------;;;:::>>>:::;;;&&&###@@@++++++OOOOOOooooooOOOOOO+++###%%%&&&***---;;;:::                                                                                                                                    ",
"                                                                                                                              +++%%%%%%&&&;;;:::::::::;;;;;;------;;;:::>>>:::;;;&&&###@@@++++++OOOOOOooooooOOOOOO+++###%%%&&&***---;;;:::                                                                                                                                    ",
"                                                                                                                              +++%%%%%%&&&;;;:::::::::;;;;;;------;;;:::>>>:::;;;&&&###@@@++++++OOOOOOooooooOOOOOO+++###%%%&&&***---;;;:::                                                                                                                                    ",
"                                                                                                                                                   >>>>>>>>>:::::::::>>>>>>>>>:::;;;&&&###@@@+++OOOOOOXXXXXXXXXoooOOOOOO+++###$$$%%%***---;;;:::>>>                                                                                                                           ",
"                                                                                                                                                   >>>>>>>>>:::::::::>>>>>>>>>:::;;;&&&###@@@+++OOOOOOXXXXXXXXXoooOOOOOO+++###$$$%%%***---;;;:::>>>                                                                                                                           ",
"                                                                                                                                                   >>>>>>>>>:::::::::>>>>>>>>>:::;;;&&&###@@@+++OOOOOOXXXXXXXXXoooOOOOOO+++###$$$%%%***---;;;:::>>>                                                                                                                           ",
"                                                                                                                                                      >>>   >>>>>>>>>>>>>>>         ;;;&&&###@@@+++OOOXXXXXXXXXXXXXXXoooOOO++++++@@@###%%%***---;;;:::                                                                                                                        ",
"                                                                                                                                                      >>>   >>>>>>>>>>>>>>>         ;;;&&&###@@@+++OOOXXXXXXXXXXXXXXXoooOOO++++++@@@###%%%***---;;;:::                                                                                                                        ",
"                                                                                                                                                      >>>   >>>>>>>>>>>>>>>         ;;;&&&###@@@+++OOOXXXXXXXXXXXXXXXoooOOO++++++@@@###%%%***---;;;:::                                                                                                                        ",
"                                                                                                                                                         >>>>>>>>>   >>>                  ---%%%###+++OOOoooXXXXXX...XXXoooOOOOOO++++++@@@###%%%***===;;;>>>                                                                                                                  ",
"                                                                                                                                                         >>>>>>>>>   >>>                  ---%%%###+++OOOoooXXXXXX...XXXoooOOOOOO++++++@@@###%%%***===;;;>>>                                                                                                                  ",
"                                                                                                                                                         >>>>>>>>>   >>>                  ---%%%###+++OOOoooXXXXXX...XXXoooOOOOOO++++++@@@###%%%***===;;;>>>                                                                                                                  ",
"                                                                                                                                                         >>>>>>                              ---&&&%%%@@@OOOOOOXXX......XXXXXXoooOOOOOO+++@@@@@@###%%%***;;;::::::>>>                                                                                                         ",
"                                                                                                                                                         >>>>>>                              ---&&&%%%@@@OOOOOOXXX......XXXXXXoooOOOOOO+++@@@@@@###%%%***;;;::::::>>>                                                                                                         ",
"                                                                                                                                                         >>>>>>                              ---&&&%%%@@@OOOOOOXXX......XXXXXXoooOOOOOO+++@@@@@@###%%%***;;;::::::>>>                                                                                                         ",
"                                                                                                                                                                                                ;;;***%%%@@@OOOoooXXX.........XXXXXXoooOOOOOO+++@@@@@@$$$&&&===---:::>>>>>>>>>                                                                                                ",
"                                                                                                                                                                                                ;;;***%%%@@@OOOoooXXX.........XXXXXXoooOOOOOO+++@@@@@@$$$&&&===---:::>>>>>>>>>                                                                                                ",
"                                                                                                                                                                                                ;;;***%%%@@@OOOoooXXX.........XXXXXXoooOOOOOO+++@@@@@@$$$&&&===---:::>>>>>>>>>                                                                                                ",
"                                                                                                                                                                                                   ;;;---%%%@@@OOOoooXXX............XXXoooOOOOOO++++++@@@@@@###%%%***---;;;>>>>>>                                                                                             ",
"                                                                                                                                                                                                   ;;;---%%%@@@OOOoooXXX............XXXoooOOOOOO++++++@@@@@@###%%%***---;;;>>>>>>                                                                                             ",
"                                                                                                                                                                                                   ;;;---%%%@@@OOOoooXXX............XXXoooOOOOOO++++++@@@@@@###%%%***---;;;>>>>>>                                                                                             ",
"                                                                                                                                                                                                      :::***###@@@OOOoooXXX............XXXXXXoooOOOOOO++++++@@@@@@###%%%***---:::>>>>>>                                                                                       ",
"                                                                                                                                                                                                      :::***###@@@OOOoooXXX............XXXXXXoooOOOOOO++++++@@@@@@###%%%***---:::>>>>>>                                                                                       ",
"                                                                                                                                                                                                      :::***###@@@OOOoooXXX............XXXXXXoooOOOOOO++++++@@@@@@###%%%***---:::>>>>>>                                                                                       ",
"                                                                                                                                                                                                            ***%%%@@@OOOoooXXX...............XXXXXXoooOOO+++++++++@@@@@@###&&&---;;;>>>>>>>>>                                                                                 ",
"                                                                                                                                                                                                            ***%%%@@@OOOoooXXX...............XXXXXXoooOOO+++++++++@@@@@@###&&&---;;;>>>>>>>>>                                                                                 ",
"                                                                                                                                                                                                            ***%%%@@@OOOoooXXX...............XXXXXXoooOOO+++++++++@@@@@@###&&&---;;;>>>>>>>>>                                                                                 ",
"                                                                                                                                                                                                            :::---%%%@@@OOOoooXXX..................XXXoooOOO++++++++++++@@@###&&&===;;;;;;>>>>>>                                                                              ",
"                                                                                                                                                                                                            :::---%%%@@@OOOoooXXX..................XXXoooOOO++++++++++++@@@###&&&===;;;;;;>>>>>>                                                                              ",
"                                                                                                                                                                                                            :::---%%%@@@OOOoooXXX..................XXXoooOOO++++++++++++@@@###&&&===;;;;;;>>>>>>                                                                              ",
"                                                                                                                                                                                                               :::***###@@@OOOoooXXX.....................oooOOO++++++++++++@@@###%%%***---;;;:::>>>>>>                                                                        ",
"                                                                                                                                                                                                               :::***###@@@OOOoooXXX.....................oooOOO++++++++++++@@@###%%%***---;;;:::>>>>>>                                                                        ",
"                                                                                                                                                                                                               :::***###@@@OOOoooXXX.....................oooOOO++++++++++++@@@###%%%***---;;;:::>>>>>>                                                                        ",
"                                                                                                                                                                                                                     ***%%%+++OOOoooXXX..................XXXOOO+++++++++++++++@@@###%%%&&&***---;;;>>>>>>                                                                     ",
"                                                                                                                                                                                                                     ***%%%+++OOOoooXXX..................XXXOOO+++++++++++++++@@@###%%%&&&***---;;;>>>>>>                                                                     ",
"                                                                                                                                                                                                                     ***%%%+++OOOoooXXX..................XXXOOO+++++++++++++++@@@###%%%&&&***---;;;>>>>>>                                                                     ",
"                                                                                                                                                                                                                     ;;;***$$$+++OOOoooXXXXXX............XXXOOO++++++++++++++++++@@@@@@###%%%***---;;;:::>>>                                                                  ",
"                                                                                                                                                                                                                     ;;;***$$$+++OOOoooXXXXXX............XXXOOO++++++++++++++++++@@@@@@###%%%***---;;;:::>>>                                                                  ",
"                                                                                                                                                                                                                     ;;;***$$$+++OOOoooXXXXXX............XXXOOO++++++++++++++++++@@@@@@###%%%***---;;;:::>>>                                                                  ",
"                                                                                                                                                                                                                        ;;;&&&###+++OOOOOOooo............oooOOO++++++++++++++++++++++++@@@###%%%&&&***---::::::                                                               ",
"                                                                                                                                                                                                                        ;;;&&&###+++OOOOOOooo............oooOOO++++++++++++++++++++++++@@@###%%%&&&***---::::::                                                               ",
"                                                                                                                                                                                                                        ;;;&&&###+++OOOOOOooo............oooOOO++++++++++++++++++++++++@@@###%%%&&&***---::::::                                                               ",
"                                                                                                                                                                                                                           ;;;&&&###@@@+++OOOoooXXXXXXoooOOO++++++++++++++++++++++++++++++@@@@@@###%%%***------:::                                                            ",
"                                                                                                                                                                                                                           ;;;&&&###@@@+++OOOoooXXXXXXoooOOO++++++++++++++++++++++++++++++@@@@@@###%%%***------:::                                                            ",
"                                                                                                                                                                                                                           ;;;&&&###@@@+++OOOoooXXXXXXoooOOO++++++++++++++++++++++++++++++@@@@@@###%%%***------:::                                                            ",
"                                                                                                                                                                                                                              ;;;&&&###@@@+++OOOOOOOOOOOO+++++++++++++++++++++++++++++++++++++++@@@###%%%&&&***---:::                                                         ",
"                                                                                                                                                                                                                              ;;;&&&###@@@+++OOOOOOOOOOOO+++++++++++++++++++++++++++++++++++++++@@@###%%%&&&***---:::                                                         ",
"                                                                                                                                                                                                                              ;;;&&&###@@@+++OOOOOOOOOOOO+++++++++++++++++++++++++++++++++++++++@@@###%%%&&&***---:::                                                         ",
"                                                                                                                                                                                                                                 ;;;&&&###@@@++++++++++++++++++++++++++++++++++++++++++++++++++++++@@@###%%%&&&***---:::>>>                                                   ",
"                                                                                                                                                                                                                                 ;;;&&&###@@@++++++++++++++++++++++++++++++++++++++++++++++++++++++@@@###%%%&&&***---:::>>>                                                   ",
"                                                                                                                                                                                                                                 ;;;&&&###@@@++++++++++++++++++++++++++++++++++++++++++++++++++++++@@@###%%%&&&***---:::>>>                                                   ",
"                                                                                                                                                                                                                                    ;;;&&&###@@@++++++++++++++++++++++++++++++++++++++++++++++++++++++@@@###%%%&&&***---:::>>>                                                ",
"                                                                                                                                                                                                                                    ;;;&&&###@@@++++++++++++++++++++++++++++++++++++++++++++++++++++++@@@###%%%&&&***---:::>>>                                                ",
"                                                                                                                                                                                                                                    ;;;&&&###@@@++++++++++++++++++++++++++++++++++++++++++++++++++++++@@@###%%%&&&***---:::>>>                                                ",
"                                                                                                                                                                                                                                       ;;;&&&###@@@++++++++++++++++++++++++@@@@@@@@@@@@++++++++++++++++++@@@###%%%&&&***---:::>>>                                             ",
"                                                                                                                                                                                                                                       ;;;&&&###@@@++++++++++++++++++++++++@@@@@@@@@@@@++++++++++++++++++@@@###%%%&&&***---:::>>>                                             ",
"                                                                                                                                                                                                                                       ;;;&&&###@@@++++++++++++++++++++++++@@@@@@@@@@@@++++++++++++++++++@@@###%%%&&&***---:::>>>                                             ",
"                                                                                                                                                                                                                                          ***&&&###@@@++++++++++++++++++@@@#########@@@+++++++++++++++++++++@@@######%%%***---:::>>>>>>                                       ",
"                                                                                                                                                                                                                                          ***&&&###@@@++++++++++++++++++@@@#########@@@+++++++++++++++++++++@@@######%%%***---:::>>>>>>                                       ",
"                                                                                                                                                                                                                                          ***&&&###@@@++++++++++++++++++@@@#########@@@+++++++++++++++++++++@@@######%%%***---:::>>>>>>                                       "
};
