/* XPM */
static char *_6304c927dfa4de589be950d8332d176[] = {
/* columns rows colors chars-per-pixel */
"480 719 256 2 ",
"   c #010101",
".  c #0B0101",
"X  c #010A03",
"o  c #020309",
"O  c #0A0708",
"+  c #150201",
"@  c #140101",
"#  c #1C0101",
"$  c #1C0904",
"%  c #140409",
"&  c #1C0509",
"*  c #1B0A0A",
"=  c #140907",
"-  c #191010",
";  c #240201",
":  c #2C0202",
">  c #240905",
",  c #2B0905",
"<  c #240509",
"1  c #2C0509",
"2  c #240A0A",
"3  c #2B0A0B",
"4  c #330202",
"5  c #3C0202",
"6  c #330905",
"7  c #3B0905",
"8  c #340509",
"9  c #3B0509",
"0  c #340A0A",
"q  c #3B0A0B",
"w  c #37110B",
"e  c #260C11",
"r  c #390D12",
"t  c #371312",
"y  c #291210",
"u  c #2C2727",
"i  c #440202",
"p  c #4B0202",
"a  c #430905",
"s  c #4C0905",
"d  c #430509",
"f  c #4C0509",
"g  c #430A0B",
"h  c #4C0A0B",
"j  c #540202",
"k  c #5B0202",
"l  c #540905",
"z  c #5B0906",
"x  c #540509",
"c  c #5B0509",
"v  c #530A0B",
"b  c #5B0A0B",
"n  c #47120B",
"m  c #58120C",
"M  c #440D11",
"N  c #4A0D12",
"B  c #410612",
"V  c #540E11",
"C  c #5B0C12",
"Z  c #4C1113",
"A  c #461213",
"S  c #531213",
"D  c #5C1313",
"F  c #5A1917",
"G  c #640202",
"H  c #6B0202",
"J  c #630905",
"K  c #6C0905",
"L  c #640609",
"P  c #6C0509",
"I  c #640A0A",
"U  c #6C0A0B",
"Y  c #730202",
"T  c #7C0202",
"R  c #740905",
"E  c #7B0905",
"W  c #740509",
"Q  c #7B0509",
"!  c #730A0B",
"~  c #7C0A0B",
"^  c #66120B",
"/  c #78120D",
"(  c #680C11",
")  c #730D11",
"_  c #7C0C11",
"`  c #780313",
"'  c #641212",
"]  c #6C1213",
"[  c #67181A",
"{  c #741212",
"}  c #7C1212",
"|  c #77181A",
" . c #722A14",
".. c #711922",
"X. c #602D24",
"o. c #6B432E",
"O. c #840202",
"+. c #8B0201",
"@. c #830905",
"#. c #8C0905",
"$. c #840509",
"%. c #8C0509",
"&. c #840A0B",
"*. c #8C0A0B",
"=. c #930202",
"-. c #9B0202",
";. c #940905",
":. c #9C0905",
">. c #940509",
",. c #9C0509",
"<. c #930A0B",
"1. c #9C0A0B",
"2. c #8B110D",
"3. c #84110C",
"4. c #94110D",
"5. c #9B120D",
"6. c #971205",
"7. c #830C12",
"8. c #8B0D12",
"9. c #890815",
"0. c #940C12",
"q. c #9C0D12",
"w. c #980A16",
"e. c #841313",
"r. c #8C1313",
"t. c #8C1A1A",
"y. c #881618",
"u. c #931213",
"i. c #9B1213",
"p. c #971718",
"a. c #A40201",
"s. c #AC0202",
"d. c #A30905",
"f. c #AC0905",
"g. c #A40609",
"h. c #AB0509",
"j. c #A40A0B",
"k. c #AB0A0B",
"l. c #B30202",
"z. c #BB0202",
"x. c #B40905",
"c. c #BC0905",
"v. c #B40509",
"b. c #BC0509",
"n. c #B30A0A",
"m. c #BB0A0B",
"M. c #AB110D",
"N. c #A5110A",
"B. c #B4110C",
"V. c #BB110C",
"C. c #B91305",
"Z. c #A40D12",
"A. c #AB0D11",
"S. c #A90617",
"D. c #B30C12",
"F. c #BC0D11",
"G. c #B60512",
"H. c #A31213",
"J. c #AB1213",
"K. c #A5151A",
"L. c #AB151A",
"P. c #A81A1B",
"I. c #B31312",
"U. c #B1151A",
"Y. c #BA1718",
"T. c #922F0F",
"R. c #AC271A",
"E. c #911722",
"W. c #B01C21",
"Q. c #932625",
"!. c #B82A24",
"~. c #B02A26",
"^. c #C30202",
"/. c #CB0202",
"(. c #C30905",
"). c #CB0905",
"_. c #C40509",
"`. c #CB0509",
"'. c #C30A0B",
"]. c #CB0A0A",
"[. c #D30202",
"{. c #DB0202",
"}. c #D40A04",
"|. c #DB0A04",
" X c #D30509",
".X c #DB0509",
"XX c #D40A0B",
"oX c #DB0A0B",
"OX c #C7130A",
"+X c #D4130D",
"@X c #DB120C",
"#X c #D91506",
"$X c #C40D12",
"%X c #CB0C11",
"&X c #D30C12",
"*X c #DC0C12",
"=X c #DB0914",
"-X c #C31214",
";X c #CC1313",
":X c #C71B19",
">X c #D31314",
",X c #DC1313",
"<X c #DB1519",
"1X c #D81917",
"2X c #E30202",
"3X c #EA0203",
"4X c #E30A02",
"5X c #EB0C03",
"6X c #E20409",
"7X c #E20B0C",
"8X c #EB080A",
"9X c #F30806",
"0X c #EC1302",
"qX c #E3140C",
"wX c #E31B0B",
"eX c #EB1C0A",
"rX c #E71705",
"tX c #F21404",
"yX c #F31807",
"uX c #E20D13",
"iX c #E50D17",
"pX c #E31413",
"aX c #EA1414",
"sX c #E41B14",
"dX c #E41B1B",
"fX c #E81818",
"gX c #F1191A",
"hX c #CB251A",
"jX c #DA271A",
"kX c #D52F0F",
"lX c #ED2409",
"zX c #F4250C",
"xX c #E82719",
"cX c #F42B1B",
"vX c #F72916",
"bX c #FC331B",
"nX c #F83717",
"mX c #F2360E",
"MX c #CA1C21",
"NX c #C82723",
"BX c #D62A25",
"VX c #D4362A",
"CX c #CF3930",
"ZX c #E82724",
"AX c #FD3823",
"SX c #EF2F24",
"DX c #E61C22",
"FX c #A04C20",
"GX c #F6441B",
"HX c #F34C29",
"JX c #D75929",
"KX c #9C5F51",
"LX c #DF6D53",
"PX c #F78F66",
"IX c #DBA796",
"UX c #FFCDBA",
/* pixels */
"S 4 # .   X o                                                                                                                                   . . . .                         . . . .                                                                                                                                                                                                                                                                                                                                                                                                                                                                                                                                                                                                                                                                                                                                                                                                         ",
"S 4 # .                                                                                                                                         . . . .                         . . . .                                                                                         X X   X   X                                                                                                                                                                                                                                                                                                                                                                                                                                                                                                                                                                                                                                                                                                     ",
"S 4 # .     o                                                                                                                               . . . . .                           . . . . .                                                                                                                                                                                                                                                                                                                                                                                                                                                                                                                                                                                                                                                                                                                                                                                                       ",
"F 7 # .   X o                                                                                                                             .   . .                               . . . . .                                                                                                                                                                                                                                                                                                                                                                                                                                                                                                                                                                                                                                                                                                                                                                                                       ",
"F 7 # .   X o o                                                                                                                   . . . . . . . . . . . . . . .             . . . . . . .                                                                                                                                                                                                                                                                                                                                                                                                                                                                                                                                                                                                                                                                                                                                                                                                       ",
"F 7 # .     o                                                                                                                   . . . . . . . . . . .   . . . .           . . . . @ @ @ . .                                                                                                                                                                                               . . . . . . . . . . .   .                 .   .                                                   .                                                                                                                                                                                                                                                                                                                                                                                                                                                                                                   ",
"F 7 # .     o                                                                                                                   . . . . . . . . . . . . . . . .         . . . . @ @ + @ @ .                                                                                               .                         . . . . . . . . . . . . . . . . . . . . . . . . . . . . . . . . . . . . . . @ @ @ @ . . . . . . . . . . . . . . . . . . . . . . .                           . . . . . . . . . . . . .       . . . . . . . . . . . . . . . . . . . . . . . . . . . . . . . . . . .   .   .   .   .           .   .                                                                                                                                                                                                                                                                                                                                                                           ",
"[ a ; @   X o                                                                                           .                     . . . . . . . . . . . . . . . . .         . . . . @ + + + @ .                                                                           . . . . . . . . . . . . . . . . . . . . . . . . . @ @ @ @ . . . . @ @ @ @ . . @ @ @ @ . . @ @ @ @ @ @ @ @ . . @ @ @ @ + + @ + + + + + + + + + + @ @ @ @ @ . . . . @ @ . . . . . . . . . .             . . . . . . @ @ @ @ % % @ . . . . . @ @ @ @ @ @ @ % @ @ @ . . . . . . . . . . @ @ @ . . . . . . . . . . . . . . . . . . . . .   .   . . . . . . .                                                                                                                                                                                                                                                                                                                                                                   ",
"D a ; .                                                                                       X                     . . . . . . . . . . . . . . . . . . . . . . .       . . . @ + + # @ @ .                                             .   .   . . .   .   . . . . . . O O . . . . . . . @ @ % . . . . @ @ @ @ @ @ @ @ + + + + @ + + + + + + @ + + + + + + + $ + + + + # # # # $ # # # # # # # ; # # # # # # # # + + + # # # + @ + + @ @ + + @ + @ . . . . . . . . . . . . . % % @ + @ @ $ + + + + @ @ + + + + # # # # # # $ < @ $ $ $ + @ @ + + + + + + + + + . . @ @ . . @ @ . . . . . . . . . . . . . . . . . . . . . . . .   .                                                                                                                                                                                                                                                                                                                                                             ",
"F d ; .       o                                                                               X             . .     . . . . . . . . . . . . . . . . . . . . . . .       . . . + + # # # @ . .                                         . . . . . . . . . . . . . . . . . % % @ @ @ @ @ @ @ + @ + @ . . @ @ + + + @ + + + # # # # # # # # # # $ # # # # + # + # # # # # # # # ; ; > ; ; ; ; ; ; ; ; ; ; ; ; ; # # # # # # # # # # # # $ + + # $ + # + + + + + + + @ @ @ @ @ @ % $ + + + + + # # # $ # # # # # # # # # ; # # ; ; < # $ $ $ + + + + + # + # + # + $ @ @ + + @ + + @ @ @ @ @ @ . @ @ . . @ @ @ @ @ @ . . . . . . . . . . . . . . . . .                                                                                                                                                                                                                                                                                                                                               ",
"[ d ; .       o                                                                                         . . . . . . . . . . . . @ @ @ . . @ @ @ . . . . @ @ . . .       . . @ + # # # # + . .                                   . . . . . . . . . . . . . . . . . . . @ @ @ @ @ @ @ + @ + + + + + + + + # # # # # # # # # # # # ; # # # ; > ; > ; # # # # # # # ; ; ; ; ; ; ; ; : : : : : : : : : : : ; ; ; ; ; ; # # # ; ; ; # # # > # # > # # # # # # # # # # + + $ # + # # # # # # # # # # # > > > ; ; ; ; ; ; ; ; ; ; ; ; ; # # $ # # # # # $ # # # $ $ $ $ $ $ $ $ # + + + + + + @ @ @ @ @ @ @ @ @ @ @ @ @ @ @ @ @ @ @ @ . . . . @ . . . . . . . . .     .         . . .                                                                                                                                                                                                                                                                                                                   ",
"[ d ; .       o                                                                                     . . . . . . . . . . . . . . . @ . . . . . . . . . @ @ @ . . .       . . @ + # # ; # + @ .                             . . . . . . . . . . . . . . . . . . . . . . @ @ + + + @ @ @ + + # + # # # # # # # # # # # ; ; ; ; ; ; ; ; ; ; ; ; ; ; ; ; ; ; ; ; ; ; ; ; ; ; ; ; : : : : : : 4 4 : : : : : : : : : ; ; ; ; ; ; ; ; ; # ; ; ; ; ; ; # # # # # # # # # # # # # # # # # ; # # ; ; ; ; ; ; > ; ; ; ; ; ; ; ; ; ; ; ; : ; ; > # # # # # # # # # # # ; ; ; # # # # # # # + + + + + + @ @ @ + + + + + + + % + + + + @ @ @ @ + + @ @ @ @ @ @ . . . . . . . . . . .   . . .   .                                                                                                                                                                                                                                                                                                               ",
"[ h ; .       o                                                                                     . . . . . . . . . . @ @ . . . . . . . . . . . . . @ @ @ . . .       . . + # # ; ; # + . .                       . . . . . . . . @ . @ . @ . @ . @ . . . . . @ @ @ @ + + + + # # # # # # # # # # # # > ; ; # ; ; : : : : : : : ; ; : : : : : : : ; : : : : ; ; ; ; ; : : : 8 : : : 4 8 8 4 4 4 4 4 4 8 4 : ; : : ; ; : ; ; ; ; ; ; ; ; ; ; ; ; ; ; ; ; ; ; ; # ; ; ; ; ; ; ; ; ; ; ; ; ; ; ; > ; ; ; ; ; ; ; ; ; : : : : : ; ; ; # # # # # # # # # # ; ; > ; # # # # # # # # # # # + + + + + + + + + + + + # + + + + + + + + + + + + + + + + @ @ . . . . . . . . . . . . . . . . .                                     . . . o                                                                                                                                                                                                                                                               ",
"[ h ; .       o                                                                                     . . . . . . . . . . . @ @ @ @ @ @ . . @ @ @ @ . . @ @ @ @ . .       . @ + # ; ; ; ; # @ .                 . . . . . . @ @ @ @ @ @ @ @ @ @ . @ @ @ @ . . . . + + + + # $ $ $ # # # # # # ; # ; ; # ; > ; ; ; ; : : : : : : : 8 : : : 8 : : 8 : : : : : : : : : ; : : : , 6 0 : 4 4 8 8 8 8 4 4 4 4 4 8 4 : : : : : : : : : : : : : : : : : : , : : : : ; ; ; ; : , , : : : : : ; ; ; : ; ; ; > > ; ; ; ; ; ; ; : : : : : : : ; ; ; # ; ; ; ; ; > ; ; ; > > > ; ; ; ; ; ; ; $ # # # + + + + + + + + + + + + + + + + + + + + + # # # # # + + + + @ @ @ @ @ @ . . . . . . . . . . . . . . . . .     .                   . O O O                                                                                                                                                                                                                                                                 ",
"[ d ; @       o                                                                         .             . . . . . . . . . @ @ @ @ @ @ @ @ @ @ @ @ @ @ @ @ @ @ @ . .       . @ + # ; ; > ; + @ . .               . . . . @ + + @ @ @ @ @ . @ @ . . . . . . . . . . + + + + # $ $ $ # # # # ; # # # ; ; ; ; ; ; ; ; : : : : : : 4 4 8 : : 8 8 : : 8 : : : : 8 8 4 : : ; : : : : , , , : 4 4 4 4 4 4 4 4 4 4 4 4 4 : : : : : : : : : : : : : : : : : : : : : : : : : : : : : : : : : : ; : ; : : : ; > # # ; > ; ; ; ; ; ; : : : : : , ; ; ; ; ; ; ; ; ; ; ; ; ; ; ; ; ; ; ; ; > # # # # # + + + + + + + + + + # # # + + + + + + + + # # # # # # # + + + + + + @ @ . @ . . . @ . . . . . . . . . . . . . . .                 . . . O                                                                                                                                                                                                                                                                 ",
"' a ; @ . o o o                                                                         .           . . . . . . . . . . . @ + @ @ @ @ @ @ @ + + + + @ @ + @ + @ .       . . + # ; > > ; # @ . .           . . . . @ + + @ + + $ @ @ . . . . . . . . . . . . . . + @ @ @ + + # # # # # # # # ; # ; ; ; ; ; : : : : : : 4 4 4 4 : 4 : : 8 4 : : 4 : : : : 8 8 8 : ; ; ; ; ; ; ; : , : : : : 4 : : 8 4 4 4 4 4 4 : : : : : : : : : : : ; : : ; ; : : ; ; ; : : : : : : 1 , : : : : : : ; : : : ; ; # # # # > > > > ; # # ; ; > ; ; , ; # # ; ; ; ; ; ; ; ; ; ; ; ; ; ; ; ; # # # # # # # # # + + + + + + + + + + + + + + + @ @ @ + + # # # # # + + + + + + + @ @ . @ . . . @ . . . . . . . . . . . .     . . . . .             .                                                                                                                                                                                                                                                                   ",
"] f ; .     . .                                                                       o             . . . . @ @ @ @ + + + + + + @ @ @ @ @ @ + + + + + + + + + @ .       . @ + + ; ; > ; # @ . . . .     . . @ @ % @ + # + # + + @ @ @ . . . . . . . @ @ @ . . . + + + + + + # # # # # # ; ; ; ; : : : : : : : : 4 : : 4 4 4 4 4 4 : : : : : : : : : : : : : : ; ; # # ; ; ; ; ; ; ; ; : : : : : : : : : : : : : : : : : : : : : : ; ; ; ; ; ; ; ; ; ; ; ; ; ; ; ; ; ; ; ; # ; ; < ; ; ; ; ; # # # # # # # $ $ # # + # # # # # # # # # # # # # # # # # # # # # # 2 # # # # # # # # # # + # # # + @ + + + + @ @ @ @ @ @ . . . . @ + + + + + + @ @ + @ @ @ @ @ @ @ . . . . . . . . . . .     . . .                                                                                                                                                                                                                                                                                                 ",
"] x ; .     . .                                                                       o             . . . @ @ @ + + + + + + + + @ + + + + + # # # # # # + + + + .     . . @ + # # ; ; ; # @ . . . .   . . @ + + + + # # # # # # @ @ . . . O . . @ + # # + + + + # # # # # # # # ; ; ; ; ; ; ; : 4 4 4 4 4 4 4 4 4 5 5 5 5 5 5 5 4 4 4 : : 4 4 4 4 4 4 4 4 4 4 : ; ; ; ; : ; : : : : : 4 4 4 4 4 : : : : 4 4 4 : : : : : : : : : : : : : : : : : : : : : : : : : ; ; ; ; ; ; ; ; : ; ; ; ; ; ; ; # # ; # # ; ; # ; ; ; # ; # # # # # # # # # # # > > ; ; # # ; ; ; # # ; ; ; # ; ; ; ; # # # # # # # # # # + + + @ @ @ @ . . . . @ @ @ @ @ @ @ . @ . . . . . . . . . . . . . . . . . . . . . . . . . . . .                                                 X X                                                                                                                                                                                                                                   ",
"{ v ; .     .                                                                                     . . . . @ @ @ + + + + + + + + @ @ + + + + # # # # # # # # + + .     . . + + # # ; ; ; # @ . . .     . . @ + + + + # # # # # $ . . .   . = = $ # # ; ; ; # # > : : : : : : 8 8 4 4 4 4 9 9 4 5 5 5 5 5 5 5 5 i 5 i a i i i i a 5 5 5 4 5 5 5 5 5 5 5 5 5 5 5 5 4 4 4 4 4 4 4 5 5 5 5 5 5 5 5 5 i 5 5 5 5 5 5 5 5 5 5 5 5 5 5 5 5 5 5 5 5 5 5 5 5 5 i i i 5 5 5 5 5 4 4 4 4 4 4 5 4 4 4 4 5 5 4 4 4 4 4 4 8 4 4 : : : : : : : : : : : : : : : : : : : : ; ; ; : : : : 4 4 4 : : 4 4 4 4 : : : : : : : : : : : ; ; ; ; ; # # # # # # # + + + + + + + @ + + @ @ @ . . @ . @ . @ . . . . . @ . @ @ + # # + + + + + @ @ @ . . . . . . . . . . . . . .                                                                                                                                                                                                                                               ",
"| v ; .     .                                                                                   . . . . . @ @ @ + + + + + + + + @ @ @ + + + # # # # # # # # # + .     . . + # # # ; 1 1 ; # @ . . . . . @ @ @ + # # # # # # # + . .     . = * * $ ; : : : : : : 4 4 4 4 4 4 7 7 4 5 5 5 5 5 5 5 i i i i i i p p i p p p i p p f i i i i i i i i i i i i p s s p i i i i i p p p p p p p p p p p p p p p p p p p p p p p p p p p p p p p p p p p l j p p j p p p f s p p s p i i i i i i i p p i i i i i i a a i i a i i i 5 i 5 5 5 5 5 5 5 5 5 5 5 5 5 5 5 5 5 5 5 5 5 5 5 5 5 d i i i 5 5 5 5 5 5 4 4 4 4 4 4 4 4 : : : : : : ; ; ; ; > > > > # # # # # # # # # # # # # # # # # # # # # # # # ; ; ; ; ; ; ; # # # # # # # + + @ . . . . . . . . . .                                                                                                                                                                                                                                           ",
"| v ; .                                                                                         . . . @ . @ @ @ + + + + + + + + @ @ + + + + # # # # # # # + + @ . . . . @ % # # ; : 1 3 ; # @ . . . . . @ % $ + # # # # # # # + .       . O = * ; 1 0 q r q q q g d d d d h h N d h h h h h h h h v v v v v v v v x f f x v v v f f f s f f f f p f f l v v v v l l l l l l l l l z z z z z c c b c z z z z z z j j k z z z z z z k k k z z z z z z k k z z k k z z j j z z j j j j j j j j z j j l j j j l l j l j j p j p j p p p p p p p i i p p p i p p p p p p p i i p p p f f f f p p p p s i i i i i i 5 5 5 5 5 4 4 4 4 4 4 4 4 4 4 4 4 4 : 4 4 4 4 : : : : : : : : : : : : : : : : : : : : : : : : : : : ; ; ; ; ; ; ; # + @ @ + + + @ @ + @ . . .                                                                                                                                                                                                                                     ",
"] v ; .     .                                                                                   . . @ @ @ + + + + + + + + + + + + + + + # # # $ # # # # # # + + .   . . % $ # # ; ; 1 1 ; # @ . O . . . @ % + + + + # # # # # $ O         . . @ < 3 r r r r r r Z Z Z Z Z Z Z S Z Z Z S S S S S V V S S V V V S S v h h V S V V S V V v v v v v v v V S D D D D b b b b b b b b b b b I ' ' ' ' ] ' I I I ' ' ' b I I I ' ' ' ' ] ] ' ' ] ] ] ] ] ' I I ' ] ' I ' ' ^ ' ' ' ^ I I ' ^ b I ' ] ^ I ' ' I I ' ' b b b b b b b b b b m m m m m m m v v v v v v v v D D D V v V D D D D D C C C C C D S V v V V V S h h h g g g d d d d g d g d g g g g M M M g M g g g g g g g g 7 g g g g g g g g q q q q q q q q q q 0 0 0 0 0 0 2 < 2 2 2 2 2 2 & & % @ . . . .                                                                                                                                                                                                                                 ",
"] f ; .     .                                                                         . .     . . @ @ + + + # # # # # + + + + + + + + + # # # > ; # # # # # # + . . . . % $ > ; ; : 1 1 ; # @ . % @ . @ + @ # # # # # # # > > $ O           . + < < 3 0 0 0 3 1 4 4 4 4 4 4 4 4 4 4 4 4 4 4 4 4 q q q q q g g g g g 9 9 9 g g g g g g g g g d g g g h h h h h h d h h h h h h h h h v v v v v v D v v v v V D D v v V D S S S D ' ' D D D ' ' D ' D b b D ' D D m D D D D D D D D D D m D F ' D D D D D D D D m D D D D D D D D D D D F F F F F F F F F F F F F S F F S V S S S S S S S S S S S S S S S Z Z S S Z A Z M M M M M M N N N N N N N N Z Z Z Z Z Z M Z M B M N M B g B M N A Z M M M A A A r r r r r t r t t r t q w 3 3 3 3 3 3 2 2 < & % @ . . .                                                                                                                                                                                                                                   ",
"] f ; .     . .                                                                       . .   . . . @ @ + $ $ $ $ # # # # + # + + @ + + + + # # # ; ; ; # # # # # . . . . + $ > ; ; : 8 1 ; # @ . % @ @ @ + + # # # # # # # # # # O           . @ + # ; ; # # # # ; ; ; ; ; ; ; ; ; ; ; ; ; ; ; ; ; ; ; ; ; ; ; ; ; ; ; ; ; ; : : : : : : ; ; : : : : : : : : : : : : : : : : 4 4 4 4 4 4 4 4 4 4 9 7 9 4 9 7 9 7 9 7 9 7 9 7 9 7 9 a 5 5 5 7 5 5 a 5 5 5 5 a a 7 5 7 g g 7 7 7 7 5 a 7 5 5 g g 5 a g g a a d a 5 7 7 7 7 7 7 7 7 7 7 7 q q g g g 7 7 7 7 7 7 7 q 9 g M q 9 9 9 4 9 9 7 7 7 9 9 q 9 q q 9 8 8 q q 8 0 8 8 : : : : 8 8 8 8 8 8 8 0 8 8 8 0 0 0 8 : q 0 8 8 0 0 8 : 8 8 0 0 q 0 8 8 0 0 0 3 0 3 : , 3 3 3 , , , > > ; ; < < < < < * & $ + . .                                                                                                                                                                                                                                       ",
"] f ; .     . .                                                                     . . . . . . @ + + # + # # # # # # # # # # # + + + + # # > ; ; ; ; ; ; ; ; # .   . . + # ; ; : 4 0 0 ; # @ . = % @ + + # # # # # # ; ; ; # # % .         . . & + + + @ . . . . . . . . . . . . . . . . . . . . . . . . . . . . . . . . . . @ @ @ @ @ @ @ + + @ @ @ + + + + + + + + + + + + + + + + + + + + + + + # # # + + + # # # # + + # # # # # # # # # # # # # # # # # # # # # # # # # # # # # # # # # # # # # # # # # # # # # # # # # # # # # # # # # # ; # # # # # # # # # # # # # # # # # # # # # # # # # # # # # # # + + + + + @ + @ + + + @ + @ @ @ . . @ . . . . . @ @ @ @ @ @ @ @ @ @ @ @ @ @ @ @ + + + + + + + + @ @ @ @ @ @ @ @ @ @ @ @ @ @ @ @ @ . . . .                                                                                                                                                                                                                                       ",
"] f ; .     . .                                                                     . . . . . . @ + + # # # # # # # # + + # + + + + + + # # ; ; ; ; ; ; ; # # # @   . . + # ; : : 4 8 8 ; # @ . $ % + + # # # # # # # > ; ; ; # % . .       . @ * % @ . .                                                                                       . . . . . . . .                     .           . . . . . . . . . . . . . . . . . . . . . . . . . . . . . . . . . . . . . . . . . . . . . . . . . . . . . . . . . . . . . . . . . . @ . @ @ @ @ @ . . . @ @ @ . @ @ @ @ @ . . . . . . . . . . . . . . . . . . . . . . . . .                                                                     . . . . . . . . .   .   .   . . . . . . . . . . . . .                                                                                                                                                                                                                                           ",
"] f ; .     . .                                                                     . . . . . . @ + + # # # # # # # # # + + + @ + + + # # # > > > ; ; ; ; ; # # @ . . @ # # ; : : 4 4 8 : # + @ + + + # $ ; # # ; ; ; ; > ; ; # % . . . . . . . - * @ .           X X X         X X           X                                                                                                         X X o                                                                                                                                             o                                                                                                                                                                         . .     .   .                                                                                                                                                                                                                                               ",
"| v ; .     . .                                                                     . . . . . . @ + + # # # # # ; # # # # + + + + + + # # # ; ; ; > , , , ; ; # @ . . @ # # ; : 4 4 4 4 : ; + @ + + + $ ; < ; ; ; ; ; ; > > > # @ . . . . . . % y * % .       X X X X X X X X X X X   X                                                                         X X   X   X   X                           o o o                                                                                               X   X                                                                                             X X X X X X X                                                                                                                                                                                                                                                                                                                                                                   ",
"| v ; .   o . o                                                                   . . . . . . @ + + # # # # # # ; # # # # + + + @ @ + # # # # ; ; ; : , , , ; ; @ . . + # ; : : 4 4 4 4 : ; # @ # # # # ; > > ; > ; ; ; > > ; > @ . . . . . @ % y e * .       X X X X   X                                                                                                                                                                                                                                                                                 o                                                                                                     . . . . . . . . . . . . . . .                           X                                                                                                                                                                                                                                                                       ",
"{ v ; .     . o                                                                 . . . . . . @ @ + + # # # # # # # # # # # # + + @ + + # # # # # ; ; ; ; : ; ; ; + . . + # > : 4 4 4 9 8 : ; # + # # # # ; > > ; ; ; ; ; ; ; ; ; $ @ . . . . @ @ y 2 & @ .                           . . . . . . .         . . .   . . . . . . . . . . . . . . . . . . . . . . . . . . . . . . . . . . . . . . . . . . . . . . . . . . . . . . .                                 . . . . . . . . . . . . . . . . .   . . . .       .         . . . . . . . . . . . .   . . . . .     .       . .       .     .   .                                 . . . . . . . . . . .         . . . . . . . . . . . . . . .                                                                                                                                                                                                                                                                                                   ",
"] x ; .     . o                                                                 . . . . . @ . @ + # # # # # # # # # # # # # # + + + + # # # # # ; ; ; : : : ; > + . . + # > : 4 4 9 9 q : ; # + $ # # # ; > ; ; ; ; ; ; ; ; ; > $ . . . . . @ @ e 2 & + . .       . . . . . @ @ @ @ @ # + # # + + + + + + # # # # # # # # # # # # + + + # # # # # # # # # ; ; ; ; ; ; ; # # # ; # # # # # # # # # # # # # + # + # # # + # # # # + + + + + + + + + + + + + + + + # # # + # + # # # # # # # # # # # # # # # # # # + + + + + + + + + + + + + + + + + + @ + + + + @ @ @ @ @ @ @ @ + @ @ @ @ @ @ @ @ @ @ @ @ @ @ @ . . . . . . . . . . . . .   . . .                                                                                                                           X X X                                                                                                                                                                                                                 ",
"{ l ; .     . o                                                                   . . . @ @ @ @ + # # # # # # # ; ; # # # # # # + + # # # # # ; ; ; : : : ; ; > + . . + # ; : 4 4 9 g q : ; # + $ # # # ; ; ; ; ; ; ; ; ; ; ; > $ @ . . . . . + e 2 < # @ .     . @ @ + + + # # # ; ; ; ; : ; ; ; ; ; ; : : , , : : : : : : : : 1 1 3 : : : : : : : : : 4 8 8 8 8 8 8 8 8 4 8 4 4 4 4 4 4 4 4 4 : : : : : : : : : : : ; ; ; : : : , , , : : : : : : : : : , , , : : : : : : : : 8 8 8 8 8 8 8 8 : : : : : : : : ; : : : : : , , ; ; ; ; ; ; ; ; : ; ; ; ; ; ; ; ; # # ; ; ; ; ; ; ; ; ; ; ; ; ; # # # # # # # # # # # # # # # + @ @ @ @ @ . @ @ . . . . . . . . . . . . . . . . . . . . . . . . . . . . . . . . . . . . . . .               X                           o . . .                                                                                                                                                                                                                 ",
"{ l : .     . O     X                                                               . . @ @ @ @ + # # # # ; ; ; ; # # # ; > # # # # > > ; ; ; ; ; ; ; ; : ; ; # + . . # > : 4 4 5 i i 9 4 ; # # ; # # # ; ; : : : : : ; ; ; ; # @ . .       . $ e 2 ; # @ . . . @ # # ; > 3 3 : : : 4 8 6 7 8 4 4 4 4 4 7 7 7 4 4 4 4 4 4 4 7 7 g 7 5 4 5 5 5 7 d d a i i i a a a a a a a i a i a i i i 5 5 5 5 5 5 5 5 5 5 5 5 5 4 5 4 5 7 7 7 5 5 5 5 i 5 i 5 5 5 5 5 5 5 5 5 5 7 a 5 5 a d 5 i a d a d a f h a a a 5 5 a a 7 7 7 7 7 7 a a a g 7 5 5 7 4 5 7 5 5 4 5 7 5 5 5 8 8 0 0 8 8 8 8 : : 8 8 8 8 8 8 0 4 : : : : : 0 : : : : : : : ; ; > > > > > > > # # ; > > > > > ; ; # ; > > # # # # # # # # # # $ $ # # # # # # # + + + + @ @ @ . .                                   . O . . .           .                                                                                                                                                                                                     ",
"} z : .     o o                                                                   . . . @ @ @ @ + + + # # ; ; # ; ; ; ; ; ; > > > > > ; ; ; ; ; : : ; ; : ; ; # + . @ # > : 4 5 i i i d 4 ; # # < ; # # ; : : : : ; ; ; ; ; ; ; @ .         . % 3 > ; # @ . o . + # ; ; , : 8 8 4 4 4 4 4 4 4 4 5 5 5 5 5 a i 5 7 7 7 a a a g d d a a i a a a a a i i i i p i p i i i i p p i i p p p p p i p i i i i i i i i i i i 5 i i i i i i i i i p p p p i i i i i i i i i i a i i p p p p p p p p x x x p p p i i p s p p p p p p p p s f p i i a i a a i i i i s s p i 5 7 d 7 5 5 5 5 5 5 5 5 5 5 5 5 7 5 4 5 4 4 7 g 5 4 4 4 4 4 4 4 6 : : : : : : : : : : : : : : : : : : : : , : ; ; ; ; ; ; ; ; ; > > ; > ; ; > > # # # # # # + # @ . .                                 . . . . . .         .                                                                                                                                                                                                     ",
") l : .     o o         .                                                         . . @ @ @ + + + + + # # ; ; ; ; ; ; ; ; ; ; > ; > > ; ; ; : : , : : ; ; ; ; # + @ @ # > : 4 5 i i i d 4 ; # # 2 ; # # ; , : : : : : ; ; ; ; ; + .         . $ 3 > ; # + . . . + # > ; : : : 8 : 4 4 4 4 4 4 4 i i a i 5 5 i a 5 5 5 5 a a a a a i i i i i i i s i i i i p p p i i i i p p i p s f f p p p p p p i i i i p p p p p i i i i i i i i i i p p p p i i i i i i i i i i p i i p p p p p p j j j j x p p p p p p p p p p p p p p p p p p p s s s a s a i i s f f f f i a a a i i i i i i i i i i i i i 5 5 5 7 a a g 5 5 5 5 5 5 5 5 7 4 4 4 4 4 4 : 4 4 4 4 : : : : : : : : : : : : ; ; ; ; ; ; ; ; ; ; > > > > > > > # # # # # # # + @ .               o               . . . . . . .                                                                                                                                                                                                               ",
"{ l ; .     o .     X   .                                                         . . @ @ + + + + # # # ; > > ; ; ; ; ; ; ; ; ; ; ; ; ; ; : : : : : : : ; ; ; ; + @ @ # ; : 4 5 i i a 7 4 ; # # 3 ; ; ; : : : : : : : : : : : > # .         @ $ 2 > ; # + . . . + # > ; ; ; : : 4 4 5 4 4 4 4 5 5 a a a 5 5 5 a 5 5 4 5 5 i 5 5 i i i i i i i 5 i i i i i i i i i i i i p p p p p p p p p p p p p p p p p p p p l p p p p p p p i i i i p p p p p p p p p p p p p p p p p p f p p p p p p j j j j p p j p j j j j j j j j j j j p p p p f p p p i i p p p l j p p p s s p i p i p s p i i i i i i 5 5 5 i i i a 5 5 5 5 5 7 7 7 5 5 5 4 4 4 4 4 4 4 4 4 4 4 : : : : : : : : : : : ; ; ; ; ; ; ; ; ; ; ; ; ; ; ; # # # # # # # # + @ . .         o . o               . . . . . . . . .                                                                                                                                                                                                           ",
"} k : .     . .     X   .                                                     . . . . @ @ + + + # # # # > > > : : : ; : : : ; ; ; > ; ; ; : : : : : : : : ; ; ; $ + + # , : 4 5 i i a 7 : ; # # 3 < ; ; : : : : 4 4 : : : : : ; # .         . $ 3 > ; # # @ . . + # > ; ; ; : : 4 4 5 4 4 4 4 5 5 i a i 5 5 5 i a i 5 5 i a i 5 a i i i i i i i i i i i i i p i p i i p p p p p p p p p p p j j j j j j j j j j l j p p p p p p i i i i p p p p p p p p p p p p p p p p p p p j p j j j j j j j j j j j j j j j j j j j j j k j j j j j p p p p p p p p j j j j p p p p p p p p p f p p p p p p i i i i i i i i i i i i i i i i 5 5 5 5 5 5 5 5 5 5 4 4 4 4 4 4 : : : : : : : : : : : : ; ; ; ; ; ; ; ; ; # # # ; # # # # # # # % % . .         . . .               . . . . . . . . . . . .                                                                                                                                                                                                     ",
"} z : @     . .         .                                                 . . . . . . @ + + + + # # # # ; ; : : : : : : : : : : ; ; ; : : : : : : : : : : : : ; # + # > , : 4 5 i i 5 7 : ; # # 3 , ; ; : : : 4 4 4 : : : : : ; # .         . $ 2 , ; # # @ . . $ ; > ; : : : 8 4 4 4 4 4 4 4 5 5 5 5 5 5 5 5 5 a a i 5 i a i i s p i i i p s s i i i i i i i p p p p p p p p p p p p p j j j l j j j j j j j j j j j p p p p p p p p p f l l j j j j j j j j j p p j j j j j j j j j j j j j z j j j j j j j z j j j j j j k k j x l j j j p p p p p p j j j j j j p p j j j p j j j j j p p p i p p i i i i i i i i i i i i i i i i i i 5 5 a 5 5 9 9 9 4 4 4 4 4 : : 4 4 4 : : : : : : : : : ; ; ; ; ; ; ; ; ; > ; # # # # # % % . .             .               . . . . . . . . . . . .                                                                                                                                                                                                     ",
"} z : @ . o . O     X                                                   . . . . . . @ + + + # # # # # ; ; ; : : : : : : : : : : : : : : : : 8 8 : : 8 8 : : : , # # # > 3 8 4 5 5 5 7 7 : # # # 3 , ; ; : : 4 4 : : : : : : : : $ @ .       . # > , ; ; # + . . $ ; ; ; : : 8 8 4 4 4 4 5 5 5 5 5 5 5 5 i i i i i i i i i i i i i i i i p p p p p p p p p p p p p p j j j j j j j j j j j j j j j j j j j j j j j j j j j j j p p p p p j l j j j j j j j j j j j j j j j j j j j j k k k k k z k j j k k j k k k k k k k k k j j l l j j j p p p p p p j j j j j j p p j j j p j j j j j j p p p p p i i p s p s i i i i i i i i s p i i 5 5 a 5 5 9 9 9 9 4 4 4 4 4 4 4 4 4 : : : : : : : : : : : : ; ; ; ; ; ; > > # # > > # # + @ .             .             . . . @ % @ @ . . . . . .                                                                                                                                                                                                     ",
"} z 4 + . o . O                                                         . . . . @ @ + + # + # # ; ; ; ; , : : : : : : : : : : : : : : : : 4 8 q 4 4 8 8 8 4 4 : # # # , 0 8 5 5 5 5 5 8 : ; # $ 3 , ; ; : 4 4 4 : : 4 4 4 8 8 : $ @ . .     . + > , ; ; # + . . # # ; ; : : 8 8 7 4 4 4 5 7 7 5 5 5 5 5 i i i i 5 i i i i i s s i i p s f f p p p p p p p p p p l j j j j j j j l j j j j j j j j j j j j j j j j j j j j j j p p p p p j j j j z k k j j j j j j j j j k j j k j k k k j j k k k j j j k j j k j j j j k j k k j l j p p p p p p p p p j j j j j j p p p j j p p p j j j j p p i i i i i s f s s a i i i i i i i a p i i 5 5 5 5 5 5 5 4 4 4 4 4 4 4 4 4 4 4 : 4 : 4 : : : : : : : : ; ; ; ; ; ; ; > # # > ; # # + @ . .           .             . . . % + + + @ . . . . .                                                                                                                                                                                                     ",
"} z 4 + . . . .         .                                                 . . . @ + # # + # # > # ; ; ; : : 8 : : : : : : : : : : : : : 4 8 8 4 4 4 4 4 4 4 4 : # # # ; : 4 5 5 i i 5 7 : ; # $ 1 : : : : 8 4 4 4 4 4 4 4 4 4 : # @ .       @ $ 3 , ; ; # + . . # ; ; , : : 4 8 4 4 4 4 4 4 4 5 i i i i i i i i i i i i i i i i p i i p p p p x p p p p p p p p j j j j j j j j j j j j j z k j j j j j j j j j j j j j j p j p p p p p p j j z k k j k k k k j j j j j j j j j j k k k k j j j j j j j j j k z z j j j k k j j p p j l l f p p p p p p j j j j p p p p p p p j j j l j p p p p i i i i i i i i i i i i i i i i i i i i i i 5 5 5 5 5 7 7 8 4 4 4 4 4 4 4 4 4 4 4 4 4 4 8 8 8 : : : : : : : : ; ; ; ; ; ; > > # # $ @ .           . O .           . . % % + + + @ @ . . . .       . .               . . .       o                                                                                                                                                               ",
"} z 4 + . . . .                                                         . . . @ + + # # # # # ; ; ; ; : : 8 8 4 : 4 4 : : : : : : : : : 4 4 4 4 4 4 4 4 4 4 4 : ; ; ; : 8 5 5 5 i i 5 5 : ; # # 1 : : : : 4 4 4 4 4 4 4 4 4 4 : # @ .       @ $ 3 , : ; # + @ . # ; ; ; : : : 8 4 4 4 5 5 5 5 5 5 i i i i a s p i i i i p p p i p i p p p p p l p p p p j j p p j j j j j j j j j j j j k z k j j j j j j j j j j p p p p p j j p p p p j j k z k k k k k k k k j j j j j j k k k k k k j j j j j j j j j j k z z k j j k k j j p p p p f p p p p p p p j p j j p p p p p p p p p p p p p p p p i i i i i i i 5 i 5 i i i i i 5 i i i i i a a 5 5 5 4 4 8 4 4 4 4 4 4 4 4 4 4 4 4 4 4 4 4 4 4 : : : : : : : : : ; , , ; ; > > ; # + + . .         . O .           . % = = $ # # + @ @ . . .       . .               . . .   .                                                                                                                                                                   ",
"7.z 4 + . . . .                                             o           . . @ @ + # # # # # ; ; ; : : : : 8 8 4 4 4 4 4 4 4 4 4 : : : 4 4 4 4 4 4 4 4 5 5 4 4 : ; ; ; : 8 5 5 i i i i 5 : ; # # , : : : : 4 4 4 4 4 5 4 4 4 4 8 ; + .       @ $ w 6 : ; ; # @ @ # ; ; : : : : 4 4 4 4 5 5 5 7 a i i i i i p p i i i p p p p p p p p p p p p p j p p p p j j j p j j j j j j j j k j k k k k k j j j j j j j j j p p p p p p p p j j p j j k k k k k k k k k k j k k k k k k k k k k k k k k k j j j j j j j j j k j j j j j j j j j p p p p p p p p p p p p j p p p p p p p p p p p p p p p p p i i i i i 5 5 5 5 5 5 i i i 5 5 i i i i i a a 5 5 5 4 4 4 4 4 4 4 4 4 4 4 4 4 4 4 4 4 4 4 4 4 4 : : : : : : : ; : : : ; ; ; ; ; # # + . .         . O .     .   . . % * $ $ # # # + @ @ . .       . .           . . . . . . . .                                                                                                                                                                 ",
"7.J 4 # . . . .                                             o o         . . @ + $ # # # ; > > ; ; : : : : 4 4 4 4 4 4 4 4 4 4 4 4 4 4 4 4 5 5 5 5 5 5 9 9 9 5 4 ; ; ; : 4 5 5 i i i i 5 4 ; # # , : : : 4 4 4 5 5 5 5 5 5 9 9 8 ; @ .     . @ $ w 6 : : ; # + @ # ; ; : : : 4 4 4 4 5 5 5 5 5 i a i i i i i i i i i i p p p l x p p p p p p p j p p p p j j j j j j j j j j j j k j k k k k k j j j j j j p j j j p p p p p p p j j j j k z k j k k k k k k k k k k k k k k k k k k k k k k k j j j k j k j j j k j j j j j j j j j j p p p p p p p p p j p j p p p p p p p p p p p p p s s p p a i i i i i i 5 i 5 5 5 i i 5 5 5 5 5 5 i i i 5 5 5 4 4 4 4 4 4 4 4 4 4 4 4 4 4 4 4 4 4 4 4 4 8 : : : 4 : : : : : : : ; ; ; ; ; # # + @ .       . . % .         . . @ % $ # # # # # @ @ . .         .           . . . . . . . .                                                                                                                                                                 ",
"e.J 4 # . . . O                                               o       . . . @ + $ # # # ; > ; ; ; ; : : 4 4 4 4 4 4 4 4 4 4 4 4 4 4 4 4 5 5 9 5 a 5 5 9 9 7 7 8 ; ; ; ; 4 5 5 i p p p a 5 : ; ; 3 : : : 4 4 5 5 5 5 5 5 a a 5 8 > + .     . @ # w 6 : : ; # + @ # ; ; : : : : 4 4 4 5 5 5 5 5 5 i i i i p p p p p p p p p j j j j p p p p p p j j j j j j j j j j j j j j j j j j j j j k k j j j j j j j p j j j j j p j p j j j j j j z z k j k k k k j j j j k k k k k k k k k j j k k k k j j j k k k j j j j j j j j j j j j j j j p p p p p p j j j j j j p p p p p p p p f p p p p p p i a i i i i i i i i 5 i 5 i i 5 5 i 5 5 5 i i i 5 5 5 5 5 5 5 5 4 4 4 4 4 4 4 4 4 4 4 8 4 4 4 4 7 4 4 4 4 : : : ; ; ; : : : ; ; ; ; # + @ . .     . % % .           . @ % # # # # # # + @ @ . .                 . . . . . . . . .                                                                                                                                                                 ",
"e.J 4 # . . . .         .                                 o   o       . . @ + + # # # # ; ; # ; ; : : : 4 4 4 4 4 4 4 4 4 4 4 4 4 4 4 4 5 5 5 5 d i 5 5 5 7 7 9 : ; ; : 4 5 i i p p f f 5 : ; ; 0 : : 4 4 4 5 7 i 5 i a d d d 8 2 + . .   . @ # w 0 : : ; # + @ # # ; ; : : : 4 4 5 5 5 5 5 5 5 i i i i p f f f f p p p p p p j l p p j j p j j j j j j j j j j j j j j j j j j j j j j k k j j j j j j j j j j j j j j j j j j j j j j k z k j j k k k j j j j j k k k k k k k k k j j k k k j k k k k k k k j j j j j j j j j k k j j j j j j j j j j j j j j p p p p p p p p f p p p p p p i i i i i i i i i i i i i i i i 5 i i i i i a i i i 5 5 5 5 5 5 5 4 4 4 4 4 4 4 4 4 4 4 4 4 4 4 4 4 : 4 4 : : : : : : : : : : ; , ; # # @ . . . . . % % .         . . @ $ $ # # # # # + + @ . .                 . . . . . . . . .                                                                                                                                                                 ",
"e.L 4 # . . . .                                                       . . @ @ + # # # ; ; ; ; ; : : : 4 4 4 4 4 9 9 4 4 4 7 4 4 4 4 4 4 5 5 5 5 i 5 5 5 5 7 5 8 : ; ; : 4 5 i p l j x h 5 : ; ; 0 : : 4 8 4 5 g 5 5 5 i d d 5 4 > + . . . . @ # t 0 4 : ; ; + + # # ; : : 8 8 8 4 5 5 5 5 5 5 5 i i i i p f s f f p p p j j j j l j j j j j j l j j j j j j j j j j j j j j j j j j j j k k k j k k k j j j j j j j j j j j j j j j j k k k k k j k k k j j j j j k k k k k k k z k j j z z j j k k k k k k k k k k k k k k k k k k k k k j j j j j j k k k k j j p p p p p p p p p p p p p p p p i i i i i i i i i i i i i i i i i i i i i i i i i i i i i i 5 4 4 4 4 4 4 4 4 4 4 4 4 4 4 4 4 4 4 4 4 : : : : : : : : : ; : , ; # # @ . . . . . % = .           . @ $ $ # ; # # # + + @ . .                 . . . . . . . . .                                                                                                                                                                 ",
"y.K 5 # . . . .                                           .           . . @ + # # ; ; > ; ; ; , : : : 4 4 4 4 4 9 9 4 4 7 7 5 4 7 4 4 5 5 5 5 5 5 5 5 5 7 5 5 4 : ; ; : 4 5 i p l j l f i 4 ; ; 0 : : 4 7 5 5 g 5 5 5 i a a 5 4 3 # .   . . @ # t 0 4 : ; > # # ; ; : : 8 q q 7 7 5 5 5 5 5 5 i i i i p p p p p p p p p j j l x l j j j j j j l j j j j j j j j j j j j j j j j j j j j k z k k k z k k k k k k k k k k k k k k j j j j j k j k j k z k j j j j j j j j j j j k c k j j z z j j k k k k k k k k k k k k k k k k k k k k k k j j j j k k k k k j j p p i p p p p p p p p p p p p p p i i i p p p p i i i i i i i i i i i i i i i i i i i i i i 5 4 4 4 4 4 4 4 4 7 4 4 4 7 7 4 4 4 4 4 4 : : 4 8 : : : : : ; ; : ; # # @ .       . = = . .         . + # ; ; ; # # # # + + @ .                 . . . . . . . . .                 o                                                                                                                                               ",
"&.K 5 # . . . . .                                         . .           . @ + # # ; ; ; : : : : : , : : : 4 4 4 4 4 5 5 5 4 4 4 4 4 4 4 5 5 5 5 5 5 5 a a 5 5 7 : ; : 4 7 a i p j j x f i 4 : : 7 4 4 4 5 7 a a i i i i i i a 7 : # .     . @ ; 0 0 : ; ; # # # ; : : 4 4 4 5 5 5 5 5 5 5 i i i p p p i p p p p p p p p p j j j j j j j j j j j j j j j j k k k j j j j j j j j j j j j j j j k z k j j j k j j k k k k k j k k j j j j j z z j k j j j k j j j j j j j j j j j k k k k z z k k k k k k k k k k k k k k k k k k z k k k z z z k j j k j j j j j p p p p p p p p p p p p i i i i p i i p s p p f i i i i i i i i i i i i i a i i i i i i i 5 5 i 5 5 5 5 5 5 4 5 5 4 4 4 4 4 4 4 4 : : : 4 4 4 : 4 : : 6 6 : ; : : ; # @ .       . = @ . .         @ ; 1 : : ; # + + # # + + .     . O           . . . . . . .             . . .                                                                                                                                                 ",
"7.K 5 # @ . @ . .                                       . . .           . @ # # # ; ; ; : : : : : : : : : 4 4 4 4 4 5 5 5 5 4 4 4 4 4 4 5 5 5 5 i 5 i a a 5 5 q : : : 4 7 i i p j j x x i 4 : 4 q 5 4 5 5 i a a i i i i i i i 5 : # .     . + ; q 8 : ; # # ; ; : : 4 4 5 5 5 5 5 5 5 5 5 i i i i i i i i p p p p p p p p j j j j j j j j j j j j j j j j j j j j j j j j j j j j j j j j j j j k k j j j j j j z z k k k k k j j j j j j j k j k j j j j j j j j j j j j j j k k k k k z z k k k k k k k k k k k k k k k k k k k j j j k k k j j j j j j j j j p p p p p p p p p p p p i i i p i i i p p i i p i i i i i i i i i i i i i i i i i i i i i 5 5 i 5 5 5 5 5 5 5 5 5 5 5 5 5 4 4 4 4 : : : 4 4 4 4 4 : : 8 6 : : : : ; # @ .       . = @ . .         @ ; : : : ; # # # # ; # + @ .   . O           . . . . . . .           . . . . .                                                                                                                                               ",
"8.K 5 # @ . @ . .                                       . . .         . . + # # ; ; ; : : : : : : : : : 4 4 4 4 4 5 5 9 5 5 4 4 5 4 4 4 5 5 5 5 i i i a a 5 5 q : ; : 4 7 i i p j j x v i 4 : 4 q 5 5 5 5 i a i i i i i i i i 5 8 # .     . # ; 8 8 : ; ; # ; ; : : 4 4 5 5 5 5 5 5 5 5 5 i i i p p i i i p p p p p p p p j j l j j j j j j j j j j j j j j j j j j j j j j j j j j j j j j j j k k k j k j j k z z z j j j j j j j j j j j k k k k j j j j j j j j j j j j k k k k k k k k k k k k k k k k k k k k k k k k k k k k j j k k j j j j j j j j j j p p p p p p p p j p p p i p p p i i p f p p i i i i i i i i i i i i i i i i i i i i i i i i i i 5 5 5 5 5 5 5 5 5 5 5 5 5 4 4 4 4 4 4 4 4 4 4 4 4 4 4 4 4 : : : : : > + .       . = @ . .         @ ; : 4 : ; # + + # ; # + @ . . O O           . . . . . . .             . . . . .                                                                                                                                             ",
"8.P 5 # + % @ . .       .                               . . .         . . + # # > ; : : : : : : : : : 4 4 8 4 4 4 4 9 7 5 5 4 4 7 5 5 5 5 5 5 5 i 5 5 i 5 5 5 q : : : 4 7 i i p j j l l i 4 : 4 7 5 5 5 5 i i i i i i p s s p i 8 # .     . + : q 7 : ; ; ; ; ; : : 4 4 4 5 5 5 5 5 5 5 5 i i i p p p p i p p p p p p p j j j z j j j j j j j j j j j j j j j j j j k j k k k j k j k j k j k k k k k k k k k z z z k k k j j j z j j j k j k J k k k j j j j j j j j j j j k z k k k k k k k k k j j k k k k k k k k k k k k k k k j k k k j j j j j j j j j j j p p p p p p p j p p p i p p p p p p f f p p p p p p p p p p p s a i i i i i i i i i i i i i i 5 5 5 5 5 5 5 5 5 5 7 5 5 4 4 4 4 4 4 4 4 4 5 4 4 4 4 4 4 : : 4 : : > $ .   o o . % @ . .         @ ; : 4 : ; # + + # # # + . . . O O         . . . @ @ @ . .             . . . . .   .     . .                                                                                                                                 ",
"r.K i ; + % % % .       . .                             . . . .       . @ + # # ; ; : : : : : : : : : 4 4 9 4 5 5 5 5 5 5 4 4 4 5 5 5 5 5 5 5 i a i i 5 5 5 5 a 4 : : 4 5 i i p j j l f i 4 : 4 7 5 5 5 5 i i i p p p p p p p a 8 # .     . + : r q 4 : ; ; ; ; : : 4 4 5 5 5 5 5 5 5 5 i i p p p p p p p p p p p p p p j j k z j j j j j j j j k j k k j j j j k k k k k k k k k k k k k k k k k k k k k k k z z z k k j j j j z j j k k j k J k k k j j k k j j j j j j k k z k k z k k k k k j j j j k k k k k k k k k k k k k k j k k k j j j j j j j j k j j j j j j j p p j p p p p p p p f p p l f p p p p p p p p p p p s p i i i i i i i p s p i i i i i 5 5 5 5 5 5 5 5 5 5 5 5 4 4 4 4 4 4 4 5 5 5 5 5 4 4 4 4 4 4 4 : : > $ .     . . % @ . .         + ; : 4 4 ; > + + # ; # + @ . . . .       . . . @ + + @ . .               . . . . . . . . . .                                                                                                                                 ",
"r.R i ; + % % @ .     . . .                             . . . .       . @ + # # ; : : : : : : : : 4 4 4 7 7 7 5 5 5 5 5 4 4 4 4 5 5 5 5 5 5 5 5 i i i i i 5 a d 8 : : 4 5 i i p j j j p i 4 4 4 7 5 5 5 i i i i p p p p p p p a 8 # .     . + 1 M q 4 : ; ; ; ; : 4 4 5 5 5 5 5 5 5 5 5 i i p p p p p p i p i i p p p p j j j z j j j j j j j j k k k k k k k k k k k k k k k k k k k z k k k k k k k k k k k k k k k k j j j j j j j j k k k z k k k j k z z j j j k k k j k k k z z z k k k k j j j j k z k k k k k k k k k k k k j j k k j j j j j j j j j j j j j j j j j p p p p p p p p p p p p p p p p p p p p p p p p i p i i i i i i i i s s p i p a i i 5 5 5 5 5 5 5 5 5 5 5 5 5 5 4 4 4 4 4 5 5 5 5 5 5 5 4 4 4 4 4 4 : ; + .     . . $ + . . .     . + ; 8 4 4 : ; # # > ; < $ % . . . .       . . . + + + + . .               . . . . . . . .   .                                                                                                                                 ",
"8.K i ; + % @ @ .   . . . .                             . . . .       . @ $ # ; ; : : : : : : : 4 4 4 4 4 7 9 5 5 5 4 4 4 4 4 4 5 5 5 5 5 i i i i i i i i i a g 4 : : 4 5 i i p j j j p i 4 4 4 7 5 5 5 a s s s p p p p p p p a 8 # .     . + : M q 4 : ; ; : : 8 4 4 5 5 5 5 5 5 5 5 5 i i p p p p p p p p p p p p p p j j j k j j j j j j j j j j j k k k k k k k k k G k G k k k G k G k k k k k k k k k k k k k k k j j j j j k k j k k k k k k k k k z z j k k k k k k k k k k k k k k k k j j j l z z k k k k k k k G k k k k k k k k k j j j j j k k k j j j j j j j j j p p j j j p j j j p p p p p p p p p p p p p p i i i i i i p i i i s s i i i i i i i i i i 5 5 i i 5 5 5 a a 5 5 5 5 5 5 5 5 5 5 5 5 5 5 5 5 5 5 4 4 ; + . .   . @ * + @ . .     . # : 4 4 4 : ; # # ; > < $ @ . . . .     . . % @ + # # + @ . .         . . . . . . .   .                                                                                                                                       ",
"8.R i ; # % + @ . . . . . .                             . . .         . % # > > : : : : : : : 4 4 4 4 4 5 7 9 5 5 5 5 4 4 4 4 4 5 5 5 i a a i i i i i i i i a d 8 : : 4 5 5 i p j j j p i 5 4 4 a a i i s h f f f f p p p f l s 8 # .     . + : q 7 4 : ; : : : 4 4 4 5 5 5 5 5 5 5 5 5 i i p p p p p p p p p f p p p p j j j j j j j j j j j j j j j j k k k k k k k G G G G G k k k G G k k k G G k G G G G k k k k j j j j j j z z k k G G k k k J k k L J k k z L L J k k k k k J k k k k k j j j l z k k k k k k k k G G k G k k k z z z k j j j k k z c z j j j j k j j j p p j j j j j j l j j j j p j l l l l p p p p p p i i i p p p i i s s i i i i i i i i i i 5 5 i a 5 5 5 a d a 5 5 5 5 5 i i i i 5 5 5 5 5 5 5 5 q 6 ; # @ . . . @ * # @ . .     . # : 4 4 4 : ; > > ; ; ; + . . . . .     . . % @ + # $ # + . .         . . . . . . . .   .                                                                                                                                     ",
"0.R 5 : # + & + . . . . @ .                                         . . @ # ; ; : : : : 4 4 : : 4 4 5 5 5 5 5 5 5 5 4 4 5 4 4 4 5 5 5 5 i i i i s i i i i a i i 4 : : 4 5 i i p j j j l i 5 4 5 g a 5 i i p p p p p p p p j p i 8 > .   . . # 1 M q 4 : : ; : : q 6 4 5 5 5 5 i 5 5 5 5 i i p p p p p p p p p p p p p p j j j j j j j j j j k k k k k k k k k k G k k k k G G G k G G G G G G G G G G G G k k k k k j j j j j j k k k J J G G J G G k k k k k k k k k k G G k k k k G G G G J z z k j j j k k z k k k k G G G k k k k k k k k j j j j j j k k k k j j j j k z z j j j j j j j j j j j j j l j j j j j l j p p p p p p i p p p p p f f p i p i i i i i i i 5 i i i i i 5 5 5 5 5 i i 5 5 5 i i i i i i 5 5 5 5 5 5 4 : # @ . . . @ $ + . . .     . # : 8 9 4 : ; ; ; > ; ; # % . . . . .   . . @ + # # # # # @ . .   . . . . . . . . . . . .                                                                                                                                     ",
"0.W i : # + & + . . . . @ .                                 .       . . + # ; ; : : 4 4 4 4 : 4 4 4 4 5 5 5 5 5 5 5 5 4 5 5 5 4 5 5 5 i i i i i p i i i p i i i 4 : : 4 i i i p j j j l i 5 4 5 a i 5 i i p p p p p p p p p p i 4 ; .   . . # 1 M 7 4 : : : : : q 8 4 5 5 5 5 i 5 5 5 5 i i p p p p p p p p p p p p j j j j j k j j j j j j j k j j k k k k k k G G k G G G G G k k G G G G G G G G G G k k k k k k k k j j j k k k k k G k G G G G G k k k k k G G G G G G G k G G G G G G G k L z k j k k k k k k k k G G G G G J J k k k k j k j j j k k k k k j k j k k k k j j j j j j k z j j j j j j j j j j j j j p p p p p p p p p p p p s p i i i i i i i i i i i i i 5 i i i i 5 5 5 i i i i i i i i i i i i 5 5 5 5 5 5 : ; @ . . . @ * # @ @ .     . # : 8 9 4 : : ; ; ; : ; # + . . . . . . . . @ # # # # # # @ . .   . . . . . . . . . . . . .                                                                                                                                   ",
"0.R i : # + # + @ . . @ + @ .                               . .     . . + # ; : : 4 4 4 4 4 8 8 4 4 4 4 5 7 7 5 5 5 5 5 5 5 5 5 i i i i i i p p p i i i p i i i 4 : 4 5 i i p j k k z l p 5 4 5 a i i i i p p p p j j j p p j s 4 ; .   . . # 8 g 7 4 : : : : : 0 4 4 5 5 5 5 i 5 5 5 5 i p p p p p p p p p p p p p j j j j k k j j j j j j k k j k k k k k k k G G G G G G G G k k k G k G G G G G G G k k k k k k k k k k k k k k k k G k G G G G G k k k k G G G G G G G G k J J G G G G k k L z k k k k k G G G G G G G G G G G G k k k k k j j j j k k k k k k k k k k k j k k k k j j k z j j j j j j j j j j j j j j j j j p p p p p p p i p p i i i i i i i i i i i i i i i i i i i i i i i i i p s s i i i i i 5 5 5 5 5 5 8 ; @ . . . $ 2 $ + @ .     . # : 4 9 9 4 : ; ; : : 1 ; @ . . . . . . . @ + # # # # # # @ . .   . . . . . . . . . . . .                                                                                                                                     ",
"<.E i : # + < + + @ @ @ @ @ .                               . .     . . + # ; : : 4 4 4 4 4 4 8 4 : 4 4 5 7 a 5 5 5 5 5 5 5 5 5 i i i i i p p p p i i p p i i i 4 4 4 5 a s p j k k z l p 5 5 5 h a i i p f l p p j j j j p j h 4 ; . . . @ # 8 g 5 4 4 : : : : 8 4 4 5 5 5 5 5 5 5 5 5 i p p p p p p p p p p p p p j j j j k j k j j j j j k k j k k z z z k k G G G G G G G k G G k k k G G G G G G G G G k k G k G k J k k k J k k G G k G J G G G G G G G G G G G G G G G G J G G G G G k k J k k k G J J J G G G G G G G G G G G k k k k k j j j j k k k k k k k k k k k k k k k k k k k k k k k k k k k j j j j j j j j j j j p p p p p p i p p p i i i i i i p p p i i i i i i i i i i i i i i i s s s i s i i i 5 5 5 5 5 7 8 ; @ . . . * 2 $ + + .     . # : 4 9 9 4 : ; : : 8 1 1 $ @ . . . . . . @ # # ; ; ; # # + . .   . . . . . . . . . . . .                                                                                                                                     ",
"<.E i : # # < + @ @ @ @ + @ . .                             . .     . . + # ; : 8 4 4 4 4 4 4 : 4 : 4 4 5 a a 5 5 5 5 5 i i i i a i i i p s p p p p p p p i i i 5 4 4 i s p j j k k z z p i 5 5 h i i i p p l j j j j j j j j h 7 ; @ . . @ # 8 g 5 4 4 : : : : 8 4 4 5 5 i i 5 5 5 5 5 i p p p p p p p p p p p p p p p j j k j j j j j j k k k k k k k z z k k k k k G G G k k G k G k k G G G G G G G G G G G G G G J J J G k J G G G G G G K G G G G G G G G G H G G G G G G G G G G G G G G G G k G G G G G J G G G G G G G G G G k k k j j j j j j k k k k J k k k k k k k k k k k k k k k k k k k k k k k j j j j j j j j j j j j p p p p p p p p p p i i i i p p p p p i i i i i i i i i i i i i i i i i p i i i 5 5 5 5 5 7 8 ; + @ . @ $ 2 ; + @ .     . + ; 4 9 5 4 : : : 4 8 8 1 # + . . . . . . + $ ; ; ; ; ; # + . .   . . . . . . . . . . . .                                                                                                                                     ",
"<.~ p : # # < # @ @ @ @ + @ .                               . .     . @ + # ; : 8 4 4 4 4 4 : : : : 4 4 5 7 a 5 i 5 i i i i i i s i i i p p p p p p p p p p p a 5 4 5 a s p j k J G J z p i 5 5 a i i i i p j p j j j j j j j s 5 : @ . @ @ ; 8 g 5 4 : : ; : : 8 4 4 5 5 i i 5 5 5 5 5 i p p p p p p p p p p p p p p p j j k j j j j j j k k k j j k k k k k k k k k k G G k k G G G k k G G G G G G G k k k k G G G G J J G k G k k G G G G G G G G G G G G G G H G H H G G G G G G G G G G G G G G G G G G G G G G G G G G G G G k k k j j j j j j k k k G G J G k k k k k J k k k k k k k k k k k k k k k k j j j j j j j j j j j j p p p p p p p p p i i i i p p p p p p p i i i i i i i i i 5 i i i i i i p i i i 5 5 5 5 i 7 8 ; + @ @ @ $ 2 ; + @ .     . + ; 4 9 5 4 : : : : 4 : : # + . . . . . @ # $ ; ; ; ; ; # + . .   . . . . . . . . . . . .                                                                                                                                     ",
"*.~ p : # # < # @ @ @ @ + @ .                               . .     . . + # ; : 4 4 4 4 4 4 4 : : 4 4 4 5 5 5 5 i i i i i i i i p i i i i p p p p p p p p p p s 5 5 5 a s j j k G G J z j i 5 i i i i i i p p p j j j j j l j f 5 : + . @ + ; 8 g 7 4 : : ; : : 8 8 5 5 5 i i 5 5 5 5 5 i p p j p p p p j j p p j p p p j k k k k j j j j k k k j j k k k k k k k k k k k k k k G k k k k k k k k k k k k k k k G G k G J J G k G k G G J G H H G G G G G G G G H H G G H H G G G G G G G G G G G G H G H G G G G G G G G G G G G G k G k j j j j j k k k k G G J G k k k k k k J k k k k k k k k k k k k k k k k k k j j j j j j j j j p j p p p p p p p i i i p p p p p p p f p p i i i i i i i i 5 5 i i i i i i i i 5 5 5 5 i 7 8 ; + @ @ @ $ < ; + @ .     . @ ; 4 9 9 4 4 : : 4 4 : : # @ . . . . . @ # $ > ; : ; > # + . .   . . . . . . . . . . . .                                                                                                                                     ",
"*.~ p : # # < # + @ @ + + @ . .                             .       . @ + # : : : 4 8 7 4 4 4 8 : 4 4 4 5 5 5 5 5 i i i i i p p p p i i i i p p p p j p p p p s 5 5 5 i f j j k k G J z j i i i s i i i p p j j z j j j j l l f 7 : + . % + # 0 M 7 4 : ; ; ; : 8 5 5 5 5 i i 5 5 5 5 5 i p p p p p p p j j p p j j p j j k k k k j j j j k k k k k k k k k z J G k k k G G G G G G k k k k G G k k k G G G G G G G k G G G G G G G G K K H H K G H H H G G G G G G G H H G G G G G G G G G G G G G G H H H H H H G G G H H G G G k k k k j j j j j j k k k k G G k k k k k k k J k k k k z k k k k z k k k z z k k k k k j k j j j j j j p p p l p p s f p i p p p p p p p p f p p p i i i i i i i 5 5 i i i i i i i i 5 5 5 5 a 7 8 ; + . @ @ $ < $ + + .   . . + : 4 5 5 4 4 : : 4 4 4 : # + @ . . . . @ # ; ; : : : > # + . . . . . . . . . @ @ . . . . .                                                                                                                                   ",
"r.R p : # + + + # + @ + @ @ @ . .                           .       . @ # : : : 4 4 4 4 4 4 4 7 5 5 5 4 4 5 5 5 i i i i p p p p j p p p i i i i i p p p p p l h 7 4 5 i p p j k k k c c j p i i v p p p j l j j k k j j j j l f 4 ; @ . . . ; 8 M q : ; # # # ; 8 5 5 5 5 i i i 5 5 i i i i p p p p p p p j j j j j j j j k k z k k k k k k k k k k k k k k k G G G G G G G G K G G G G H G H H H H H H H H G G G G G G G G G G G G H H H H H H H H H H H H H G G G G G H H H H G G H H H G G G G G G G H H H K H H G G H H H G G k k k k k k j k k k k G G G G G G G G G G k k J G k k k k k k k k k k k j k J k k k k k k k j j j p p j l p p p p p p p p i p p i i i p p p p p p p i i p i i i i i i i i i i a i i 5 5 5 5 5 5 5 : ; @ . . . * y + + @   X . . # 4 5 i i 5 4 : : 4 4 4 : # + @ = . . . . $ ; : : : : ; 2 $ @ . . @ % @ + + @ + + @ . . . . .                                                                                                                                 ",
"y.P p : # @ @ + # # + @ @ @ @ @ .                       . . .       . + ; : : 4 4 4 4 4 4 4 4 5 5 a a 5 5 7 a 5 i i i p p p j j p p p i i i i p i p p j j j l h 5 4 5 i p j j k k z c c j p i i h p p p j z k j k k k j j l j f 4 ; . .   @ ; 8 M 9 4 : ; # ; 1 7 5 5 5 i i i i i i i p p p p p p p p p p j j p j j j j j j j j k k k k k k k k j k k k k k k k G G G G G G J K G G G G G G G G G G G G G G G G G G G G G G G G G G G H H H H H H H H K K H H H G G G G H K H H H H H G G G G G G G G G G H K K G G G G H P H G G k k k k z k k k k k G G G G G G G G G G k k k J k k k k k k k k k k k k k k k k k k k k k k k j p p p j l p p p p p p p i i p p p i p p p p p p j p p p p p i i i i i i i i i i i i 5 5 5 5 5 5 5 : # .     . * y & @ @   X . @ ; 4 5 i i 5 4 4 : 4 4 4 : # + @ $ . . . . $ ; : 4 4 : : < & @ . . @ @ @ @ + + + + + @ . . . . . .     . .                                                                                                                     ",
"e.K i : # + + + # # # @ @ % % @ .                     . . O .       . + ; : 4 4 4 4 4 4 4 4 4 4 5 a a a 5 a a 5 i i i p p p j j j j p p p i i i p p j j j j l f 5 4 5 i f j k k k z c c p i i i f p p p l z k j j k k z l l j a 4 # . . . + : 9 N f 5 4 : : : 8 9 5 5 5 a a a a s s p p p p p p p i i p s p p p p p p p p p j j j j j j j j l z j j j j j j k k k k z k k k J J k k k k k k G G G G G G J G G J J J J k k k k k k k G G J J G G G G J J J J G G G k k G J J K J J J J J G G G k k k k G J J J L J G G G G L G G k k k k k z z k k k z z J J J L J k k k k k k k z k k k k k k k k k k k k k k k k k k k k z k j j j p p j j p p p p p p p i i p p p p p p p p j p p p p p s s p i i i i i i p p i i i i 5 5 5 5 a 7 : # . . . . % e + + @   . . + ; 4 i i i 5 4 4 : 4 4 4 : # + + # . . . . < ; : 4 4 : : < $ @ . . @ @ @ $ + + + + + @ @ . . . . . . . . .                                                                                                                     ",
"e.H i : # # $ & ; # # $ % % @ @ .                     . O O .       . + ; : 4 4 4 4 5 5 4 4 5 5 5 5 5 5 5 5 5 5 i i i i p p j j j j p i i i i i p p j j j j j s 5 4 5 i l j k k k z L l p i i i f p p j j z k j j j k z z l j a 4 # . . . # : d V p 5 5 4 : 8 8 9 5 5 i i a f s p p p p p p p p p p p p f f p p l l j j j j j j j j j j j j j j j j j j j j j k k k z z z z z J k k k k k k k G G G G G J J G G G G J k z k k k z k z J J J G G G G J J J J G J G G G G J J G G G G J G J J J J k G G G J J J J G G G G L L G G G G k k k k k k k k k z J J L J G k k k G G k k k k k k k k k k k k k k G k k j j j k k k k k j j j j j j j j j l j p p p p p p p p p p p p p j p p p p p f f p i i i i p p p p i i i i i i i 5 d 7 : # @ . . . & e + + @ . . . + ; 4 d f i 5 5 4 : 4 4 4 , # + + = . . . @ < > : 4 4 : : > $ @ . . @ + @ + # # # + + @ @ . . . . . . . . .                                                                                                                     ",
"r.K p 4 ; # $ < ; ; # $ % @ @ @ .                       . . .       . + ; : 4 4 5 5 5 5 4 4 4 5 5 5 5 5 5 5 a i i i i p p p j j p p i i i i p p p p j j j j p p a 5 5 i p j k k k J c l p i i i p p p j z z k j j k k z c l j i : # . . . # 4 d V f i 5 : : : 8 d d i i d f f p p p f p j j j p j p j j j j j j k k z z k k k k j j k k k k k k k k k k k k k k G k G G J J G G G G G G G G G G G G H H H H G G G G G G G G G G G G G G G G G H P P P P P P P P G G G G H H H H H H H H H H H H G G H H H H H G H G H L L P L G H H H G G G G G G G G G G H H H K H G G G G G G G G G G G G k k G G G G G G G k k k k k k k k k k k k k k k k k z k j j k j j j p p j j p p p j p p p p p p p p i i i i p p p p p p i i i i i a 7 4 ; # . . . . % e # + @ . . . + ; 8 d f i i 5 4 4 4 4 4 , ; + + = . . . @ 2 > : 4 4 4 : > $ @ . . @ + + # # # # + + @ . . . . . . . . . .                                                                                                                     ",
"r.! p 4 ; # # # ; ; # $ % % @ @ .                     . . . .       . + ; 8 8 4 4 5 5 4 4 4 4 5 a a i 5 5 a a a i i p p p p p j j p p i i i p p p j j j j j j f a 5 5 i p j k k G J z k p i i i f p p j z z k j j k k z z l j a : # . . . # 8 d V f 5 4 : ; ; : 9 5 5 5 i i i i p p p p j j j j j j j j k k k k k k k k k k k k k G G G G G G G G G G G G G G G G G G G G G G G G G G G G G G H H H H H H H H H H H H H H H H G G G G G G H H H H H H H H H H H H H H H H H H H Y Y H H H H H H H H H H H H H G H H H H H G G H H Y Y H H G H H H H H G H H H H R R H H H H H G H H G H H H G G G H G G G G G k k k k k k z k k k k k k k k k k k k k k k j k k p j j j j j p j p p p p p p p p i i i i p p p p p p i i i i i a 9 4 ; # @ . . . @ e + @ @ . . . + ; 9 d p p i 5 4 4 4 4 4 : # + + = @ . . @ 2 , : 4 4 4 : > # @ @ @ + + # # # # # # + @ . . . . . . . . . . .                                                                                                                   ",
"r.! p 4 ; # # # ; ; # + % @ @ @ .                     O O . .       . + > 8 8 7 4 4 4 4 4 4 5 5 a a a i 5 a a i i i p p p p j j j j p p i p p p j j j j j j j s a 5 5 i j j k G G J z j p i i p x p p j z z k j k k k z z l j p : # . . @ # : g S h 4 : # + + ; 8 4 4 5 5 5 i i i i p p p j j j k k k k k k k k G G G G G G G G G G H H H H H H G G H H H H H H G G G G K H H G H H H H H H H H Y Y Y Y Y Y Y Y Y Y Y H H H H H G G G G H H H H H H H H H H G H H H H H Y Y Y Y Y Y Y H H H H H H H H H H H H H H H H H G G G H Y Y Y Y H H H H H H H H H H H H R H H H H H H H H H G G K G G G G K K G G G k k k k k k k z z z z z z k j j j j j j j l z j j j j j j j j j j p l p p f s p p s i i i i i i i i i i i i i i a q 0 1 ; # + @ @ @ @ 2 + . .   . . # ; 9 d f p i 5 4 4 4 4 4 : # + # $ @ . @ + 2 , : 4 4 4 : > $ @ @ @ + + # # # # # + + @ @ . . . . .   . . .                                                                                                                     ",
"e.K p 4 ; # # < ; ; # + @ @ @ . .                   . O % O . .     . + > 0 q 7 5 5 5 4 4 5 5 a 5 i i i i i i i i p p p p p p j j j p p p p s l j z k j j j l v 5 4 5 s l k k G G G G k p p i s v l p j k z k j k k k k z l j s : # . . . # : g S h 5 : # # + # : 4 4 4 5 5 5 i i i i p p p p j k k k k G G G G H H H H H H H H H H H H H H H H H H H H Y Y Y Y H G G H H H H H H H H H H H H Y Y Y T Y Y Y Y Y Y Y Y Y Y H H H H H H H H H Y Y Y Y Y H H H H H H H H H Y Y Y Y Y Y H H H H H H H H H Y Y H H H H H H H H G G H Y Y Y Y Y H Y R H H H H G G G G G G G G G H H H G G G G G G G G G J U J k k k k k j j j j j j j l l l l j p p p p p p l l p p j j j j j l l j p l p p f f p p s i a i i i a a a a a 5 5 5 7 7 9 8 ; # + @ @ . . + 2 @ . .   . . # ; 9 d f p a i 5 4 5 4 4 : # + # $ @ . @ + 3 , : 4 4 4 : , # @ @ @ + # # # # # # + + + @ @ @ @ . .   . . . .                                                                                                                   ",
"&.K p 4 ; $ ; # ; ; > # @ . @ . .                     . O % . .     . + ; : 8 7 5 5 5 5 5 5 5 i 5 i i i i i i p p p p p p p p j j j j p p p p j j z z j j l l f 5 4 5 p l k k G G G J z l p i i l l l l k k k k k k k k k j j p 8 # . . . # : g V f i 4 : : ; ; 4 4 4 5 5 5 i i p p p p j j j j G G G G G H H H H H H H H Y H H Y Y Y E E Y Y Y Y Y Y Y T T T Y Y Y Y Y Y Y Y Y Y Y R Y Y Y Y E T T T T T T T T T T T T Y Y Y Y H H H Y Y Y Y Y Y Y Y Y Y Y Y Y Y Y H H Y Y Y Y Y Y Y Y H H H Y E Y Y Y Y Y Y H H H H H H H H H H H H H H H H H H H G G G G k k G G G G G H H H G G G G k k k k k k k k k z j j j p p s s p s v i i i i i i i i i i i i i i i p p p p p j p p p p p p p i i p s 5 5 5 5 5 5 5 a 5 5 5 5 4 4 4 : ; ; # # + @ @ @ $ + . . . . .   + ; 9 i p p s i 5 4 5 7 9 : # + > # + . @ $ > , 4 4 4 4 : ; # + @ @ + # # $ ; ; # # + @ @ @ @ @ . . . . . .                                                                                                                     ",
"~ H p 4 ; # ; ; ; : > # + @ @ % .                   . . % % . .     . # ; 8 8 7 5 5 5 5 5 5 5 i i i i i i i p p p p p p p p p j j j j p p p j j j j k j j l l s 5 4 5 p l k k G G G K J j p p p l j j j k k k k k k k z z k j p 8 # . . @ # 4 d j j p p p s i i i i i p p p j j k k k k G G G H H Y Y H Y Y Y Y E E T E T T T E T O.O.@.O.O.O.O.O.O.O.O.O.O.O.O.T T T O.O.O.O.O.T T T T O.O.O.O.+.+.+.+.O.O.O.O.+.+.+.+.O.O.O.O.T T T O.O.O.O.O.O.O.O.O.O.O.O.O.T T T T T O.O.O.T O.T T T T T T T T T T T @.@.@.T T T T T T Y Y Y Y Y Y Y Y T Y Y Y Y H H H G G H H H H H H H H H H H G G G G G G k k k k k k j k j j j j p p p p i i i i i i i i i i i i i p p p j j j j p p p i p i i i i i i 5 5 5 5 5 5 5 5 5 5 5 5 4 4 4 : : : : : ; ; # # # # @ . . . . . + : 9 a p p s i 5 5 5 9 8 : # + > # + @ @ $ > , 4 4 4 4 : ; # + @ @ + # # # # # # # # + @ @ @ @ . . . . . . .                                                                                                                   ",
"~ G i : ; # ; ; : : ; # + @ + % .                   . . % % @ .     . # ; 8 7 7 a 5 5 5 5 5 5 5 i i i i i p p p p p p p p p j j j j j p p j j j j k k j j z z v 5 4 5 i l z G G G H K J k j p p l j j j k k k k k G J J J z z f 0 # . . % # 4 p c G G J U U P P P H H H R R W T Q T T T $.$.$.O.O.O.O.O.O.#.+.+.O.+.+.+.+.+.+.+.=.=.=.=.=.=.=.=.=.=.;.-.,.-.,.-.;.;.;.=.;.=.;.;.;.=.=.=.;.,.-.=.j.d.g.g.g.-.-.-.-.-.-.-.-.-.=.=.=.=.=.=.=.-.-.-.-.-.-.-.-.-.-.-.;.=.;.=.;.;.;.-.=.=.=.=.=.+.+.=.=.=.=.=.=.=.=.=.=.+.=.+.+.+.+.+.+.+.+.+.+.+.+.+.+.+.+.O.O.T T T O.O.O.O.O.O.O.$.O.O.O.T T T T T H H H H H H H G G G G G G G G k j j j j j j j j j j j j j j k k j j j j j j p p p p i i i i i i i 5 5 5 5 5 5 5 5 5 4 4 4 4 4 4 4 4 4 4 8 : ; # > # + . . . . . + , q f x j s i 5 5 5 5 4 : # + > # # @ @ $ > : 4 4 4 4 : ; # + @ @ + # # # # # # # # # + @ @ . . . . . . . .   .                                                                                                         . . . ",
"~ J i : ; # # ; : : ; # + @ + @ .                   . . % % @ .     . + ; 8 7 5 i 5 5 5 i i i i i i i i i p p p p p p p p p p j j j j j p j j j z k k k k z b v 4 : 4 i l k G H H H H J k j j p l l k k k k G G k G J J L z z f 8 # . . % ; 9 p ] ! W Y W W ` ` Q T T Q $.$.$.%.%.%.%.%.>.>.>.=.%.+.+.>.>.>.>.=.=.>.,.-.;.=.;.,.-.-.-.-.-.,.,.g.-.-.-.g.g.g.g.g.g.g.,.,.,.g.g.j.-.-.-.-.-.,.-.-.h.h.s.g.s.g.g.g.h.h.h.h.g.g.g.a.a.a.a.g.g.g.g.h.h.h.g.g.g.g.h.k.-.-.-.-.g.g.g.g.a.a.g.g.-.-.-.-.g.a.-.a.a.a.-.-.-.-.-.-.-.-.-.-.-.-.-.-.,.,.,.,.,.-.=.=.=.+.+.+.>.=.=.=.=.>.=.=.>.>.>.>.>.>.>.%.%.O.$.O.$.$.O.T T $.Q T T Q Q W K K H H K K H H H H H H H H ! ! K G J J G k k k k j j j j j j j p i i i f f f p p p p i i i i i a a a d h g 5 : ; > # @ .     . + , g h x j p i i 5 5 5 4 : # # > # # @ @ # > : 4 4 4 4 4 : # # + + # # > > ; # # # # # + + @ . . . . . . . . . . .     . .                                                                                               . . . ",
"} J i : > # # ; : : ; ; # # + + .                   . . % % @ .     . + ; 4 4 5 5 5 5 5 i a i i i i i i p p p p p p p p p p p p j j j p p p j j z k k k k j l h 4 : 4 i l k G H H Y K J k j j j l j j k k k G G G G G J J z z l 4 # @ @ % # 4 h ..| | } e.y.E.E.8.8.8.8.8.0.w.w.w.w.w.w.H.H.q.w.p.p.p.p.p.p.i.q.w.i.H.H.Z.Z.H.H.H.H.H.H.A.H.J.J.Z.Z.A.A.J.J.A.J.A.A.A.Z.Z.A.A.A.Z.S.A.A.S.S.A.A.D.D.D.D.D.A.A.A.A.A.U.U.D.A.A.S.A.A.A.A.D.D.D.D.D.D.A.k.A.A.D.D.k.k.k.k.k.A.A.D.k.A.A.A.k.j.j.j.g.h.h.k.k.n.D.A.k.k.A.k.k.k.k.h.h.h.h.k.k.h.h.h.h.g.g.g.,.,.,.-.g.-.,.,.,.,.,.,.j.,.,.,.,.,.,.,.>.>.>.=.>.>.%.%.+.%.%.+.O.%.%.$.T T Q T Q T Q T Q T T T T T $.$.Y Y H H H G G G k k k k k k k k k j j j z z k k k j j j j j j j l l l l v v a 5 4 : > + . .   . + , q f x j p i i 5 5 5 4 : # # > # # @ @ # > : 4 4 4 4 4 : > # + + # # ; ; ; ; # # # # # + @ . . . . . . . . . . .   .                                                                                               . . . . . ",
"} J i 4 > # # ; : : : ; # # # + .                 . . . % % @ .     . + ; 4 4 5 5 5 5 i a a i i i i i i p p p p j j p p p p p p j p p p p j j j k k k k j j j h 4 : 4 5 f k G H H Y ! K G k j j j j j j k k G G G G G G J z k l 9 ; # % % # : d [ ] | | | t.E.E.e.e.e.e.y.y.y.y.t.y.y.t.t.p.t.r.t.t.t.t.t.t.r.r.r.r.u.u.u.u.u.u.u.u.u.i.i.i.i.i.i.i.p.p.p.p.K.p.i.i.i.i.i.p.p.K.p.K.K.K.H.H.K.P.P.L.L.L.P.P.P.P.K.K.P.P.P.K.K.K.K.K.K.L.L.L.L.L.L.J.J.J.J.L.L.L.L.K.L.L.L.L.L.U.L.L.U.L.L.L.L.J.J.J.J.L.L.U.U.L.U.U.U.U.U.U.U.U.L.L.L.L.U.U.U.U.U.U.L.L.L.L.K.K.J.J.J.J.L.L.L.L.P.L.L.K.K.K.K.K.q.<.0.q.q.q.0.0.0.w.w.0.0.0.0.%.8.8.9.*.8.8.9.*.9.*.9.*.9.*.8.8.&.~ ~ ~ E R ! ! P P U P P U P P ! K K K P ! ! P ! P P U U U U U L J z z z z l p h 7 : # + . . . + : q f x j p i i 5 5 5 9 : # # > # # @ @ # > : 4 4 5 4 4 : ; # @ + # # ; ; ; ; # # # # # + @ . . . . . . . . . . . . . . .                                                                                         . . . . . . ",
"/ k 5 : > # # : : : ; ; # # # + .                   . . % % @ .     . + ; 4 5 5 5 i i i i i i i i i p p p p p j j j j j p p p p j j p p p j j k k k k z k j j V : ; : 5 p j G H H R ! K J k j j j j j j k k G G G G G G k k k l i : # $ = + ; 4 5 i i s s l l j s s s p s s s s j j p j j j j j z j j k k k j k J J J J J J J J H K K K K K K K G H H H H H H H R R R ! ! ! ~ ~ Y Y R Y Y R W E E E E E E E E E ~ ~ ~ ~ ~ ~ } } 3.3.3.&.&.&.&.&.*.*.*.3.2.3.2.2.2.2.2.2.2.r.u.u.r.r.r.r.2.2.r.r.u.4.2.2.2.2.2.*.u.u.u.u.u.u.u.4.4.4.4.4.4.5.5.5.i.i.p.p.p.p.p.p.p.p.i.p.p.p.p.p.p.p.p.u.u.u.p.p.p.p.p.p.p.p.p.r.p.t.t.t.t.t.r.t.t.t.y.y.t.t.y.y.y.y.t.t.t.t.t.t.u.p.p.r.r.y.y.y.e.e.e.y.y.y.y.y.y.y.y.y.y.y.y.y.y.y.y.t.y.y.y.y.| | | } { { ] ' D g 4 ; # + @ . + ; 7 p j j f p i 5 5 i 9 8 ; # > # # @ @ # > : 4 4 5 4 4 : ; # @ + # > ; > > ; # # # # # # + @ @ . . . . . . . .     . . .                                                                                           . . . . . ",
"! k 5 : > # ; , : : ; ; # # # + .                   . @ % % + .     . + ; 4 5 5 5 i a a i i i i i i p p p p j j j j j j p p p j j j j p j j k k k k J L z j z D : ; : 5 p j G H Y W W ! K k j j j j j k k k G K K K G G k k k x d : # @ = @ + # : : : : : : 4 4 : : : : : : : : : : : : : 4 4 4 4 4 4 5 5 5 5 5 5 5 5 5 5 5 5 5 5 i i i i i i i i i p p p i i i i i p p p p p p p p p p p j p p p p j j j j j j p p p p p p p j j j j j j j j j j j j j j j j j j j k k k k k z k k k k k k k z k k k k k k k k G G G G G G G G G G G G G G G G H H G G J J J J J G G G J K K J J J J G G J J J J J J J J J J J U J J I I J L U I I b b I I L J L L L L L L L L P P P P U L L L J L I I I I U ] U ! / / / { } } ! { { { { { { ] | | | | ] ' ' F F n : # + + @ . # : 7 i p j f p i i i a 9 8 ; # > # # + + # , : 4 5 5 4 4 : # # + # $ > > > > > # # # # # # # + @ . . . . . . . .   . . . . .                                                                                         .   . . . ",
"P k 5 : > # ; : : : : ; > $ # + . .                 . @ = = + .     . + ; 8 5 i i i i i i i p p p i p p p j j j j j p p p p p p p j j j j j j k k k k k k k z v : ; : 5 s z G H Y T T Y H k j j j j j j k J G G G G J J G k k l 8 ; # + % . . . . . . . @ @ + + @ . . . @ . . @ @ . . . . . . @ + @ @ + + @ + # # # # # # # # # # # # ; ; # # # # # ; ; ; ; ; ; # ; ; ; ; ; ; ; ; ; ; ; ; ; ; ; : ; ; ; : ; ; ; ; ; ; ; ; ; ; # ; ; ; ; ; ; ; ; ; ; ; ; ; ; ; ; ; : ; ; ; : : : : : : : : ; ; : : : : : : : : : : : : : : : : : : : ; : : : : : : : : : : : : : : : : : : : : : : : : : : : : : : : 4 4 4 4 : : 4 4 4 4 4 4 4 4 : : : : 4 4 4 4 4 4 4 4 4 4 4 4 4 4 4 4 4 4 4 4 4 4 4 4 4 4 4 4 4 4 4 4 5 5 5 5 5 5 5 5 5 5 5 5 d d d 9 9 4 4 : , ; # + @ @ @ @ ; 4 7 a i s p p p p p i d 8 ; ; ; ; # # # ; : 4 4 5 5 4 8 : # + + # $ ; ; : : ; ; # # # # # # + % % @ @ . . . . O . . . .                                                                                                 . . . ",
"! k i : > # ; : 4 4 : ; > $ # + @ .             . . . + = $ + .     . + ; 8 5 i i i i i i i p p p p p p j j j j j j p p p p p p p j j j j j k k k k k k k k z v 4 ; : 5 s z G H Y T Q W H k j j j j j j k J G G G G G G G k k p 8 $ + + @ . .             . . . . .   .     . . . . . .     o o = O O % % % % = % % % = = = = = @ @ @ % $ @ @ @ + + @ @ @ @ @ @ @ & & $ & * * & $ @ + + + + + @ + + @ @ @ + @ @ @ @ @ @ @ % % @ @ @ @ % % @ @ @ % % % % @ @ @ @ @ @ @ @ + @ @ @ @ @ @ @ @ @ + & $ $ @ + + @ + + + + + + + + + + + @ + + + + + + @ @ @ @ @ @ @ + # # # # # # + # + + + @ @ + + + @ + + + + + + + # # # # # # # # + + + + + + + + # # # # + + # + + @ @ @ @ @ + + # # # # # # # # # # # # # # # # # # # # # # # # ; ; ; ; # # + @ + @ . @ @ @ @ + ; 4 9 a a s f p p j p i d 9 : ; ; 2 ; # # : 4 4 5 5 5 7 8 , ; # + + ; ; : , : ; ; # # # # # # # % + + @ @ . . . O . . . .                                                                                                 . . . ",
"! J i : ; # ; : 4 4 : ; > $ # + @ .             . . @ $ * $ # .     . + ; 8 5 i i i i i i i p p p p p j j j j j j j p p p p p p p j j j k k k k k k k k k z z m 4 ; : 5 f z G H Y T Q Q H k j j l j j j k G G G G G G G G G k l 6 # @ . . .   .               .             . .                 . . . . . . . . . . . . . . . . @ . . . % @ . . . . @ @ @ @ @ @ . . . . . @ @ . @ @ @ @ @ @ @ @ + @ @ @ @ @ @ @ @ . . . . . . . . . . % % . . . . . . . . . . . . . . O % O % . . . . % % . . % % % O . . O % % . . . . % % % % = O . O O O O . . . . . . . . . . @ . . . . . . . . . . . . . . . . . . . . . . . . . . . . . . . . . . . . . . . . . . . . .   . .         . . . . . . . . . . . . . . . . . . . . . . . . . . @ + @ @ @ . .       . . % = % + ; 4 9 a a a p p p p p i d 9 : ; < 2 ; # ; : 4 4 5 5 7 7 8 : ; # + # ; ; : : : ; ; ; # # # # # # + + + @ @ . . . . . . . . .                                                                                               . . . ",
"} J i 4 ; # ; : 4 4 : : > $ # + @ .             . . + $ < > # @     . # : 8 5 i i i i i i i i p p p p p j j j j j j j p p p p p j j j k k k k k k k k k k k z v 4 ; : 5 f z G Y Y T Q W H k j p x j j j k k G G G G G G G G G l 6 # + @ . . . .     . . . . . . . . . . . . . . . .   . . . . . . . . . . . . @ . . @ @ @ @ @ @ @ . . . @ @ @ @ . . @ @ @ + @ @ @ @ + @ + + + + @ @ @ @ @ @ @ @ + @ @ @ @ @ @ @ @ . . . . . . . @ @ @ + + @ @ @ . . . @ @ @ @ . . . . @ @ @ . . . . . . . . . . . . . . . . . . . . . . . @ @ % . . . . . . . . O O . . . . . . . . . . . . . . O . . .   . O O . . . . . . . . . . . . . . .   . . . . . . . . . .             . X         . .                                 .   . . . . . . . . . .               . O O O @ ; 4 7 7 i i p p p j p p g 9 : ; 3 3 > ; ; : 7 5 5 i a 7 6 : ; # + # ; ; : : : ; ; ; # # # # # # # + + + @ @ @ . . . . . . . .                                                                                           . . . . ",
"} L i 4 ; # ; : 4 4 : , > ; # + @ .             . @ + < 2 > > +     . # : 8 a i i i i i i i i p p p p p j j j j j j j j j p p p j j j k k k k k k k k k k k z v 4 ; : 5 f z J H Y T Q W J k p p x p p j j k k G G G G G G G G c 7 : # # # + + + + @ @ + + + # # # + # + # # # # + + + + + + + + + # # # # # # # # # # # # # # # + + + + + # # # # # # # # # # # # # # # # # # # # # # # # # # # # # # # # # # # # # + + + + + + + # # # # # # + + + + + + + # + @ @ @ @ @ @ @ @ @ + @ @ @ @ @ @ . . . . . . . . @ @ @ @ @ @ @ . . . . . . . . . . . . . . . . . . . . . . . . . . . . . . . . . . . . . . . . . . . . . . . . .                                                                                                                         . . . @ : 4 7 7 5 i i p p j p p N q : ; 3 3 , ; ; 8 7 5 5 i a 7 8 : ; # + + ; > : : : : ; ; # # # # # # # # # # + + @ @ @ . . . . . .                                                                                           . . . . ",
"} J i 4 ; ; : 4 9 4 4 : > ; # + @ .             . @ # 2 3 > ; #     . # : 8 a i i i i i i i p p p p p j j j j j j j j j j j j j j j k k k k k k k k k k k k k v 4 ; : 5 f z G H Y Q ~ R J k p i h p p j x k k k k G G G G G G z h 5 4 4 : : : : : : : : : 4 4 4 4 4 4 : 4 4 4 4 : : : : : : : : ; : : : : : : : : : : : : : : : : : : : : 4 4 : 4 4 4 4 4 4 4 4 : : 4 : : 4 4 : 4 4 4 4 4 4 4 4 4 4 : 4 : : 4 : 4 : : : : : : : : : : : : : : : : : : : : : : : ; ; ; ; ; ; ; ; ; ; ; ; ; ; ; ; ; ; ; ; ; ; ; ; ; ; ; ; ; ; # # # # # # # # # # # # # # # # # # # # # # # # # # # + + + + + + + + @ @ @ @ @ @ @ @ @ @ @ @ @ @ @ . . . . . . . . . . . . . . . . . . . . . . . . . . . . . . . . .                                                     . . . @ # : 7 q 7 i i p p p j p f g q : ; 1 3 1 ; ; 8 7 a i i i 5 8 : ; # + + ; , : : : : ; ; # # # # # # # # # # # + + + @ @ . . . .                                                                                             . . . . ",
"~ J p 4 : ; : 4 9 5 4 : ; ; # # @ . . . . .     . @ $ 2 3 , ; # .   . # : 7 i i i i i i i i p p p p p j j j j j k j j j j j j j j j j k j j k k k k k k k k k v 4 ; : 5 f z G H Y T E ! J j p i d i i f v l j k k k G G G G k k v p p s f f i i f f p p f x x l p p p f f f v v p s f f f f f s f h v v v v v f v v v v v v v v s s s p p v v l l l x b c c c c v v v l v b v l l l j j j j j l l l l l l l l l l l f l l l l l p f p p p p f p p p p p p p p p s s s s a i a p i i i i i s s a i a a f f a a a i i i i a a a a 5 5 5 5 9 5 9 5 9 5 7 7 7 7 7 5 9 5 5 4 4 4 9 4 4 4 4 4 4 4 4 4 4 4 4 : : : 4 4 : : : : : : : : : : : : : : : : : : ; ; ; ; ; ; ; ; ; ; ; ; ; ; ; ; ; ; ; ; ; ; # # # # # # # # # # # # # # # + . . . . . . . . . . . @ @ @ + # 4 5 d a i i i p p p p i d 8 ; ; < 1 1 ; : 8 g a i i i 7 7 : ; # + # ; 1 : : : : ; ; ; # # # # # # # # # # # + @ @ @ . . . .                                                                                           . . . . . ",
"~ G p 4 : : 4 4 5 5 4 : ; ; # # @ . . . . .     . @ ; 3 1 : ; # .   . # : 7 a i i i i i i i p p p p p j j j j j k j j j j j j j j j k j j j k k k k k k k k k v 4 ; : 5 f z G H Y T Q ! J j i 5 d 5 i h v l j k k k k k k k k z z k k c I c c c C L L L L L U U L L L L I I I U L L I I I I L c k b I I L I L k L J J J J J L L U ^ U L I ] ( U ! ) ) ) ) ) ) ) P ! ! U U ! ! P ! U U P P P U ! ) ) ) ) ) ) ) ( U U U U U U U U U ( U L P U ) U U U U U U U U U L L L L J L L L L L L J L ] ] ] I U ( ( ( ( I I L L I I I I ( ' b c c c c b c b c b b b b b v v v x v x x v v v x x v V V v x x f s s p p s f f f f f f f f f f i a a i a a a a d d d d d d d d a a a a a a a a 5 5 5 5 5 5 5 5 4 4 4 4 4 4 4 4 : : : : : : : : ; ; # # # # # # # # # # # # # ; 4 5 a 5 5 i i i p p i i 9 8 ; ; < 1 ; ; : 7 g a i i i a 7 8 ; # + # > 3 : : : 8 ; ; ; > > # # # ; ; ; ; # # + $ + @ . . . .                                                                                           . . . . . ",
"~ K p 5 : : 4 9 5 5 4 : ; ; # + @ . . O O       . + # , 1 : : ; .   . # : 7 i i p i i i p p p p p p p j j k k k k k k j k k k k k k k k j j k k j j k k k k k v 4 ; : 5 p k G Y Q Q Q ! J p 5 5 7 5 5 a h l j j z k k k k k k k k G G G G G L G L L P P P P H H H Y R K R H H H H H H H H H H H G G G G K P K H P K H H H R R R H R R H Y W W W T Q Q $.Q T T $.T T T T T T T T &.Q T T Q Q T Y Q Q Q ~ ~ ~ Q Q Y W W T T T W W Q E Q W Q ~ ~ W ~ Q W Q ~ Q T E Q W Q W Q E Q W ~ E W W ~ ~ ~ Q E ~ ~ ~ ~ ~ ~ E E R R R R R E ~ ! P H H H P P ! P P P P P P P P P P P K J J K P P P P L U U L L L J k J L J J z L I I I I I c c ] c k z I I b c z c c b b b c c l z b ' ' b c l x c b C C b c x x f x f f h f h v V V h f h h h Z M d 9 q q q q 8 8 8 8 8 0 q q a i 5 5 i i i i p p i a 9 4 ; # < 3 ; ; : 4 d a i i i 5 7 8 : # # # ; : : : : : ; ; ; > ; ; ; ; > ; ; # # # # # + @ . . . . . . . X                                                                                   . . . . . ",
"~ K p 5 4 : 4 9 d i 9 4 ; ; # # + @ . O O .   . . @ # , : 4 : ; . . . # : 7 i i p p i i p p p p p j j j k k k k k k k k k k k k k k k k k k k k j j k k k k k l 4 ; : 5 p k H Y T T W P z p 5 5 7 4 5 i s p p j j k k k k k k k G G G J P P H H H H H H Y Y Y Y Y Y Y Y Y Y Y Y Y H H H H H H H K K K R R R W W E T T T E E ~ Q T ~ &.Q O.&.&.$.T $.$.O.O.O.O.O.O.$.O.O.O.O.O.$.*.$.O.$.O.O.O.O.T T T T T T T T $.O.$.$.%.$.$.$.$.$.$.O.$.&.&.T $.T T O.$.O.$.$.$.$.$.$.$.&.$.$.$.$.T T $.O.$.T O.O.O.O.O.O.O.O.O.O.T T T T @.@.T T T T Q T T T T Y Y Y W T R W E W Y Y Y Y Y R Y Y Y Y R R Y H R H H H K H H H K K K K K K J G ! H G H K K H K G J J P L J J J G G L U U L J G G J L L L L L G k z k z z c c c c b b b x b b l C c x x v v v h a a a d d d h h f i i i i i i i i s d d 4 : # # < < # ; : 4 d a i i i 5 9 4 : # # # ; : : 4 4 : ; ; ; > ; ; ; ; > ; ; # # # # # # + @ . . . .                                                                                         . . . @ @ ",
"~ H p 5 4 : 9 d f d 7 8 : ; # # + + @ . .     . . + ; 1 8 8 : ; .   . # : 7 i p p i i i p p p p j j j j k k k k k k k k k k k k k k k k k k k k j j k k k k k l 4 : 4 5 p k H Y Y Y W P k p 5 5 7 5 5 i p p j j k k k k k k k k G G G J K U P K P K K K H Y Y Y Y Y Y Y Y Y Y R Y H H H H H H H H H H H H H Y Y Y Y Y Y Y T Y Y Y T T T T O.T T O.O.O.O.O.O.O.O.O.T O.O.O.O.O.O.+.O.+.O.O.O.O.O.O.T O.O.O.O.O.O.T T O.O.O.O.O.T O.T T T O.$.O.T O.T T T O.$.O.O.O.O.O.O.O.O.O.O.O.O.O.O.O.O.O.O.O.O.O.O.O.O.O.O.O.O.T T T O.O.O.T O.O.@.O.O.T T O.T T T E T T T E E T E E E E E T Y Y Y Y Y Y Y Y Y Y Y Y Y Y Y H H H H H H H H Y H H Y Y H H H H H H H H H G G G G H H H H G G K H G H K K G G k k k k k k k k k z z k k z k k L G k k c b b b j p j j l l j f p p i i i i i i i a d q 4 ; # + # < # ; : 4 g a i i i i 5 4 : # # # ; : 4 4 4 8 : ; ; ; ; ; ; ; ; ; ; # # # # + $ + @ . . . . . .                                                                                     . . @ @ @ ",
"&.H j 5 4 4 5 d f f 5 8 : ; # # # + @ .         . + ; 3 q 9 4 ; . . @ ; 4 a a p p p i p p p p p p j j j k k k k k k k k k k k k k k k k k k k k j j j k k k k l 4 : 4 5 j k H Y T T Q ! J p 5 5 5 5 5 i p j j k k k k k k k k k G G G G J J G G K H H H H Y H H Y Y Y Y Y Y Y W Y Y H H H H H H Y Y H Y Y Y Y E T T T T T T T T T T O.T O.O.O.O.+.+.+.+.+.+.+.+.O.O.+.+.+.O.O.O.O.O.O.O.O.O.O.O.O.O.O.O.O.O.O.O.O.O.O.O.O.O.O.O.O.O.O.O.O.O.O.O.O.O.T O.O.O.O.O.+.+.+.+.+.+.+.+.+.+.+.+.O.+.+.+.+.+.+.+.+.O.O.O.O.O.T T O.O.O.O.O.O.O.O.O.O.O.T O.O.T T T @.O.O.T T T T T T T T T T T T T T T Y T Y E E E Y Y E Y Y Y H H H H Y Y Y Y Y Y Y Y Y H H H H H H H H H H H H H H H H H H G G H H G G G G G G G G G G k k k k k k k k G G G G k k k k j j j j j j j j p p i i i i i i i a a 9 : # + + @ & + # ; 4 g a i p p i 5 8 : # # # ; : 4 4 8 8 : ; ; ; ; ; ; ; ; ; # # # # # + $ + @ . . . . . .                                                                                   . . . @ @ @ ",
"&.H j 5 4 4 9 d f p a 8 : ; ; ; # # + . .     . . + ; 0 q 9 4 ; @ . + ; 4 a s p p p i p p p p p p j j j j k k k G k k k k k k k k k k k k k k k j j j j k k k b 4 : 4 i l J H Y $.$.~ ) J p 5 5 i i i p j k k k G k k k k k k k G G G G H H H G H H H H H H H H Y Y Y Y Y Y Y Y Y Y Y Y Y Y Y Y E Y Y E E T O.O.O.O.O.O.O.O.+.+.O.O.O.O.O.O.+.+.+.+.+.+.+.+.+.+.+.+.+.+.O.O.O.O.O.+.+.+.+.+.+.+.O.O.O.O.O.O.O.O.O.+.+.+.+.+.+.O.O.O.O.O.O.O.O.O.O.O.O.O.O.O.O.O.+.+.O.O.+.+.+.O.O.+.+.O.O.O.O.+.+.+.+.+.+.O.O.O.O.O.O.O.O.O.O.O.O.O.O.O.O.O.O.O.O.O.O.T O.T T O.T T O.O.O.O.O.O.T T T T T T T T T T T T T Y T T Y Y Y Y Y Y Y Y H Y Y Y Y H H H Y Y H H H H H H H H H H H H H H H G G G G H G G G G G G H H G G G G G G G J G k J G G k k k k k z k k j k k k k j p p p p p p p i i 5 4 : # @ . @ & @ # ; : g a i p p i 5 7 : ; # # ; : 4 4 4 4 : : ; ; ; ; ; ; ; # # # # # # + $ + @ @ . . . . .                                                                                   . . @ @ @ @ ",
"&.Y j i 4 4 9 f f p i 4 : > ; ; # # + @ . . . . . + ; 0 q 8 4 ; @ . + ; 4 a s p p p i p p p p p p j j k k k k k G G G G k k k k k k k k k k k k j k k k k k z b 5 : 4 i z L Y Y $.$.7.! z i 5 5 p j x z J L K H H H H H H H H H H H H H Y H H H Y Y Y Y Y E E E T O.O.O.O.O.O.T T T T T T T T T O.T T O.O.O.+.+.#.+.+.+.+.=.=.=.+.+.+.+.+.+.+.+.<.;.=.=.;.;.;.=.+.=.=.=.+.+.+.+.=.=.=.=.=.=.=.=.+.+.+.+.;.;.=.=.+.+.=.=.=.=.+.+.+.+.+.+.+.+.+.+.+.+.+.+.+.+.+.+.+.+.+.+.+.+.+.+.=.=.=.=.=.=.=.=.=.=.=.=.=.+.+.+.+.+.+.+.+.+.+.+.+.+.+.+.+.+.+.+.+.O.O.O.O.O.O.O.O.O.+.+.O.+.+.+.O.O.+.O.O.O.O.O.O.O.O.O.O.T T T T T T T T Y Y Y Y Y Y Y H Y Y H H H H H H H H H H H H H H H H H H H G G H H H G G H H H H H H G G G G G G J G k k k k k j j k k z k k k k k k k j p p p p p i i i 5 4 : ; # @ . @ % @ + ; : g a p p p i a 7 : ; # # : : 4 4 4 4 : : ; ; ; ; ; ; ; # # # # # + + % + @ @ . . . .                                                                                     . . @ @ @ % ",
"7.R j i 4 4 5 d f p 5 4 : ; ; ; # ; $ % . = . . . # ; 0 0 8 4 : + . + ; 8 a s p p p p p p p p p j j k k k k k J G G G G G G G G G G G G k k k k j k k k k k J b 5 : 4 i b U R T $.$.7.! k i 5 5 x I ( ( ) ) ! R Q E T W W R R E T T T T T T T T T T T O.@.@.@.@.+.#.;.;.;.;.+.+.%.%.%.%.%.%.%.%.;.<.<.1.1.1.1.1.Z.j.j.j.j.j.j.j.j.:.,.,.j.,.,.j.j.j.,.,.,.j.j.g.j.j.j.j.j.j.j.d.-.-.-.-.d.d.-.-.-.-.,.,.,.,.j.j.j.j.j.j.j.j.g.g.j.,.j.j.j.,.j.j.-.-.,.-.,.,.-.-.j.j.j.j.j.j.j.j.j.:.-.-.:.d.:.-.-.-.-.-.,.-.-.;.=.;.;.;.<.;.;.;.-.-.-.-.,.1.1.1.;.;.;.;.;.;.+.+.;.;.;.=.;.;.>.>.;.>.<.<.>.;.>.>.1.;.+.+.%.+.+.%.+.%.%.O.O.$.$.O.Q Q Q T Y T T Y Y Y H H H H Y H Y Y Y Y H H Y Y H H H H H K P K H H H H H H H G H H G G G G G k j j j p p j j j j j j k k k k k k j p p p i i i i 5 5 4 ; # @ . O = . + # : q i p p p i a 7 4 ; # ; : : 4 4 4 4 : : ; ; ; ; ; > > # # # # # + + + + @ @ @ @ . .                                                                                     . . @ @ @ $ ",
"8.R j i 4 4 5 d p p 5 4 : ; ; # # # # # + @ . . @ # , 8 q 9 4 : + @ # ; 8 a s p j p p p p p p p j k z z k k J J G G G G G G G G G G G G k k k k k k k k k k J b 5 4 5 p I U W T $.$.&._ J p 5 i j J U ! ) ~ E Y T T T T Q Q Q &.O.O.O.O.O.O.O.O.O.O.O.O.+.+.#.+.=.=.-.1.,.;.=.+.=.=.=.=.=.=.=.=.=.=.-.-.-.-.-.-.g.g.g.g.f.f.g.a.a.a.a.g.g.a.g.d.k.g.a.a.g.g.g.g.a.a.a.a.-.-.-.-.d.g.a.g.k.k.g.-.a.-.g.d.j.j.j.j.g.g.j.d.j.g.g.a.g.-.-.d.g.-.-.d.g.j.k.j.j.k.j.-.d.d.a.d.d.d.d.d.k.d.d.d.j.k.d.d.j.j.j.j.j.j.j.j.,.,.1.1.1.1.1.,.,.g.j.j.j.j.j.j.,.1.1.1.1.1.1.;.1.,.,.,.,.j.j.j.,.j.Z.q.1.1.1.1.H.1.>.>.1.<.<.<.<.<.<.<.*.%.+.+.*.*.*.O.O.&.&.Q ~ ~ Q T Q E ~ &.~ &.&.&.&.~ ~ ~ Y Y W W W W W R W W Q ! R ! R K K K H G H K G k z l l l j p j j j j z c L k k k b b x l p p p i 5 5 7 8 ; # @ % O = . @ # : q a i p p i 7 7 : ; ; ; , 8 8 4 4 4 : : : ; ; ; ; > > # # # # # + + + + @ @ @ @ @ .                                                                                     . . @ + $ $ ",
"8.W j i 4 4 5 i f f a 7 : ; ; ; # # ; ; ; # @ . . # , 7 g g 5 : # @ # ; 8 d f p j j j j p j p p p j j k z J J G G G G G G G J U G G G G G k k k k k G G G G K I p i i x L P H W Q W W ! P j p j G G G H H Y Y Y Y Y T T T T T O.O.O.O.+.O.O.O.O.O.O.O.O.O.+.+.+.=.=.=.=.-.=.=.=.=.=.=.=.=.=.=.=.-.-.-.-.-.-.-.a.-.a.a.a.a.a.a.a.a.a.a.a.a.a.a.a.a.a.a.a.a.a.a.-.a.-.-.-.a.a.a.a.-.a.a.a.a.a.a.a.a.-.-.-.-.-.a.a.a.a.-.a.a.-.-.=.-.-.-.-.-.-.-.-.a.a.-.-.-.-.-.-.-.-.-.-.-.-.-.-.-.-.-.-.-.-.-.-.-.-.-.=.=.=.=.=.=.=.=.=.=.=.=.=.=.-.-.-.-.-.=.=.=.+.=.+.+.+.+.+.+.+.=.=.=.=.-.-.-.=.=.-.-.=.=.=.=.+.+.+.+.+.+.+.+.+.+.O.O.O.O.O.+.O.O.O.O.O.O.O.O.T T O.O.T T O.O.O.O.O.O.O.O.O.T T T T T T T Y Y H H H H H H H H H H G G G G J k j z z j j j z k k z z c L L I x x x x f s i 5 5 7 0 : > $ $ & % . . . # 1 q 9 f f f d 9 4 : ; ; ; : 8 8 4 4 7 4 4 : : ; ; : , # # # # # # # # # + + + + @ @ @ .                                                                                   . @ @ + # # ",
"8.W j i 4 4 5 i f f a 7 : ; ; ; # ; : : ; # @ . . # : 7 d a 7 : # + # ; 8 a s p j j j j j j p p j j k k k k k k G G G G G G J K G H H G G G G G k G G G G K K U f i i x L L K W W T Q &.~ H G H Y T T T O.O.O.O.+.+.+.=.=.=.=.=.=.-.-.-.-.-.-.=.-.-.-.-.-.a.a.a.a.a.a.a.a.a.a.a.a.a.a.a.a.a.a.a.a.a.a.a.a.a.s.a.s.s.s.s.l.l.l.l.l.s.l.s.s.s.s.s.l.l.l.s.s.s.s.s.s.a.s.s.a.a.a.a.s.s.l.l.l.l.l.l.s.a.a.s.s.s.s.l.s.s.s.a.a.a.a.a.a.a.a.a.a.a.a.a.a.a.s.a.a.a.a.a.a.a.a.a.s.a.a.f.a.a.a.a.a.a.a.a.a.a.a.a.-.-.-.-.a.a.-.-.-.-.-.-.a.a.a.a.a.a.a.a.-.-.-.-.-.-.-.-.-.-.-.-.-.a.a.a.a.a.a.a.a.a.-.-.-.=.=.=.=.=.=.=.=.+.+.+.+.+.+.+.-.=.=.=.=.=.=.=.=.+.=.=.=.+.=.=.+.+.+.+.+.+.+.+.+.+.+.+.+.+.+.+.T T Y Y Y Y Y Y Y Y Y Y H H H H G G G G k k G G G G G G G G G G k k j j j p p i 5 5 5 4 : ; ; # + + + # ; 4 9 5 i p f d 9 4 : ; ; ; : 8 4 : 4 4 4 4 4 : : ; ; ; ; # # # # # # ; # + + + + @ @ . . .                                                                                 . @ + # # > ",
"8.W j i 4 4 5 d f p a 8 : ; ; ; # ; : : : > + @ . # : 5 a d 7 4 # + # ; 4 a p p j j k j j p j p j j j k k G J G G G G G G G G G G H G G G G G G k G G G G K P ( 5 4 4 a l k G Y T O.+.0.0.%.%.>.,.g.g.g.g.g.h.h.s.l.l.v.v.v.b.b.b.b.b.b.b.b.b.b.b.b.b.b.b._._._._._._.^._.`.^.^./././././.`././.].`.`.`.XXXXXX`. X X X X X X X XXXXX].].].].].].].].].).].].].].].(.(.(.].].].].].].`.`.].].].].].].).`.`.`.].].`.].].].(.(.(.(.(.(.(.(.(.].).].`.`.`.`.`._._._.^.z.^.z.^.z.z.z._._.(.z.^.z.^.(.(.(.(.b.(.b.b.(.b.b.z.z.l.z.b.b.b.z.z.z.z.z.b.c.l.l.l.l.v.l.l.l.l.l.l.l.l.b.b.b.z.b.b.l.l.b.c.s.l.l.l.x.x.l.l.s.x.x.x.x.v.v.v.v.a.s.s.s.a.a.s.s.a.a.a.a.a.a.a.a.a.a.a.a.a.a.f.g.a.a.a.-.a.-.-.-.-.=.=.=.=.=.+.+.=.=.=.+.+.+.+.+.T T T T T T Y Y Y Y Y Y T Y T Y Y H H H H H G G k j j p i i 5 5 : : : 4 4 5 i i i p i i 5 4 : ; ; : : 8 4 4 4 4 4 4 8 8 : : ; ; ; # # # # ; ; ; # # # + + @ @ . . .                                                                                 . @ + # # # ",
"8.W j i 5 4 5 i f p a 4 : ; ; ; # ; : : , ; # @ @ # : 4 i d a 6 # + # ; 4 a p p j k k j j j j p j j j k z J L L G G G G G G G G G G G G G G G G k G G G G K K I 5 : : i s k G Y T +.1.L.W.U.U.Y.Y.Y.-X-X$X$X$X$X$X$X%X%X%X%X%X%X&X&X&X&X&X&X&X&X].].XXXX&X&X&X&X*X&X&X&X&XoXoXoXoXoXoXoX*X*XoXoXoX.X.X.XoXoXoXoX.X.X.XoXoXoX.X.XoXoXXXXXXX X XXX X X X[. X X X X XXX[. X X X X X X X[. X.XoX.X[. X X X X{..X.X.X.X.XoX X X[.XXXXXXXXXXXX X.X.X.X.X.X[.[.[.[.[.[. X X X.XoXoXoXoX[.[.[.[.`.`.`./././././.}.[.[.}.oXXXXXXXXXXX&X&XXXXXXXXXXXXXXXXXXX].].].].].].].].].].].].XXXXXX`.XXXX`.`.].].^.^._.`.].].].`._._.(.(._._.]._._.].%X%X%X%X%X%X;X].;X;X%X%X;X;X'.b.c.b.c.c.c.'.m.-X-X-X-X$X$X$X$XY.V.m.m.m.V.V.n.f.f.f.f.h.f.f.g.g.-.-.-.:.:.-.-.=.=.=.=.=.=.=.=.>.>.>.>.%.%.%.*.O.Q T W K K H J j j p p p j j p p p p i 5 4 : ; : : 8 8 8 4 4 4 4 4 8 4 : : ; ; ; ; ; ; ; ; ; > # # + + + @ . . . . .                                                                               . @ + # # # ",
"8.W j i 5 4 5 d p i a 5 : : ; ; ; ; : : : > # # @ # : 5 i h a 6 # + # ; 4 a p p j k k j j j j j z z k k k k G k k G G G G G G G H H G G G G G G G G G G H H H z 7 , 4 a l z H T O.;.k.Y.:X:XMXMX-X-X-X-X-X-X-X-X;X%X;X;X;X;X&X>X>X>X>X%X%X%X%X&X&X&X&X&X&X&X&X&X&XXXXXXXXXXXXXXXoXoXoXoXoXoXoXoXXXXXXXXXXXXXXXoX X.XoX.X.X.X.X.X.X X.X.XoXoXoX.XoXoXoX.X.XoXoXoX.X.X.XoX.XoXoXoX7X7XoX7X7XuX7X7X7X7X7X7X7X7X7X7X7X7X6XoX7XoXoX.XoX.X.XoX7X7X7X7X7X7X7X7X7X7X7X7X{.{.|..XoXoX7X7XuX7XoXoXoXoXoXoX|.|.|.|.|.|.|.|.{.[.[.[.[.[.{..X[. X XXXXX X X XXXXX XoXoX X X X X[.[. X X X X X*XoXoX,X,XXXXXXXXX X X XXXXXXXXXXX X XXXXXXXXX`./.`.`.`.`.`.XXXX`.XXXX`.`.XXXX`.].].].].].].].%X%X%X].'.].'.'.'.'.(.(.(._._.b.b.'.'.'.m.c.c.c.c.'._.b.'.'.'.$X'.m.m.m.b.b.b.b.m.n.G.G.G.n.G.G.D.k.A.j.Z.Z.q.q.0.y.e.} { { { U k j p p i 5 4 ; ; : : 0 8 8 4 4 4 7 4 4 : : : : ; ; ; ; ; ; ; ; > # # + + @ + @ . . . .                                                                             . . @ # # # # ",
"8.W j i 5 4 5 d p i a 5 4 : : ; ; ; : 4 : , > # + ; 4 5 i f a 7 # + # : 4 a p j j z z k j j j j l j j k k k G k G G G G G G G G K H H H H K K H G G G G H H H z 5 : 4 a l k H T O.=.d.k.f.n.v.n.f.f.f.f.x.x.x.x.x.x.x.x.x.z.c.c.c.m.c.x.c.c.c.c.b.c.b.b.b.b.b.b.c.c.c.c.b.b.b.z.(._._._.`.`.`._.(.'.].'.(.(.].].].].).].].].].].XXXXXXXXXXXXXXXXXXXXXXXXXXXXXXXX XXXoXXXoXoXoXoX*XoXoXoX*X*X*XoXuXuXoXoXoXoXuXuXpXoXoXoX*X,XoXXXXXXXXXoX*X*XpXuXpXpXpXpXpXpXpXpXpXfXfXfXfXgXgXDXfXfXdXdXdXdXdXpXfXaXaXqXqXqXqX@XqXpXpXpXsXsXsXfXdXdXdXZXZXdXdXdXdXdXdXdXdXdXdXdXdXdXdXdXdXfXdXdXpXXX&X,X<X+X].>X,X,X*X&X*X,X,X<X<X,X,X>X<X,X,X>X<X<X<X<X<X<X<XdX<X<X<X<X<X<XdX<X;X;X;X;X;X>X;X;X>X>X>X>X;X;X;X;X>X>X>X;X;X;X;X;X;X;X;X-X-X-X-X-X].].].].>X>X>X;X;X;X;X;X;X;X;X;X$XF.-X-X-X-X-X-X-XV.F.I.U.U.U.L.P.Q.Q.Q.Q.Q./ G k j p i 5 4 ; # ; 8 8 8 4 4 5 5 7 5 4 : : : : : : : : : : : : ; ; ; # + $ @ @ @ . . . .                                                                           . . + $ > ; # ",
"8.T k i 5 4 5 i p p i 5 4 : : : ; ; : 4 8 : ; # # ; 4 5 i f a 4 # + # : 7 a f j j k k k j j j j j j j k k J J G k G G G G G G G H H H H K K H H G G G H K K K L 5 4 5 s z G H Y T O.+.=.=.=.=.=.=.=.=.=.=.=.=.=.=.-.-.-.-.-.-.-.-.-.-.-.-.-.-.-.-.-.-.-.-.-.-.-.-.-.-.-.-.a.a.a.a.a.a.a.s.s.s.a.a.-.a.a.-.a.a.a.a.a.a.a.a.a.a.a.s.l.l.l.l.l.l.l.l.l.l.l.l.l.l.l.l.l.z.l.z.z.z.z.z.z.z.z.z.z.z.z.z.z.z.z.z.z.z.z.z.z.z.z.z.z.l.z.l.l.l.l.z.z.z.z.^.^.z.z.^.z.z.z.z.z.z.z.z.z.z.(.(.(.(.(.(.(.(.(.].).).(.(.(.(.(.z.^.^.c.^.^.z.z.c.c.(.'.'.(.(.(.z.z.b.b.b.(._.'.(.c.b.c.b.c.(.c.'.'.m.'.'.m.m.c.OX'.'.'.'.'.'.-X'.'.c.c.m.m.m.m.'.m.m.'.'.$X'.'.'.c.c.'.'.'.'.'.V.V.V.V.V.V.V.V.v.v.v.n.n.n.n.x.m.x.m.x.m.x.x.x.V.B.V.B.B.B.B.B.n.m.m.V.V.V.V.V.B.I.B.B.B.B.M.M.j.j.M.M.M.M.k.k.M.N.j.N.H.H.i.i.i.i.u.t.t.y.! k j p i i 5 : ; # ; 8 8 8 4 4 5 5 7 5 4 4 : : : : : : : : : : : ; ; ; ; $ $ + @ @ . . . .                                                                           . @ + $ > > ; ",
"8.T k i 5 4 5 i p p i 5 4 : : : ; : 4 4 8 : > > # ; 4 i p f i 4 # # # : 7 h l j k k k k j j j j j j j k k k k k G G G G G G G H G G G H H H H G H G H H ! ! ! I i 5 i v I J H Y T O.+.+.+.+.+.+.O.O.O.O.O.O.+.+.+.+.+.+.+.+.+.+.+.O.O.+.+.+.=.=.+.+.+.+.+.+.+.+.+.+.+.+.+.+.=.=.=.=.=.-.-.-.-.-.=.+.+.=.=.=.=.=.=.=.-.-.-.-.-.-.-.a.a.a.a.a.a.a.a.a.a.a.a.a.a.a.a.a.a.a.a.a.a.a.a.a.s.s.a.a.s.s.a.a.a.a.a.a.a.a.a.a.a.a.a.-.a.a.-.-.-.a.a.a.a.a.a.a.a.a.a.a.a.a.a.a.a.a.a.a.a.a.a.a.a.a.a.a.a.a.a.a.a.a.a.a.a.s.a.a.f.f.f.a.a.a.a.a.a.a.a.a.a.a.a.a.a.a.a.a.a.a.a.a.a.a.a.a.a.a.a.a.a.-.-.a.a.-.a.a.-.-.-.-.-.-.a.a.-.-.-.a.-.-.a.-.-.-.a.a.a.a.a.-.a.a.a.a.a.f.-.-.-.-.-.-.-.-.-.-.-.-.-.=.-.-.-.-.-.-.-.-.-.-.-.=.=.=.=.=.=.=.-.:.:.:.-.=.=.:.;.=.=.+.+.+.+.+.O.O.+.+.+.+.+.O.O.O.O.O.@.@.@.@.O.O.T Y H K k j j p i 5 8 : ; # : 8 q 8 4 5 7 5 5 5 4 4 8 4 : : : : 4 4 8 : : ; ; ; ; $ $ $ @ @ . . . . .                                                                         . @ + < > > > ",
"$.Y j i 5 7 i i p p i 5 4 4 : : : : 4 4 8 8 : > # ; 5 i p x s 4 # # ; : 9 a l j z k k k k k j j j j k j k J G k G G G G G G G G H H G H H H H H G H H H H ! ! ] i 5 i x I L H H Y Y Y T O.O.O.O.O.O.O.O.O.O.O.O.O.O.+.+.+.+.+.+.O.O.O.O.O.+.O.O.O.O.O.O.O.O.O.+.O.O.O.O.+.+.+.+.+.+.=.=.=.=.=.=.+.+.+.+.+.+.=.=.=.+.+.+.+.+.=.=.=.=.=.=.=.=.=.=.=.=.=.=.=.=.=.=.-.-.-.=.=.-.-.=.-.-.-.-.-.-.-.=.=.=.=.=.=.-.-.=.=.=.=.=.=.+.+.+.+.+.+.=.=.=.=.=.-.=.=.=.=.=.=.=.=.=.=.=.=.=.=.=.=.=.=.=.=.=.=.=.=.-.-.-.-.-.-.-.=.=.=.=.=.=.=.=.=.=.=.=.=.=.=.=.=.=.=.=.=.=.=.=.-.-.=.=.=.=.=.+.=.+.+.+.+.+.+.+.=.+.+.+.+.+.+.+.+.+.+.+.+.+.+.+.+.+.+.+.+.+.+.+.+.+.+.O.+.+.+.+.O.O.+.O.O.O.O.O.O.O.O.O.O.O.O.O.+.+.O.O.O.O.O.O.O.O.O.O.O.O.O.T T T O.T T T T T Y Y Y Y Y Y Y Y Y Y Y Y Y H H H Y H H H H G G G H H H G G k j p i i 5 9 0 1 # # : 0 q q 4 5 5 5 5 5 5 4 4 8 4 4 : 4 4 : : 4 : : : ; ; > # # + + @ @ . . .                                                                         . . + # ; ; ; ",
"$.Y k i 5 7 d p p p i 5 4 4 4 : : : 4 9 4 4 ; ; ; : 7 s p p s 5 ; # ; : 9 a j j k k k k k j j j j k k k k J G G G G G G H G G G H H H H H H H H H H H H H R R U i 5 i x C I L H Y Y Y Y T Q E T T T T T T O.O.O.O.O.O.O.O.O.O.O.O.O.O.O.O.O.O.O.O.O.O.O.O.O.O.O.$.O.O.O.O.O.O.O.O.+.+.+.=.=.+.+.+.+.O.O.+.+.+.+.+.+.+.+.+.+.=.+.+.+.+.+.+.+.+.+.+.+.+.+.+.+.+.;.=.=.=.=.=.=.=.=.=.=.=.;.;.;.=.=.+.=.;.+.=.;.=.+.+.+.+.+.+.+.+.+.O.O.+.+.+.+.+.+.=.+.+.+.+.+.+.+.+.+.=.;.;.+.+.+.+.+.+.+.+.+.+.+.=.=.=.+.+.+.;.;.+.+.+.+.+.+.+.+.+.+.+.+.+.+.+.+.+.+.+.+.=.=.=.;.;.;.=.+.+.+.+.+.+.O.O.O.O.O.O.O.+.+.+.O.O.O.O.O.O.O.O.O.O.O.O.O.T T T T T T T T T T T T T O.O.O.T T O.T T T T T T T T T T T T T T T T T T T T T Y Y Y Y Y Y Y Y Y Y Y Y Y Y Y Y H H H H H H H H H H H H H H H G H G G k k k k k G G k k j p p i i a 9 q 0 3 & # ; 8 q 7 5 5 5 5 5 5 5 5 4 4 4 4 4 4 4 4 4 4 4 : : ; ; ; # # # + + @ . . .                                                                         . @ + # ; ; ; ",
"$.Y k i 5 7 a p j p p i 5 8 4 : : : 4 9 9 4 : ; ; : d f p p s 5 ; # ; : 5 a j j k k k k k j j j j k k k k J G G G G H H H H H H H H H H H Y H H H H H H H H H J 5 4 5 d V C I L W Y W W T Q Q Q Q T T T Q Q O.T T O.O.O.O.O.O.O.$.$.$.O.$.%.%.%.O.O.O.O.$.T T T $.T T T T $.$.$.O.O.O.+.+.+.+.+.%.$.$.O.+.+.+.+.+.+.+.+.+.+.+.+.+.+.+.=.+.+.+.+.+.+.+.+.+.+.=.=.=.=.=.=.=.=.=.+.+.+.+.=.;.;.;.+.+.;.;.;.;.;.;.=.+.+.+.+.+.+.+.+.O.O.+.+.+.+.+.;.=.+.+.+.+.+.+.+.+.+.;.;.;.+.+.+.+.+.+.+.#.;.;.+.+.+.+.+.+.+.%.%.+.%.%.%.%.%.%.+.+.+.+.+.+.+.+.+.+.+.+.>.>.>.<.<.+.+.+.+.+.+.+.O.+.+.O.O.O.O.+.+.O.O.O.O.O.O.O.O.T T T O.T T T T T T T T T T T T T T T T E T T T T T T T T T T T T Y Y Y Y W W Y T T T T Q Q Q W Y Y Y Y W W H H Y Y W Y Y Y Y H Y Y Y H H H H H H H H H H H H G G G G k k k c k j j j p p i i 5 5 9 8 8 3 < @ + ; 4 q 7 5 5 5 5 5 5 5 5 5 4 4 4 4 4 4 4 4 4 4 : : : ; ; ; # # + + @ . . .                                                                       . . + # ; > ; ; ",
"$.Y k i 5 7 a p j j p i 5 4 4 4 4 4 9 5 5 4 : : : 4 a f p p f 5 ; # ; : 5 i j j k G G k k k k k k k k k G G G G G H H H H H H H H H H H Y R R R H Y H H H H H J 5 4 4 d v V b L P H H W W Q Q ~ W Y Y W T T T T T T T $.$.$.O.O.$.T T T $.$.$.$.T T T T T T T T Q T T Y T T T T $.$.$.O.O.$.O.O.$.$.$.O.$.$.$.O.O.O.+.+.%.+.+.+.=.=.=.=.=.=.=.=.=.+.=.=.=.=.=.=.=.=.=.=.=.=.=.+.+.+.+.+.=.;.+.+.=.=.=.;.=.=.=.=.=.=.+.+.+.+.+.+.+.+.+.+.+.+.=.=.=.=.=.=.;.;.;.+.>.=.=.+.+.+.=.=.+.+.+.;.>.<.;.;.+.+.+.=.+.+.+.%.+.+.+.%.%.%.$.+.+.+.+.+.+.+.+.+.+.+.>.>.>.<.<.<.+.+.O.O.O.O.O.O.O.O.O.O.+.+.+.+.O.O.O.O.O.O.O.$.T T $.T T T T T T T T T Q Q Q E Q E ~ T T T Y Y Y Y Y Y W W Q Q W Y Y Y W W W Y W T W Q Q Q W W Y W W W W ! W H Y Y W W W Y H H H H H H H H H H G G G G G G G G G k k k x x x x f s a a a a 5 5 5 9 4 : ; + @ @ ; 4 7 7 5 5 5 5 5 5 5 5 5 7 9 8 4 4 4 4 4 4 4 : : : : ; ; ; # # + + @ . . .                                                                     . . @ $ ; > ; ; ",
"@.Y k i 5 7 a p p p p i 5 4 4 4 4 4 9 5 5 4 : : : 4 i p j l f 5 ; # ; : 5 i j j k G G G k k z k k k k k G G G H H H H H H H H H H H H H Y Y W W Y Y Y H H H H J 5 4 4 a h x x k G G H H Y Y W W H H H H H H Y Y Y Y T T T T T T T T T T T T T Y T T Y Y T T T T W Y Y Y Y T T T T T T T O.O.O.O.T T T T $.$.$.O.O.O.O.O.+.+.+.+.=.=.=.=.=.=.=.=.-.=.-.=.-.=.=.=.=.=.=.=.=.=.=.+.+.+.+.+.+.+.+.+.=.=.=.=.=.=.-.-.-.=.=.=.+.+.=.=.+.+.+.+.=.=.=.=.=.=.=.=.=.=.=.=.-.=.=.=.=.=.=.=.=.=.=.=.=.=.=.+.+.+.=.=.=.=.+.+.+.+.+.+.+.+.+.+.+.+.+.+.=.+.+.+.+.+.%.%.%.%.%.+.+.O.O.O.O.O.O.O.O.O.O.O.O.O.O.O.O.O.O.O.O.O.O.$.T T O.T T T T T T T T T T T Q Q ~ ~ ~ ~ ~ E T T W W W W W W Q ~ ! Y W W ! ! ! W Y Y Y W W W W Y H H H H Y Y H H K K K K K J G G G G G G G J G J k k k k k k k k j j p p p s d d i 5 5 5 7 7 a 7 5 9 4 : ; # @ @ ; 4 8 7 5 5 5 5 i 5 5 5 5 9 9 4 4 4 4 4 4 4 4 : : : : : ; ; ; # + + @ . . .                                                                     . . @ $ ; ; ; : ",
"*.Y k i 5 7 a p p p p i 5 4 4 4 4 4 5 5 5 4 : : 4 4 i p j v s 4 ; # ; : 5 s j j k G G G k k k k k k k G G G H H H H H H H H H H H H H H H H Y Y Y Y Y H H H K J i 5 5 a f j j k k G G G G G H H H H H H H Y Y Y Y T T T T T $.O.O.O.O.O.O.T T T T T T Y T T T T T Y Y Y Y T T T T T T T T T T T T T T O.O.O.O.O.+.+.+.+.+.+.+.+.-.-.-.-.-.-.-.-.-.-.-.-.-.-.-.-.-.-.=.=.=.=.=.=.=.=.+.+.+.+.+.+.=.=.=.-.-.-.-.-.-.-.-.=.=.=.=.=.=.=.=.=.=.-.-.-.-.-.-.-.-.-.-.=.=.-.-.-.-.-.-.=.-.-.-.-.-.-.-.=.+.+.=.=.=.=.+.+.+.+.+.+.+.+.+.+.+.+.+.+.+.+.+.O.O.O.O.O.O.O.O.O.O.O.T T T T T T T T O.O.O.O.O.O.O.O.O.O.O.O.O.T T T T T T T T T T T T T T T T T Y Y Y Y Y Y Y Y H H H H H H H K H H H H H H H H H H Y Y Y Y H H H H G G H H H G G G G G G G G G k k k k G G G G k k k k k k k j j p p i i i 5 5 4 4 4 4 5 5 5 5 5 9 4 : ; + . @ ; 4 4 7 5 i 5 5 a i 5 5 5 5 4 4 4 4 4 4 4 4 4 4 : : : : ; ; ; # # + @ . . .                                                                     . . + # ; ; : : ",
"*.E k i 5 5 a p j p p i 5 4 4 4 : 4 5 5 5 4 4 : : 4 i j j x s 5 ; # ; : 5 s j j k G G G k k k k k k k G K H H H H H H H H H H H H H H H H H Y Y Y Y Y H H H H G j p l v b k k k k G G G G G G G H Y Y E E E E O.$.O.O.O.+.+.%.+.;.+.+.+.+.+.+.+.O.O.O.O.O.O.O.O.O.O.O.O.O.O.O.O.O.O.O.O.O.O.O.O.O.+.+.+.+.+.+.+.;.;.;.=.=.=.=.=.:.-.-.-.-.d.j.j.-.-.-.-.-.-.g.:.:.:.=.=.=.=.=.=.=.=.+.+.+.+.+.+.=.=.-.g.g.g.g.g.j.g.-.-.-.-.-.-.=.=.-.-.-.-.-.-.a.-.-.-.-.-.-.-.-.a.g.j.k.g.-.-.g.-.-.-.g.g.g.-.=.=.=.=.=.=.=.=.=.=.+.+.=.=.=.+.+.+.+.+.+.+.O.O.O.O.O.T T T T T T T T T T T Y Y T T T O.O.O.O.O.O.O.O.O.O.O.O.T O.O.O.O.O.O.$.$.T T T T T T Y Y Y Y H H H H H G G G G G G G G G G G G k G G G G H H H H H H H H H G G G G H H H H H G G G G H H H H H H H H H H H G G G G G G G k j j p i i 5 5 5 4 4 4 5 5 i i 5 5 4 : ; + . @ ; 4 4 5 5 i i i a i 5 5 5 5 4 4 4 : 4 4 4 4 4 4 : : : : : ; ; ; # @ @ . . .                                                                     . . @ # # ; : : ",
"*.T k p i i i p j p p a 7 7 9 4 4 4 5 5 5 5 4 4 4 5 p j j l s 5 ; # ; 4 5 f j k J G G G G k k k J G G K P K H R Y Y Y Y Y Y Y Y H H H H H H Y Y Y Y Y H H H H G J z I ^ U L G G k G H K K H G H Y Y Y E E &.@.O.O.O.+.+.+.+.;.;.;.+.+.+.+.+.+.+.+.+.+.+.+.+.#.#.+.+.+.+.+.%.+.+.+.+.+.#.*.#.+.+.;.;.>.<.<.<.;.=.1.1.;.;.=.=.-.-.-.-.-.-.-.-.:.d.-.-.-.-.-.:.j.j.:.:.-.=.=.=.=.=.:.=.=.=.=.=.=.=.-.-.-.g.k.g.h.f.k.k.g.-.-.-.-.d.-.-.d.j.j.d.g.a.g.g.g.g.d.j.j.d.g.f.h.k.k.k.j.g.g.a.a.a.a.g.g.g.d.:.-.-.-.:.d.j.-.-.-.=.-.-.-.;.:.;.;.;.;.=.+.+.O.O.O.O.O.O.O.O.O.O.O.O.O.O.O.O.O.O.O.+.+.+.+.+.+.#.;.<.;.;.*.+.+.+.+.+.+.+.%.%.O.O.O.O.O.T T T @.E E Y Y H H H H H H H H H H H H G G G G G G G Y Y Y Y Y Y Y Y Y H H H H H R R R Y Y H H H Y Y E E R R R R W W R R R R R K K K G k j j p p i i i 5 5 5 5 i i i i i i 5 : ; # # : 4 5 5 5 i i i i i 5 5 5 5 9 5 4 4 4 4 5 4 : 4 : : : : : : : ; # + @ @ . .                                                                       . @ + # ; : : ",
"u.T k p i i p p p p p a 5 5 5 5 4 4 5 5 7 7 7 5 5 5 p j j l v i : ; : 4 i j j k G G G G G k k k k k G G H H H H Y Y Y Y Y Y Y Y Y Y Y Y Y Y Y Y Y H H H H H H G H K K K K K R Y H Y W Y Y H R R Y Y T T T T T T T O.O.O.O.O.O.O.O.O.O.O.O.O.O.O.O.O.O.+.+.+.+.+.O.O.O.O.O.O.O.O.O.O.O.O.O.O.O.O.O.O.O.O.+.+.+.O.+.+.+.+.+.+.=.=.=.+.+.=.=.=.=.-.-.=.=.=.=.=.-.-.-.=.-.-.-.-.-.-.-.-.-.-.-.-.-.-.-.a.a.a.a.a.a.a.a.a.a.a.a.-.-.-.-.-.-.-.-.-.a.a.a.-.-.-.a.a.a.a.a.a.a.a.a.a.a.a.f.a.a.a.a.a.a.a.a.a.a.-.a.a.a.a.a.-.-.-.-.-.-.:.=.=.=.=.-.-.=.=.=.=.=.=.=.=.=.=.;.;.=.=.=.=.=.=.1.-.-.-.,.,.-.-.;.=.=.;.1.1.1.;.;.;.;.;.,.,.,.<.+.+.+.+.+.+.+.+.+.#.#.+.O.O.O.O.O.O.O.T @.@.@.@.T E T E E T Y Y T O.@.E E E E E E Y Y Y Y Y Y Y E E T T Y Y T E W Y Y R R ~ ~ E R R R R R R K K G G G J G k k j z x l v v v l l j x x x f a 7 7 5 i a a a a a a 5 5 5 5 5 5 9 5 4 4 5 7 4 4 4 8 4 : : : : : : ; # + + @ . .                                                                     . . + # ; : : : ",
"8.T k p i s f p p p s a 7 5 5 5 5 5 5 5 5 5 5 5 i i j l j l v i : ; : 4 p l k k G H H G G k k k k k G G H H H H Y Y Y Y Y Y Y Y Y Y Y Y Y Y W E Y Y H H H H H H H H R R Y Y Y Y H Y Y Y Y Y Y Y T T T T T T T T T T O.O.O.O.O.O.O.O.O.O.O.O.O.O.O.O.O.O.+.+.+.O.O.O.O.O.O.O.O.O.O.O.O.O.O.O.O.O.O.O.O.O.O.O.O.O.+.O.O.+.+.+.+.+.+.+.+.=.=.=.=.=.=.=.=.=.=.=.-.-.-.-.-.-.-.-.-.-.-.-.-.-.-.-.a.a.a.a.a.a.a.a.a.a.a.a.a.a.a.a.a.a.-.a.a.a.a.a.a.a.a.a.-.-.a.a.a.a.a.a.a.a.a.a.f.f.f.f.s.a.a.a.a.a.a.a.a.a.a.a.a.a.a.a.a.a.-.-.-.-.-.-.-.-.-.-.-.=.-.-.-.-.-.-.-.-.-.-.=.-.-.-.-.-.-.a.a.a.a.g.g.-.-.=.=.=.-.-.-.=.-.-.-.-.-.-.-.-.;.+.+.+.+.=.=.=.=.;.;.+.+.+.+.O.+.+.+.+.+.+.+.O.O.O.O.O.O.O.T T O.O.O.O.T T T T T E T T Y Y Y T T T T T T T T Y Y Y Y Y Y Y Y Y Y Y Y Y Y H H H H G G G G G k k J z k j l l l l j c c x x p p i i i i a a a a i 5 5 5 5 5 5 5 5 4 5 7 5 4 4 4 8 4 4 : : : : : ; # # + @ . .                                                                     . @ # # , : : : ",
"*.E G j p s s l p p f d 7 5 5 5 5 5 5 4 5 5 5 5 i p j c l b l i : : : 5 s x k k G G G G G k k k k k G G H H H Y Y Y Y Y Y Y Y Y Y Y Y Y Y Y W E R Y H H H H H H H H Y Y Y Y Y Y Y Y Y Y Y Y Y W T T T T O.O.O.T O.O.O.O.O.O.O.O.O.O.O.O.O.O.O.O.O.O.O.O.O.+.+.O.O.O.O.O.O.O.O.O.O.O.O.O.O.O.O.O.O.+.+.+.O.O.O.O.+.+.+.+.+.+.+.+.+.+.+.=.=.=.=.-.-.-.-.-.-.-.-.-.-.-.-.-.-.-.-.-.-.-.-.-.a.a.a.a.a.a.a.a.a.a.a.a.a.a.a.a.a.a.a.a.a.a.a.a.a.a.a.a.a.-.-.a.a.a.a.a.a.a.a.a.a.f.f.f.s.s.a.a.a.a.a.a.a.a.a.a.a.a.a.a.a.a.a.a.a.-.-.a.-.-.-.-.-.-.-.-.-.-.-.-.-.-.-.-.-.-.=.-.-.-.-.-.-.-.a.a.a.a.a.a.-.=.=.=.=.=.=.-.-.-.-.-.-.-.-.=.=.+.+.+.=.=.=.=.=.;.;.=.+.+.+.+.+.+.+.+.+.+.+.+.+.+.+.+.O.O.O.O.#.O.O.O.O.O.O.T T E T T Y Y Y Y T T T T T T T Y Y Y Y Y Y Y Y H Y Y Y Y H H H H G G G G G G G G J G k k j j j j j k z z x l p p i i a a a a i i 5 5 5 5 5 5 5 4 4 5 5 5 4 4 4 4 8 4 : 4 : : : : ; # + @ . .                                                                     . @ # # , : : : ",
"$.E G j p s f l p p f d 7 5 5 5 5 5 5 5 5 5 5 i i p j c z b z i : ; : 5 a l k k G G G G G k k k k G G G H H R W Y Y Y Y Y Y Y Y T T Y Y Y Y Y Y W Y H H H H H H H H H H Y Y Y Y Y T T T T W T T T T T T O.O.O.$.O.O.O.O.O.O.O.O.O.O.O.O.O.O.O.+.O.O.O.O.O.+.+.+.+.+.+.+.+.+.O.O.O.O.O.O.O.O.O.O.+.+.;.+.+.O.+.+.+.+.+.+.;.;.;.+.+.+.+.=.=.=.=.-.-.-.-.-.-.-.-.-.-.-.-.-.-.-.a.-.-.-.-.a.a.a.a.a.a.a.a.a.a.a.a.a.a.a.a.a.a.a.a.a.a.a.a.a.a.a.a.a.a.a.a.a.a.a.a.-.a.a.a.a.a.a.f.f.s.a.a.a.a.a.a.a.a.a.a.a.a.a.a.a.a.a.a.a.a.a.a.a.-.-.-.-.a.-.a.-.-.-.-.-.-.-.-.-.-.-.-.-.-.-.-.-.-.-.a.a.g.a.a.-.-.-.-.-.=.=.=.-.-.-.-.-.-.-.-.=.=.+.+.+.=.=.=.=.=.;.=.=.=.=.=.+.=.=.=.=.;.=.+.+.+.+.+.+.+.O.O.O.+.O.O.O.O.@.O.O.O.T T T T Y Y T T T T Q Q T T T T Y Y Y Y Y Y Y Y Y Y Y H H H H G G G H H H H H G G k k k k j j k k k z l l f p i i a a a i i i i 5 5 5 5 5 5 5 5 5 5 5 4 4 4 4 4 4 4 8 8 8 : : ; # # @ . .                                                                     . @ + # ; : : : ",
"%.T G j p i p p p p f d a 5 5 5 5 5 5 5 5 5 5 i i p j z z b z p : ; : 4 a l k k G G H G G k k k G G G H H H Y W Y Y T T T T T T T T Y Y Y Y Y Y Y Y H H H H H H G H H H H Y Y Y Y T T T T T T T T T T T O.O.O.O.O.O.O.O.O.O.O.O.O.O.O.O.O.O.+.+.+.O.+.+.+.+.+.+.+.+.+.+.+.+.+.O.O.O.O.O.O.O.O.O.+.+.;.;.+.+.+.+.+.+.+.=.;.;.;.=.=.=.=.-.-.-.-.-.-.-.-.-.-.-.-.-.-.-.-.-.a.a.g.a.a.a.a.a.a.a.a.a.a.a.a.a.a.a.a.a.a.a.a.a.a.a.a.a.-.a.a.a.a.a.d.d.a.a.a.a.a.a.a.a.-.-.a.a.a.a.a.a.a.a.a.a.a.a.a.a.a.a.a.a.a.a.a.a.a.a.a.a.a.a.a.a.-.-.a.-.a.-.a.a.a.a.a.a.a.a.a.a.-.-.-.-.-.-.-.-.-.-.-.-.-.a.a.-.=.-.,.,.-.=.=.=.=.-.-.-.-.-.-.=.=.=.=.=.=.=.-.-.=.-.-.=.=.;.;.=.=.=.=.;.;.=.=.+.=.=.+.+.+.+.+.+.+.O.O.O.O.@.@.@.O.T T T T T T T T T O.O.O.T T T T Y Y Y Y Y Y Y Y Y Y Y H H H H H H H H H H H H H H G G k k k k k k k k z l p p i i i i i i i i i 5 5 5 5 5 5 5 5 4 5 4 4 4 4 4 4 : : : 8 8 : : > # # @ . .                                                                     . . + # ; : : : ",
"*.T G j p i p p p p f a 7 5 5 5 i 5 5 5 5 5 i i p p k c z L b p : ; : 5 a v z k G G H G G k k k G G H H H R Y W T T T T T T Q Q T Y Y Y Y Y Y Y Y Y Y H Y H H H G G H H H Y Y T T T T T Q Q T T T T T $.O.O.O.O.O.O.O.O.O.O.O.O.+.O.O.O.O.O.+.+.+.+.+.+.+.+.+.+.+.+.O.+.+.+.+.O.O.O.O.O.+.O.O.+.+.+.+.+.+.+.+.+.=.+.+.=.=.=.=.=.=.=.=.-.-.-.-.-.-.-.a.a.a.-.-.-.-.-.-.-.-.g.a.a.a.a.a.a.a.a.a.s.a.a.a.a.a.a.a.a.a.a.a.a.a.a.a.a.-.-.a.a.a.a.a.a.a.a.a.a.a.a.a.a.-.-.a.a.a.a.a.a.a.a.a.a.a.a.a.a.a.a.a.a.a.a.s.f.a.a.a.a.a.a.a.a.a.a.a.a.-.-.a.a.a.a.a.a.a.a.a.a.a.a.-.-.-.-.-.-.-.-.-.-.-.-.-.-.=.-.-.-.-.=.=.=.=.=.-.-.-.-.-.=.=.=.=.=.-.-.-.-.-.-.-.=.=.-.-.=.=.=.=.=.=.=.=.+.=.=.=.=.+.+.+.+.O.O.O.O.O.O.@.@.O.T T T T T T T T T T O.T T T T Y Y Y Y Y Y T Y Y Y Y Y H H H H W W R Y H H H H Y H H G k k k k k k k k k j p p i i i i i i i i i i 5 5 5 5 5 5 5 5 5 5 5 4 4 4 4 4 4 : 4 : : : ; # # + . .                             X                                       . @ + # , : 8 4 ",
"0.T G j p s s p p p p i 5 5 5 i i i i 5 i a i p p j z L J L b p : ; : 4 a l z k G G H G G k k k G H H H R Y Y Y W T T T T E T T T T Y Y Y Y Y Y Y Y Y Y W Y Y H G H H H H Y Y T Q T O.O.$.$.O.T T T T O.O.O.O.O.O.O.O.O.O.O.O.O.+.+.+.O.O.+.+.+.+.+.+.+.+.+.+.+.+.+.+.+.+.+.+.+.+.+.+.+.+.+.+.+.+.+.+.+.+.+.+.=.;.=.=.=.+.=.=.=.=.=.=.-.-.-.-.a.a.a.a.a.a.a.-.-.-.-.-.-.a.a.a.a.a.a.a.a.a.a.a.a.a.a.a.a.a.a.a.a.a.a.a.a.a.a.a.a.a.a.a.a.a.a.a.a.a.a.a.a.-.-.a.a.-.-.a.a.a.a.a.a.a.a.a.a.a.a.a.a.a.a.a.a.a.a.s.s.a.a.a.a.a.a.a.a.a.a.a.a.a.a.a.a.a.a.a.a.a.a.a.a.a.a.a.-.a.a.-.-.-.a.g.-.-.-.-.-.-.=.=.=.=.=.=.=.=.=.-.-.-.-.-.-.-.=.=.-.-.-.-.-.-.-.-.-.-.-.-.=.=.=.=.=.=.=.=.=.=.=.=.+.+.+.+.+.O.O.O.O.O.O.O.@.T T T T T T T T T $.T T T T T T T Y Y Y T T T T Y H Y Y Y Y Y Y W W Y Y Y Y Y Y Y Y H G G G G k G G G k k j p p i i p p p i i i i i i 5 i i i 5 5 5 5 5 5 5 5 4 4 4 4 : : : : : ; # # + . .   .                                                                 . @ + # ; : 4 4 ",
"0.$.G j s s s p p p p i 5 5 i i i i i i i i s p j j L I L L J p : ; ; 4 i l k k G G H G G G k G G H H H R Y Y Y Y Y Y Y Y Y T Y Q E T T Y Y Y Y Y Y Y W T W Y H H H H H Y Y E Q T T T T O.T T T O.O.O.O.O.O.O.O.O.O.O.+.+.+.O.O.+.+.+.O.O.+.+.+.O.O.O.+.+.+.+.+.+.+.+.+.+.+.+.+.+.+.+.+.+.+.+.+.+.+.+.+.;.;.=.=.<.;.=.=.=.=.=.=.=.=.-.-.g.-.-.a.a.a.a.a.a.a.a.-.-.-.-.-.-.a.a.a.a.a.a.a.a.s.s.s.a.a.a.a.a.a.a.a.a.a.a.a.a.a.a.a.a.a.a.a.a.a.a.a.a.a.a.a.-.-.a.a.a.a.a.a.a.a.a.a.a.a.a.a.a.a.a.a.a.a.a.a.a.a.s.s.a.a.a.a.a.a.a.a.a.a.a.a.a.a.a.a.a.a.a.a.a.a.a.a.a.a.a.-.-.-.-.-.-.-.g.-.-.-.-.-.,.-.=.=.=.=.-.-.=.=.-.-.-.-.-.-.=.=.-.-.-.-.-.-.-.-.-.-.-.-.-.=.=.=.=.=.=.=.=.=.=.+.+.+.+.+.+.+.O.+.+.+.O.O.O.O.T T T T T T Q Q $.$.$.$.O.T T T T T T T T T T Y Y Y Y Y Y Y Y Y Y Y Y Y Y W W Y T Y H H G G G G G G G J k j j p p i p p p p i i i i i i i a i i 5 5 5 5 5 5 5 5 4 4 4 : 4 : : : ; # # + . . . .                                                                 . @ # # ; : : : ",
"0.&.G p p i i p p p i i 5 5 i p p i i i i a p p p k k J L L k p 4 ; : 4 i p j k G G G G G G G G K H H H Y Y Y W Y T T T T Y Y Y Y Y Y Y T T Y Y Y Y Y Y T W Y Y H H H H Y Y T T Q T T T T T T T O.O.O.O.O.O.+.O.+.+.+.+.+.+.+.+.+.+.+.+.+.#.;.+.+.+.+.+.+.=.;.;.+.+.+.+.+.+.+.+.+.+.+.+.+.+.+.+.+.+.=.=.+.=.=.;.;.=.=.=.=.=.=.=.=.-.-.-.-.-.-.a.a.a.a.a.a.a.a.a.-.-.-.-.a.a.a.a.a.a.a.a.a.s.s.s.a.a.a.a.a.a.a.a.a.a.a.a.a.a.a.a.a.a.a.a.a.a.a.a.a.a.a.a.a.a.a.-.a.a.a.a.a.a.a.a.a.a.a.a.a.a.a.a.a.a.a.a.a.a.s.a.a.a.a.a.a.a.a.-.a.a.a.a.a.a.a.a.a.a.a.a.a.a.a.a.a.a.-.-.a.a.a.-.j.g.-.-.-.-.-.=.=.=.=.=.=.=.=.=.-.-.-.-.-.-.-.-.-.-.-.-.-.-.a.-.-.-.-.-.-.-.=.=.=.=.=.=.+.+.+.+.+.+.+.+.+.+.+.+.O.O.O.O.T T T O.T T T O.O.T T T T T T T T T T T T T T T T T T Y Y Y Y Y Y Y Y Y Y T W Y Y W T T T T Y H H G G G K J G G z k j p p p p p p p p i i i i i i 5 i i i 5 5 5 5 5 4 4 4 4 4 : : : : ; ; # # + @ % .                       X                                           . + # ; ; : 4 4 ",
"0.&.G p p a p f p p i i 5 5 i p p i i i i s p p j k k J L L k p 4 ; : 4 i p k G G H H H G G G G H H H H Y Y Y Y Y Y Y Y Y Y Y Y Y Y Y T T T Y Y Y Y Y T T T T Y H H H Y Y Y T T T T T T $.$.T O.O.O.O.O.O.+.+.+.+.+.+.+.+.=.+.+.+.O.O.O.+.+.+.+.+.+.+.+.+.+.+.+.+.+.+.+.+.+.=.=.=.=.+.+.+.+.+.+.+.=.=.=.=.=.;.-.=.=.=.=.=.=.=.=.-.-.-.-.-.a.a.a.a.a.a.a.a.a.a.a.a.-.a.a.a.a.a.a.a.a.a.a.s.s.s.s.a.a.a.a.a.a.a.a.a.a.a.a.a.a.a.a.f.f.f.f.a.a.a.a.a.a.a.a.a.a.a.a.a.a.a.a.a.a.a.a.a.a.a.f.a.a.a.a.a.a.a.a.a.s.s.a.a.a.a.a.a.a.a.a.a.a.a.a.a.a.a.a.a.a.a.a.a.a.a.a.f.a.a.a.g.g.g.-.-.-.-.-.-.-.-.=.=.=.=.=.=.-.=.=.-.-.-.-.-.-.-.-.-.-.-.-.-.-.-.-.-.-.-.-.-.-.=.=.=.+.+.+.+.+.+.+.+.+.+.O.O.O.O.O.+.O.O.O.O.O.O.T T T T T T T T T T T T T T T T T T T T T T T Y Y Y Y Y Y Y Y Y Y Y W Y Y Y W T Y Y Y H H G G G G K G G G k k j j p p p p p p p p i i i i i i i i a a i 5 i 5 5 5 4 4 4 4 4 : : ; > # # + @ . .                       X                                           . @ # ; : : 4 4 ",
"0.$.G j p s p l p p i 5 5 5 i p p i i i i p p p j k G G J J k p 4 ; : 5 i j k G G H H H H G G H H H H Y Y Y Y Y Y Y Y Y Y Y Y Y Y Y T T T T Y Y T Y T T Q Q T W H H Y Y Y Y T T T T T $.O.O.$.O.O.O.O.O.O.+.+.+.+.+.+.+.=.;.=.=.+.O.+.+.+.+.+.+.+.+.+.+.+.+.+.+.+.+.+.+.=.=.;.;.;.;.;.;.=.=.=.+.=.=.=.=.=.=.;.-.=.=.=.=.-.-.-.=.-.-.-.-.a.a.a.a.a.a.a.a.a.a.a.a.a.a.a.a.a.a.a.f.a.a.s.s.s.s.s.a.a.a.a.a.a.a.a.a.a.a.a.a.a.a.a.a.f.f.f.f.a.a.a.a.a.a.a.a.a.a.a.a.a.a.a.a.a.a.a.a.a.a.a.a.a.a.a.a.a.a.a.a.a.a.s.a.a.a.a.a.a.a.a.a.a.a.a.-.a.a.a.a.g.a.g.a.a.a.a.g.g.g.a.a.g.g.g.-.-.-.-.-.-.-.-.-.-.-.=.-.-.-.-.-.-.-.-.-.-.-.-.-.-.=.=.=.-.-.-.-.-.-.-.-.-.-.=.=.+.+.+.+.+.+.+.+.O.O.O.O.O.O.O.O.+.O.O.O.O.O.O.T T T T T T T T T T T T T T T T T T T T T T T T T Y Y Y Y Y Y Y Y Y Y Y Y Y Y W Y Y Y H H G G G G G G G G k k j j p p p p p p p p p i i i i s i i a i 5 5 i a 5 4 4 4 4 4 4 4 4 : ; # + + @ . .                                                                   . @ # # : : : 4 ",
"w.*.H j s s p l p i i i i i p f p i i i i p p p j k J J J J k p : ; : 5 s j k G G H Y H H G G K H H Y W W W T Y Y Y Y Y Y T T T Y Y T T T T T Y Y Y T T Q Q T T Y Y Y Y Y Y T T T T O.O.O.O.O.O.O.O.O.O.O.O.+.+.+.+.+.+.=.;.=.+.+.+.+.+.+.+.+.+.+.+.+.+.=.=.=.=.+.+.+.+.+.=.=.=.=.=.;.;.;.=.=.=.=.=.=.=.=.=.=.=.=.=.=.=.-.-.-.-.-.-.-.-.a.a.a.f.a.a.a.a.a.a.a.a.a.a.a.a.a.a.a.f.s.s.s.s.s.s.s.a.a.a.a.a.a.f.a.f.a.a.a.a.a.a.a.a.a.a.a.a.a.a.a.a.a.a.a.a.a.a.a.a.a.a.a.a.a.a.a.a.a.a.a.a.a.a.a.a.a.a.a.a.a.a.a.a.a.a.a.a.a.a.a.a.-.-.-.-.-.-.-.-.g.g.g.-.-.-.g.g.g.g.-.-.a.-.-.-.-.-.-.-.-.-.-.-.-.=.-.-.-.-.-.=.,.-.-.-.-.-.-.=.=.=.=.=.=.-.-.-.-.-.-.-.-.=.=.=.+.+.+.+.+.+.+.+.+.O.O.O.O.O.O.O.O.O.O.O.O.O.O.O.T T T T T T T T T Y T T T T T T Y T T T T T T T Y Y Y Y Y Y Y Y Y Y Y H Y Y Y H Y H H G G G G G G G G G k k j j j j j p p p p p p p i i p i i i a i 5 5 a a 5 5 5 5 4 4 4 4 4 : ; # + @ @ . .                                                                   . @ # ; : : : : ",
"w.*.H j p s p f p i i 5 i a f f p i i i i p p p j k J J J J k p : ; : 5 p j k G G H Y Y H G H K H Y Y W W Y T T T T T T T T T T T T T T T T T T Y Y Y T Q Q T E Y Y Y Y T T T T O.O.$.O.O.O.T T O.O.O.O.+.+.+.+.+.+.+.=.=.=.=.=.+.+.+.+.+.=.=.=.=.=.=.=.;.;.=.=.+.+.+.+.=.=.=.=.=.=.=.=.=.=.=.=.=.=.=.=.=.=.=.=.=.=.=.-.-.-.-.-.-.-.-.-.a.a.a.a.a.a.a.a.a.a.a.a.a.a.a.a.a.a.s.s.s.s.s.s.s.s.s.s.a.a.a.a.a.f.f.f.a.a.a.a.a.a.a.a.a.a.a.a.a.a.a.a.a.a.a.a.a.a.a.a.a.a.a.a.a.a.a.a.a.a.a.a.a.a.a.a.a.a.a.a.a.a.a.a.a.a.a.a.a.-.a.-.-.-.-.-.-.-.-.-.-.-.-.-.-.-.-.-.-.-.-.-.-.-.-.=.-.=.-.-.=.=.=.=.-.=.=.=.-.-.=.=.-.-.-.-.-.-.-.=.=.=.=.=.=.-.-.-.-.=.-.=.=.=.=.=.+.+.+.+.+.+.+.+.O.O.O.O.O.O.O.T O.O.O.O.T T O.O.T T T T T T Y Y T Y T T T T T T Y Y Y T T T T T Y Y Y Y Y Y Y Y H Y Y H Y Y Y H H H H G G k k k k k k k k j j j j j j p p p p p p p p p i i i i s i i i a a a 5 4 4 4 4 4 4 4 : ; # + + @ . .                                                                   . @ # ; : : : : ",
"w.*.H j p s i f p p i 5 i f f p p i i i i p p p j k J J L L k p : ; : 5 f j G G H Y Y Y H H H H H Y Y Y Y T T T T T T T T T T T T T T T T T T T T Y Y T T Q T T Y Y Y T T T T T $.O.$.$.O.O.T T O.O.+.+.+.+.+.+.+.+.+.+.=.=.=.+.+.+.+.+.+.+.+.+.=.+.+.=.=.=.=.=.+.+.=.=.=.=.=.=.=.=.=.=.=.=.=.=.-.=.=.=.=.=.-.=.=.=.-.-.-.-.-.-.-.-.-.-.a.a.a.a.a.a.a.a.a.a.a.a.a.a.a.a.a.s.s.s.s.s.s.s.s.s.s.s.a.a.a.a.a.a.a.a.a.a.a.a.a.a.a.a.a.a.a.a.a.a.f.f.a.a.a.a.f.f.a.a.a.a.a.a.a.a.a.a.a.a.a.a.f.f.f.a.a.a.a.f.a.f.f.f.a.a.a.a.a.-.-.-.-.-.=.=.=.=.=.-.-.-.-.=.=.=.=.-.-.-.-.-.-.-.=.=.=.-.-.-.=.=.=.=.=.=.=.=.-.-.=.=.-.-.-.-.-.-.=.=.=.=.=.=.=.-.=.=.-.=.=.=.=.=.=.=.+.+.+.+.+.+.+.+.O.O.O.O.O.O.T T T O.O.T T T T O.T T T T T T Y Y W W T T T E T T Y Y Y T T T T Y Y Y Y Y Y Y Y Y H Y Y Y Y Y Y H H G G G k k k k k G G k k j j j j j j p p p p p p p f p i i p s i i 5 5 5 5 5 5 5 5 4 4 4 4 4 4 ; # + + @ . .                                               X                   . + # > , : : 4 ",
"q.%.H j p s p f p p i 5 i h f p p i i i i s p p j k J J L L G p 4 : 4 a v z G H Y Y Y Y W Y K H H Y Y Y Y Y T T T T T T T T Y T T E T E T T T T T T T T T T T T Y Y E E T T T T O.T O.T T T T T +.+.+.+.;.+.+.+.=.+.=.=.=.=.=.+.+.+.+.+.+.+.+.+.+.+.+.+.=.=.=.=.=.=.=.=.=.=.=.=.=.=.=.=.=.=.=.=.-.-.=.=.-.-.-.=.-.-.-.-.-.-.-.-.-.-.-.-.a.a.a.a.a.a.a.a.a.a.a.a.a.a.a.a.s.s.s.f.s.s.s.s.s.s.s.s.s.a.a.a.a.a.a.a.a.a.a.a.a.a.a.a.a.a.a.a.a.a.a.a.a.a.a.a.a.a.a.a.a.a.a.a.a.a.a.a.a.a.a.a.s.f.s.a.a.a.a.a.a.a.f.f.a.a.a.a.-.-.-.-.-.=.=.=.=.=.=.=.=.=.=.=.=.=.=.=.=.=.-.-.-.=.=.=.=.-.:.-.-.=.=.=.=.=.=.=.-.-.=.=.=.=.-.-.-.-.=.=.=.=.=.=.;.;.=.=.=.=.=.=.=.=.=.=.+.+.+.+.+.+.+.+.+.O.+.O.O.O.O.O.O.T T T T T T T T T T T E Y Y Y Y Y Y Y Y Y Y Y Y Y Y Y Y T T Y Y Y Y Y Y Y Y Y Y Y R Y Y R R H G G G k k k k k k k z z k j j j j j j j p p p p p p p p p p p s 5 i i 5 5 5 5 5 7 5 5 4 7 7 5 4 ; # # + @ @ .                                                                   . + # > : 4 4 4 ",
"<.$.G p p s p v p p i 5 i h f p p i i i i s p p j k J J L L J j 4 : 4 a v b J K R Y Y Y W W R Y Y Y Y Y T T T T T T T T T T Y Y Y T T T T T T T T T T T Q Q T T T Y E E T T T T T T T T T T T T +.O.+.+.+.+.+.+.+.=.+.=.=.=.=.=.+.+.+.+.+.+.=.+.+.+.+.+.=.=.=.=.=.=.=.=.=.=.=.=.=.=.=.=.=.=.-.-.-.=.=.=.=.=.=.=.-.-.-.-.-.-.-.-.-.-.-.-.a.a.a.a.a.a.a.a.a.a.a.a.a.a.a.a.s.s.f.f.a.a.a.a.s.s.s.s.s.s.a.a.a.a.a.a.a.a.a.a.a.a.a.a.a.a.a.a.a.a.a.a.a.a.a.a.a.a.a.a.a.a.a.a.a.a.a.a.a.a.a.a.a.f.a.a.a.a.a.a.-.a.a.f.a.a.a.-.-.=.=.=.=.=.=.=.=.=.=.=.=.=.=.=.=.=.=.=.=.=.=.-.=.=.=.=.=.=.-.-.=.=.=.=.=.=.=.-.-.-.=.=.=.=.=.-.-.-.=.=.+.+.=.=.;.;.=.=.;.=.=.=.=.=.+.+.=.=.=.+.+.+.+.+.+.+.+.+.+.+.O.O.O.T T T T O.T T T O.Q Q E E Y Y Y Y Y Y Y Y Y Y Y Y Y Y Y Y T Y Y Y Y Y Y Y Y Y Y R W Y R R R H G G k k k k k k k J J z k j j j p j j j j j j p p p p p p f s i 5 a a i 5 5 5 a 5 4 4 4 5 7 4 : ; # + + + @ . .                                             X                   . + # > : 8 4 4 ",
"u.@.G j p s f j j p i i i a p p f p i i a i p p j k G H U U z p 4 : 4 a v J J H H Y Y Y Y Y Y Y Y Y Y Y T T T T T T T T T T T E T T T T T T T T T T O.O.O.O.T T Y Y Y Y T T T T Q T T T T O.O.O.O.+.+.+.+.+.+.+.+.+.+.+.+.=.=.=.+.+.+.+.+.+.=.=.=.=.=.=.=.=.+.+.=.=.=.=.=.=.=.=.=.=.=.=.=.=.=.=.-.-.=.=.=.=.=.=.-.-.-.-.-.-.-.-.-.-.-.-.a.a.a.a.a.a.a.s.a.a.a.a.s.a.a.a.a.a.a.s.s.s.s.s.s.s.s.a.a.a.a.a.a.a.a.a.g.a.a.a.g.s.a.a.a.-.-.-.-.-.a.a.a.a.f.f.f.a.a.a.a.a.a.a.a.a.g.a.a.a.a.a.a.a.a.-.-.-.-.-.-.-.a.a.g.g.g.a.-.=.#.#.=.+.=.=.=.=.=.=.=.=.+.+.=.=.=.=.=.=.=.=.=.=.=.=.=.=.=.-.-.=.=.;.=.=.=.=.=.=.=.=.=.=.=.=.=.=.=.=.=.+.+.+.+.=.=.=.=.=.=.+.+.+.+.+.+.+.+.+.+.+.+.+.O.O.O.O.O.O.O.O.T T T T T T T T T T T T T T Y T T T T Y T T T T T T Y Y Y Y Y Y Y Y Y Y Y Y H H H H H Y R K H H G G G G k k J J J G G k z z j p p j j j j j j j j l l p p p i 5 5 5 5 5 5 5 5 5 5 5 5 7 7 7 4 : ; # # + + @ . .                                                                 . @ # ; : 4 6 7 ",
"u.E k j p s l l k j p i i a s p p p i i i i i p j k H H P U k p 4 : 4 a v z G H H H Y Y Y Y Y Y Y Y Y Y T T T T T T T T T T Q Q T T T T T T O.O.O.O.T O.O.O.T T Y Y Y Y Y Y Y Y Q T T T O.O.O.O.O.O.+.+.+.+.+.+.+.+.+.+.+.=.=.=.=.=.+.+.+.=.=.=.=.=.=.=.=.=.=.=.=.=.=.=.=.=.=.=.=.=.=.=.=.=.=.=.-.-.=.=.=.=.-.-.-.-.=.-.-.-.-.-.-.-.-.-.a.a.a.a.a.a.a.a.s.s.s.l.s.a.a.a.a.s.s.s.l.s.s.s.s.s.s.s.s.a.a.a.a.a.a.a.a.a.a.a.a.a.a.a.a.-.-.-.-.-.a.a.a.a.a.a.a.a.a.a.s.s.a.a.a.-.-.-.a.a.a.a.a.a.a.-.-.a.-.-.-.a.a.a.s.s.g.a.-.=.;.6.=.=.=.=.-.=.=.;.=.+.+.+.=.=.=.=.=.=.=.=.=.=.=.=.=.=.=.=.-.=.=.=.=.=.=.=.-.-.;.=.=.=.=.=.=.;.=.=.=.+.+.+.+.+.+.+.+.+.+.+.+.+.+.+.+.+.+.+.+.+.+.+.O.+.O.O.O.O.O.O.T T O.O.O.O.O.O.O.O.O.T T T T E T T T T T T T T T T Y Y Y Y Y Y Y Y Y Y H H H H H H H H H H H H H H G G G G J J G G G k z z j p j j j j z z k j p j p i i i i 5 5 7 5 5 5 5 5 5 5 5 5 5 7 7 4 4 ; # # + + @ @ . .                                                               . + # ; : : 4 4 ",
"4.T G j p f x c c j p i i a s p p p i i i 5 i p j k H P P U k p 4 : 4 i l z G G H H H H Y Y Y Y Y Y Y Y T T T T T T T T T Q O.O.T T T T T T O.O.$.O.T T T T T T Y Y Y Y Y Y Y Y Q T T T O.O.+.+.+.+.+.+.+.+.+.+.+.+.+.+.=.=.=.=.=.=.=.=.=.=.=.=.=.=.=.=.=.=.=.=.=.=.=.=.=.=.=.=.=.=.=.=.=.=.=.=.;.-.-.-.-.-.-.-.-.-.=.-.-.-.-.-.-.-.-.-.a.-.a.a.a.a.a.a.s.s.l.x.s.s.a.a.a.a.s.s.l.s.s.s.l.s.s.s.s.a.f.f.f.f.a.a.a.a.a.a.a.a.a.a.-.-.-.-.a.a.a.a.a.a.a.a.a.a.a.a.l.l.s.a.a.a.-.-.-.a.a.a.a.a.a.a.a.a.a.a.a.a.a.a.g.g.a.a.-.-.:.:.=.=.=.-.-.-.=.-.=.=.+.+.=.=.=.=.=.=.=.=.=.=.=.=.=.=.=.=.=.=.=.;.=.=.=.=.=.=.=.=.=.=.=.=.;.;.=.=.+.+.+.+.+.+.+.+.+.+.+.+.+.+.+.+.+.+.+.+.+.+.+.+.O.O.O.O.O.O.O.O.O.O.O.O.O.O.O.O.O.O.O.T T T T E T T T T T Q T T T Y Y Y Y Y Y Y Y Y Y Y Y Y H H Y H H H H H H H H H G G G G G J G G G G J z j j j j j j z z l j p j p i i i i 5 5 5 7 a 5 i 5 5 5 5 5 5 7 4 4 : ; # # + + + @ . .                                                               @ + # ; : : 4 4 ",
"<.E G j p s c c J k j i i i p p p p p i 5 5 i p j k H P P U J p 4 : 4 i l k k G H H H H H H Y Y Y Y Y Y W T T T T T T T $.O.O.O.T T T T T T O.$.O.$.O.T O.T T T Y Y Y Y Y T Y T T T T O.O.+.+.+.+.+.+.+.+.+.+.+.+.+.+.+.=.=.=.=.=.=.=.=.=.=.=.=.=.=.=.=.=.=.=.=.=.=.=.=.=.=.=.=.=.=.=.=.=.=.=.=.-.-.-.-.-.-.-.-.-.-.-.-.-.-.-.-.-.-.-.-.-.a.a.a.a.a.a.a.s.s.l.x.s.a.a.a.a.a.a.s.l.s.s.s.l.l.s.s.f.f.f.f.f.f.a.a.a.a.a.a.a.g.g.a.-.-.-.-.a.a.a.a.f.f.a.a.a.a.f.a.l.l.l.s.a.a.-.-.-.-.-.a.a.g.s.a.a.a.a.a.a.a.a.g.a.a.a.a.-.-.-.:.=.=.=.-.-.-.-.=.=.=.+.=.=.=.=.=.=.=.=.=.=.=.=.=.=.=.=.=.=.=.=.;.=.+.+.+.=.=.=.=.=.=.=.=.;.;.=.=.+.+.+.+.+.+.+.+.+.+.=.=.=.+.+.+.+.+.+.+.+.+.+.+.O.O.O.O.O.O.O.O.T T O.O.O.O.O.O.T T T T T T Y T T T T T T Q T T T T Y Y E T Y Y W W W Y Y Y H H Y H H H H H H H H H H G G G J K K H H J J z k j j j j j z l j j j j p i i i i i 5 7 a a i i 5 5 i 5 5 5 4 4 4 : ; # # + + + @ . . .                                                             . + # ; : : 4 4 ",
"<.E G j p l c c G k j p i i p p p p p i i i p j k G H P U U J p 4 : 4 i l z k G G H H H H H H H H H Y Y Y T T T T T T T O.$.O.O.T T T T T O.O.O.O.$.O.T O.O.T T Y Y Y Y T T E E T T T O.O.+.+.+.+.+.+.=.=.+.=.+.=.=.=.=.=.=.=.=.=.=.=.=.=.=.;.;.=.=.=.=.=.=.=.=.=.=.=.=.=.-.=.=.=.=.=.=.=.=.=.=.-.-.-.-.-.-.-.-.-.-.-.-.-.-.a.-.-.-.a.a.a.a.a.a.a.a.a.s.s.s.l.l.s.s.s.a.a.s.s.l.s.s.s.s.l.l.l.s.f.f.f.f.f.f.a.a.a.a.a.a.a.g.g.a.a.a.a.a.a.a.a.a.f.f.f.a.a.a.f.f.s.s.s.s.a.a.g.a.-.-.,.,.j.g.g.g.a.a.a.a.a.a.d.g.-.-.-.g.g.a.a.a.=.=.=.-.-.-.-.=.=.=.=.=.=.=.-.-.-.=.=.=.=.=.=.=.=.=.=.=.=.=.=.;.=.=.=.=.=.=.;.;.=.=.=.=.;.=.=.=.+.+.+.+.+.+.+.+.+.+.+.+.+.+.+.+.+.+.+.+.+.+.O.+.O.O.O.O.O.O.O.T T T T O.O.O.O.O.T T T T T T Y T Y Y Y T T T T T Y Y Y T T E T W W W W W Y Y Y Y H H H H H H H H R Y H G G G K K K K K K J k k j j j j j l l j j j p p p i i i i i i i i i i 5 5 a i 5 4 4 4 : : ; # # + + + @ @ . .                                                             . @ # ; : 4 4 4 ",
"4.T G j j l c c G k j p i i p p p p p i i i p j k G H P U U J p 4 : 4 i l z k G G G G G G H H H H H Y Y Y T T T T O.O.O.O.O.O.O.$.Q O.T O.O.O.O.O.O.O.O.$.$.O.T T Y Y T T T E T T T O.O.+.+.+.;.+.+.=.=.=.=.=.=.=.=.=.=.=.=.=.=.=.=.;.;.;.;.;.;.=.=.=.=.=.=.=.=.=.=.=.=.-.-.-.=.-.=.=.=.=.=.=.=.-.-.-.-.-.-.-.-.-.-.-.-.-.-.a.-.-.-.a.a.a.a.a.a.a.a.a.s.s.s.s.l.x.x.f.f.s.s.x.x.s.s.s.s.l.l.l.s.s.s.s.s.f.f.a.a.a.a.a.a.a.a.a.a.g.d.d.d.a.a.a.a.a.a.a.a.a.a.f.f.d.d.f.s.s.s.h.g.,.,.1.1.1.1.,.-.a.a.a.a.-.-.=.;.;.<.1.,.j.g.g.a.=.=.=.=.-.-.-.-.=.=.=.=.=.=.-.-.=.=.=.=.=.=.=.=.=.=.+.=.=.=.=.=.=.=.=.=.=.=.=.=.=.=.=.=.=.=.=.=.+.+.+.+.+.+.+.+.O.+.+.+.+.+.+.+.+.+.O.O.O.O.O.O.O.O.O.O.O.O.O.O.T O.O.O.O.O.O.O.T O.T T T T T E Y Y Y Y T T Y Y Y Y Y Y T T W Y Y Y Y Y Y Y H H H H H H H H H H R R H H H G K ! H H H H G k k j j j j l l l l j p p p p i i i i i i i i i i i 5 i 5 5 4 4 4 4 : ; # # # # + + . . .                                                           . . + # ; : 4 4 4 ",
"5.O.G j j j k k G k j j p p p p f p i i i i p p k G H P P U k p 4 : 4 i f l z J G G G G G G H H H H Y Y Y T T T T O.O.O.O.O.O.O.O.T O.O.O.O.O.O.O.O.O.O.O.O.O.T T T T E E E T T T O.O.+.+.+.+.=.+.=.=.;.;.=.=.=.=.=.=.=.=.=.-.=.=.-.-.-.-.-.;.=.=.=.=.=.=.=.=.=.=.=.=.=.-.-.-.=.-.-.=.=.=.=.=.=.-.-.-.-.-.-.-.-.-.-.-.-.-.-.-.-.a.a.a.a.a.a.a.a.a.a.a.s.s.l.l.l.x.x.l.s.s.l.x.l.l.s.s.l.l.x.l.l.l.s.s.a.s.s.a.a.a.a.a.a.a.a.a.a.a.a.a.a.a.a.a.a.a.a.a.a.a.a.a.a.d.:.d.f.s.l.h.g.j.>.*.*.*.@.#.;.d.a.a.-.=.;.#.#.@.@.@.*.;.>.,.,.;.:.:.-.-.-.-.-.=.=.=.=.=.-.-.-.=.=.=.=.=.=.=.=.=.=.+.=.=.=.+.=.=.=.=.=.=.=.=.=.=.=.=.=.=.=.=.+.+.+.+.+.+.+.+.+.+.+.+.+.O.O.O.+.+.+.+.+.O.O.O.O.O.O.O.O.O.O.O.O.T T O.O.O.$.$.$.O.O.T T T T T T Y Y Y Y Y Y Y Y Y Y Y Y Y Y Y Y Y Y Y Y Y Y Y Y H H H H Y ! Y H W R Y H H H H H H H H H G G k k j j j j l j j p p p p p p i i i i i i i i i i i 5 5 5 4 4 4 : : > # # # # + @ . . .                                                           . . + # ; : 4 4 5 ",
"i.O.G k j j k k G G k j p p j j l p i i i i p p j G H H P L k p 4 : 4 i f l z J G G G G G G H H Y Y Y Y T T T T O.O.O.O.O.O.O.O.O.T O.O.O.O.+.+.O.O.O.O.O.O.O.T Y Y T T T T T T T O.O.+.+.+.=.=.=.=.=.;.;.=.=.=.-.=.=.=.-.-.-.-.-.-.-.-.-.-.=.=.=.=.=.=.=.=.=.=.=.=.=.=.-.-.-.=.-.-.-.=.-.-.-.-.-.-.-.-.-.-.-.-.-.-.-.-.-.-.-.-.a.a.a.a.a.a.a.a.a.a.s.s.l.l.l.x.l.s.s.a.s.s.s.s.l.s.s.l.x.x.x.x.l.s.a.s.a.s.a.a.s.s.s.s.a.a.f.f.a.a.a.a.a.a.a.a.a.a.a.a.f.a.f.a.d.:.d.f.h.h.g.Z.0.*.Q E E Y T +.d.f.a.-.;.*.7.} R R R E &.&.*.>.;.:.:.-.-.a.a.-.-.-.=.=.=.-.-.-.=.=.-.=.=.=.=.=.=.=.=.=.=.=.+.=.=.=.=.;.;.;.=.=.=.=.=.=.=.=.=.+.+.O.O.O.+.+.+.+.+.+.+.+.+.+.+.+.+.+.+.+.+.+.+.+.O.O.O.O.O.O.T T T T T T T O.O.T T T T T T Y Y T Y Y Y Y Y Y Y Y Y Y Y Y W Y Y H Y Y Y Y Y Y Y Y H H H H ! ! ! R H Y Y H H G G G H H H H K G k z j j j j j j p p p p p f f i i p p p p p p i i i i 5 5 4 4 : : ; > > # # # + @ . . . .                                                         . @ # ; : : 4 5 5 ",
"1.O.H k j j k G G k k j j l j p p p s i 5 i p p j k H ! P U J p 4 : 4 5 p l z k G G G G G H H H Y Y Y Y Y Q T T O.O.O.O.O.O.O.O.O.O.O.O.O.O.+.+.+.O.O.O.O.O.O.O.T T T Q T T T T O.O.O.O.+.+.=.=.=.=.=.=.=.=.=.=.=.=.-.-.-.-.-.=.-.=.=.=.-.-.-.-.-.-.-.-.-.-.-.-.-.-.-.-.-.-.-.-.-.-.=.=.=.=.-.-.-.-.-.-.-.a.-.-.-.-.-.a.g.g.a.a.a.a.a.a.f.f.a.a.s.s.s.l.l.l.l.l.s.s.s.s.s.s.s.s.s.l.l.l.l.l.l.x.s.s.a.a.a.a.s.s.s.a.a.s.a.f.a.a.a.a.a.a.a.a.a.a.a.a.a.a.a.a.a.a.d.d.d.j.j.1.q.0.&.Y G G G G E 4.d.k.H.i.r.! G k j j j j k G W y.4.=.=.-.g.a.-.-.-.-.-.-.-.-.-.-.-.-.-.=.=.=.-.=.=.=.=.=.=.=.=.=.=.=.=.=.;.-.;.=.=.=.=.=.=.=.=.=.=.+.+.+.+.+.+.+.+.+.+.+.+.+.+.+.O.O.O.O.O.O.O.O.O.O.O.O.T T T T T T T T T T O.O.T T T Q Q E E Y Y Y Y Y Y Y Y Y Y H H Y Y H H H H H H H H H H H H H H H H G H H Y Y Y H H H H H R K H K K G k k j j j p p p p p p p p p p p p p p p p f p i i i a i 5 4 4 : : ; > ; # # # + @ . . . .                                                       . . @ + # ; : 4 5 5 ",
"<.O.G k j j k G G G k j j j j p p p i i 5 i p p j k H P P K J p 4 : 4 5 p l z k G k k G G H H H Y Y Y Y T Q $.T O.O.O.O.O.+.+.O.O.O.O.O.O.O.+.+.+.O.O.O.O.O.O.O.T T T O.O.T T T O.O.O.+.+.+.=.=.=.=.=.=.=.=.=.=.=.=.-.-.-.-.-.-.-.=.=.=.-.-.-.-.=.=.=.=.=.=.=.=.=.=.=.=.=.=.=.-.-.-.=.=.=.=.=.-.-.-.-.-.-.-.-.-.-.-.-.-.a.a.a.a.-.a.a.a.a.a.a.a.s.s.l.l.l.l.l.l.s.s.s.s.s.a.s.s.s.s.s.s.s.s.l.l.l.l.s.s.a.s.s.s.s.a.a.a.s.a.a.a.a.a.a.a.a.a.a.a.a.f.f.a.f.f.s.f.f.a.g.,.<.*.T H k k k G H Y O.<.-.Z.q.9.! k p p p j j j j j c { 2.=.=.-.g.a.a.a.g.-.-.-.g.g.g.a.-.-.-.-.-.-.-.=.-.=.=.=.-.;.=.=.=.=.=.=.=.=.=.=.=.=.=.=.=.=.=.=.;.;.+.+.+.+.+.+.+.+.+.+.+.+.+.+.+.+.+.O.O.O.O.O.O.O.O.O.T T T T T T T T T T $.O.T T T Q T E Y Y Y Y Y Y Y Y Y Y Y Y H Y Y H H H H H H H H H H H H H H H H H H H H H H H H G G G H H H H G k k j j j p p p p p p p p p p p p p p p p p f p i i i i 5 5 4 4 : : : > ; # # # + + @ . . .                                                       . . @ # ; : 8 5 7 5 ",
"<.O.H k j j k L G G k j p p j p p p i i 5 i p p j k H P K J G p 4 : 4 5 f l z k k k k G H H H Y Y Y Y Y T T $.O.O.O.+.+.+.+.O.O.O.O.O.O.O.+.+.+.+.+.O.O.O.O.O.O.T T O.O.O.O.T O.O.O.O.+.+.+.+.+.=.=.=.=.=.=.=.=.=.=.-.-.-.-.-.-.-.-.-.-.-.-.-.-.-.-.-.-.=.=.-.-.=.=.=.=.=.=.-.-.-.=.=.=.=.=.=.-.-.-.-.-.-.a.-.-.-.-.-.-.a.a.a.a.a.a.a.a.a.a.a.a.s.s.s.l.l.l.l.l.s.s.s.s.s.s.s.s.s.s.s.s.s.s.l.l.l.l.s.s.s.s.l.s.s.s.s.a.a.s.a.a.a.a.a.a.a.s.f.f.x.x.f.f.f.f.f.x.s.s.,.<.e./ j i i j J R E #.;.:.-.1.*.W k p i p b ^ I k p 5 5 x &.=.=.-.a.a.a.a.a.a.-.-.a.d.a.a.-.-.-.-.-.-.-.-.-.-.-.-.-.-.-.=.=.=.=.=.=.=.=.=.=.=.=.=.=.=.=.=.;.;.;.=.=.=.;.;.+.+.+.+.+.+.+.+.+.+.+.O.O.O.+.+.O.O.$.O.T T T T T T T T T T T T T T T T T T Y Y Y Y Y Y Y Y Y Y Y Y Y Y Y H H H H H H H H H H H H H H H G G G G H H H H G G G G H H H G G k j j j p p p p p p p p p p p p p p p p p p p p p i i 5 5 4 4 8 : : ; ; ; # # # + + @ . . .                                                       . . @ # ; : 8 7 a a ",
"1.O.H k j z c L G G k j p p j p p p i i i a p j j k H P H J G p 4 : 4 5 f v z z k k k G H H Y Y Y Y T T T O.O.O.O.O.+.+.+.+.O.O.O.O.O.O.O.O.+.+.+.+.O.O.O.O.O.O.O.O.O.O.O.O.O.O.O.O.O.+.+.+.+.+.=.+.=.=.=.=.=.=.-.=.=.=.-.-.-.-.-.-.-.-.-.-.-.-.-.-.-.-.-.-.-.-.=.=.=.-.-.-.-.-.-.-.-.=.-.-.-.-.-.-.-.-.-.a.a.-.-.-.-.-.a.a.a.a.a.a.a.a.a.a.a.s.s.s.l.l.l.l.l.l.s.s.s.s.l.s.s.s.l.l.l.l.l.l.l.v.l.l.s.s.a.s.s.l.l.s.a.a.a.a.s.s.a.a.a.a.a.s.f.x.f.f.s.s.s.s.s.f.h.g.<.&.U j 5 4 p b { e.<.1.j.-.-.<.Q k p 5 f [ | | } U z i : i T =.-.g.a.a.a.f.a.a.-.-.-.a.a.a.a.a.a.a.a.-.-.-.-.-.-.-.-.-.-.=.=.=.=.=.=.=.=.=.=.=.=.=.=.=.=.=.=.+.=.+.=.+.=.=.+.+.+.+.=.=.=.+.+.+.O.O.O.O.O.O.O.O.$.O.T T T T T T T T T T T T T T T T T T Y Y Y Y Y Y Y Y Y Y Y Y Y Y H H H H G G H G H H H G H G G G G G G G H H G G G G G G H G G G G k j j j j p p p p p i p p p p p p p p p p p p p i i i 5 5 4 4 : : : ; > ; # # # + + @ . . .                                                       . . @ # ; : 4 5 5 i ",
"4.O.H k j j z L G G j j j j j j p p i i i i p j k k H P K J G p 4 : 4 5 p l z z k k G G H Y W W Y T T T T O.O.O.O.O.O.O.O.+.O.O.+.O.+.O.O.O.+.+.+.+.O.O.O.O.O.O.O.O.O.O.+.O.O.O.O.O.O.+.+.+.+.+.+.+.+.+.=.=.=.=.-.=.=.=.-.-.-.-.-.-.-.-.-.-.-.-.-.-.-.-.-.-.-.-.=.=.=.-.-.-.-.-.-.-.=.=.=.=.-.-.-.a.a.-.-.a.a.-.a.a.a.a.a.a.a.a.a.a.a.a.a.a.a.s.s.s.l.l.l.l.z.l.s.s.l.l.l.l.s.s.l.l.l.l.l.l.l.l.l.l.s.s.s.s.s.l.l.l.a.a.s.s.s.s.s.s.s.s.s.s.f.f.s.s.a.a.a.a.a.s.g.1.&.G i 4 4 i b { 7.<.,.j.f.-.-.<.! p 5 9 S ..| e.7.e.{ f : 5 T =.j.j.g.g.s.f.a.a.-.-.a.a.a.a.a.a.f.d.a.a.a.a.-.-.-.-.-.-.-.=.=.=.=.=.=.=.=.=.=.=.=.=.=.=.=.=.+.+.+.+.=.=.=.=.+.+.+.+.=.=.=.+.+.+.O.O.O.O.O.O.O.O.$.O.T T T T T T T T T T T T T T T T T T Y Y Y Y Y Y Y Y H H H H H H H H H H G G G G G G K J G G G G G G G J G G G G G k G G G G G G k j j j j j j p p p p i p p p p p p p p p i p p p i i i 5 5 4 4 : : ; ; ; ; # # # + + @ . . .                                                       . . @ # ; : 4 5 5 5 ",
"<.O.G j j j k G G G j j p l l j p p i i i 5 i p k k H ! K K G p 4 : 4 5 s l z z k G G G H Y T T T T Q T T O.O.O.O.O.O.O.O.O.O.O.+.+.O.O.O.O.+.+.+.+.O.O.O.O.O.O.O.O.O.+.+.+.O.O.O.O.O.+.+.+.+.+.+.+.+.+.=.=.=.=.:.-.-.=.-.-.-.-.-.-.-.-.-.-.-.-.-.=.-.-.-.-.-.-.-.=.=.=.=.-.-.-.=.=.=.=.=.=.=.-.-.a.a.a.a.a.a.a.a.a.a.a.a.a.a.a.a.a.a.a.a.a.a.s.s.s.l.l.l.l.z.l.l.s.l.l.l.l.l.l.l.l.l.l.l.l.l.l.l.l.l.l.l.l.l.l.l.s.a.a.s.s.s.s.s.s.s.s.s.s.a.a.s.a.a.a.a.a.s.g.q.7.P p 4 : i D { 7.w.g.g.f.f.a.:.*.K i 4 4 V ..7.*.>.0.} l : 4 Y =.-.g.a.a.a.a.a.a.a.-.a.a.a.a.f.f.f.f.f.a.a.a.a.-.-.-.-.-.-.=.=.=.=.=.=.=.=.=.=.=.=.=.=.=.=.=.=.=.=.=.=.=.=.=.+.+.+.=.=.=.=.=.+.+.O.O.O.O.O.O.O.O.$.T T T T T T T T T T T T T T T T T T Y Y Y W W W W Y Y Y Y H H H H H H H H G G G G G G J J J G G G G G G J G G G G k z z J k k k k k j p p j p p p j p p p i p p p p p p p i i i p p i 5 5 a 5 4 : : : ; ; ; # # # # + + @ . . .                                                       . . + # ; 8 7 5 5 5 ",
"4.O.G j j j j k G k j j l l l j j p i i i 5 i p k k P W K K J p : : 4 5 s x c z G G G H H W T T T O.O.T T T O.O.O.O.O.O.O.O.O.O.O.O.O.O.O.+.+.+.+.+.O.O.O.O.O.O.+.+.+.+.+.+.O.O.O.O.O.+.+.+.+.+.+.+.+.+.=.=.=.=.-.-.-.=.-.-.-.-.-.-.-.-.-.-.-.-.-.-.-.-.-.-.-.-.-.-.-.-.-.-.-.-.-.-.-.-.-.-.-.-.-.a.a.-.a.a.a.-.a.a.a.a.a.a.a.a.a.a.a.a.a.a.s.s.s.s.l.l.l.l.l.l.l.l.l.l.s.s.l.l.l.l.l.l.l.l.l.l.l.l.l.l.l.l.l.l.s.s.s.s.s.s.s.a.s.s.s.s.s.s.a.s.s.s.s.a.s.s.s.j.r.] j 5 : 5 D | E.S.S.v.v.s.d.d.;.*.J i 4 : f ] 8.w.g.j.&.j : 4 E ;.-.a.a.g.a.a.a.a.a.a.a.a.a.a.f.f.f.f.f.a.a.a.a.a.a.-.g.-.-.-.=.=.=.=.=.=.=.=.=.=.=.+.=.=.=.=.=.=.=.=.=.=.=.=.=.+.=.=.=.=.=.+.+.O.O.+.+.O.O.O.$.$.O.T T T T T T T T T T T T T T T T Q T T Y Y Q Q W W R R Y Y H H H H H K H H G G G G G G G G G G k k k k G G G G G k k k z z k k k k j j p p p p p p j p f p i i i i p p p i i i i i i i 5 5 5 5 4 : : ; ; ; # # # # # # + @ . . .                                                       . . @ # : 8 7 7 i i ",
"5.@.H k j j k G G k j j j l l l x p i a i i i j k G P W P P L p : : 4 5 f v c G G G G H H W W T T O.O.O.T O.O.O.+.+.O.O.O.O.O.O.O.O.O.O.O.+.+.+.+.+.O.O.O.O.O.O.+.O.O.+.+.+.O.O.T O.O.+.+.+.+.+.+.+.+.+.=.=.=.=.=.=.=.=.-.-.-.-.-.-.-.-.-.-.-.-.-.-.-.-.-.-.-.-.-.-.-.-.-.-.-.-.-.-.-.-.-.-.-.-.-.-.-.-.-.a.-.-.a.a.a.a.a.a.a.a.f.f.a.a.a.s.f.l.s.l.l.l.l.l.l.l.l.l.l.l.s.l.l.z.l.l.l.l.l.l.l.l.l.l.l.l.l.l.s.s.s.s.s.s.s.s.s.a.a.a.s.l.s.s.a.a.s.s.s.s.s.s.f.1.y.b 4 ; : d [ y.E.w.S.G.A.a.-.:.;.#.H i : ; 9 C 9.0.w.w.} j 5 p 2.j.j.h.f.k.f.a.a.a.-.-.a.a.a.a.a.a.a.a.a.a.g.g.a.a.a.a.g.g.-.-.=.=.=.=.-.-.-.;.;.=.=.=.+.+.=.=.=.=.=.=.=.=.=.=.=.+.+.+.=.=.=.+.O.O.O.+.+.O.O.O.O.O.O.T T T T T T T T T T T T T T T T Q T T T Y E W W R R H H H H H H H H K K H G G G G G G G G G G k k k k G k G k k k k k z z k k k k k j j p j j j p p p p i i i i i i i i i i 5 i i i 5 5 5 5 4 4 : : : ; ; # # # # # # + . . . .                                                       . . @ # ; 8 9 a i i ",
"H.*.H k j l k G G G k j j j j j p i i i i i p j j G H H P P J j 4 : 4 i f j k k G G G H H Y W T T T T O.O.O.O.+.O.+.+.+.O.+.+.+.+.+.+.+.+.+.+.+.+.O.O.O.O.O.O.O.$.O.$.&.@.O.O.O.O.O.O.+.+.+.+.;.=.=.=.=.=.=.=.=.=.-.-.-.-.-.-.-.-.-.-.-.-.-.-.-.-.-.-.-.-.-.-.-.-.-.-.g.-.-.-.-.-.-.-.-.-.-.-.-.-.-.-.-.-.-.-.-.a.-.-.a.a.a.a.a.f.f.a.a.a.a.a.s.s.s.s.l.l.l.l.l.l.l.l.l.l.l.l.l.l.z.l.z.z.z.l.l.b.b.l.l.l.l.l.l.s.l.l.s.a.a.a.a.a.a.s.s.s.f.f.f.s.l.z.b.l.a.j.4.{ a + @ 0 F ....` ` 9.9.p.q.M.a.:.5.3.J : @ @ : c ..y.] p 5 p H ;.a.f.f.s.s.a.a.-.a.a.a.a.a.a.a.a.a.a.-.-.-.-.-.-.-.-.-.-.d.j.j.,.-.=.=.:.,.-.=.-.=.=.=.=.=.=.=.;.=.=.=.=.=.=.+.+.+.+.+.+.+.+.+.+.O.O.O.O.O.O.O.O.O.O.O.O.O.O.O.T O.O.O.O.O.O.O.T T T T T Y Y Y Y Y Y H H H H H H H H H H H H G G G G G k G G k G G G G G G k k k k k j k k k k j k k k k j j j l j j j p p p p i i i i i 5 i a 5 5 5 5 5 5 5 7 4 4 4 : : : : : ; ; # # # # + @ . . .                           . . . .                     . . + # , : 4 5 5 5 ",
"H.+.H k j j k G G G k j j j j j p i i i i i p j j G H P ! U J j 4 : 4 i j j k G G G G G H Y W T T T O.O.O.O.+.+.+.+.+.+.O.+.+.+.+.+.+.+.+.+.+.+.+.O.O.O.O.O.O.O.T T O.O.O.O.O.T O.O.O.+.+.+.+.;.=.=.=.=.=.=.=.=.-.-.-.-.-.-.-.-.-.-.-.-.-.-.-.-.-.-.-.-.-.-.a.a.-.g.-.-.-.-.-.-.-.-.-.-.-.-.-.-.-.-.-.-.-.-.-.-.-.-.a.a.a.a.a.a.f.s.a.a.a.a.s.s.s.s.l.l.l.l.v.x.l.l.l.l.l.l.l.l.z.z.z.z.z.z.z.l.b.b.z.l.l.l.l.l.l.l.l.l.s.a.a.a.a.s.l.s.s.k.f.f.s.l.z.^.l.f.j.r.J 5 @ . , B x x j p c c ) *.j.a.f.j.1.R 5 # @ # B V S g 4 5 G O.d.s.x.x.l.l.s.a.a.a.a.a.g.g.s.h.a.-.-.-.-.-.-.-.-.-.-.-.-.-.-.-.-.-.=.=.-.-.-.=.=.=.=.=.=.=.=.=.=.=.=.=.=.=.+.+.+.+.+.+.+.+.+.+.+.O.O.O.O.O.O.O.O.O.O.O.O.O.O.O.O.O.O.O.O.O.O.O.O.O.T T T T T T Y H H H H H H H H H G H G G G G G G G G G G G k J J J G G G J J k k k j j k k k j j k k k k k j j j j j j j p p p i i i 5 5 5 5 5 5 5 4 4 5 5 7 8 4 4 8 : : : : ; ; # # # # + @ @ . .                           . . . .                     . . + # , 8 8 5 5 5 ",
"i.+.H k j j k G G G k k j j j j p i i i i i i p j G H W ! U J j 4 : 4 i x k k G G G G H H Y W T T T O.O.O.O.+.+.+.+.+.+.O.+.+.O.+.+.O.O.+.O.+.+.+.+.O.O.O.O.T T T T O.O.O.O.O.O.O.O.O.+.+.+.;.=.=.=.=.=.=.=.=.=.-.-.-.-.-.-.-.-.-.-.-.-.-.-.-.-.-.-.-.-.a.a.a.a.-.-.-.-.-.-.-.-.-.-.-.-.-.-.-.-.-.-.-.-.-.-.-.-.a.a.a.a.a.a.a.a.a.a.a.a.a.a.a.s.s.s.l.l.l.l.x.x.c.l.l.l.l.l.l.l.z.z.z.z.z.z.z.z.b.b.z.z.l.l.l.v.l.l.l.l.l.s.s.a.a.s.l.s.s.k.f.f.s.l.z.z.l.k.H.r.j 4 @ . # : 5 5 4 4 5 5 x ! 1.n.b.F.L.u.I i : ; ; : ; : 5 L r.Z.h.x.x.c.z.l.l.l.s.f.a.a.g.h.h.g.g.a.-.-.-.-.-.-.-.-.-.-.-.-.-.-.-.=.=.=.=.-.=.=.-.;.;.=.=.=.=.=.=.=.+.=.+.+.+.+.+.+.+.+.+.+.O.O.O.O.O.O.O.O.O.O.O.O.O.O.O.O.O.O.O.O.O.T O.O.O.O.O.O.O.T T T T T Y H H H H H H H H H H H H H G G G G G G G G G G G G G G G G G G k k k k k k k k k k j k z z k j j j j j j j j p p i i i i 5 5 5 5 5 4 4 4 4 4 4 4 4 4 : : : : : ; ; # # # # + @ @ . .                           . .                         . . + # , 6 8 5 5 i ",
"i.+.H k j j k G H G k k j j j j j p i i a i i p j G H P W ! L l 4 : 4 i x k G G G G H H Y W W T T T O.O.O.+.+.+.+.+.+.+.O.O.O.O.O.O.O.O.+.O.+.+.+.+.+.+.O.O.T T T O.O.O.O.O.O.O.O.O.+.+.+.=.;.;.=.=.=.=.=.=.-.-.-.-.-.-.-.-.-.-.-.-.-.-.-.-.-.-.-.-.-.-.-.-.-.-.-.-.-.-.-.-.-.-.-.-.-.-.-.-.-.-.-.-.-.-.-.-.-.-.-.-.-.a.a.a.a.a.a.a.a.a.a.a.s.s.s.s.l.l.l.l.l.l.l.l.l.l.l.l.z.z.z.z.z.z.z.b.z.z.z.z.z.z.z.z.z.v.l.l.x.l.l.s.s.s.s.f.l.l.l.v.f.s.l.l.z.z.l.k.5.~ p : . @ ; 5 s l a 5 4 : 5 j <.D.b.b.k.w.} b 5 ; + @ + ; d | E.L.k.v.b.b.b.z.z.l.l.a.a.a.g.g.g.a.g.g.a.-.-.-.-.-.-.-.-.-.-.-.-.-.=.=.=.=.=.=.=.=.-.;.;.;.=.=.=.;.=.=.+.+.+.+.+.+.+.+.+.+.+.O.O.O.O.O.O.O.O.O.O.O.O.O.O.O.O.O.O.O.O.O.T T T O.O.O.O.O.O.T T T T T Y Y Y Y Y H H H H H H H H G G G G G G G G G G G G G G G G G G G k k k k k k k k c k j j k z j j j j j j j j j j p i i i i 5 5 5 5 5 5 4 4 4 4 4 : : : : : : : : ; ; ; # # # + @ @ . .                           . . .                       . . + # ; 8 8 5 5 i ",
"i.#.H k j l k G H G k j j j j j l p i a a i i p j G H P W U L l 4 : 4 i x z G J H H H H Y Y W T T T O.O.O.+.+.+.+.+.+.+.+.O.O.+.O.O.O.O.+.+.+.+.+.+.+.+.+.O.O.T O.O.O.O.O.O.+.O.O.O.+.+.=.=.=.;.=.=.=.=.=.=.-.-.-.-.-.-.-.-.-.-.-.-.-.-.-.-.-.-.-.-.-.-.-.-.-.-.-.-.-.-.-.-.-.-.-.-.-.-.-.-.-.-.-.-.-.-.-.-.-.-.a.a.a.a.a.a.a.a.a.a.a.a.a.a.s.s.s.s.l.l.l.l.l.l.l.l.l.l.z.c.z.z.z.l.z.z.z.z.z.z.z.z.z.z.z.z.z.z.l.l.l.l.l.l.l.s.s.l.v.v.v.v.x.s.l.l.^.b.x.k.<.K 4 # @ > g ' { / | ^ h ; ; 5 R Z._._.v.Z.t.] f : @ . . # 7 ] p.S.h.v.b.b.b.b.z.z.c.l.a.a.a.a.-.-.g.g.a.-.a.-.a.-.-.-.-.-.-.-.-.-.=.=.=.=.=.=.=.=.;.=.=.=.=.=.=.=.=.+.+.+.+.+.+.+.+.+.+.+.+.+.O.O.O.O.O.O.O.O.O.O.O.O.O.O.O.O.O.O.O.O.T T O.O.O.O.O.O.T T T T T T Y Y Y Y Y Y H H H H H H H G G G G G G G G G G G G G G G G G G G G G G k k k k k z k j j z z j j j j j j j j j j p p p i i i i 5 5 5 5 5 5 4 4 4 : : : : : : ; ; ; ; ; # # # # + @ . .                       . . .                           . . @ # ; : 4 5 5 i ",
"i.*.H k j l J G H G k j j j k k l p p s a i i p j k H P P U J j 4 : 4 i x c J K H H H H H Y W T T T O.O.O.O.+.+.+.+.+.+.+.+.O.+.O.O.O.O.+.+.+.+.+.+.+.+.+.O.O.O.O.O.O.O.O.O.O.O.+.+.+.=.=.=.-.-.=.=.=.=.=.=.=.=.-.-.-.-.-.-.-.-.-.-.-.-.-.-.-.-.-.-.-.-.-.-.-.-.-.-.-.-.-.-.-.-.-.-.-.-.-.-.-.-.-.-.-.-.-.-.a.a.a.a.a.a.a.a.a.f.a.a.a.f.s.s.s.s.l.l.l.l.x.x.c.c.l.l.l.z.c.z.l.l.z.l.l.z.z.z.z.z.z.z.z.z.z.z.z.z.z.z.z.l.l.l.l.l.s.l.z.z.b.b.v.l.z.z.^.b.v.j.<.J : @ # q [ t.p.p.p.y.' 4 # : L 0.$X%XG.q.e.' d : > # @ + : p ) w.j.s.l.b.b._.^.z.b.x.s.a.a.a.a.a.g.g.g.a.a.a.a.a.-.-.-.-.-.-.-.=.=.=.=.=.=.=.=.=.=.=.=.=.=.=.=.+.=.+.+.+.+.+.+.+.+.+.+.+.+.+.O.O.O.O.O.+.+.O.O.O.O.O.O.O.O.O.O.O.O.O.T T O.O.O.O.O.O.T T T T T T Y Y Y Y Y H H H H H H H H H G G G G G G G G G G G G G G G G G G G G G J G k k k z k j j j j j j j j j j l l j j p p p s s i i i 5 5 5 5 4 4 4 4 : : : : : ; ; ; ; ; ; ; # # # + @ . .                                                       . . + # : : 4 5 5 5 ",
"i.O.H k k z k G H G k k j j k c x p i i a i p j j k H H P P J j 4 : 4 s b L P P K H H H H Y Y Y T T O.O.O.O.+.+.+.+.+.+.+.O.O.+.O.O.O.+.+.+.+.+.+.+.+.+.+.O.O.O.O.O.O.O.+.+.+.+.+.+.=.=.=.-.-.-.=.=.=.=.=.=.-.-.-.-.-.-.-.-.-.-.-.-.-.-.-.-.-.-.-.-.-.-.-.-.-.-.-.-.-.-.-.-.-.-.-.-.-.-.-.-.-.-.-.-.-.-.-.a.a.a.a.a.a.a.a.a.f.f.a.a.f.f.x.f.s.a.l.l.l.x.l.z.z.z.z.z.z.z.z.z.l.l.b.z.z.z.z.z.z.z.z.z.b.b.z.z.z.z.z.z.z.z.z.l.l.l.s.l.z.z.b.b.x.l.z.z.^.b.n.J.4.J ; . ; V y.K.n.x.n.1._ 5 # ; C 8.G.b.g.$.k 5 4 : M 4 ; # ; : f ) <.g.a.l.b.b._._.b.b.x.f.a.a.g.g.a.a.a.g.a.g.a.a.-.-.-.-.-.-.-.-.-.-.=.=.=.=.=.=.=.=.=.=.+.+.+.=.+.+.+.+.+.+.+.O.+.+.+.+.+.+.+.O.+.+.+.+.+.+.+.O.O.O.O.O.O.O.O.O.O.O.T O.O.O.O.O.O.O.O.T T T T T Y Y Y Y Y Y Y H H H H H H H H H G H H G G H H G G G G G G G G G G G K J J G k k k k j k j j j p j j j j l l j j p p p p p i i 5 5 5 5 4 4 4 4 4 : : : : : ; ; ; ; ; ; # # # # + + @ .                                                     . . . + # : 4 5 5 5 i ",
"i.O.H k j l k G H G k k j k k c j p p i i i i p j k G H P P G j 4 : 5 s b L P ! R R Y Y Y Y Y Y T T O.O.O.O.+.+.+.+.+.;.+.O.O.+.O.O.O.+.+.+.+.+.+.+.+.+.+.+.+.+.+.+.+.+.+.+.+.+.+.+.=.=.=.-.-.-.-.-.-.=.-.-.-.-.-.-.-.-.-.,.-.-.-.-.-.-.-.-.-.-.-.-.-.-.-.-.-.-.-.-.-.-.-.-.-.-.-.-.-.-.-.-.-.-.-.-.-.-.a.a.a.a.a.a.a.a.a.a.a.f.a.a.f.n.n.f.s.a.l.l.l.l.l.l.z.z.z.l.l.l.z.z.c.c.b.z.z.z.z.z.z.z.z._.b.b.b.z.z.z.z.z.b.z.z.l.l.l.s.l.z.z.z.b.c.l.z.z.^.(.v.J.4.z ; + : C w.G._.`.(.k.y.p ; # x Q A.U.K.~ p 4 7 g ..c i 4 ; # : p 3.:.g.s.v.b._._.z.b.l.s.a.a.g.k.a.a.s.f.f.f.s.g.a.-.a.-.a.-.g.-.-.-.=.-.-.-.=.=.=.=.=.=.=.=.=.=.+.+.+.+.+.+.+.+.+.+.+.+.+.+.+.+.+.+.O.O.O.O.O.O.O.O.O.O.O.O.O.O.O.T T O.O.O.O.O.O.O.$.O.T T T T T Y Y Y Y Y Y Y Y Y H H H H H H H H H H H H H G P K H H G G G H H H K K J G k k k k k k j j p p j j j j l l j j p p p p p i i i 5 5 5 4 4 4 4 4 : : ; ; ; ; ; ; : ; ; ; ; # # + + @ . .                                                   . . @ # ; : 4 5 5 i i ",
"1.O.H k z j k G H H G k k k k k j j f s i i i p j k G P K P G p 4 : 5 s c J H H H H Y R Y Y Y T T T O.O.O.O.O.+.+.+.+.+.+.+.O.O.O.O.O.O.+.+.+.+.+.+.+.+.O.O.O.+.+.+.=.+.+.+.+.O.+.+.=.=.=.-.-.-.=.=.-.-.-.-.-.=.-.-.-.-.-.-.-.=.-.-.-.-.-.-.-.-.-.-.-.-.g.-.-.-.-.-.-.-.-.-.-.-.-.-.-.-.-.-.-.-.a.a.a.-.a.a.a.a.a.a.a.a.s.s.s.f.s.s.s.s.s.s.l.l.l.l.l.l.z.c.z.z.b.c.z.z.z.z.z.z.l.z.b.z.z.z.z.z.^.^.^.^.z.z.z.^.z.z.z.z.z.z.l.l.l.l.z.(.b.z.l.l.l.l.^._.l.k.4.G ; ; 4 ( w.v.]./._.k.E.p ; ; p W H.H.r.k 4 4 h ..y.E.` j : + @ : G #.N.j.s.v.z.l.l.l.l.l.s.a.a.g.a.s.s.s.s.s.g.a.a.a.a.a.a.-.-.-.-.-.-.-.-.-.-.-.-.=.=.+.=.=.+.+.+.+.+.+.+.+.=.;.+.+.O.+.+.+.O.O.+.+.+.+.+.+.+.+.+.+.+.+.+.+.+.O.O.T T O.O.O.O.O.O.O.$.O.O.T T T Y Y Y Y Y Y Y Y Y H H H Y R R H H H H H H H H H ! K H H H K K K G G G G G G J J k z k j j j p j j j j j j j j j j j p p p i i i 5 5 5 5 4 4 4 : : : : : ; ; ; ; ; , ; ; ; ; # # + @ . .                     . .                         . . . @ + ; : 4 5 5 i i ",
"1.O.H k k j k G H H G k k z k k j j p i i i i p j k G P P P J p 4 : 5 s c J H R H H Y Y Y Y Y T T T O.O.O.O.+.+.+.+.+.+.+.+.O.O.O.O.O.+.+.+.+.+.=.=.+.+.+.+.+.+.+.;.;.+.+.+.+.+.+.=.=.=.-.-.-.-.-.=.-.-.-.-.-.-.-.-.-.-.-.-.-.-.=.=.-.-.-.-.-.-.-.-.-.-.-.-.-.-.-.-.-.-.-.-.-.-.-.-.-.-.-.-.-.-.a.a.a.a.a.a.a.a.a.a.a.a.a.a.a.s.s.a.s.s.s.l.l.l.l.l.l.l.z.z.z.z.z.c.z.z.l.z.z.z.z.z.b.z.z.z.z.z.^.^.^.^.z.z.z.z._.z.z.z.z.z.z.z.l.l.z.z.z.z.l.z.z.z.^.^.v.k.4.H : ; 4 L w.G.]./.].D.Q.j ; ; j 7.i.p./ p 4 p | E.w.K.9.H i ; . # k @.5.1.g.l.v.l.l.l.l.x.s.a.s.s.s.s.s.s.s.a.g.g.a.a.g.a.a.a.a.g.-.-.-.-.-.-.-.-.-.=.=.=.+.+.+.+.=.+.+.+.+.+.+.+.+.+.+.+.+.+.+.O.+.+.+.+.+.+.+.+.+.+.+.+.+.+.+.O.O.T T O.O.O.O.O.O.O.T T T T T Y T T T T Y Y Y Y Y Y Y H Y Y Y H H H H H H H H K R K H H H K K H G G H H G G G G k z k j j j p j j j j j j j j j j j j p p p p p i i 5 5 5 5 4 4 : : : : ; ; ; ; ; : ; ; ; # + # + @ .                       . .   .                       . . @ # ; : 4 a i i p ",
"1.O.H k j j k G H H G k z z k k j j p i 5 5 i p j k G P P P L p 4 4 5 p c G H R Y Y Y Y Y Y Y T T T O.O.O.O.+.+.+.+.+.+.+.+.O.O.O.+.+.+.+.+.=.=.;.=.+.+.;.;.+.+.=.=.;.+.+.=.=.+.+.=.=.=.-.-.-.-.-.-.-.-.-.-.-.-.-.-.-.-.-.-.-.-.=.=.=.=.-.=.=.=.-.-.-.-.-.-.-.-.-.-.-.-.-.g.-.-.-.-.-.-.-.-.-.-.a.a.a.a.a.a.a.s.s.s.a.s.a.a.s.s.a.a.s.s.s.l.l.l.l.l.l.z.z.b.z.z.z.z.z.z.l.z.z.z.z.z.z.z.z.z.z.z.^.^.z.z.z.z.z.z.(.z.z.z.z.z.z.z.z.z.z.z.z.z.l.z.z.z.^.^.z.n.1.R 4 # : x 8.U.b.(.'.U.Q.j ; ; l } 4.p.J i 5 L E.S.S.S.,.%.U i @ # k T <.:.a.a.s.s.l.v.x.x.l.s.s.s.s.s.a.a.a.a.a.a.a.a.a.a.a.a.a.a.a.-.-.-.-.-.-.-.=.=.-.=.=.+.=.=.=.=.=.=.+.+.+.+.+.+.+.+.+.+.+.+.+.+.+.+.+.+.+.+.+.+.+.+.+.+.+.O.O.T T T O.O.O.O.O.O.T T T T T T T T T T Y Y T Y Y Y Y Y Y Y Y H R K H H H H R R R H H H Y H H H H H H H G G G k k J k j j j j j p p j j j j j j j j j j p p p p 5 5 5 5 5 5 4 4 : : : : ; ; ; ; : : ; ; ; # + + @ . .                       . . . .                       . . @ # : : 4 a i i p ",
"i.O.H k j j k G H H G G z z G k k j p i i 5 i i p j G P P P J p 4 4 5 p l G H Y Y Y Y Y Y Y Y Y T T O.O.O.O.+.+.+.+.+.+.+.+.+.+.O.+.+.+.+.+.+.=.=.+.+.+.+.+.+.+.+.=.+.+.+.+.=.=.+.=.=.=.-.-.-.-.-.-.-.-.-.-.g.g.-.-.=.-.-.-.-.-.=.=.=.=.-.=.=.=.-.-.-.-.-.-.-.-.-.-.-.-.-.-.-.-.-.-.-.-.-.-.-.g.a.a.a.a.a.f.f.f.f.f.s.s.s.s.s.s.s.a.s.s.s.l.l.l.l.l.z.z.b.b.z.z.z.z.l.l.l.z.z.z.z.z.z.z.z.z.z.z.^.^.z.z.z.z.z.z.^.z.z.z.z.z.z.z.z.z.z.z.z.b.l.l.z.^./.^.b.v.g.@.s ; : i _ L.x.c.v.L.Q.c : : z / 4.p.j i p H K.S.S.S.j.w.y.j # ; k T ;.:.g.a.s.a.l.v.x.x.l.s.s.s.a.a.a.a.a.a.a.a.a.a.a.a.a.a.a.a.d.a.a.a.a.a.a.-.-.-.-.=.=.=.=.=.=.=.=.=.+.+.+.+.+.+.+.+.+.+.+.+.;.+.+.+.+.+.+.+.+.+.+.+.+.+.+.O.O.T T T O.O.O.O.O.O.$.T T T T T T T T Y Y Y T T T Y Y Y Y Y Y H R Y H H H H R R H H Y R R Y H H H H H G G G G G k J k k z j j j p p j j j j j j l l l j j p p p i i i 5 5 5 4 4 : : : : : ; ; ; : : : ; ; # + + + @ .                       . . . .                     . . @ + # ; : 4 i i i p ",
"i.O.H k k j k H P H G G J J G G k j p i i 5 i p p k G U P P J j 4 : 5 i j G H Y Y Y Y Y Y Y Y Y T T O.O.O.O.+.+.+.+.+.+.+.+.+.+.+.+.+.+.+.=.=.=.+.+.+.+.+.+.+.+.+.+.+.+.+.+.+.;.=.=.=.=.-.-.-.-.-.-.-.-.-.-.,.g.-.-.-.-.-.-.-.-.=.=.=.=.=.=.-.=.=.=.-.-.-.-.-.-.-.-.-.-.-.-.-.-.-.-.-.-.-.-.-.-.a.a.a.a.s.f.f.f.s.s.s.s.s.s.s.a.l.s.s.s.l.l.l.l.l.l.z.z.z.z.z.z.z.z.l.l.l.z.z.z.z.z.z.z.b.b.z.z.z.z.z.z.z.z.z.z.z.z.z.(.(.(.z.z.z.z.^.^.b.b.l.l.z.^./.^.^.b.f.*.z : : 4 P p.j.n.J.P.E.k 5 5 ^ 2.5.5.j i j G K.S.L.Z.1.H.p.G : : H +.:.d.h.f.l.s.l.l.l.l.s.s.s.s.a.a.a.a.a.a.a.a.a.a.a.a.a.a.a.a.f.a.a.a.a.a.a.-.-.-.-.=.-.-.=.=.=.=.=.=.=.=.=.=.=.=.+.+.=.+.=.+.+.+.+.+.+.+.+.+.+.+.+.+.+.+.+.O.O.O.T T O.O.O.O.O.O.O.T T T T T T T T T T T T T T Y Y Y Y Y Y H Y Y H H H Y Y R H H H Y Y Y H H H H H G G G G G k G k k J k j j p p p p j j j j l z z j j p p p p i i i 5 5 9 5 4 4 : : : ; ; ; : 8 : ; , ; # # + @ . .                   . . . . . .                   . . @ + # : : 4 a i p p ",
"i.O.H k k j G P H H G G z z G G c j p i i i i p j k P ! P P U j 4 : 5 p k G H Y Y Y Y Y Y Y T Y T T O.O.O.O.+.+.+.+.+.+.+.+.+.+.+.=.=.=.=.=.=.=.+.=.=.+.+.O.+.+.+.+.+.+.=.+.=.;.=.=.=.=.-.-.-.-.-.-.-.-.-.-.-.-.-.-.-.-.-.-.-.-.=.=.=.-.=.=.-.=.=.-.-.=.-.-.-.-.-.-.-.-.-.-.-.-.-.-.-.-.-.-.-.-.a.a.a.a.f.f.f.f.s.s.s.s.s.s.s.s.l.l.l.l.l.l.l.l.l.l.l.z.z.z.z.l.z.z.z.z.z.z.z.z.z.z.z.z._._.b.z.z.z.z.z.z.z.z.z.z.z.z.(.(.^.z.z.z.z._._.b.b.x.l.l.^./././._.l.1.R p : : j ~ <.H.i.r.) j p j 3.5.L.5.k p p j 8.K.H.i.5.i.r.G 4 5 &.:.j.k.n.v.x.x.s.l.l.s.s.a.s.a.a.a.a.a.a.a.a.a.a.a.f.f.s.s.l.x.f.a.a.a.a.a.a.a.-.-.-.-.-.-.-.=.=.=.=.=.;.;.;.;.;.;.=.;.;.=.=.=.+.+.+.+.+.+.+.+.+.=.=.;.=.+.+.+.O.O.T T O.O.O.O.O.O.T T T T T T T T T T T T T T T Y Y Y Y Y Y Y Y H H H H Y Y Y H H H Y Y Y H H K H G G G G G G k G k k J k j j p p p p j j j j j k z k j j p p i i i i 5 5 5 4 4 4 : : : : ; : : 8 : ; , ; # # % @ O . o               . . . . . . .                   . . . @ # : 8 5 a p p j ",
"i.O.H k k j G P H H G G z z G G k j j p i i i p j k U ) P P U j 4 : 5 p z J H Y Y Y Y Y Y T T T T T O.O.O.O.+.+.+.+.+.+.+.+.+.+.=.=.=.=.=.=.=.=.=.=.+.+.+.+.+.+.+.+.+.=.;.+.+.=.=.=.=.=.-.-.-.-.-.-.-.-.-.-.-.-.-.-.-.-.-.-.-.-.-.-.-.-.;.-.-.-.-.-.-.-.-.-.-.-.-.-.-.-.-.-.-.-.-.-.-.-.-.-.-.-.a.a.a.a.s.s.s.s.l.l.s.s.l.l.l.l.s.s.l.l.l.l.l.l.l.l.z.z.z.z.z.z.l.z.z.z.z.z.z.z.z.z.z.z._.(._.z.z.z.z.z.z.z.z.z.z.z.z.z.z.z.z.z.(._._._.b.b.x.x.l.^./.[. X`.b.D.1.E i 4 p G ~ 3./ U k j H T M.f.F.J.} l 5 5 J / 2.6.6.#.R j 5 j 0.k.k.n.n.b.v.x.s.l.s.f.a.a.a.a.a.a.a.f.f.f.a.a.s.s.f.l.l.l.x.v.a.a.a.a.a.a.a.-.-.-.-.-.-.-.-.=.=.=.=.=.=.;.;.-.=.=.=.=.=.=.=.+.+.+.+.+.+.+.+.+.+.+.+.=.=.+.+.+.O.O.T T O.O.O.O.O.O.T T T T T T T T T T Q T T T Y Y Y Y Y Y Y Y Y H H H H H Y Y H H H H H H H H H H H H G G G G k G k k z k k k j p p p j j j j j k k k j j j p i i i i 5 5 5 4 4 4 4 : : : : : : 8 : : , ; # $ + + O .                 . . . . . . .                   . . . @ # : 8 5 a p p j ",
"i.O.H k j j k H H H G G k z G G k j j p i i i p j k P ! P P L j 4 4 5 f c P Y W Y Y Y Y T ~ Q T $.O.O.O.O.O.+.+.+.+.+.+.+.+.+.+.=.=.=.=.=.=.=.=.=.=.+.+.+.+.O.O.+.O.O.+.+.O.O.+.+.+.+.=.;.;.;.;.=.-.-.-.-.-.-.-.=.=.=.-.-.-.-.=.-.-.-.-.-.=.-.-.-.-.-.-.-.-.-.-.g.-.-.-.-.-.-.-.-.-.-.-.-.-.-.-.a.a.a.f.f.f.s.a.a.s.a.s.s.s.l.s.s.s.s.s.l.l.l.l.z.z.z.z.z.z.z.z.l.l.c.c.b.c.z.z.z.z.z.z._.(._.z.l.l.l.l.z.z.z.z.'.z.z.z.z.z.z.(.(.(.b.b.b.b.m.c.l.)././.oX`._.F.Y.K.G p p j R R K G k G %.,.-Xz.b.U.p.J i 5 i j K E E Y H k j P q.v.v.v.v.v.v.l.s.s.s.f.f.a.a.a.a.a.f.k.n.v.x.s.s.s.s.l.s.s.l.x.s.a.a.a.a.f.a.a.-.-.g.g.-.-.-.-.=.=.=.=.=.=.=.=.=.=.=.+.=.=.=.+.;.=.+.+.+.+.+.+.+.+.+.+.+.+.+.O.O.O.T T T O.O.T O.Q T T T T T E Y T T Q Q T Y Y Y Y Y Y Y Y Y Y H H H H R H H H H H H H H H H H G G H H H G G k G J k k k k k z j p j p p j j j j j k j j j j j p f s i i a a 5 4 4 4 : : : : : : 4 : ; : ; # # + @ . .                 . . . . . . . .               . . . @ + # , 4 5 a p p j ",
"Z.+.Y G j j k G H G G k k k G L j j j j p p i i j j G ! ! H G j 4 : 5 p c L ! W Y Y T T T O.$.O.O.O.O.O.O.O.O.+.+.+.+.+.+.+.+.=.=.=.=.=.=.=.-.-.=.=.;.+.+.+.O.T T Y T T &.&.~ T &.T T &.&.O.*.p.;.;.;.;.=.=.;.;.=.=.;.;.=.=.=.=.=.=.=.=.-.-.-.-.-.-.-.-.-.-.-.-.-.-.-.-.-.a.-.-.-.-.-.-.-.-.-.-.a.a.a.a.a.f.f.a.a.a.s.s.l.l.l.l.s.s.l.l.l.l.l.l.c.c.c.c.c.l.l.l.l.l.l.l.x.c.c.c.z.b.b.b.b.b.b.z.l.x.x.l.l.l.l.c.m.c.l.l.b.b.'.b.b.z.z.b._.b.z.z.z.^.^./.^.^._.'.v.I.H.*.T Y H H H H T +.g.v.(.^.b.F.U.u.H p p p p j k G H Y &.w.f.v.l.v.v.l.l.a.a.a.a.a.s.s.s.a.f.s.f.f.s.s.s.l.s.s.s.s.s.a.a.a.a.a.a.s.s.a.a.g.a.a.-.-.-.-.-.-.=.=.=.=.=.=.=.=.;.=.+.=.=.=.=.=.+.=.+.+.+.+.+.O.+.+.+.+.+.+.+.O.O.T T T T T T T E T T E E W W W Y Y W R R R K H ! K H H ! ! P H H H H H H H K H H H H H H H G G G G H H H G G G G G k k k z z j l p j j j j j j j j j j j j j j p p p i i i 5 5 4 4 4 4 : : : : 4 4 4 : : ; ; # + @ . .                   . . . . . . . .       . .   . . @ @ @ > ; : 5 i p p p ",
"Z.=.Y G j j k G H G G k k k G G j j k k j p i i p j K ! W K G p 5 4 5 p c J H Y Y Y T T T T $.$.+.O.O.O.O.O.O.O.+.+.+.+.+.+.=.=.=.=.=.=.=.=.-.=.=.=.=.+.+.O.O.T H H H H Y Y Y H T Y Y T T Y T &.#.+.;.+.+.+.+.;.=.=.;.;.=.=.=.=.=.=.=.=.=.=.-.-.-.-.-.-.-.-.-.-.a.a.-.-.a.a.a.-.-.-.-.-.-.-.-.-.-.-.-.a.a.a.a.a.a.a.s.s.s.s.s.s.s.s.l.l.l.l.l.l.z.z.l.l.l.l.l.s.s.a.s.s.l.l.l.l.l.l.z.z.z.z.z.z.l.s.l.s.s.s.s.l.x.l.l.l.l.v.b.b.l.z.z.b.b.b._.z.^.^._._._._.^._.b.m.n.j.-.;.#.@.*.;.-.g.v.'.`./.`.b.v.k.i.2.H k k G H T O.>.j.D.b.z.z.l.l.l.s.s.a.a.a.a.s.s.s.a.s.s.s.l.l.l.l.l.s.s.s.s.s.a.s.s.s.s.a.s.a.a.-.a.a.a.-.-.-.-.-.-.=.=.=.=.=.=.=.=.-.=.=.=.=.=.=.=.;.<.;.;.;.<.<.;.+.+.+.+.%.+.+.O.O.T T T T E T Y T E E E E E R R Y R ! H H K K G P P P P P P P H K ! P H H P K H H H H K K H G G G G H H K H G G G k k k k z z j p p p p j j j j j j j j j j j j p p p i i i 5 5 5 4 4 4 4 : : : 4 4 4 : : : ; # + + . .                     . . . . . .         . . . . . . @ + # ; : 5 i p p p ",
"j.=.Y G j j k G H G G k k k G G j j k k j p i i p j P ! Y ! K p 5 4 5 p c J H Y Y T T T T T T O.%.O.O.O.O.O.O.O.+.+.+.+.+.=.=.=.=.=.=.=.=.=.-.=.=.=.=.+.+.+.O.T Y H H Y Y Y Y Y T Y Y Y T T T T +.+.+.+.+.+.+.+.+.=.=.=.=.=.=.=.=.=.-.-.-.-.-.-.-.-.-.-.-.-.a.a.a.a.a.a.a.a.a.a.a.-.-.-.-.-.-.-.a.a.a.a.a.a.a.a.a.s.s.s.s.l.l.s.s.l.l.l.z.z.z.z.z.z.l.l.z.l.l.l.s.a.a.s.s.s.l.l.l.l.l.z.z.z.z.l.l.s.s.s.s.s.s.s.l.l.l.l.s.s.s.l.l.l.l.z.z.z.z._._.^.^.^.^._._.(.b.b.v.f.J.J.P.H.K.K.J.f.b.(.^./. X`.`.b.n.A.Z.q.1.q.Z.A.D.G.b.b.b.z.z.z.v.l.l.s.s.a.a.a.s.s.s.a.a.s.s.l.l.l.v.v.s.s.s.s.s.a.a.a.a.a.a.a.a.a.a.a.a.a.a.a.-.-.-.-.=.=.=.=.=.=.=.=.-.=.=.=.=.=.=.=.;.;.+.+.+.;.;.+.O.O.O.O.O.O.O.O.T T T Y T Y Y Y Y Y Y Y W W Y Y Y R H H G H G G G G P H G G H H K K H H H K K H H H K K K H G G G G H H H G G G G k k j j z l j p p p p p j j j j j j j j j j l p p p p i i 5 5 5 4 4 4 4 : : : 4 4 4 : : : ; # # + . .                     . . . . . .           . . . . . @ + # ; 4 5 i p j j ",
"Z.;.Y G k k k J H H G k k k G G k j k k j j i i p j P W Y ! U p 5 4 5 p c L K W Y T T T T $.$.O.O.O.O.O.O.O.O.O.+.+.+.+.=.=.=.=.;.=.=.=.=.=.-.=.=.=.=.+.+.+.O.T T E Q &.&.&.O.T T O.O.T T O.O.T +.=.=.+.+.+.+.+.=.=.=.=.=.-.-.-.-.-.-.-.-.-.-.-.-.a.-.-.-.-.a.a.a.a.a.a.a.a.a.a.a.-.-.a.a.-.-.a.a.a.a.a.a.a.f.a.l.l.l.l.l.l.l.z.l.l.z.z.z.z.^._.z.z.z.z.b.b.c.z.l.l.s.l.l.l.l.l.z.z.z.z.z.z.z.z.l.l.l.l.l.l.l.l.s.l.x.l.s.a.a.s.l.l.z.z.z.z.^._.`.`.`.^._._.^._.^.b.x.x.f.J.J.H.Z.k.k.v.b.z.^./.[..XXX`.b.b.F.:XY.F.F.$X$X$X_._._.(.b.z.z.l.l.s.s.s.s.s.s.s.l.s.s.s.l.l.l.l.v.v.s.s.s.a.a.a.a.a.a.a.a.a.g.a.a.a.a.a.a.a.g.-.-.-.=.=.=.=.=.=.=.=.-.=.=.=.=.=.=.=.+.+.O.O.O.+.O.O.O.O.O.O.O.O.O.T T T T T T Y Y Y Y Y Y Y Y Y Y Y Y H H H G G G G G G H H G G G H H H H G H H H G G G H H G G G G G G G G G G G G k k k j j z l j i p p p p p j j k j j j j k k l p p p p p i i 5 5 4 4 4 4 : : : 4 4 4 : : : ; # # + @ .                   . . . . . . .           . . . . . @ + # : 4 5 i p j j ",
"A.;.T G k k J P H H G G k k G G k j k k j j p i p j P W Y ! P j 5 4 5 p z K R T Y T T T $.$.O.O.O.O.O.O.O.O.+.O.+.+.+.+.=.=.=.=.;.=.=.=.=.=.-.=.-.=.=.+.+.+.+.O.O.O.O.@.&.*.O.O.O.#.#.+.+.<.;.O.;.:.:.;.=.=.-.-.-.-.-.-.g.d.d.d.g.g.a.a.a.a.a.a.a.a.a.a.a.a.a.a.a.a.a.a.a.a.a.a.a.a.a.a.a.a.a.a.a.a.a.a.s.s.s.s.l.l.l.z.z.z.b.b.z.z.z.^.^.^.^.^._.^.^.^.(.^.z.z.x.x.l.l.v.v.l.l.b.b.z.z.^.^.^.z.z.c.c.c.c.z.l.l.l.x.v.n.f.s.a.s.c.z.z.z.z.z.(._.].`.`.^.^.^.^._.^.(.b.l.s.f.k.h.h.k.n.b.b.^.^././././.`.XX]._._._._._._._._.^.^._._._.b.z.z.l.l.l.s.s.s.s.l.l.l.l.l.l.l.l.l.l.l.l.s.s.s.a.a.a.a.f.a.a.g.g.a.-.-.a.a.a.a.g.a.-.-.-.-.=.=.-.-.-.-.-.-.=.=.=.-.-.=.+.+.O.O.O.O.O.O.O.O.O.O.O.O.O.O.O.O.T T T T T T Y Y E E T E Y Y Y Y H H H H H H H H H H H H H H H H H H H H H H H H H G G G G G G G G G G G G G k k k j j c l p i i p p p p j j k k j j j j z l p p p p s i i 5 5 5 4 4 4 4 4 4 4 4 4 4 : : ; ; # @ . .               . . . . . . . . .         . .   . . @ + + ; : 5 i p p j j ",
"J.;.T H k k J K H H G G G G G G k j j k j j p i p k P W W R P j 5 4 i p z J H Y Y T T T $.O.$.+.O.O.O.O.O.O.+.+.+.+.+.+.=.=.=.=.-.=.=.=.-.=.-.-.-.;.=.+.+.+.+.+.O.O.+.+.+.+.+.+.+.#.#.+.;.<.<.=.-.-.-.-.-.-.-.-.g.g.g.a.a.a.g.g.a.a.a.a.a.a.a.g.g.g.a.a.a.a.s.a.a.a.a.a.a.a.a.a.a.a.a.a.a.a.a.a.a.a.a.a.a.s.l.l.l.l.l.z.z.z.b.b.z.z.z.^.^.^.^.^._.^.^.^.^.^.z.z.z.x.l.v.c.z.z.z.b.z.(.(.^.^.^.^.^.z.z.c.c.c.z.l.l.x.v.n.n.f.f.f.x.z.z.z.z.z.^.^._._._.^.^.z.z.^.^._._.z.l.v.l.l.s.l.b.b._.^.^.^.).^.z.^.).].`.^./.^.^.^.^.^.z.z.^._._.(.b.z.v.v.v.l.l.l.l.v.v.v.c.c.b.v.l.l.l.s.l.l.l.f.f.f.f.f.d.-.a.g.d.d.a.a.g.a.a.a.a.a.-.-.-.-.-.=.-.-.-.-.,.,.-.-.-.,.,.-.;.+.+.+.+.O.O.O.+.+.+.+.+.+.+.+.O.O.O.O.O.O.T T T T Q Q Q Q Q T T Y Y W W Y Y W R R H Y ! ! Y H Y H H R R R Y K H H H H H H H H H G G G G K K K k k k k k c j p i i p p p p j k k k k k k k j j p p p p s p i 5 5 5 5 4 4 4 4 4 4 4 4 4 : : ; # # + . .               . . . . . . . . .         . .   . . % + + ; : 5 a p j k k ",
"A.;.T G k k G J H H G G G J G G k j j k k l p p j k H Q Q W K j i 5 5 p z G H Y T T T T $.$.O.O.O.O.O.O.O.O.+.+.+.+.+.+.=.=.=.=.=.=.-.-.-.-.-.-.-.=.=.+.+.+.+.+.+.+.+.+.+.+.+.=.+.=.=.=.=.=.-.:.=.-.-.-.-.-.-.-.g.-.a.a.a.a.a.a.a.a.a.a.a.a.a.a.f.f.f.f.a.a.a.f.a.a.a.a.a.a.a.a.f.a.a.s.s.a.a.s.a.a.a.a.s.l.l.l.l.z.z.z.z.z.z.z.z.z.z.z.^.^.^.^.^.^.^.^.^.^.z.z.z.l.l.z.z.z.z.z.z.z.z.^.^.^.^.^.^.z.z.^.z.c.z.l.l.s.s.f.f.k.f.a.l.z.z.l.z.z.z.z.^.^.^.^.^.^.z.z.^.^.^.z.z.b.c.v.l.l.b.z.z.z.^.z.c.c.c.l.l.z.(.]._.(.(.z.z.z.l.l.z.^.(.(.z.z.c.c.b.l.l.l.v.b.b.b.b.z.z.l.l.l.l.s.l.l.l.s.s.s.f.f.a.-.-.a.d.d.d.d.a.a.a.a.a.a.a.-.-.-.-.-.-.-.-.-.-.-.-.-.-.j.,.-.=.+.+.+.+.+.+.+.+.+.+.+.+.+.+.+.+.O.O.O.O.O.O.T O.O.O.O.O.T T T E T T ~ T W Y T E W W W W Q W W Y H Y W T W W W Y Y H H H H H H H H H H H K P P k k k k k c x p i i s p p p j k k k k k k k j j j p p p p p i 5 5 5 5 4 4 4 4 4 4 5 5 4 : : ; # # + . .               . . . . . . . . . .       . . . . . @ + # ; : 5 a l z k k ",
"J.;.T G k k k G H H G G G G G G j j j k k j p p j j H Q Q W H k 5 4 5 p z K Y T T T T T $.O.O.O.O.O.O.O.O.O.+.+.+.+.+.=.=.=.=.=.-.=.-.-.-.-.-.-.=.=.=.+.+.=.+.+.;.=.=.=.=.=.=.=.=.=.=.-.-.=.-.d.-.-.-.-.-.-.-.a.g.g.g.a.a.f.f.f.a.a.a.a.a.a.s.a.f.f.f.f.s.a.a.f.a.-.-.a.a.a.a.a.f.a.a.x.l.s.s.l.l.s.s.s.l.l.l.l.c.b.b.b.z.z.z.z.^.z.z.z.^.^.^.^.^.^.^.^.(.(.z.z.z.z.z.z.z.z.z.z.z.z.z.z.^.^.z.z.^.^.^.^.^.z.z.l.l.s.a.a.a.f.s.a.c.z.z.z.^.^.^.z.^._._._.^.^.z.z.^.^.z.z.^.(.b.l.z.z.z.z.z.z.^.z.l.x.c.c.z.z.z.z.z.z.z.z.z.z.z.z.^.^.^.(.(.b.b.b.b.l.l.l.v.b.b.b.z.z.z.z.l.l.l.s.s.s.a.a.a.a.a.a.d.-.-.d.d.d.a.-.a.a.-.a.a.a.a.-.-.-.-.-.-.-.-.-.-.-.-.=.-.,.,.-.=.+.+.+.=.+.+.;.;.+.+.+.+.+.+.+.#.#.+.+.+.+.O.O.O.O.O.O.O.O.O.T @.Q Q @.~ T Y T T T T T W T W W Y H H Y T W Y W Y Y Y Y Y Y Y H H H H H H H P P G G k k z c x p i i s p p p j k k k k k z k j j j p p p p p i i i 5 5 5 4 4 4 4 5 5 7 4 : : ; # # + @ .             . . . . . . . . . . . .       . . . . @ + $ ; : 5 i x b L G ",
"A.=.Y G k k G G H H G G G G G G c l k k k j p p p k H Q Q Q K k 5 4 5 p J K Y T T T T T O.O.O.+.O.O.O.O.O.O.O.O.O.+.+.=.=.=.=.=.-.-.=.=.-.-.-.-.=.=.=.+.=.+.=.=.=.=.=.=.=.-.=.=.-.-.-.-.-.-.-.-.j.g.-.-.-.a.a.a.a.a.a.a.a.a.a.a.a.a.s.s.s.a.a.a.s.a.a.a.s.a.a.a.a.a.a.a.f.f.f.a.a.s.s.s.l.l.v.x.s.s.l.l.l.l.l.l.z.z.z.z.z.z.z.z.z.z.z.z.z.z.z.z.z.z.^.z.^.z.z.z.z.z.z.z.z.z.z.z.^.^.^.^.^.^.^.^.^.^.^.^.^.^.z.l.s.s.s.a.a.a.g.f.z.z.^.^.^.z.z.z.^.^.^.^.^.^.^.^.z.^.^.^.^.^.^.z._.z.z.z.b.z.z.z.z.z.z.z.z.z.z.z.^.^.^.^.^.`.`.`.^.^.^.z.z.z.z.b.l.l.l.l.l.z.b.b.z.z.l.l.l.l.l.s.l.s.a.a.a.s.x.f.d.a.-.-.-.-.a.-.a.a.a.a.a.a.a.a.a.-.a.-.-.-.-.-.-.-.-.-.-.-.-.-.=.+.+.+.+.=.=.+.+.=.+.+.+.;.;.+.+.+.+.+.+.#.+.O.O.O.O.O.O.@.@.O.T T T T T T T T T T T T Q Q T Y Y Y Y Y Y Y Y Y Y W W Y Y Y Y Y H H H H H ! ! ! G G G c c c j j i i p p j j j k j k k k j j j j j l l l p i i a a a 7 5 4 4 4 4 7 5 4 4 8 : ; # # + @ . .               . . . . . . . . .         . . . . @ + # ; : 5 i j k k G ",
"A.=.T G k k G G H H H H G J H G z j k k k j p p j k H Q Q Q H k i 4 5 j k H Y Y T T T O.O.O.O.O.O.O.O.+.+.+.+.+.+.+.+.+.=.=.=.=.=.=.=.=.-.-.-.-.=.=.=.=.=.=.=.=.=.=.=.-.-.-.-.-.-.-.-.-.-.a.a.a.g.g.a.-.-.a.a.a.a.a.a.a.a.a.a.a.a.a.s.s.s.s.s.s.s.s.a.s.s.s.a.a.a.a.a.a.a.a.s.a.s.s.s.s.l.l.v.v.l.l.l.b.b.l.z.z.z.z.z.^.^.z.z.z.z.z.z.z.z.z.z.z.z.z.z.z.z.z.l.l.z.z.z.z.^.z.z.^.^.^.^.^.^.^.^.^././.^.^.^.^.z.z.l.l.l.a.a.a.a.v.c.(.(.(.^.^.^.^.^.^.^.^.^.^.^.^.z.z.^.z.z.^.z.z._.z.z.z.z.z.z.z.^.^.^.^.z.z.z.b.b.b.^.^././. X X^.^.^.z.z.z.z.z.l.l.l.l.z.z.b.b.z.z.z.z.l.l.l.s.l.s.a.a.s.s.x.f.g.-.-.-.-.a.a.a.a.a.a.a.a.a.a.a.a.a.a.a.a.a.a.-.-.-.-.-.-.g.,.-.=.=.=.=.=.;.;.=.+.=.+.+.+.+.;.+.+.+.+.+.+.+.+.O.+.+.O.O.O.+.+.O.O.O.O.O.O.O.O.O.T T T T T T T Y Y Y Y Y Y Y Y Y Y Y Y Y Y Y Y Y H H H H H H H H G G G k z k j p p p f j j j k k k k k k j j j j j j l j p i i a a i 5 5 4 4 4 4 5 5 4 4 4 : ; # # + @ . .               . . . . . . . . . .     . . . . . . + # ; : 5 i j k k k ",
"A.=.T H k k G H H H H G G K H G k j k k k j p p j k Y Q $.Q H k 5 4 i j J H Y Y O.O.O.O.O.O.O.O.+.+.+.+.+.+.+.+.+.+.+.+.=.=.=.=.=.-.-.-.-.-.-.-.=.=.=.=.=.=.=.=.-.-.-.-.-.-.-.-.-.-.-.-.a.a.a.a.g.a.-.-.a.a.a.a.a.a.a.a.a.a.a.a.s.s.s.s.s.s.s.s.s.s.s.s.s.s.a.a.a.a.a.a.a.s.s.s.s.s.l.l.l.l.b.v.l.l.b.b.z.z.z.z.z.z.z.z.^.^.z.z.z.z.z.z.z.z.z.z.z.z.z.z.z.z.z.z.z.^.z.z.^.^.^.^.^.^.^.^.^.^./././.^.^.^.^.^.z.z.z.l.l.a.a.a.x.m.z.(._._.^.^.^.^.^.^.^.^.^.z.^.^.z.z.z.z.z.z.z.z.z.z.z.z.z.z.z.z.^./.^.^.^.b.b.c.b.b.z.^./.[.[. X^.^.^.z.z.z.z.z.z.l.l.l.z.b.b.b.l.z.z.z.l.l.l.l.s.s.s.s.s.s.l.f.a.-.-.-.-.a.a.a.a.a.a.a.a.a.a.a.a.a.a.a.a.a.a.a.a.-.-.-.-.g.g.-.=.=.=.=.=.=.=.=.+.+.+.+.+.=.;.+.=.=.+.+.+.+.+.O.+.+.+.O.O.+.+.O.O.O.O.O.O.O.O.O.O.O.T O.$.T T T Y Y Y Y Y T T Y T Y Y Y Y Y Y Y Y Y H H Y Y H H H G G G z k j j p p l j j k k G k k k k k j j j j j j j p p i i i 5 5 5 4 4 4 4 4 4 4 4 4 : ; ; # + @ . .               . . . . @ @ . . .       . . . . . . + # ; : 5 i p j k k ",
"A.-.T H G k G H H H H G G G H G k j k k k j p p j G Y Q $.Q Y k 5 5 i l L P W T O.O.O.O.O.O.O.+.+.+.+.+.+.+.+.+.+.+.+.+.=.=.=.=.-.-.-.-.-.-.-.-.-.=.=.=.=.=.=.=.-.-.-.-.-.-.-.-.a.-.a.a.a.a.a.a.a.a.-.-.a.a.a.a.a.a.a.a.a.a.a.s.a.s.s.s.s.s.s.s.s.s.s.s.s.s.a.a.a.a.s.s.s.l.l.l.l.l.l.l.l.l.b.b.c.b.b.z.z.z.z.b.z.z.z.z.z.z.z.z.z.z.^.^.^.z.^.^.^.^.^.^.z.z.z.z.^.^.^.^.^.^.^.^.^.^.^.^.^.^././.^.^.^.^.^.^.z.z.(.z.z.l.l.l.v.c.z.^.^.^.^.^.^.^.^.^.^.^.^.^.^.^.z.z.^.^.^.z.z.z.z.z.z.z.z.z.z.z.^.^.^.^.z.b.c.c.c.z.z.^.^./././.^.z.z.z.z.z.z.z.z.l.l.l.z.b.b.z.l.z.z.z.l.l.s.s.s.s.s.s.s.l.l.s.a.-.-.-.-.a.a.a.a.a.a.a.a.a.a.a.a.a.a.a.a.a.a.a.-.a.-.-.-.-.-.-.=.=.=.=.=.=.=.=.=.=.=.=.=.;.;.;.=.;.=.+.+.+.+.+.+.+.+.+.+.+.+.O.O.O.O.O.O.O.O.O.O.O.O.O.O.O.$.T T Y Y T T Y T T Y Y Y Y Y Y Y Y T T Y Y Y W Y H H H H L L J k j p p j j j k k G G G G k k j j j j j j j p p i i i 5 5 5 5 4 4 4 4 4 5 4 : : ; ; # + @ . .               . . . . @ . . . .       . . . . . @ + # ; : 5 i p j k k ",
"A.-.T H G G G H H H H G G G H G k j k k z j p p j G Y Q $.Q Y k 5 5 i l L ! W T O.O.O.O.O.O.+.+.=.=.=.+.+.+.+.+.+.+.+.+.=.=.=.-.-.-.-.-.-.-.-.-.-.=.=.=.-.-.=.=.-.-.-.-.-.-.-.-.-.-.a.-.a.a.a.a.a.a.a.a.a.a.a.a.a.a.a.a.a.a.a.a.s.s.s.l.l.s.s.s.s.s.s.s.s.s.a.a.s.s.s.s.l.l.l.l.l.l.l.l.l.l.b.b.b.z.z.l.z.z.z.z.z.z.z.z.z.z.z.z.^.^.^.^.^.^.^.^.`./.^.^.^.^.^.^._.^.^.^.^.^.^./.^.^./././.^./././././.^.^.^.^.^._._.(.b.z.c.b.'.^.^._._.^.^.^.^.^.^.^.^.^.^.^.^.z.^.^.^.^.z.z.z.z.z.z.^.^.z.z.(.^.z.z.z.z.z.z.x.z.l.z.z.z.^.^.^.^.z.z.z.z.z.z.l.z.z.l.l.z.z.b.b.z.z.l.l.l.l.l.s.s.s.s.s.s.l.l.s.a.a.a.a.a.a.a.a.f.a.a.a.a.a.a.a.a.a.a.a.a.a.a.a.-.a.-.-.-.-.-.-.-.-.-.-.-.-.-.-.-.=.=.=.-.-.-.>.;.=.=.=.+.=.=.+.=.+.+.+.+.+.O.O.O.O.O.O.O.O.+.+.+.+.+.+.O.O.O.O.T T T T T T T T T Y Y Y T T Y Y T T T T T T W W Y H K P L J k j j j j k k k G G G G G k k j j j j j j j p p p i i 5 5 5 5 5 4 4 5 5 5 4 : ; ; ; # + @ . .               . . . @ @ @ @ . .       . . . . @ @ + # ; : 4 a s j j j ",
"I.-.T H G G G H H H H G G H H H k j k k k j j j j k Y T $.T Y k i 5 i j L K Y T T O.O.O.O.+.%.;.=.=.=.+.+.+.+.+.+.+.+.+.+.=.=.-.-.-.-.-.-.-.-.-.-.=.=.=.-.-.-.=.=.=.-.-.-.-.a.-.a.-.a.-.a.a.a.a.a.a.a.a.a.a.a.a.a.a.a.a.a.a.a.s.l.l.l.l.l.l.s.s.s.a.s.s.s.s.a.a.s.s.s.s.l.l.l.l.l.l.l.l.l.l.l.b.z.z.l.l.l.z.z.z.z.z.z.z.z.z.z.z.^.^.^.^.^.^./././././.^.^.^.^.^././.^.^.^.^.^.^.^.^././././././.^././.^.^.^.^.^._._._._.(.(.(.(.z.^.^.^.^.^.^.^.^.^._._._.^.^.^.^.^._.^.z.z.z.z.^.^.^._.^.^.^._.z.z.z.z.z.z.z.z.z.z.z.z.z.z.z.z.^.z.z.z.z.z.z.z.z.z.l.l.z.z.b.b.z.z.l.l.l.l.l.s.l.s.l.l.l.l.l.l.f.f.f.a.a.a.f.f.f.a.a.a.a.a.a.a.a.a.a.a.a.a.a.a.a.a.a.-.-.g.-.-.-.-.-.-.-.-.-.d.-.=.=.=.-.-.-.-.=.-.=.=.=.=.=.=.=.+.+.+.+.+.+.O.+.O.+.+.+.+.+.+.+.+.+.O.O.O.O.O.T T T T T T T T T T Y Y E E T Y T T T T T T T Y Y H H H J J k k j j k z J G G G G G G k k j j j j j j j j p p i i i 5 5 5 5 5 5 5 5 5 4 : : ; ; # + @ . . .             . . @ @ @ @ % . .     O . . . . @ @ + # ; : 4 a s p j j ",
"I.-.T H G G G H Y H H H G H H H k j k k k j p j j k Y Q $.Q Y k i 5 i j J K Y T O.O.O.O.O.+.+.>.=.=.=.=.+.+.+.+.+.+.+.+.+.=.=.=.-.-.-.-.-.-.-.-.-.=.=.=.-.-.-.-.-.-.-.-.-.g.g.-.a.a.a.a.a.a.a.a.a.a.a.a.a.a.a.a.a.a.a.a.a.a.a.s.s.l.l.l.l.l.s.s.s.s.a.s.s.s.a.a.s.l.l.l.x.l.l.l.l.l.l.l.l.l.z.z.z.z.l.l.l.l.z.z.z.z.z.z.z.z.z.z.^.^.^.^././././././././././.^.^././././././.^.^.^.^././././././.^.^.^.^.^.^.^.^.^.^.^.^._._.(.^.z.^.^.^.^.^.^.^.^.^.^.^.^.^.^.^.^._.^._._.z.z.z.^.z.^./.^.^.^.`.z.z.^.^.^.^.^.^.^.^.z.^.z.c.z.z.z.z.z.z.z.z.z.z.l.l.l.l.z.z.z.b.z.z.z.l.l.l.l.l.l.l.l.l.l.l.l.l.x.f.f.f.s.f.f.f.a.a.a.a.a.a.a.a.a.a.a.a.a.a.a.a.a.a.a.-.-.-.-.-.-.-.-.-.-.-.-.g.-.-.-.-.-.-.-.-.=.-.-.=.=.=.=.=.=.+.+.+.+.+.+.+.+.+.+.+.+.+.+.+.+.+.+.O.O.O.O.O.O.T T T T T T T T T Y T T T T Y T T T T T T Y Y Y H H H H J G z j j z J J G H G H G G k k j j j j j j j j p p p i i 5 5 5 5 5 5 7 5 4 4 4 : : ; # + @ . .               . . @ @ @ + % . . . . O . . . . @ @ + # ; : 4 a s p j j ",
"I.,.T H G G G H H H H H H H H G k j j k k j p j j G W $.&.&.W J i 5 i j L R T @.O.O.O.O.+.+.+.;.+.=.=.=.=.+.+.+.+.+.+.+.+.=.=.-.-.-.-.-.-.=.-.-.-.=.=.=.-.g.-.-.-.-.-.-.g.g.a.a.a.a.a.a.a.a.a.a.f.a.a.a.a.a.a.a.a.a.a.s.a.s.a.s.s.s.s.s.s.s.s.s.s.s.s.s.s.s.a.a.l.l.z.c.c.c.z.l.l.l.l.l.l.l.z.z.z.z.z.z.z.z.l.l.z.z.z.z.^.z.z.z.^.^.^./././././././././././././././././././././././././././././././.`.`.`././.^.^.^.^.^.^.^.^.^.^.^.^.^.^.^./.`./././././.^.^.^.^.^.^.^._._.^.^.z.^.^.^.^.^.^.`.^.^.^.^.^.^.^.^.^.^.^.^.^.c.c.z.z.z.z.z.z.z.z.z.l.l.l.l.z.z.^.^.z.z.z.z.l.l.l.l.x.l.l.l.l.l.l.x.f.f.s.s.a.a.a.f.a.a.a.a.a.a.a.a.f.a.a.a.a.a.a.a.a.a.-.-.-.-.-.-.-.-.-.g.g.-.-.j.-.-.-.-.-.=.=.-.+.=.=.=.=.=.=.=.=.+.+.=.=.+.+.+.O.O.O.+.+.+.+.+.+.+.+.+.O.O.O.O.O.T T T O.O.T T T T T E E E E Y T T T T T T Y Y Y Y H H K K J L j j k J J G G G H G G k k k j j j j j j j p p p a i i 5 5 5 5 5 7 5 4 4 4 8 : ; # # @ . . .             . . @ @ @ @ @ . .     O . . . . . @ + # ; : 4 a s p p j ",
"J.,.O.Y H G G K H H H H H H H G k j k k k j p p j G W $.*.&.W k i 5 i j G H Y T O.O.O.O.+.+.+.+.+.;.;.+.+.;.;.+.+.=.=.=.=.=.=.-.-.-.-.-.-.-.-.;.=.=.-.-.-.-.-.a.a.f.a.f.a.a.a.a.f.a.a.a.a.a.a.f.a.a.a.a.f.a.a.a.a.a.s.s.l.l.s.s.x.l.l.l.l.l.s.l.s.s.s.s.s.s.s.l.l.z.z.z.z.z.l.l.l.l.l.l.l.z.l.l.z.z.z.z.z.l.l.l.z.z.z.^.(.^.^.^.^.^.^.^./././././././././.^./././.[.[.[.[.[././.[./././././././.[.[./././././.^./.^.^././.`.`./.^.z.z.^.^./././. X/.[. X[././.^.^.^._._._.^.z.z.z.z.z.z.z.^.^.^.^.^.^.^.^.^.^.^.^.^.^.^.^.^.z.z.^.z.^.z.z.z.z.c.l.l.l.z.z.z.^.z.z.l.l.l.l.l.l.l.s.s.l.l.l.l.l.s.x.s.f.f.s.f.f.a.f.a.a.a.a.a.a.a.a.a.a.a.a.a.a.f.a.a.a.a.a.a.-.-.-.-.-.-.-.-.-.-.=.=.=.=.=.=.+.+.+.+.+.+.+.=.=.+.+.+.+.+.=.;.=.+.+.+.+.O.O.+.+.+.+.+.+.O.O.O.O.O.T T T T T T T T E E Y Y Y Y Y Y E O.O.T T T T T Y Y Y H H G G G k k k G G G G G G G G k k k k j j j l j j j p i i i 5 5 5 5 5 5 4 4 4 4 4 : ; ; # # + + . .           . . @ + @ + + @ . .       . . . . @ @ + # ; : 4 5 p p p p ",
"J.>.O.Y H G G K H H H Y H H H G k j k k k j j j j G Y O.&.&.W G i 5 i j G H T O.O.O.O.O.+.+.+.+.=.;.;.+.+.=.=.+.+.+.=.=.=.=.-.-.-.-.-.-.-.-.=.=.-.-.-.-.a.a.a.a.a.a.a.a.a.a.a.a.f.a.a.f.s.a.a.s.a.a.a.f.f.a.a.a.a.a.s.s.l.l.s.s.x.l.l.l.l.l.l.l.l.l.l.l.l.l.l.l.z.z.z.z.z.z.z.l.l.l.l.l.z.z.l.l.z.z.z.z.l.l.l.l.z.z.z.z.^.^.^.^.^.^.^.^././././././././././././././.[./././././././././././.}.}././././././.^.^.^.^.^.^./.`.`./.^.^.^.^././././. X X X[.[.[././.^.^.^.(.(.(.(.^.^.^.z.z.z.z.^.(.^.^.^.^.^.^.^.^.^.^.^.^.^.^.^.z.^.z.z.z.z.z.l.c.l.l.l.l.z.z.^.^.l.l.l.l.l.l.l.l.s.s.s.s.s.s.s.s.l.s.s.s.s.s.a.a.a.a.a.a.a.a.a.a.a.a.a.a.a.a.a.f.a.a.a.a.a.a.-.-.-.-.-.-.-.-.-.=.=.=.=.=.=.=.+.+.+.+.+.+.=.=.;.=.=.=.+.=.;.;.=.=.+.+.+.+.+.+.+.+.+.+.+.+.O.O.O.O.T T O.O.T T T T T T T E Y Y Y Y E T T T T T T T T Y Y H H H G G G k G G G G G G G G G k k k k k j j j j j j p i i i i 5 5 7 5 5 5 5 4 4 4 : : ; # # + + @ .           . . @ + @ + @ . . .         . . . . @ # # ; : 4 a f l j j ",
"Z.=.O.Y H G G J H H Y Y Y H H G k j k k k j j j j G Y T &.&.W G i 5 i j G Y T O.O.O.+.+.+.+.+.+.=.=.+.+.+.+.+.+.+.+.=.=.=.=.-.-.-.-.-.-.-.-.-.-.-.-.-.a.d.d.f.f.a.g.s.s.s.s.s.s.s.s.s.k.s.s.s.s.s.a.a.f.s.s.s.s.s.s.s.s.s.l.l.s.v.v.l.v.v.l.l.l.v.l.v.v.l.l.l.l.z.z.z.z.z.z.z.z.l.l.l.z.b.b.b.z.b.z.z.z.z.z.z.z.z.z.z.^.^.^.^.^.^.^.^././.`.`./././.`././././././.^./.^./.^./.^.^.^.^.^./.`.`.)./.^.^.^.^.^.^.^.^.^.^.^._._.`././././././././././.[.[.[.}./././.^.^._.(.(.(.(.(.^.z.z.z.z.z.z.^.^.^.^.^.^.^.^.^.^.^.^.^.^.^.^.^.z.z.z.z.z.l.l.l.l.s.s.l.v.b.b._.l.l.l.l.l.l.l.l.l.l.l.l.l.l.s.s.s.s.s.s.l.l.s.s.s.s.s.s.s.a.s.a.a.s.s.s.s.s.s.l.s.s.a.a.a.a.a.a.a.a.a.a.a.a.a.-.-.-.-.-.-.=.=.=.=.=.=.=.=.-.-.=.=.=.=.=.-.-.-.=.=.=.=.=.=.=.=.+.+.+.+.+.O.O.+.O.O.O.+.+.O.O.O.O.O.O.T T T T T T T T T T O.O.T T T T W Y H H H K G G G G H H G G G G G k k k z k j j j j j j p p p i i 5 5 5 5 5 5 5 4 4 4 : : ; # # + % @ .           . . @ + + + + @ . .       . . . . . @ # # ; : 4 i p l j j ",
"Z.=.O.Y H H G J H H Y Y Y H H G z k k k k j j j j G Y T $.&.W J i 5 i j K Y T O.O.O.+.+.+.+.+.+.=.=.+.+.+.+.+.+.+.=.=.=.=.=.-.-.-.-.-.-.-.=.=.=.-.-.-.-.a.a.a.a.g.g.g.g.g.g.h.h.h.h.h.h.h.g.g.g.g.g.g.h.h.g.s.s.s.s.s.s.l.l.l.l.v.l.l.v.v.v.l.l.l.l.l.l.l.l.l.v.b.b.b.b.b.b.b.b.b.b.b.b.b.b.b.b.b.b.b.z.z.b.b.b.b.b.b._._._.`._._.^._./.`.`.`.`.`.`.`.`.`.`.`.`./.^.^.^._.`.`.`.`.`././././././././././.(.(.(.(.^.^.^.^././././.[.[.[./.[.[././././././././.^.^.z.z.z.^.^.^.^.(.z.z.z.z.z.z.z.z.z.^.^.^.^.z.z.^.z.^.^.^.^.^.^.z.z.z.z.b.b.l.l.x.s.s.a.s.l.b.b.b.z.l.l.l.l.l.l.l.v.v.v.l.l.l.l.l.l.l.l.l.l.l.l.l.l.l.l.l.s.s.s.s.s.s.s.s.l.l.l.l.l.l.s.s.s.a.a.a.a.a.a.a.g.g.g.a.-.-.-.-.-.-.-.-.-.-.-.-.-.-.-.-.-.-.-.-.-.-.-.-.=.=.-.-.=.=.=.+.+.+.+.+.+.O.+.O.+.+.+.+.+.+.+.+.+.O.O.O.O.O.O.O.O.T T O.$.$.$.T T T W Y H H H P G G G G H H G G G G G k k k k k j j p p p p p i p i i i 5 5 5 5 5 5 4 4 4 : ; ; # # + % @ .           . @ + + + $ $ % @ .       . . . . @ @ # # ; : 4 5 p p j p ",
"j.=.T Y H G G H H H Y W Y Y H G J k k G k j j p j k Y T O.&.W J i 5 i j K Y T O.O.+.+.+.+.+.+.+.=.=.+.=.+.+.+.+.+.+.=.=.=.-.-.-.-.-.-.-.-.-.-.-.-.-.-.-.a.a.a.a.a.a.a.a.g.g.g.g.g.h.h.h.h.h.g.g.g.g.g.g.g.s.a.a.f.s.s.s.l.x.l.s.v.l.l.v.v.v.l.l.v.v.v.v.v.v.v.v.b.b.b.b.b.z.b.z.b.b.b.b.b.b.b.b.b.b.z.z.z.b.b.b.b.z.z.z._.^./.^._.^.^./.`.`.`./.`./.`./.`.`.`./.`./././././. X X X X X X X X X[.[.}.}.}.}.}.}.}././././.}.}.[.[.{.{.[.[.[././././././././.^.^.z.z.z.z.z.z.z.^.^.z.z.z.z.z.z.z.z.z.^.(.^.z.z.z.^.z.z.z.z.z.z.z.z.b.v.v.b.b.l.l.l.s.a.a.s.l.l.b.z.z.z.z.z.l.l.l.l.v.v.v.l.s.s.s.l.l.l.l.l.v.v.l.l.l.l.s.s.s.l.l.l.s.s.l.l.v.v.v.l.v.l.s.s.s.s.a.a.a.a.a.a.a.a.a.-.a.a.a.a.-.-.-.-.-.-.-.-.-.-.-.-.-.-.-.-.,.-.-.-.-.-.-.,.-.=.=.+.+.+.+.+.+.O.O.O.+.+.+.+.>.>.>.>.+.+.+.+.+.+.O.O.O.T T T T $.T T Q W Y Y H H P P H H H H H K H G G G G k k k k j j j j j p p p i p a a a 5 5 5 5 5 5 4 4 4 : ; ; # # + % @ .           . @ + # # < $ $ + . .     . . . . @ + # # : 8 7 a s j j j ",
"j.=.T Y H G H H H H Y W W Y H G J k G k k j p p j G Y T $.&.W J i 5 i k K Y T O.O.O.+.+.+.+.+.+.;.=.=.;.=.+.+.=.=.=.=.=.-.-.-.-.-.-.-.-.-.-.-.-.-.-.-.-.a.a.a.a.-.-.a.a.g.g.g.g.h.k.k.h.h.h.h.g.g.f.f.f.f.f.f.a.f.f.s.s.x.x.x.l.l.l.l.l.v.l.l.l.v.l.v.l.v.l.v.l.z.z.b.b.b.b.z.z.b.z.z.z.b.b.b.b._.^.z.z.^.^.b.^.^.z.^.^.^.^././.^.^.^././././././././././.`.`./././././././. X X[.[. X X.X[..X[.[.[.[.[.[.}.}.}.[.[.[.[.[.[.{.[.{.{.[.[././././.}././././.^.^.z.z.^.z.z.z.z.^.^.z.^.z.z.z.z.z.z.^.^._.(.^.^.^.^.z.z.z.z.z.z.z.z.b.v.b.b.b.b.l.l.l.s.s.l.l.z.z.z.z.z.z.z.z.l.l.l.l.l.l.s.s.a.a.s.l.l.l.l.l.l.l.l.l.l.s.s.l.l.l.l.x.x.l.l.x.x.x.v.v.l.l.s.s.s.s.a.a.a.a.a.a.a.a.a.a.a.a.-.a.-.-.-.-.-.-.-.-.-.-.-.-.-.-.-.-.=.=.=.-.=.=.;.;.=.+.+.+.+.+.+.O.O.O.O.+.+.+.+.>.>.>.;.+.+.O.O.O.O.O.T T T T T T T T W W Y Y H H H H H G G H H K K H G G G G k k j j j z j j j j p p i p s a i 5 5 5 5 5 5 7 7 8 4 : ; ; # + % @ .           . @ # # # # # + @ . .     . . . . @ + # # : 8 7 a s j j j ",
"j.=.O.Y H H H H H H Y W W Y H G k k k k c j j p j G Y T $.&.Q J i 5 p k J Y T O.O.O.+.+.+.+.+.+.;.=.=.;.;.+.+.;.=.=.=.=.-.-.-.-.-.-.-.-.-.-.-.-.-.-.-.-.-.a.-.-.a.a.a.a.a.a.a.a.a.f.f.f.a.f.f.a.a.s.s.s.s.l.l.s.l.l.l.l.l.l.l.l.l.l.l.l.l.l.l.l.l.l.l.l.l.l.l.l.z.z.z.^.(.^.^.z.z.z.z.z.z.z.^.^.^.^.^.^.^.^.^.^.^.^.^.^././././././././././././.[./././././././.^.^.^.^././././././././.}.}.}.}.[.[.[.[././././.[.[.[.[.[.[.[.[..X.X X/.^.^.^.^.}././././.^.^.^.^.z.z.z.z.z.z.z.z.z.^.z.^.^.z.z.^.^.^.^.^.^.z.z.z.z.z.z.z.z.z.z.b.b.b.b._.b.z.z.l.l.l.l.z.z.^.^.z.l.z.l.l.l.l.l.l.l.s.a.a.a.a.a.l.l.l.l.l.l.s.s.l.l.s.s.f.s.x.l.s.s.s.s.l.x.x.l.l.s.s.s.s.f.a.a.a.a.a.a.a.a.a.a.a.a.a.-.-.-.-.-.-.-.-.-.-.-.-.-.=.=.=.=.=.=.+.+.=.=.=.;.;.+.+.+.+.+.+.O.O.O.O.O.O.O.+.+.+.+.+.+.+.O.O.O.O.O.T T Y Y Y Y Y Y Y W Y H H H H H G G G G H H K K K H G G k k j j k j z j j j j p p p p s a i 5 5 5 5 5 5 7 7 8 4 : ; ; # + % . .         . . + + # # # # + @ . .     . . . . @ + # # : 4 5 i p j j j ",
"Z.=.O.Y Y H H H H H Y W Y Y H G k k k k c c j j j G Y O.&.&.Q J i 5 p k G Y T O.O.O.+.+.+.+.+.=.=.+.+.=.=.+.+.=.=.=.=.=.-.-.-.-.-.-.-.-.-.-.-.-.-.-.-.-.-.-.-.-.-.-.a.a.a.a.a.a.a.a.a.a.a.f.f.a.a.f.f.a.a.f.s.a.s.s.s.s.s.l.l.s.l.s.s.s.l.s.s.l.l.l.l.l.l.l.l.l.l.l.z.c.c.c.c.c.z.l.l.l.z.z.z.z.^.^.^.^.^.z.z.z.z.^.^.^.^././.^./.^.^.^.^.^././././.^.^.).).^.^.z.z.z.z.^.^.(.^.^.^./.^././.^.^././././././././././././././././. X`.`.(.z.z.z.^././././././.^.^.z.z.z.z.z.z.z.z.z.z.^.z.z.z.z.z.z.z.z.z.z.z.z.z.z.z.z.z.z.z.z.z.b.z.z._.(._.z.z.z.z.z.z.^.^.^.^.z.z.z.z.l.l.l.l.l.l.l.s.s.a.a.s.l.l.l.l.l.l.s.a.s.s.s.s.s.s.x.x.s.a.a.a.s.l.l.l.l.s.s.a.f.f.a.a.a.a.a.a.a.a.a.a.a.a.a.a.a.-.-.-.-.-.-.-.-.-.-.-.=.=.-.=.=.=.=.=.=.=.=.=.=.+.+.+.+.+.O.O.O.O.O.O.O.O.O.O.+.+.+.+.+.+.O.O.O.O.T T Y Y W W Y Y Y W Y H H H H H G G G G G H K K K H G G k k j k l j z j j j j p p p p s s i 5 5 5 5 5 5 5 5 4 4 : ; ; # + % @ .           . + # # # # # # + . .     . . . @ @ + # ; : 4 5 i f l z z ",
"K.<.O.Y Y H H H H Y W Q T Y H G k k k k k k j j j G H &.$.8.W G i 5 p k K W T O.O.O.O.+.+.+.+.+.=.=.+.+.=.=.=.+.=.=.=.=.-.-.-.-.-.a.-.-.-.-.-.-.g.=.-.d.-.=.-.-.;.=.:.1.-.=.-.-.-.=.-.-.d.j.d.-.-.-.-.g.j.j.g.a.a.d.f.f.f.f.f.f.f.d.d.d.d.d.d.d.k.f.d.d.f.f.d.g.f.f.n.f.f.n.n.f.f.f.x.x.f.s.x.x.l.x.x.x.x.x.x.v.m.x.x.b.b.'.'.'.c.c.c.c.c.c.b.b.(.'.'.c.c.c.c.x.l.x.x.l.l.l.c.l.z.z.z.z.b.(.b.^.(._._._._._._._._._._._.`.`.`._.$XF.n.n.x.s.l.z.`. X[.[.[.[./.^.z.z.z.z.l.z.z.z.z.z.z.z.z.z.^.(.z.z.z.z.z.z.z.z.z.z.z.z.z.z.z.z.z.z.z.z.^.^.^.^.z.z.z.(._._./.`.z.z.z.z.z.z.z.z.l.l.l.l.l.l.l.l.l.l.l.l.l.l.s.s.s.l.l.s.s.s.s.a.s.s.s.l.l.l.l.l.l.l.s.a.a.a.s.f.f.a.a.a.a.a.a.a.a.a.a.a.a.d.d.d.a.a.a.a.a.-.a.a.-.-.-.=.-.=.=.=.=.=.=.=.=.=.+.+.;.+.+.+.O.O.O.O.T O.O.O.O.O.O.O.O.O.O.O.O.O.T T T T T T T T Y Y Y Y Y Y Y Y H H H G G K R K H G G G k k j j j j j j j j p p p i f s s i i i 5 5 5 5 5 5 4 : : ; # # + @ . . .       . . @ # # # # # # + . .     . . @ @ + # # ; ; 4 a s l j j j ",
"H.;.T Y Y K H H Y Y W Q W Y H G k k k k k k j j j G H &.$.8.W G i i p k P W T O.O.O.O.+.+.+.+.+.=.+.=.=.=.=.+.+.=.=.=.=.-.-.-.-.a.a.a.a.-.a.a.a.-.=.-.-.=.=.=.=.*.&.&.r.&.&.&.&.&.&.&.&.8.8.8.*.*.*.*.*.u.0.*.*.%.*.<.*.;.;.;.;.<.<.4.4.4.4.4.4.*.*.O.#.#.+.O.O.#.;.<.;.<.<.<.;.;.<.<.<.<.<.<.<.1.,.1.1.1.1.1.q.1.1.,.1.j.j.j.j.H.H.Z.j.j.j.j.j.j.j.j.j.,.j.j.1.,.j.j.j.j.j.k.j.j.j.k.k.A.A.k.k.D.n.v.v.n.G.G.v.G.G.G.D.G.D.D.D.A.Z.j.1.:.-.f.c.`. X[.{.[.[./.^.z.z.z.z.l.z.z.z.z.z.^.^.z.z.^.^.z.z.z.z.z.z.z.z.z.z.z.z.z.z.z.z.z.z.z.z.^.^.^.^.^.z.l.z.z.z.z.(.(.b.b.z.z.z.z.l.c.c.c.c.x.x.x.x.l.l.l.l.l.l.l.s.s.s.s.f.f.f.f.a.s.s.s.s.l.x.x.l.l.l.s.a.a.a.f.f.a.a.a.a.a.a.a.a.a.a.a.a.a.a.d.d.a.a.a.a.-.-.-.a.-.-.-.-.-.-.-.=.=.=.=.=.;.;.=.+.+.+.+.+.+.O.O.O.O.O.O.O.O.+.O.O.O.O.O.O.O.T T T T T T T T T T T T T Y T T T Y Y H G G H K H H G G G k k j j j l p j j j p p p p f s s i i i 5 5 5 5 5 5 4 4 : ; # # + @ . . .       . @ + # # ; # # # + . .     . . @ + # # # ; : 4 a s l j j j ",
"1.+.T Y Y R K H W W T Q T Y H K k k G k k k j p j G Y *.$.&.W J i i p k P T T O.O.O.+.+.+.+.+.+.=.=.;.;.=.=.+.+.=.=.=.=.-.-.-.-.a.a.a.a.a.a.a.a.-.-.-.-.=.=.;.O.L j l x j j l j j j l x x x b c c c k z c c z k L I I L L L L L z z z z z b b z z l l l z z l j k k k k z J J k L L U U U U U U K P P P U P U U ! ! ! ! ! ! ! R R ! R R R Y Y Y R R ! R ! / / ! Q ~ ~ ~ ~ 7.7.9.7.7.9.8.r.8.8.8.u.0.<.<.0.0.w.0.0.0.0.0.0.0.u.0.r.8.&.&.@.#.d.m.`..X{.{.{.[./.^.z.z.z.z.z.z.z.l.z.z.^.^.^.z.z.z.z.z.z.z.z.z.z.z.z.z.l.z.z.z.z.z.z.z.z.^.^.^.^.^.b.l.l.x.n.x.x.v.m.b.b.b.m.m.v.x.v.v.v.v.v.v.v.v.f.f.f.f.f.k.k.k.f.f.h.h.h.h.h.h.g.s.s.f.f.k.k.k.k.f.f.g.g.g.g.g.-.-.-.-.g.g.a.-.-.-.-.-.g.g.g.g.-.-.-.-.-.-.-.-.-.-.=.=.=.;.;.;.=.+.+.+.=.=.+.+.+.+.+.+.O.O.O.+.O.O.O.O.O.O.O.O.O.O.O.O.T T T T T T T T T T T Y Q T Y T Q T T Y H G G H K H H G G G G k k j j l p j j j j j p p p p p p i i i 5 5 5 5 5 4 4 : ; ; # + @ . . .       . @ + # # ; ; # # + . .     . @ + + # # # ; : 4 i s p j k k ",
"1.+.T Y Y R K H W T T Q T W R K k k G G L k j p j G Y *.O.&.Y K i i p k K W T O.O.O.+.+.+.+.+.=.=.=.;.;.=.=.+.=.=.=.=.=.-.-.-.-.-.-.-.-.a.a.a.a.-.-.d.-.=.:.1.T f 4 4 4 4 4 4 4 4 4 4 4 4 4 4 4 4 4 5 5 5 5 5 5 5 5 5 5 5 5 5 5 5 4 5 4 5 4 5 4 4 4 4 4 4 4 4 4 5 5 5 5 5 i i i i i i i p p i i p p p p p i i i i p p p j j p p p p p p p j j j j j j p p p p p p j j j j j k j k k k k k k k k J G G G K H G G G G G J J J z J J G G G H T :.B.]..X{.{.[.[./.^.z.z.z.z.z.z.z.z.z.z.(.^.^.z.z.z.b.z.z.z.z.z.z.z.z.z.l.z.z.z.z.z.z.z.z.^.^.^.b.c.x.f.j.Z.H.H.1.1.j.j.j.k.J.J.A.j.k.S.Z.Z.Z.j.j.j.j.j.j.j.j.j.1.1.1.1.q.q.q.q.q.q.1.1.1.,.1.j.Z.j.Z.j.q.1.1.1.<.<.;.;.>.<.<.<.<.;.<.<.<.<.<.<.<.<.>.%.%.*.%.%.%.%.0.*.*.+.*.*.*.*.O.O.O.O.$.&.$.$.T O.&.$.Q T $.&.E E T W W T T Q Q Q Q Q E E W W Q Q Q Q W W ! R W R Y Y W W Y H H H H H K H H G G G k k k j j j p j j j j j p p p p i i p i i i i i 5 5 4 4 : ; ; # + @ . . .       . @ + # ; ; ; ; # + @ .     . @ + + + # # ; : 4 a p p j k k ",
"1.+.T Y Y Y H H W Q Q T T W R K k k G G L k j j j G Y *.$.$.Y K i 5 p k K Y T O.+.+.+.+.+.+.+.=.=.=.;.;.=.=.+.=.=.=.=.=.-.-.-.a.a.a.a.-.a.a.a.a.-.a.d.-.=.1.1.T i ; ; ; ; ; ; ; # ; ; ; ; ; ; ; ; ; ; ; ; : : : : : : : : : : : : ; : ; : ; : ; ; ; ; ; ; ; ; ; : : : : : 4 4 4 : 4 4 4 4 4 4 4 4 4 4 4 4 4 4 4 4 4 4 4 5 5 5 5 5 5 5 5 5 5 5 5 5 5 5 5 5 4 4 4 4 4 4 4 4 4 4 4 4 4 4 4 4 4 4 4 4 4 4 4 5 5 4 4 4 4 : : : : : : 4 5 5 i p G +.M.'. X{.{.[./.^.z.l.l.l.z.z.z.z.z.z.b.(.^.^.z.z.z.b.z.z.z.z.z.z.b.z.z.z.z.z.b.b.z.z.z.z.z.z.b.m.n.j.<.*.&.~ ~ ! ~ ~ &.&.&.8.r.*.&.&.9.&.&.&.&.$.&.&.&.&.&.&.&.&.&.&.&.7.7.7.7.7.7.~ ~ ~ ~ &.&.7.&.7.&.7.&._ ~ ~ ~ ~ ~ _ _ } } _ ~ ~ ~ ~ ~ _ ~ _ _ R ! ! ! ! ! ! ! ) ! W ! ! ! ! ! P P P ! ) ) ) ! P U ( U U P U ( U I L L L L U U U U U U U U U I I I I ( I I I L I I L I I I L G P P K K H H H G G G k k k j k k j j l j j j p p i i i i p i i i i i 5 5 5 4 : ; ; # + @ . . .       . @ # # ; ; ; ; # + @ .     @ @ + + + # ; ; : 4 i p j j k k ",
"H.+.T Y Y H H H W Q Q Q T W Y H k k G G c c j j j G Y *.O.$.Y G i 5 i k K Y O.O.+.+.+.+.+.+.=.=.=.=.=.=.=.+.+.+.=.=.=.=.-.-.-.a.a.a.a.a.a.a.a.a.a.-.-.-.=.1.1.T i : 4 4 4 : 4 : : : : : : : ; : : : 4 4 4 4 4 4 5 4 4 5 5 5 5 5 4 4 4 4 4 4 4 4 4 4 4 4 4 5 4 4 5 5 5 5 5 5 5 i i i p p p p p p i p p p i i i i p p p p j j j j j p j j j j j p j j j j p p p i i i i 5 i 5 5 5 5 5 5 5 5 5 5 5 4 4 5 5 5 4 4 4 4 4 : : : : ; ; : : : 4 5 k O.k.'. X{.{.[./.z.z.l.l.l.z.z.z.z.z.z.b.(.^.^.z.z.z.z.z.z.z.z.z.z.z.z.z.z.z.z.b.z.z.z.z.z.z.z.v.n.j.i.&.H k p p p l j j j j j j j j j j j j j j j j j j j j j j j j j j j j j j j j j j j j j j j j j j j j p p p p j p j j l l j j j j j j j j j j p p p s p p p p p p p p p p p p p p p p f f f s p s f s p i p p s a a i i a p p p p p p s s a a a a d a a i i i d a d a f s p p L U P K G H H G G G G k k k k k j j l j p j p p p i i i i i i i i i i 5 5 4 : : ; # + @ . . .       . + # # ; ; ; ; # + @ . . . @ @ @ + # # ; ; : 4 i p j j k k ",
"H.+.T Y Y H H H W Q $.Q T W Y G k k k G L c x j j G Y *.O.$.Y G i i p k K W O.+.+.+.+.+.+.+.=.=.=.=.=.=.=.=.=.=.=.=.=.-.-.-.-.-.a.a.a.a.a.a.a.a.a.-.-.-.;.1.1.O.H k L ( L c b b I b b b b b l j z z L I L L L L J G G J J G J K U U U U U U U U J J J J L P L J ) ! ! ! ! ! R ~ R ~ ~ E W W E 3.~ ~ 3.} ~ ~ ~ ~ ~ ~ ~ ~ &.&.&.&.&.2.2.r.r.r.2.2.2.&.&.3.3.~ E ~ R W W R R Y R R R R R Y R R R ! G L U U U P L L L L c c x x j s 9 8 8 4 i k @.J.'.`.[.[./.^.c.x.l.l.l.l.z.z.z.z.z.b.(.(.^.z.^.^.z.z.l.l.l.l.l.l.l.l.z.z.z.z.z.z.z.z.z.z.c.v.j.q.r.K p 5 : : ; : ; ; ; ; ; : ; : : : : : : : : : : 4 4 4 4 : : : : : : : : : : : : : : : : : : : : : : ; ; ; ; ; : ; ; ; : ; ; ; : : : : : : : : ; ; ; ; ; ; ; ; ; ; ; ; ; ; ; ; ; ; ; ; ; ; ; ; ; ; ; ; ; ; ; ; ; ; ; ; ; ; ; ; ; ; ; ; ; ; ; ; ; ; ; # # # # # ; ; ; ; ; ; : 4 l J K G G G H G G G G k k k k k j j j j p j p p p p i i i i i i i i i 5 5 4 : : ; # + @ . . .       @ + # # ; ; : ; # + @ . . . . @ @ + # # > : : 5 i p j j k k ",
"K.>.T Y Y Y Y Y W Q $.T T W H G G k k k k c z z k G Y *.$.&.Y G p i p k K T O.+.+.+.+.+.+.+.=.=.;.=.=.=.;.-.;.=.=.=.=.-.-.-.-.-.a.a.a.a.a.a.a.a.a.-.-.d.,.1.1.+.Y Y ~ 7.&.T E E &.~ R ! ! ! ! H R E ~ 3.~ ~ ~ &.&.&.&.*.*.*.*.2.*.*.*.*.*.*.*.*.0.<.8.<.u.u.u.u.u.<.<.<.<.;.;.<.<.5.i.1.;.;.1.H.1.1.1.1.1.1.1.1.K.H.Z.j.j.j.j.j.d.d.M.M.I.J.J.M.J.M.M.M.J.N.N.H.H.j.j.H.H.j.j.H.j.1.1.1.,.1.1.1.<.w.w.w.w.0.0.0.0.9.7.7._ _ _ ( C h h s p k @.k.'./.[.[./.(.c.x.l.l.l.z.z.l.z.z.z.b.(.(.z.z.^.^.l.l.l.l.l.l.l.l.l.l.l.l.l.l.b.z.z.z.z.z.v.k.j.0.T k i 5 4 : ; ; : ; : : : : : 4 : : : 4 4 4 4 4 4 4 4 4 4 4 4 4 4 4 4 4 4 4 4 : : : : : : : : : : : : : : ; ; ; : : : : : : : : : : : : : : : : ; ; ; ; ; ; ; ; ; ; ; ; ; ; ; ; ; ; ; ; ; ; ; ; ; ; ; ; ; ; ; ; # # # # ; ; ; ; ; # ; ; # # # # # # # + @ @ @ + @ + # + @ @ + ; j G J G G G H G G G G G k k k z j j j p p j l p p p i i i i i i i i i 5 5 4 : : # # + @ . . .     . @ # # # ; ; ; ; # + @ . . . . . @ @ # # ; , : 4 i s p j k k ",
"K.>.O.T Y W R W Y T T T T Y H G G k k j j j k k G H W T $.$.T H p i p k R Q O.O.+.+.+.+.+.+.+.=.=.=.-.;.=.=.=.=.=.=.-.-.-.-.a.a.a.a.-.a.a.a.a.a.a.s.s.a.g.,.1.*.Y Q %.>.<.<.;.+.<.+.T E ~ ~ &.$.@.@.@.#.#.;.;.;.=.=.-.-.-.-.:.:.-.-.-.g.g.d.j.j.g.g.-.g.g.d.g.g.-.-.a.a.a.a.a.a.a.a.f.a.a.f.f.f.f.s.f.s.f.s.f.s.x.x.x.x.x.v.x.v.l.c.c.c.c.(.'.c.(.(.c.c.c.c.c.c.c.m.x.m.m.m.m.m.c.c.b.b.b.b.b.c.x.x.l.c.c.m.m.n.k.j.j.5.i.<.<.*.#.&.} P j k O.k.(././././.^.b.c.l.l.z.z.z.b.z.z.z.z.z.z.z.z.z.z.z.z.z.l.l.l.l.l.l.l.l.l.x.x.v.b.l.z.z.z.l.s.j.1.&.G p p j z k k k J k k L J G K H G G K K H G G H H H K K K H H K K H G G G G G J L L J z J k j k j j j z z j j k j k z z k j z j j j z j p j l p f p i i p f p f p p p l l p p p p p i p s p i i i i i i i i i 5 5 5 5 5 5 5 5 4 5 5 4 4 4 4 4 4 4 : ; > ; # # # # ; ; # + @ ; b G G G G G G G J J J J k k k k k j k k j j p p f p p i i i p i i i i 5 4 : ; ; # # + @ . . .   . . + @ + ; # ; , ; # @ . . . O = . . $ * # ; : : 4 5 p p j j j ",
"K.>.O.T Y Y Y Y Y T T T T Y H G G k j j j j j k G H W T $.$.T H j i j k R &.O.O.+.+.+.+.+.+.+.=.=.=.=.=.=.=.=.=.=.=.-.-.-.-.a.a.a.a.-.a.a.a.a.a.s.s.a.a.-.-.;.+.Y T +.=.-.:.-.=.-.=.O.T R E $.$.O.O.+.+.;.;.:.-.-.-.-.-.a.g.d.d.a.a.a.g.f.f.f.f.f.f.s.f.f.f.f.a.a.a.a.f.f.f.f.a.a.s.s.s.s.x.x.l.l.l.l.l.l.l.l.l.v.v.v.v.z.z.b.z.z.c.(.^.^.(._.^.^.^.^._.^.^.^.^.b.z.z.b.(.(.(.(._._._.`.^././.^.(.(.^.^.].].(.b.v.f.f.d.d.g.-.-.-.-.;.Q k G +.f._./.^./././._.c.l.l.z.z.z.z.z.z.z.z.z.z.z.z.z.z.z.z.l.l.l.l.l.s.s.s.l.l.l.l.l.l.l.z.z.z.l.s.d.1.*.W G G ! ~ ~ E @.@.@.$.8.&.&.*.#.#.#.#.#.#.#.#.;.;.;.<.<.<.<.#.<.*.*.*.#.#.@.@.&.&.&.~ ~ &.Q Y ~ E E ~ _ _ ~ R ~ E E ~ ~ E E ~ R R E ~ R Y R ~ ! ! ! K K P ! P P K H P ! P K K K P K G K U P G J G G G J J J J I z z b b z z b j l l l l l l p l p i a 7 6 4 4 4 4 4 8 : # # : z G G G G G G G J J J k k k k k k k k k k j p p p p p i i i i i i i i 5 4 : ; ; # # + @ . . .   . . + @ + ; # ; > ; + @ . . . O O . . % $ # # : : 4 5 p p p j j ",
"K.>.O.T Y Y Y Y Y T T T T Y H G G k j j j j j k G H W Q $.&.$.H p i p k R ~ O.O.+.+.+.+.+.+.+.=.=.=.=.=.=.=.=.=.=.=.-.-.-.-.a.a.a.a.a.a.a.a.a.a.a.s.a.a.-.-.;.O.Y Y +.=.-.:.:.;.=.+.O.R K K ! ~ Q O.O.O.+.#.<.1.1.;.;.;.1.,.,.,.j.g.g.g.g.g.g.g.j.j.g.j.j.j.j.g.g.j.j.j.j.j.g.g.g.g.g.h.h.k.k.h.k.k.k.k.k.k.k.k.v.v.v.k.v.v.v.x.x.m.m.c.c.c.b.c.b.b.b.b.b.c.c.m.b.v.v.m.m.m.m.m.m.'._._.b._.b.b.m.m.m.c.m.m.v.v.n.k.h.g.f.g.a.a.a.-.<.@.G G ;.k._./././././.b.b.l.l.l.z.z.z.z.z.z.z.z.z.z.z.z.z.z.z.l.l.l.l.s.s.l.l.s.s.l.l.l.l.l.l.z.z.l.l.f.1.<.T Y T r.u.u.<.1.1.;.<.q.i.0.<.i.1.:.j.j.j.Z.A.j.j.j.j.k.j.j.j.j.j.j.1.,.1.1.1.1.1.<.<.<.<.;.%.;.;.*.*.*.*.*.*.<.*.;.<.<.*.*.<.#.*.*.*.*.#.*.*.&.&.&.$.$.&.8.*.&.&.&.&.&.&.&.&.$.&.$.T O.&.&.T Q Q Q E ~ ~ ~ E ~ E R ~ ~ R R ! ! ! ! P P U P U U U I b b v x f x x x f d 4 : 5 z H H G G G G G J J J k k k k k k k k z k j p p p p p p p i i i i i i 5 4 : ; ; # # + @ . . . . . . + @ + ; # # > ; + + . . . . . . . + + + # : : 4 5 s f j j j ",
"H.>.O.Y Y Y H Y Y T T T T W Y H G k k j j j k k G H W $.&.*.O.Y p i p k R ~ O.O.+.+.+.+.+.+.+.=.=.=.=.=.=.=.=.=.=.-.-.-.-.-.-.a.a.a.a.a.a.a.a.a.a.s.s.a.a.-.;.O.H Y O.=.=.:.:.;.=.+.E G j l b I P H Y Y W E &.&.&.&.$.$.&.*.*.&.*.*.8.*.8.*.8.*.8.*.*.*.8.8.8.*.*.*.*.*.*.*.*.*.%.<.<.;.<.<.0.<.<.<.<.<.<.<.<.<.<.<.<.<.1.1.1.,.,.,.j.j.j.j.j.j.k.j.k.j.k.A.A.Z.j.j.j.j.k.k.k.k.k.k.k.k.k.k.k.k.j.j.j.j.j.j.j.1.q.1.,.-.a.g.a.a.a.a.1.O.G H ;.f.`./././././.^.z.l.l.l.z.z.z.z.z.z.z.z.z.z.z.z.c.z.z.z.z.l.l.l.l.l.l.l.l.l.l.l.l.l.l.l.l.l.l.f.j.>.O.T $.w.H.Z.k.f.f.a.-.Z.q.>.>.q.,.g.j.h.h.A.A.h.f.f.f.f.k.d.g.j.j.j.d.g.-.-.-.j.j.,.,.,.,.-.>.=.;.;.;.>.>.>.=.>.>.>.>.>.>.>.>.=.=.>.>.=.+.>.>.+.%.%.+.%.;.<.<.<.%.%.%.%.+.%.;.%.%.%.+.+.*.%.+.%.+.+.+.%.+.%.O.O.O.O.@.@.T Q Q ~ ~ ~ E E ~ ~ Q Q ! ! U U I I L L L I C x i 5 i J K K H G G G G J J G G G k k k k k k k k j p p p p p p p i i i i i i 5 4 : ; ; # # + @ . . . . . . = @ + # # ; ; ; + + @ . . . . . @ + + + ; : : 4 a s l j j j ",
"H.+.T Y Y Y Y Y T T $.$.T W Y H G k k k j k k k G H W $.&.*.O.Y p i p k R ~ O.O.+.+.+.+.+.+.=.=.=.=.-.-.=.=.=.=.=.-.-.-.-.-.-.a.a.a.-.a.a.a.a.a.a.a.a.a.-.,.;.O.H Y O.=.-.-.;.;.;.O.H j i 5 d d p p p p j l c b I z k k b I b z L L L L L J L J L L L J L L L J L J L J L J L J J K U K P P P U U U U U U U U U P P P P P P P P H R R R R ~ ~ ~ ~ E ~ ~ ~ ~ ~ ~ ~ E E ~ ~ 3.3.&.3.3.&.3.3.&.&.3.} / } } } } } ~ ~ E Q O.=.-.a.a.s.g.,.+.H H <.n.]./././././.^.b.l.z.z.z.z.z.z.z.l.z.z.z.z.z.z.c.z.z.z.z.l.l.l.l.l.l.l.l.l.l.l.l.l.l.l.l.l.l.f.k.,.+.+.>.Z.D.G.m.c.c.s.a.Z.q.>.>.1.1.-.g.g.h.S.A.h.f.g.g.d.k.j.d.j.j.j.j.g.,.,.,.j.d.-.-.-.-.-.,.;.1.1.;.;.>.>.=.>.1.1.1.1.1.1.>.>.>.>.>.>.>.>.>.>.>.>.;.>.1.q.1.>.=.=.;.=.+.+.;.<.<.<.;.>.<.<.;.+.+.+.+.+.+.+.+.+.O.O.@.O.O.O.$.O.&.&.$.O.&.&.Q Q Q ~ ! ! ! K ! W W U U k p i i U K H K K K G G G G G G G k k k k k z z k j p p p p p p p i i i i i i 5 4 : : ; # # + @ . . . . . . * + # ; # ; ; # # + @ . O O . . @ + + # ; : : 4 i s f j j j ",
"i.+.T Y Y Y Y Y T T O.O.T Y Y H G k k k k k k k G H W $.&.*.O.Y p i p k R ~ O.O.+.+.+.+.+.+.+.+.=.=.=.=.=.=.=.=.=.-.-.-.-.-.-.a.a.a.-.a.a.a.a.a.a.a.a.a.-.-.;.O.Y Y O.=.-.-.;.;.<.O.G i : ; ; : : : : : : 4 4 4 4 4 4 4 4 4 4 4 4 4 4 4 4 4 4 4 4 4 4 4 4 5 4 4 4 4 5 5 5 5 5 5 5 5 5 5 5 5 i 5 5 5 5 5 5 5 5 5 5 5 5 5 5 5 5 5 5 i i i p p f p p p p p p p p p p p p p s l l j j l l l l l l l p p s s s h h f p j k Y O.=.a.s.v.f.j.%.H Y <.v.`./././.[./._.b.z.z.z.z.z.z.z.z.l.l.z.z.z.z.z.z.z.z.z.z.z.l.l.l.l.l.l.l.l.l.l.l.l.l.l.l.l.x.f.h.g.=.+.-.h.v.b._.b.b.s.-.>.%.T Q *.&.%.<.q.w.w.w.1.;.;.;.;.<.<.<.<.<.<.<.;.;.*.*.;.#.+.#.*.#.#.#.O.*.*.O.O.&.*.$.%.*.8.*.%.*.*.*.%.*.*.%.%.*.9.*.O.*.*.$.%.*.*.*.%.O.O.$.%.O.O.$.*.&.*.$.&.&.&.&.O.O.O.&.&.&.O.O.@.Q Q E E T T E E E E W W R R W ! ! ! ! H H H Y W W ! P k p i p U K K K P P H G G G G k k k k k k k z z j j p p p p p p p i i i i i i 5 5 4 : ; # # + @ . . . . . . * + # ; # ; ; # # + @ . O O . . @ @ + # ; : : 4 5 p p j j j ",
"i.%.T Y Y Y Y Y T O.O.$.T Y Y H G k k k j k k k G H W Q &.&.O.H p i p k R ~ O.O.+.+.+.+.+.+.+.+.=.=.-.-.=.=.=.=.-.-.-.-.-.-.a.a.a.a.a.a.a.a.a.a.a.a.a.a.-.-.;.+.Y T +.-.g.-.-.-.1.*.H i ; @ @ @ . . . . @ @ @ @ @ + + @ @ @ + + @ @ @ @ @ @ @ @ + @ @ @ + + + @ @ @ + + + + + + + + # + + # # + + @ + + + + + @ + + + + + + + + + # # # # ; ; ; ; ; ; ; ; # # # ; ; # ; ; ; ; ; ; ; ; ; ; ; ; ; # # # # # # # ; : 4 i k T >.j.k.b.v.h.;.Y Y >.v.`./././.[./.^.b.z.z.z.z.z.z.z.z.z.l.l.l.z.z.z.z.l.l.z.z.z.l.l.l.l.l.l.l.l.l.l.l.x.l.l.l.l.x.x.f.a.=.=.-.s.b._.^.z.c.g.+.T H k z I J J K ! W W W R Y H H Y R R R K K K H K K K H H H H K K H G G G K K G G G J J G K P K K K P G J K K G G K K G G G H G G K K K K G G K K K H G G G G G H G G G G G J J K K G G G k k k k k k k z z z j j k z j z z k j k k G H R K K J j i i p K K K K K K H G G G G G G G G G k k k k j j p p p p p p i i i i i i i i 5 4 : ; ; # + @ . . .     . * $ # > # ; ; ; + + @ . . . . . @ + # # ; ; 4 5 i i p j j k ",
"i.+.T Y Y Y Y Y O.O.O.O.T Y Y H G G k k k k k k G H W Q $.&.$.H j i j k R ~ O.O.+.+.+.+.+.+.+.+.;.-.-.-.-.=.=.=.=.-.-.-.-.-.a.a.a.a.a.a.a.a.a.a.a.a.a.a.-.,.1.+.T T =.a.a.-.-.-.,.<.! p ; . .                                                                                             .                                               .     . . . . . . .   .     . . . . . . . . . . . . . . . . . . . . . + ; 5 k T 1.k.m._.z.h.=.Y Y =.v.`./././.[.[._.(.z.z.z.z.z.z.z.z.z.z.z.z.z.z.z.z.l.l.z.z.z.z.z.z.l.l.l.l.v.v.v.x.x.x.l.l.z.l.x.f.a.=.=.a.x.b.^.^.z.v.g.O.H p i 7 5 5 5 i p p i p p p p p p p s s p p p i i i i i i i i i i i 5 5 i i s 5 5 i a i i i i i i i i i i i i i i i i 5 i p p i i s s p s i i p s s p i i i p s s i i i i i i i s s i i i 5 5 i 5 5 5 5 5 5 5 4 4 4 5 4 4 4 5 5 i j k G K K J z j i i p G R R K H H H H H H H G J J G G k k k k j j p p p p p p i i i i p i i i 5 4 : ; ; # + @ . .       . * # # ; # ; , > # + . . . . . @ @ + # > ; ; 4 5 i p j j k z ",
"q.+.T T E R Y E O.+.+.O.T Y H H G G k k z z k G G H Q T $.$.O.Y p i p k R T O.O.+.+.+.+.+.+.+.=.=.=.=.=.=.=.-.-.-.-.-.-.-.-.a.a.a.a.a.-.-.a.a.f.a.a.a.a.-.-.;.+.T O.=.a.a.a.a.-.g.>.e.b : @   O   o o                                                                                                           o o                       . . .                                                   O O     O O . + ; i G $.j.m._.^.z.f.=.Y Y =.G.`.[././.[.[.`.(.z.z.z.z.z.z.z.z.l.l.z.z.z.z.b.b.z.z.z.z.z.z.z.z.z.z.z.z.l.l.z.c.l.l.l.l.l.l.s.f.g.=.=.-.x.c.z.z.z.n.,.T j 4 ; # @ + # # # # # # # # # # # # # # # # # # # # # # # # # # # # # # # # # # # # # # # # # # # # # # # # ; # # # # # ; ; ; ; ; ; ; ; # # # # # # # # # # # # # # # # # # # # ; # # # # # # # # # # # # # # # # + # + @ + # ; 4 p z k J J J z l p i p U R R H H K K H G H K P P H G k k k k k k j j p p p i i i i i i i i i i 5 4 : : ; # + @ . .     . . @ + # # ; ; > > < @ @ . . . % @ @ + # > ; ; 4 5 i p l j k z ",
"0.+.T Y Y Y Y T O.+.+.O.T Y H H H G k k z z k G G H Q T $.O.$.Y p i j J R Q O.+.+.+.+.+.+.+.+.=.=.-.=.=.=.=.-.-.-.-.-.-.-.a.a.a.a.a.a.a.-.-.a.a.a.a.a.a.-.-.=.+.O.+.-.a.f.a.a.a.g.,.r.I 4 +   O   o o                           o   o   o   o                                                                                                                                                     o o   o o o   @ ; i G %.k.b._.^.^.x.-.T Y =.G._./././.[.[.`.^.^.z.z.z.z.z.z.z.l.z.z.z.z.z.z.z.l.l.l.l.l.z.z.z.z.z.b.z.z.l.z.c.v.v.b.z.z.l.s.f.-.=.=.-.f.c.^.^._.n.1.E p : + .     . . . . . . . . . .         . . . . .       . . . . . . . . . . .       . . . . . .   . . .   . .         . . . . . . . .   . .     . . . .     . .             . . . . . . . . . . . . . . .                   @ # 4 s z J K J J b z p i p P R H H H K K H G G G K H H G G k k z k k j j p p p i i i p i i i i i i 5 4 4 : ; # # @ . .     . . @ + # ; ; ; > ; # @ @ . . . % + + + # ; ; : 4 5 i p j j k k ",
"1.+.T Y Y Y Y T $.O.+.O.T Y H H G G k k k z z G G H W T $.O.$.Y p i j k R T O.+.+.+.+.+.+.+.+.=.=.-.-.-.-.-.-.-.-.-.-.-.-.a.g.g.a.a.a.a.-.-.a.a.a.a.a.-.-.-.;.+.O.+.-.s.a.a.a.a.s.g.u.U 5 ; . . o                                                                                                                                                                                                   o o o o   o . ; i G *.k.b.^./._.v.-.T Y =.G._./././.[.[.`.^.^.^.^.^.^.^.^.z.z.z.z.z.z.z.z.z.z.z.z.l.z.z.z.z.z.z.b.b.z.z.z.c.b.b.b.z.z.l.s.d.-.=.=.-.f.x.(.(._.m.Z.~ l : @                                                                                                                                                                                                                       . ; 7 b U P ! K K J z j j j H H H H H H K H G G G G G G G G k k z z j j p p p p i p p p i i i i i i 5 4 4 : ; ; # @ .       . . @ # # ; ; ; ; ; # + @ . . . . + + # # ; : : 4 5 i p j k k k ",
"i.+.T T Y Y T T O.+.+.O.T Y H H G G G k z J J G G H W T $.&.O.Y p i p k Y T O.O.+.+.+.+.+.+.+.=.=.-.=.-.-.-.-.=.-.-.-.-.a.a.g.g.a.a.a.-.-.-.-.-.a.a.a.a.-.-.;.;.O.+.a.s.f.a.a.a.l.g.q.! a : + . O X                                                                                                                           .                         .                                           X o o o   o . ; i J *.j.m.^.`.`.m.-.T Y =.v._.[././.[.{.[.`.^.^.^.^.^.^.^.^.z.z.z.z.z.z.z.z.z.z.z.z.z.z.^.(.^.z.b.b.z.z.l.l.b.b.b.z.z.l.s.a.-.=.=.-.f.x.(.).^.b.Z._ x : @                 X                                                             o                                       o   o   o o o   o   o   o o o X o o o o o   o o o   o   o o o         o     o o o o o o o   X   . ; h ' ) W W Y H K G k j k P H H H H H H H H G G G G G G G k k z z j p p p p p p p s s i i i i i i 5 4 4 : ; ; # @ .         . @ # ; ; ; ; ; ; # # @ . . . @ + + # # ; : 4 4 5 i p j k k k ",
"i.;.T T T E E T O.+.+.O.T Y H G G G G k J J J G G H W T $.&.O.Y p i p k R T O.O.+.+.+.+.+.+.+.=.=.-.-.-.-.-.=.=.-.-.-.-.a.a.a.a.a.a.a.g.-.-.-.-.a.a.a.a.-.-.=.+.O.+.-.g.f.a.a.a.l.s.q.Q p 4 ; # .                                                                                                                           . .             . . . . . . . . .                                 .       X X     O . ; 5 J *.j.x.^./.`.m.-.T Y =.k._.`././.[.{. X/.^.^.^.^.^.^.^.^.z.z.z.z.z.z.z.z.z.z.z.z.z.^.^.^.^.z.z.z.z.z.l.l.b.b.b.z.z.l.x.f.-.=.=.-.f.l.^.^.^.b.j.&.x : + . o o                   X                                                     o                                                                                                                           o   o   X   @ : v ] ~ T T Y Y H G k j k P H H H G G G G K K G G G G G k k k z k j j p p p i p p s s p i p i i i 5 5 4 : : ; # @ .       . . + # ; ; ; ; , ; ; # . . . . % + + # ; : : : 4 5 p j j k k k ",
"1.+.O.T T T T O.O.+.+.O.T Y G G H H G k J J J G G H W T &.*.&.Y p i j J R Q O.+.+.+.+.+.+.+.+.=.=.-.-.-.-.-.=.=.-.-.-.-.a.a.a.a.a.a.a.a.-.-.-.-.a.a.a.-.-.=.=.+.O.+.-.g.a.a.a.a.l.a.j.Q j 5 : , + .     .         . . . . . @ @ @ . . . . . . . @ . . . . . . . . . . . . . . . . . . . . . . . @ @ @ @ @ @ @ @ @ @ @ + + + + @ @ @ @ + + + + # # # # # # + + + @ @ @ @ @ @ @ @ @ @ @ @ @ @ @ @ @ . . .   . O % + : i K *.k.c.^././.m.:.E Y +.k._./././.[.[. X/./.^.^.^./.^.^.^.^.^.z.z.z.z.z.z.z.z.z.z.z.z.^.^.^.z.z.z.z.z.l.l.b.b._._.z.c.x.f.-.=.=.g.x.c.^.^./.b.j.&.l : +   . . . .                                                                                                                                                                                                             + 4 v U T T T Y Y H G k j j ! H H H H G G G K J J G G k k k k k k k j j p p p i p p s s p i p p i i i 5 4 4 : ; # + .       . . + # ; ; ; ; , > ; # @ . . . $ + + # > , : : 5 i p j l k k k ",
"1.+.O.T T T T O.O.O.+.O.T Y H G G G G G G k k G G H W T $.*.O.Y j i j J R Q O.+.+.+.+.+.+.+.;.;.=.-.-.-.=.-.-.-.-.-.-.-.a.a.a.a.a.a.a.-.-.-.-.-.-.-.-.-.-.-.=.+.O.+.,.a.d.a.a.a.l.s.Z.&.k i 5 r 1 # # # # # # # # # ; ; ; ; ; ; : ; ; ; ; ; ; ; : : ; ; : : : : ; ; ; ; ; ; ; ; ; ; ; ; ; ; ; ; : : : : : : : : : : 8 4 4 4 : : : 4 4 4 4 4 4 4 5 5 5 4 4 4 4 4 4 : 4 4 4 4 4 4 : : : : : : : ; ; ; # + + e e < ; 5 j Y ;.f.(./././.m.:.T Y =.k.b./.)./.[.[. X/././.^.^.^.^.^.^.^.^.z.z.z.z.b.b.z.z.z.z.z.z.^.^.^.z.z.z.z.z.l.l.b.b.b.z.z.b.x.f.g.-.-.g.v._./././.c.d.~ l 4 + . % . . . . .                                                                                                                                                                                                         # 9 b ! T T T Y Y K J j p j U K H H G G G G G G G G G k k k k k k j k j j p p p i p s p s p p p i i i 5 4 : : ; # + .       . @ + $ ; ; ; ; , > < + @ . . . % + # # ; ; : : 4 5 p p j k k G ",
"1.;.O.T T E O.O.O.O.O.$.T Y H H G G G k k k k k G H Y T &.&.O.Y j i j J R Q O.+.+.+.+.+.+.+.;.;.=.-.=.=.=.=.-.-.-.-.-.a.a.a.a.a.a.a.a.-.-.-.-.-.-.-.-.-.-.-.-.;.T O.=.-.g.a.a.a.l.l.A.#.G j p S g 4 : : 4 4 : 4 4 5 7 7 i i i i h h s a i i i i f s i s s f s s f f f f f s f s f f f f f f f f v v v v v v v v l l x b c l j j j j j j k k k k c z k k k k k z l j l l l z z z z z z j j p p p i 5 4 : : r r 0 : 5 j T -.v._././.`.m.d.T T =.n._.`.}.}.[.{.[./././.^.^.^.^.^.^.^.^.z.z.z.z._.b.z.z.z.z.z.z.z.z.^.z.z.z.z.z.l.l.l.l.z.z.z.z.x.f.g.-.-.g.b.'./././.z.d.E z 5 ; + $ # + + + @ . . .   .       . . . . . . . . . . . . . . . . . . . . . . . . . . .       . .                                                                       .                                               . ; d I ! Q O.T T Y K I j p p U H H H H G H K G G G G G G k k z k j j j l j p p p i i p p s s p p i i 5 5 4 : : ; # + .       . @ + # # ; ; ; 1 1 > # @ . . . + # # # # ; : : 4 5 p p j j k k ",
"1.+.T T T E T T T O.O.$.T Y H H H G G G k k k k G H W &.Q Q O.Y j p j K W O.O.+.+.+.+.+.=.;.;.=.=.=.=.=.-.-.-.=.-.-.-.-.-.-.a.a.a.-.-.-.a.a.a.-.-.a.a.-.g.j.-.=.T O.,.a.g.f.a.s.l.v.h.;.T H H U l p i p l x l j c z k k G G H K G G G H R Y Y Y T W R R Y Y R W Y E E Y Y R E Y W W W W R R W W E T T T O.O.O.O.O.O.O.T O.O.@.@.E E E T @.O.O.O.*.+.+.+.*.#.@.O.@.E E E @.@.@.#.#.*.*.*.&.T W H Y K I p 5 9 F 9 : 4 j T -.v.b.^.`.^.m.d.T T -.v._./././.[.[./.^./././.^.^.^.^.^.^.z.z.z.z.z.z.z.z.z.z.z.z.z.z.z.z.z.z.z.b.z.l.l.l.l.l.z.z.z.l.a.g.-.-.s.v.b.^.^.^.z.d.*.J i 8 0 t # # # # # # # # # # # + + # # # ; : : > # + # # # ; ; ; : ; ; ; ; ; ; ; ; ; ; # # # # # # # # # # # # # # + + # # # # + + + @ + @ + @ @ @ @ @ @ . . . . . . . @ + + + + @ @ . . . @ . . . . . .   . .       % + # : i L ~ Q T T T Y R K k j k H H H H H H H H G G G G G J G k k z z j j l l p p p p p p p p p p p i 5 5 4 4 : : ; # # . .       . # ; ; ; ; ; 8 8 , # . . . . + + + # # ; : 4 4 5 p p j j k k ",
"1.+.T T E E E E T O.$.$.T Y H H H H G G k k k k G H W Q Q Q E Y j p k H T O.O.+.+.+.+.=.;.;.=.=.=.=.=.=.-.-.-.-.-.-.-.-.-.-.a.a.a.-.-.-.a.a.a.a.-.-.-.-.a.d.-.=.T O.,.a.g.f.a.s.l.v.k.-.O.Y T T J k k k J K J K P R Y Y T T T O.T E O.+.+.+.+.=.;.=.+.+.+.+.=.=.+.;.;.=.+.;.;.+.;.;.;.;.;.;.;.;.=.-.-.-.-.-.-.-.d.a.a.-.a.d.:.:.;.;.=.=.-.a.g.a.f.a.a.a.g.a.a.-.:.:.-.:.:.d.d.f.f.f.f.k.j.-.;.+.+.@.~ k p p [ f : 4 j T ;.n.b.^.`.^.m.d.O.T -.v.`./././.[.[./.^././.^.^.^.^.^.^.^.z.z.z.z.z.z.z.l.l.z.z.z.z.z.z.z.z.b.b.b.z.l.l.l.l.l.z.z.z.l.a.h.a.-.f.m.b.^.^.^.z.g.+.H p 5 q A : : : : 4 4 4 4 4 8 4 6 8 4 5 5 i i a a 7 6 4 4 4 4 5 5 5 5 5 5 5 5 4 4 4 4 4 5 4 4 5 5 5 4 4 4 4 4 : : : : : : : : : : : : : : : : : : : : : ; ; ; # # # ; ; ; ; : : : ; ; # # # ; # # # # # + + @ @ . . . * ; ; 4 p L ! Q T T T T R ! G k k H Y H H H H H H G G G G G J G k k k k j j l l f p p p p p p p p p i i 5 4 4 : : : : ; # @ .       @ # ; ; > > ; : : ; # . . . + + + + # # ; : : 4 5 i p j j k k ",
"1.+.O.T E E E E T O.$.T T Y H H K H G G J z k G G H Y Q Q O.E Y j p j G T O.+.+.+.+.+.=.=.;.=.=.=.=.=.=.-.-.-.-.-.-.-.a.a.a.a.a.a.a.-.-.a.a.a.a.-.-.-.-.-.d.-.+.O.O.,.g.g.f.a.a.v.v.k.,.O.T T ~ R H H K R W T E ~ O.$.O.+.+.;.;.#.;.=.:.g.g.g.g.g.j.g.-.-.-.g.g.-.g.g.g.a.j.g.-.-.g.-.-.g.g.g.g.d.f.f.f.f.x.x.x.x.x.x.x.n.n.f.f.a.a.a.f.f.x.v.v.b.b.b.c.b.v.v.v.v.x.f.f.x.x.c.b.b.b.b.b.v.k.h.g.-.1.r.R k j ..x 4 4 j Y ;.f.b.^.`.^.m.d.O.T -.v.`./././.[.[././././././.^.^.^.^.^.z.z.z.z.z.z.z.l.z.z.z.z.z.z.z.z.z.z.z.b.z.l.l.l.l.z.z.z.z.l.s.f.a.-.h.v.b.^.^.^.l.g.+.H j i g F 5 5 i i v f x c c c x v l z z L G G G L L z l ' b I L L L I I I I I b b b b b l l l l z z l l l l l v x h x s p p p p p i p i s s s a a a i a d a 5 5 7 7 7 5 5 5 i a a 7 7 7 4 5 4 4 4 4 4 : : , ; ; # # & e 3 4 5 p L ~ Q T T T T R P G k k ! W R H H H H H G G G G G G G k k k k j j l v l p p p p p p p p p p i 5 5 4 4 : : : ; # @ .       @ # ; ; > > ; 8 8 , # . . . @ + + # # ; ; : : 4 5 i p j j k k ",
"1.=.O.T E E Y T $.O.$.T T Y H G H H G G k z J G H H Y Q Q @.@.Y j p j G T O.+.+.+.+.=.=.=.=.=.=.=.=.=.=.-.-.-.-.-.-.a.a.a.a.a.a.a.a.-.-.a.a.a.a.-.a.a.-.-.g.-.+.O.O.-.a.a.f.a.a.v.v.f.-.O.E Q &.E Y E Q O.O.O.#.+.+.;.=.;.:.:.:.-.a.g.f.v.x.v.x.v.k.h.f.f.s.s.s.a.f.v.k.v.v.f.a.s.s.s.s.s.s.s.s.x.l.l.l.c.c.b.b.b.b.b.b.b.c.l.l.l.l.l.c.b.(.^.^.`.`.`._.`.`._._._._._._.(.(.^.^./././._._.b.b.v.x.f.H.&.H k | c 4 5 k T ;.f.c.^.`.^.m.d.O.T -.v._./././.[.[././././././././.^.^.^.^.z.z.z.z.z.l.l.l.z.z.z.z.z.z.z.z.z.z.b.z.l.l.l.l.z.z.z.z.l.s.k.-.-.g.v.c.^.^.z.l.-.O.H j p h [ s p j c ( U ! ~ Q Q W R W Q Q $.O.O.O.$.&.~ E ~ ~ ~ E Q Q Q ~ ~ E ~ R R W ! R R R R R R E R R R R P P K K K K H H K K K J J J U U U L L L L L L L z z z l v l j z z z z z l v x l l l l f s a d g 7 8 : ; 1 r 0 7 5 p L ~ Q T T T Y R K G k k ! R R Y H H H H H H G G G G G k k k k j j j l l p p p p p p p p p p i i 5 4 4 : : : ; # @ .       @ ; ; ; > > ; 0 0 1 ; . . . @ + + # # ; ; : : 4 5 i p j j k k ",
"Z.;.O.T T T T T O.O.$.T Y H H G H H G k k k G G H H W ~ O.&.&.Y j p j G E O.+.+.+.=.=.=.=.=.=.=.=.=.=.=.-.-.-.-.-.-.a.a.a.a.a.a.a.-.-.a.a.a.a.a.-.a.a.-.a.g.-.+.O.O.-.a.a.f.a.a.l.v.h.-.O.T Q &.O.O.O.#.#.+.=.;.=.-.-.-.a.a.f.f.a.s.l.l.z.b.b.z.c.x.x.x.x.v.b.b.v.c.b.b.b.b.c.v.v.v.v.c.b.b.b.b.z.z.z.z.^._.`._.`.`.`.`.].)._.^.^.^.^._.`.`.`. X X X X X X X X X X X/././. X X X X X X/./.`._._._.c.I.>.T H } L 5 5 k T -.f.c.^.`._.m.d.O.T -.v.^./.^./.[.[././././././././.^.^.^.^.z.z.z.z.z.l.l.l.z.z.z.z.z.^.z.z.z.z.z.z.z.z.z.z.z.z.z.z.z.l.k.-.-.g.v.v.b.(.l.f.-.O.G j p x [ k G H W 7.9.8.<.,.=.=.=.=.=.-.-.a.a.a.-.-.-.:.;.;.;.=.=.=.=.=.=.=.=.+.+.+.+.+.=.=.=.;.;.;.;.+.+.+.+.+.+.O.O.O.O.O.O.O.O.O.O.$.$.$.$.$.$.$.$.$.$.$.Q T W R R K H Y Y R R R R ! P P P P U L J z c x f i 5 4 8 q q 7 i j P ~ $.T T T Y K K k k k ! R Y H H H H H H H G G G G G G J z k j j j j j p p p p p p p p p p p i 5 4 4 : : : ; # @ .       @ ; ; ; > > ; : : : # . . @ % + + # # ; ; : : 4 5 i p j j k k ",
"Z.>.+.T T T Y T $.O.$.T T Y H G H G G k k G G G H H Y &.&.*.@.Y j p j G W O.+.+.+.=.=.=.=.=.=.;.=.=.=.-.-.-.-.-.-.-.a.a.a.a.a.a.a.a.a.a.a.a.a.a.-.a.a.a.g.d.-.=.O.O.-.-.a.d.a.a.l.v.f.-.O.T T #.+.+.+.=.;.=.-.-.a.a.f.a.a.s.x.s.l.l.z.z.^.^.^.^.(.c.b.z.z.z._._.z.z.z.z.z.z.z.z.b.b.b.(.(.(.(.(.^.^.^.^./././././././.}.`././.^.^.^./././.[.[.[.{.[.[.[.[.[.[.[.[.[.[.[.[.[. X[.{.{.{.[..X X`.`. X`.F.g.O.Y y.P i i k T -.n.c._.`.^.m.d.O.T -.b.^./././.[.[././././././././.^.^.^.^.z.z.z.z.z.z.z.z.z.z.z.z.^.^.z.z.z.z.z.z.z.z.z.z.z.z.z.z.l.l.k.-.-.g.n.v.b.b.l.a.=.O.H j j x | G Y T $.0.>.1.g.f.a.a.a.a.s.s.s.l.l.l.s.s.a.f.n.n.n.v.v.k.v.k.h.h.h.g.g.j.j.j.a.a.a.a.a.a.a.a.a.a.-.-.-.-.-.-.-.-.-.-.-.-.-.,.-.-.,.>.-.=.-.=.,.>.=.+.+.@.O.O.O.O.O.+.O.O.O.@.$.$.O.Q Q Q W K P J c x i 5 5 d g a i j P ~ $.T O.T Y K K k k k ! W Y H H H H H H G G G G G G J L z k k j j p j p p p p p p p p p p i i 5 4 4 : : : ; # @ .     . @ ; ; > > # ; 8 8 , # . . @ @ + # # # ; ; : : 5 5 i p j k k k ",
"J.,.+.O.T T T T O.O.$.T W H G G H H G G G G G G H H Y &.&.*.@.Y j p j G W O.+.+.+.=.=.=.=.=.=.;.=.-.-.-.-.-.-.-.-.-.a.-.a.a.a.a.a.-.a.a.a.a.a.a.a.a.a.a.g.d.g.=.O.O.-.-.a.d.a.s.l.v.f.-.O.T O.+.#.+.+.=.:.:.-.a.a.f.s.a.a.s.x.s.l.z.z.z.^.^.^.^.^.z.z.z.z.^.^.^.z.z.z.z.z.z.z.^.^.^.^.^.^.^.^.^./././././.}.}.[.[.[./.[./././.^.^.^.^././.[.[.[.[.[.[.[.[.[.[.[.[.[.[.[././././.[.[.[.[.[.[.).[..X`.'.g.+.T y.P i i G T -.v.'.].`.^.m.d.O.T -.b.`./././.[.[.[./././././././.`.`.^.^.z.z.z.z.z.z.z.z.z.z.z.^.^.^.^.z.z.z.z.z.z.z.z.z.z.^.^.z.z.x.f.-.-.g.n.v.b.b.l.a.:.@.H k j k { H T +.=.,.,.g.f.s.s.f.f.f.f.x.x.l.v.l.l.l.l.l.l.z.b.b.z.l.v.v.s.s.s.s.s.f.f.f.l.l.l.l.l.l.s.s.x.f.x.f.f.s.a.a.a.a.a.a.a.a.f.f.f.g.g.a.g.a.a.g.g.a.-.=.;.;.;.;.=.=.=.=.=.=.=.;.;.+.+.+.+.+.$.T Y H L z j i i d d i p k ! ~ $.T T T Y H G k j k ! Y H H Y Y H H H G G K G G G P J z k z k j p j p p p p p p p p j p p i 5 5 4 : : : ; # @ .     . @ ; ; ; # # # 0 0 3 $ . . @ + $ $ # # ; ; : 4 5 5 i p l k k k ",
"J.,.+.O.T T T T T O.$.O.T H G G H H G G J J G G H H Y @.*.*.#.Y j p j J W O.+.+.=.=.=.=.+.+.=.,.-.-.-.-.-.-.-.-.-.-.-.-.-.-.a.-.a.-.-.a.a.a.a.a.a.a.a.a.g.j.g.=.O.O.-.-.a.d.a.s.v.x.f.-.O.T O.#.+.+.+.=.:.-.-.a.a.a.a.a.a.s.s.a.l.z.^.^.^././.^.^.^.^.^.^.^././.^.^.^.^.^.^.^./././././././././././././.[.[.[.[.{.{.[.[.[.[.[./././././.[.{.{.[.{.[.[.[.[.[.[.[.{.{.[.[.}.}.}.}.[.[.[.[.}.}././..X/.(.a.+.T y.P i i G O.g.m.(.].`.^.m.d.O.T -.v.`. X/.}.{.[.[./././././././.`.`.^.^.^.z.z.z.z.z.z.z.z.z.^.^.^.^.^.^.^.z.z.z.z.z.z.z.^.^.^.z.z.x.g.-.=.a.k.v.v.z.l.f.:.#.Y k k k { H $.+.=.-.a.f.s.s.s.s.s.s.l.x.x.l.l.l.z.z.z.l.z.^._._.z.z.b.b.l.l.l.l.l.x.v.x.l.z.l.z.l.l.l.l.l.l.v.l.l.s.s.s.s.s.s.a.s.s.s.s.s.s.s.s.a.a.a.a.s.a.a.-.-.:.:.:.-.-.-.a.-.a.-.-.-.=.=.=.=.+.+.T T Y K L j p i p f p p k ! &.&.$.T Y H H G k j k K Y H H Y R H H H H H K G G G U J k k z k j j j j p p p p p p p j p p i 5 5 4 4 : : ; # @ .     . @ ; ; ; # # # : : ; # . . @ @ $ $ # # ; ; : 4 5 5 i p l k k k ",
"A.,.+.O.T T T T T O.$.T T Y G G H H G G G G G G H Y T *.*.<.*.E j p j G W T O.+.+.=.=.=.=.=.=.-.-.-.-.-.-.-.-.-.-.-.-.-.-.-.a.a.a.-.-.a.a.a.a.a.a.a.a.a.g.d.a.=.O.O.=.g.f.a.a.a.l.b.n.-.O.T O.*.+.+.+.=.-.-.-.-.f.a.a.a.a.a.a.a.l.c.^.^./.}.[././././././.[.[.[././.[./.[.[.[.[.[.[.[.[.[.[.{.{.[.[.[.{.{.{.{.{.2X{.{.{.{.{.[.{.[.[.[.[.[.{.{.{.{.2X{.{.{.{.{.{.6X{.[.[.}.)././.}.}.[.[.[./.}.}.}./.(.a.+.Y t.! i i G +.g.b.`. X`.).b.-.O.T -.m.`./././.[.[.[././././././././.^.^.^.z.z.z.z.z.z.z.z.z.z.z.^.^.^.^.^.^.z.z.b.b.z.^.z.^./.(.^.l.l.h.-.=.-.h.l.v.b.l.f.:.O.H G k J ! Y T +.-.a.a.a.s.s.s.s.s.s.s.x.x.l.l.l.z.z.z.^.z.z.z.z.z.z.z.l.l.l.l.s.l.l.l.l.c.c.v.v.b.c.v.v.l.v.b.b.v.l.l.s.s.s.l.l.s.s.f.f.a.a.a.a.a.a.a.a.a.-.-.-.:.:.=.-.=.-.a.a.a.-.-.a.-.-.-.-.=.+.+.O.@.Y H G k p p s x p j k ! ~ $.T Y Y H G G k k k R Y Y H R R H H H H H H H G G G k k k k j j j j p j j j l j p p j p p i 5 5 4 4 : : : ; + .       + 2 , # + + # : : ; # . . @ @ $ # # ; ; : : 4 4 5 p p j k k k ",
"Z.,.+.O.T T T T T O.$.T T H H G H H G G G G G G H Y T %.*.*.#.E j i j G Y T +.+.+.=.=.=.=.=.=.-.-.-.-.-.-.-.-.a.a.a.-.-.-.a.a.a.-.-.-.-.a.a.a.a.a.a.a.a.s.f.a.=.O.O.-.g.d.a.a.a.l.v.f.-.O.T O.%.+.+.+.=.-.-.-.a.g.a.a.a.a.-.-.a.l.c.].XX XoX|.{.{.{.{.{.{.{.{.{.{.{.{.{.{.{.{.{.{.{.{.{.2X6X2X2X6X3X3X3X3X3X3X3X3X3X3X3X3X3X3X3X4X4X2X2X3X3X3X3X3X3X3X3X3X5X8X8X2X{.{.{.}.}.}.}.}.[.[.[.[.[.{.|.}.^.c.a.O.Y y.P i i G +.h.b.`. X/._.x.-.O.T -.b.`./././.[.{.[./././././././././.^.^.^.^.z.z.z.z.z.z.z.z.^.^.^.^.^.^.^.^.z.(.(.z.^.z.^.^.^.^.l.l.f.-.-.g.h.l.l.b.c.x.j.+.Y G G L ! Y T +.-.a.a.a.s.s.l.l.l.x.f.f.f.s.s.l.z.z.^.^.z.z.z.z.z.z.z.l.l.l.s.s.s.l.l.l.v.v.v.v.v.v.v.v.l.v.b.b.v.l.l.l.l.s.l.l.l.s.s.f.s.s.s.s.a.a.a.a.a.-.-.-.-.:.-.-.-.a.a.a.a.a.a.g.-.-.=.=.=.+.O.O.T Y H G k j p l v j j G ! ~ $.T Y Y H G G k k k R Y Y Y R R Y H H H H H G G G G G G k k k k j j j j j j l j j p j j p i i 5 4 4 : : ; ; + .       + < < # + + # : : ; # . . . + # # # # ; ; : 4 4 5 p p j j k k ",
"Z.>.+.O.T T T T O.O.$.T T Y H G H H G G G G G G H Y T $.+.*.#.Y j i j G Y Q +.=.+.=.=.=.=.=.=.-.-.-.-.-.-.-.-.a.a.a.a.a.a.a.a.a.-.-.-.-.a.g.g.a.a.a.a.a.g.g.a.=.O.+.-.a.a.d.d.f.l.v.a.-.O.T O.+.O.+.+.;.=.-.-.a.a.a.-.-.-.,.>.-.a.x.'.XXoX7X8X8X3X3X6X6X6X6X6X3X6X6X3X3X6X3X3X3X3X3X3X3X8X8X8X3X3X3X3X3X3X3X9X9X9X9X9X9X9X3X3X3X8X5X3X3X3X3X3X3X9X9X9X9X9X3X9X3X3X8X8X8XoX}.}.}.[.[.{.{.{.{.{.{./.^.m.:.O.Y e.K i p H +.f.b.`. X/._.x.a.O.T -.b.`. X/.[.{.{.[.[.[.[.[.[./././.`.^.^.^.^.z.z.z.z.z.z.^.^.^.^.^.^.^.^.^.^.z.(.(.z.z.z.^.^.^.^.l.x.g.-.-.g.k.l.l.z.z.v.j.;.Y G G J R Y T +.-.a.a.a.s.l.l.x.v.v.l.l.s.s.s.l.z.^.^.^.z.z.z.z.z.z.l.l.l.s.s.s.l.l.l.l.l.l.l.l.l.l.l.l.l.l.v.v.l.l.l.l.s.s.s.s.s.s.s.a.s.s.a.a.a.a.a.a.-.-.=.=.=.=.-.-.a.a.a.a.a.a.g.,.-.=.=.=.=.+.O.T T Y H G k j l v b j k G W &.$.T Y Y H G G k k k R Y Y Y Y Y H H H H H H G G G G k k k k k j j j j j j j j j j j j j p i i 5 5 4 : : ; ; + .     . % < < # + + # : : > # . . @ + + # # # ; : : : 4 5 p p j k k k ",
"Z.>.+.O.T T T T O.O.$.$.T Y H H H H G G G G G G Y Y T O.+.+.+.Y j i j G R T O.+.+.=.=.=.=.=.-.-.-.-.-.-.-.-.-.-.a.a.a.a.a.a.a.a.-.-.-.-.a.g.a.a.a.a.a.a.g.f.a.=.O.#.-.a.a.a.f.a.l.l.a.-.+.O.+.%.O.O.+.=.=.-.a.a.a.a.-.-.,.1.>.+.=.a.x.'.&XuX8X3X3X3X3X6X6X6X6X6X6X3X3X3X3X3X3X3X3X3X3X3X8X8X8X3X3X9X9X9X9X9X9X9X9X9X9X9X9X9X9X9X9X9X9X9X9X9X9X9X9X9X9X9X9X9X9X9X9X8X8XuXoX[././.[.{.{.{.{.{.{.{.[.^.C.:.O.H e.G i p H +.f.(.`. X`.).m.a.O.T -.m.`. X/.[.{.{.[.[.[.[.[.[./././.`./.^.^.^.^.^.z.z.z.z.^.^.^.^.^.^.^.^.^.^.^._.^.z.z.z.^.^.^.^.z.x.g.-.-.g.f.x.l.z.z.x.g.+.Y G G G ! Y O.+.:.a.a.a.l.l.x.b.b.v.v.v.s.s.l.c._.`././.^.^.^.^.z.z.z.z.z.l.l.l.z.z.z.z.z.z.z.z.z.b.z.z.b.b.b.b.b.b.b.b.z.l.l.l.l.l.l.l.l.l.l.l.l.l.l.s.s.a.-.-.-.-.a.a.a.a.a.a.g.g.,.;.1.;.+.+.=.+.O.T T Y Y K k j l b b k k H Q &.$.T Y Y H H G k k k Y Y Y Y Y Y H H H H G H G G G G G k k k k k j j j j p j j j j j j j p p i 5 4 4 : : : # + .     . % ; > # + + # ; : < $ . . @ @ + # # # ; : : 4 5 i s j j k k k ",
"Z.;.O.O.T E T T O.O.O.$.T Y H H H H H G G G G H Y Y $.O.+.+.+.Y j p j G Y T O.+.+.=.=.=.=.=.=.-.-.-.-.-.-.-.-.-.-.-.a.a.a.a.a.a.-.-.-.a.a.a.a.a.a.s.g.a.g.f.a.=.O.+.-.-.-.a.a.a.l.l.f.-.+.O.+.>.+.+.+.=.g.g.g.a.a.a.a.-.,.1.%.O.T O.-.v.%X<XiX6X8X8X8X7X7X7XoX.X7X7X6X6X|.|.6X6X3X3X3X3X3X8X8X3X3X6X8X3X3X3X3X8X3X3X3X3X3X8X8X8X3X3X3X3X3X8X8X3X9X3X3X9X9X9X9X9X3X8X6X.X/./././.[.[.{.{.{.{.2X{.[./.V.d.O.Y e.J i p H +.f.c.`.[.[.].m.a.O.T a.F.`. X}.[.{.{.{.[.[.[.[.[.[.[./././.^.^.^.^.^.^.z.^.^.^.^.^.^.^.^.^.^.^.^.^.^.^.z.b.z.z.^.^.z.z.v.f.-.-.g.f.l.l.z.z.x.g.+.Y G G G / E O.=.-.a.a.a.l.l.c.b.b.b.v.v.a.s.v.m.].XX X[.[.}.[././.).).).^.^.^.^._.`.`.`.].).].).].].].`.`.`.`.`.`.`.].].).(.(.(._._._._.(.(.'.(.(.(._.b.m.n.n.f.s.l.l.c.l.l.x.f.A.Z.<.+.;.;.+.+.;.;.+.O.T T W R G k k b b k k H Q &.$.T Y Y H H G G k G Y Y Y Y Y H H H H H G G G G G G G G G k k k k k j j p p j j j j j j p i i 5 4 4 4 : ; # + .     . % ; ; # + + # ; , < $ . . @ @ + # # ; ; : : 4 5 i s j z k k k ",
"j.=.O.O.T E T O.O.+.O.$.T Y Y H H H G G G G G H Y Y T +.+.+.+.Y j i j G Y T O.+.+.=.=.=.=.=.=.-.-.-.-.-.-.-.a.a.-.a.a.a.a.-.-.-.-.-.-.a.a.a.a.a.a.a.g.s.f.f.a.-.O.+.-.-.-.a.a.f.l.l.f.-.+.O.+.>.>.=.=.-.j.f.f.a.a.a.a.-.,.1.;.T H H T -.F.1X<X*XaXaXaXpXpX,X,X,X,X@X@XoXoXoX@X7XqX7X7X7XaXaXaXaX7X7X7X7X7X8X8X8X8X8X8X8X7XaXaXaX8X5X5X5X5X5X5X4X8X5X5X8X8X5X5X8XaXuXoX[.^.z.z.z.`.`.[.|.{.2X2X6X{./.'.g.O.Y e.P i p G +.f.c.`.[.`._.x.-.O.T -.b.`. X[.[.{.{.{.[.[.[.[.[.[.[.}./././.^.^.^.^.^.^.^.^.^.^.^.^.^.^.^.^.^.^.^._.z.z.b.z.z.^.(.z.c.v.f.-.-.g.f.l.z.^.z.c.g.=.Y H G K ~ Q +.=.a.a.a.a.l.l.l.x.b.v.v.h.a.a.x.m.;XXX X{.{.{.{.{.[.}.}.}.}.}.}.}.[. X.X{..X.X[.[..X.X}.[..X.X{.{..X.X.X}. X}.}.}.[.}.}.}.`.`.].].).).].]._.'.b.b.z.z.(.(.(.'.F.F.J.q.*.O.%.+.+.+.>.>.+.O.O.$.Q W H k k z z k k G W ~ Q T Y Y H H G G G G Y Y Y Y Y H H H H H H H G G G G G G G k k k j j j j p j j j j j j j j p i 5 5 4 4 : : # + .     . % ; ; # + + + > , < $ . . @ + # # # # ; : : 4 5 i s l z k k k ",
"1.=.O.T T T @.&.O.O.O.O.T Y H H H H G G G G G H H Y $.+.+.;.#.Y p i j G Y T O.+.+.=.=.=.=.=.=.-.-.-.-.-.a.a.a.a.-.a.a.a.a.a.-.-.-.-.-.-.a.a.a.a.a.a.a.a.f.f.g.-.+.+.-.a.a.-.a.s.l.x.n.-.+.O.+.1.-.=.-.a.f.f.l.l.s.s.f.a.g.q.>.T k j H T 1.I.-X].XXXX+X+XOXOXOXOXOXOXOX].].OXOX+X+X+X+X+X,X,X,X@X@X@X@X,XsXsXsXsXsXsXsXpXpXsXsXsXfXaXaXqXqXqXqXqXgXaXaXgXgXqXqXaXgXpXXX^.l.l.s.l.b._.[.[.{.|.|.|.{. X'.f.+.Y y.P i p G +.d.c./././._.m.a.O.T -.b.`. X}.[.{.{.[.[.[.[.[.[.[.[.}./././.^.^.^.^.^.^.z.z.^.^.^.^././.^.^.^.^.^.^.z.z.z.l.z.^.(.z.c.v.f.-.-.g.f.l.z.^.z.x.k.;.T H H ! ~ O.+.-.g.f.s.s.s.f.s.s.l.s.h.h.-.-.a.f.c.]. X{.{.2X2X2X2X{.{.{.{.{.{.{.2X6X6X6X2X{.{.{.2X2X2X2X2X2X2X2X2X2X2X{.{.{.{.{.[.{.{.{.[.[.[.[.[.[.[. X/./.`././././.`.`.].$XV.j.+.T Y O.O.%.>.>.>.+.+.%.O.T Q W G G G k k k G W &.Q T Y Y K H G G G K Y Y Y Y Y H H H H H H H H H G G G G k k k j j j j j j j j j j j k j j p i i 5 5 8 8 : # + .     . % ; ; # + + + > ; < @ . . @ @ + # # # ; : : 4 5 i s j j k k k ",
"j.=.O.T E Q @.*.O.O.O.T T Y Y H H G G G G G G G H Y $.%.+.;.#.Y p i p G Y T O.+.+.=.=.=.=.=.=.-.-.-.-.-.-.-.-.a.-.a.a.a.a.a.-.-.-.-.-.-.a.a.a.a.a.a.a.a.f.h.g.-.+.+.-.a.a.a.a.x.x.m.n.d.+.O.+.1.=.=.-.a.a.s.s.s.s.s.s.a.g.Z.>.Y j p k Y O.-.j.f.a.a.a.:.:.;.;.=.d.d.d.d.d.d.f.f.f.f.f.f.n.B.B.x.f.f.f.x.B.V.V.x.x.V.m.x.x.V.V.m.OX'.'.(.'.OXOXOXOXc.c.OXOX(.].+X+X`.z.l.s.s.s.s.c.(.].[.[.{.{.{.{. X(.s.+.Y y.P p p G +.g.c.^././.`.m.d.+.O.-.b.`. X[.}.{.{.[.[./.[.[.[.[././.[./.^.^.^.^.^.^.^.^.z.^.^.^.^.^.^.^.^.^.^.^.^.z.z.z.l.z.z.(.z.c.v.f.-.-.a.v.x.z._.z.x.k.;.T H H ! ~ O.+.-.f.f.l.l.a.a.a.a.a.a.s.g.-.=.-.a.s.c.].XX{.{.2X|.4X|.|.{.{.{.{.{.{.6X4X6X4X4X4X4X4X4X4X4X4X2X{.2X2X2X{.{.{.{.{.{.{.{.{.|.{.{.{.{.{.{.{.{..X X X`.`.[.[.XX X].F.k.+.Y G G Y T +.%.>.=.=.+.+.O.T T W H G G J k k H E &.&.Q Y Y Y H G G J K W E E Y Y H H H H H H H H H G G K J J G k k k j j j j j j j j j k j j p p i i 5 7 8 : ; + .     . % # ; # # + # > > ; @ . . @ % + # # # ; ; : : 4 i p l j k k G ",
"g.=.O.Y Y W Q O.%.O.T Y Y W ! Y H H J G J G G H Y T O.+.;.<.>.T j p j G W T O.+.=.=.=.=.=.=.=.=.=.-.-.-.-.-.-.-.-.-.-.-.-.-.a.a.a.a.a.a.-.-.a.a.a.f.f.s.a.h.k.-.+.+.=.-.a.a.s.l.l.x.f.a.=.+.+.<.+.;.-.g.a.a.a.a.s.l.s.s.h.Z.*.Y j j k H T 2.*.T H G k k k k k k k k k G G G H H H H H H H Y Y Y Y Y Y Y Y Y T T T T T T Y T T O.O.O.O.+.+.+.+.O.O.O.*.+.;.-.-.B.c.'.l.a.a.a.a.l.b._.XX.X{.{.{.2X{./.z.f.+.T 9.H p p G O.g.c.`./././.m.k.O.O.-.b.^./././.{.{.[.[.[././.[././././.^.^.^.^.^.^.^.^.^.^.z.z.z.^.^.^.^.^.^.z.^.^.^.z.z.z.z.z.^.b.x.f.a.-.-.g.v.c.^.^.z.v.k.=.T H G ! &.O.+.-.f.l.l.x.s.a.a.a.s.f.f.g.=.=.=.=.-.f.:XBXjXxXxXxXdXdXZXZXxXxXfXsXxXxXsX,XsXsXsXsXsXfXfXsXpXqX@XpXsXsXsX,X1X1X1XsXxXxXxXsX1XsXsXdXdXsXpXpXpXDX>X1X1X+X<X,XDXMXD.+.Y k p p H T @.+.+.=.=.+.+.+.T Y Y G G J L k k H E ~ Q Q Q Y Y Y H G G H Y T Y Y H Y H H H H H H H H H H H G G k k k k k k j j j j k j j l l j p p p i a 5 4 : # @ .     . @ + # # # # ; ; ; ; + . . . . % + # # # ; : 4 5 i p j k J G G ",
"k.-.O.Y Y T T $.%.O.T Y Y R W Y H H G G G k G H H Y O.+.#.;.+.T j p j J W T O.+.=.=.=.=.=.=.=.=.=.=.-.-.-.-.-.-.-.-.-.a.a.a.a.a.a.a.a.a.-.-.-.a.a.a.f.a.a.k.k.=.+.+.=.-.a.s.l.l.b.x.x.a.=.+.+.<.+.=.-.a.a.a.a.f.s.l.l.s.k.Z.*.H j j k H T 2.2.Y j p 5 5 5 5 5 5 i i i i p p p j p p j j j j j j j j j j j j j j k k k k j j k k k k G G G G G G c k L G Y T O.-.n.m.s.a.a.a.a.l.(.`. XoX2X{.2X3X{.[.b.k.+.T 9.P p p H +.g.c.].[. X/.'.k.O.O.-.b.^./././.[.{.[.[././././.[.[././././.^.^.^.^.^.^.^.^.^.^.^.^.^.^.^.^.^.^.^.^.^.^.b.z.z.^.^.c.c.n.a.-.-.g.v.b._.^._.l.k.=.T H G R &.O.+.-.f.l.l.x.v.x.x.l.x.f.f.j.=.+.+.+.=.-.k.V.hXhX:X:X:XMXNXNXhXhXhXhXhXhXhXhXhXhX:XhXhXhXhXhXjXhXhXhXhXhXhXhXhXhXhXhXhXBXBXBXhXBXBXBXBXBXBXBXBXBXNXCXVXhXBX1X$XD.>.Y k p 5 i G Y @.#.+.=.=.=.+.+.T Y H G G J L G G H E ~ Q Q T T Y Y H H G H T T Y Y Y Y Y H H H H H Y Y Y Y H H G G k k k k k j j j k k j j j p p p p p i i 5 4 : # + .     . @ # # ; ; ; ; ; > ; + @ . . . % + # # # ; : 4 5 i p j k G G G ",
"k.-.O.T W T $.%.%.+.T Y Y R Y H H H G G k k G G H Y O.+.+.;.+.Q j p j J W O.+.+.+.=.=.+.+.=.=.=.=.=.-.-.-.-.-.-.-.-.a.a.a.a.a.a.a.a.a.a.-.-.-.-.a.a.f.f.g.g.g.=.+.+.=.-.a.s.l.l.b.x.x.a.=.+.+.*.+.=.-.a.a.a.f.f.a.s.l.l.k.H.*.H p p k H O.4.u.Q H j p a q 6 8 4 g h h h h h v v f f l l l f f f v v v v v l v v f l l p p p l x f p j j j j j l f p p j G Y T =.n.v.s.a.a.a.a.l.(.`. XoX2X{.2X3X{.[.'.n.+.T 9.P p p H +.g.c.`.[..X`.'.k.O.O.-.b.^././.}.[.{.[.[.[./././././././././.^.^.^.^.^.^.^.^.^.^.^.^.^.^.^.^.^.^.^.^.^.^.z.z.^.^.z.z.c.n.a.-.-.g.v.b._.^._.v.h.+.Y H G R &.O.+.a.x.l.l.v.v.v.l.l.l.l.f.g.=.+.+.+.=.=.-.-.O.T T T T O.O.O.O.O.O.O.T T T T O.O.O.O.O.#.+.+.+.O.O.O.O.T T T T T T E @.@.@.O.O.O.O.O.O.O.O.+.O.O.T E @.T +.=.g.,.T G l i 4 i G Y @.#.=.=.=.=.+.+.T Y Y G G U L G G H E &.O.O.T T Y Y Y H G H W T Y Y Y Y Y H K H H H H R R R K K K G G k k k k k j j l j j p p p p p p i i i 5 4 ; # @ .     . + = > ; ; ; ; ; > ; + @ . . . % + # # ; ; : 4 5 i p j k k G G ",
"J.-.O.T T T $.%.%.+.O.T Y Y Y H H H G G k k G G H Y O.+.;.<.>.~ j p j J W O.+.+.+.=.=.+.+.=.=.=.=.-.-.-.-.-.-.-.-.-.a.a.a.a.a.a.a.a.a.a.-.-.-.-.a.a.s.f.g.g.g.=.+.+.=.-.a.s.l.l.b.x.v.a.=.+.+.;.+.=.-.a.s.a.f.s.a.s.l.l.A.H.*.H p p k Y O.i.H.+.Y G p 5 4 , ; ; 6 7 7 q g g g d a a a a i i a a g g g g d d d d h h h h h h h h N N h h h h h h g d a p k ~ T ;.f.v.l.a.f.a.a.l.(./.[.{.{.{.{.2X{.[.(.f.+.T 9.H p p H +.g.c.^./. X`.'.k.O.O.-.b././.`.}.[.{.[. X[./././././././././././.^.^.^.^.^.^.^.^.^.^.^.^.^.^.^.^.^.^.^.^.z.z.^.z.z.z.c.n.a.-.-.g.v.b.^._.].l.g.=.T H G R &.O.=.a.x.l.l.b.b.b.l.l.l.l.a.a.=.+.+.+.=.=.=.+.Y G G k G J k k k k k k k j j k j j j k k k k k k G k k j j j j j j j j j j j j j j j j j k k j k j p p j k H Y O.$.H k s a 4 5 G E @.#.;.;.-.=.+.+.O.Y Y G G U U G G H T &.O.T T T Y Y Y H H H T Q Y Y Y Y Y H H H H H H H Y H K P P J G k k z k j j j j j j p p p f p p i i a 4 : ; # @       . + $ > > ; ; ; ; ; ; # @ . . . + + # # ; : : 4 5 i f l k k G K ",
"A.-.O.T T Y T +.+.+.O.T Y Y Y Y Y H H G G G G H Y T O.+.<.<.;.Q j p j G W O.+.+.+.+.+.+.+.=.;.=.=.=.-.-.=.-.-.-.-.-.-.-.a.a.a.a.a.a.a.-.-.a.a.a.a.a.a.f.g.g.a.=.+.+.=.-.a.s.l.l.b.x.x.a.=.+.+.*.+.=.-.a.s.s.f.f.a.s.l.l.k.H.*.H i p z Y +.Z.J.>.$.K j 4 ; # + # ; ; : : : : 4 4 4 4 4 4 4 4 4 6 : : : : : , : : 6 6 8 6 6 6 0 0 q q q q 7 7 0 0 0 q 4 a z } Y +.f.x.l.a.s.a.s.c.(./. X{.{.{.{.2X{.[.(.n.+.T 8.H p p H +.g.c.^./..X`.'.f.O.O.a.b.`. X`.}.{.{.[. X[./././././././././././././.^.^./.^.^.`.^.^.^.^.^.^.^.^.^.^.^.^.z.z.^.z.z.z.z.n.a.-.-.g.v.b.^.`.'.x.j.=.T H G ~ &.O.=.a.x.v.z.b._._._.^.z.x.x.g.-.+.O.+.+.;.;.#.k p i i i 5 5 4 5 5 5 5 5 4 4 5 5 5 5 5 5 5 5 5 5 5 5 5 5 4 5 5 4 4 4 4 4 4 4 4 5 5 5 5 5 5 5 5 5 : ; ; : 4 p k W W G j s 7 4 5 G E &.#.;.;.-.=.+.+.O.E R H G U U G G H T Q T T T T T W W H H H ~ ~ T Y Y W W R H H H H H H H H H K U J k k j k j j j j j j p p p p p p p i i 5 4 : ; # @ .     . + $ ; ; ; ; ; ; ; ; + . . . . + # # ; ; : : 4 5 i l l k k G K ",
"I.-.O.T T Y O.+.+.+.O.T Y Y Y Y Y K K G G G G H Y T O.+.;.<.+.Y j p j G W Q O.+.+.+.+.+.+.=.>.=.=.=.-.-.-.-.-.-.a.-.-.-.-.-.a.a.f.a.a.-.a.a.a.a.a.a.a.f.g.a.a.=.+.=.-.a.f.s.l.l.v.x.x.a.=.+.+.*.+.=.-.a.s.s.f.f.s.l.l.l.k.Z.*.H p i G Y +.A.J.,.0.~ z i : > $ $ ; : : : 4 4 4 4 4 4 4 4 4 : 4 4 : : : : : : : 4 : : : : 4 4 4 : : : 4 4 4 : : ; ; 0 4 d j } Y +.f.c.l.s.s.a.s.z.(./. X{.{.{.2X3X{.}.].n.+.$.8.! p p H +.f.b.`./..X`.'.f.O.O.a.c./. X[.}.{.{.[. X[./././././././././././././.^.^.^./.^.`.^.^.^.^.^.^.^.^.^.^.^.^.z.z.^.^.^.z.c.n.a.-.-.g.v.b.^._.'.s.g.=.T H G ~ &.+.=.a.x.b.b._.`.`.^.^._.b.v.k.-.;.+.O.+.;.;.@.k p i 5 9 8 8 8 8 8 8 8 8 8 0 0 r q 0 0 q q q q 8 8 8 8 8 0 8 0 : , : 3 0 0 0 3 1 8 0 0 r r r t > # $ $ > 6 i k ! ! J j f i 5 i H E &.+.=.-.-.=.+.+.@.E W H H ! U G G H T O.Q T O.T T T W H H H E T Y Y H Y Y H R H H H H R R K H J J G k k j j j j j j j j p p p p p p p i i 5 8 : ; # @ .     . + # $ > ; ; ; : , ; # @ . . . + # # ; ; : 4 4 5 i p j k G G G ",
"I.-.O.T E Y $.%.+.+.O.E Y Y Y W H H K K J G G H Y T O.+.;.<.+.T j p j G W Q O.+.+.+.+.+.+.=.;.;.=.=.-.-.-.-.-.-.-.-.a.-.a.a.a.a.f.a.a.a.a.d.a.a.a.a.a.f.g.a.a.=.=.=.-.a.f.x.l.l.l.v.f.a.=.+.+.;.+.=.-.a.s.f.s.s.s.l.v.l.v.Z.*.H p p J Y +.j.A.,.+.&.J p 4 : : : 4 5 5 i i i i i i i i i i i 5 5 i i i i i i i i i i i i i i i i 5 5 5 4 4 4 : : ; 6 4 h j y.T ;.n.b.l.l.l.s.s.z.`./.[.{.{.2X2X2X{..X(.f.+.O.u.W p j H +.f.'.`. X[./.'.f.O.O.a.c./. X}.}.{.{.[.[.[.[././.[.[././././././././././.^.^.^.^.^.^.^.^.^.^.^.^.^.^.^.^.^.z.^.^.^.^.z.x.g.-.-.g.l.b.^._.(.s.g.;.T H H ~ 2.+.=.a.v.z.^.^.^.^.^.^.z.z.x.f.-.;.+.+.+.;.;.@.G l p 5 8 1 3 3 1 1 : : 1 3 3 1 ; ; ; ; : : : : 1 : ; ; 1 1 1 ; ; ; ; > < < < < ; < < 2 3 e 3 3 2 @ * $ , q p J _ _ P k x p i j K E #.+.=.=.-.=.+.+.@.T W H H ) P G G H Q &.O.O.O.O.T T W H H H E T Y H H Y H H Y Y Y H H H H H G G G k k k j j j j j j j j j p p p p p p a i 4 4 : ; # @ .     . + # > ; ; : : : , > # @ . . . + # # ; , : 4 4 5 i p j k G G G ",
"I.-.O.O.E T O.%.+.+.O.E Y Y W W H H K K J J H H Y T #.#.;.;.+.Q j p j G R T O.+.+.+.+.+.+.=.;.;.=.=.-.-.-.-.-.-.-.-.a.a.a.a.-.a.a.a.a.a.d.d.a.a.s.a.a.f.g.a.a.=.+.=.-.a.f.s.l.l.l.l.f.a.=.+.+.;.+.=.-.a.s.x.s.s.x.v.v.l.k.j.+.H j j K T +.j.A.-.+.&.! k p i i p k k J J G G G G G K P U U U G G K K K K K K K K K K H H H H G G j p p p p i 5 5 : 5 5 v k y.T -.v.b.l.l.l.s.l.z._././.[.{.{.2X2X{.[.(.f.+.%.u.Y p j Y +.f.'.`.[. X/._.f.O.O.a.b./. X}.}.{.{.{.[.[.[././.[.[././././././.^./././.^.`.`.`.`.^.^.^.^.^.^.^.^.^.^.^.^.z.^.^.^.^.z.l.s.a.-.g.l.b.^._.b.s.k.1.T H H e.2.+.=.a.v.z.^.`.^.^.^.^.z.z.x.f.-.;.;.+.=.;.;.#.K b h 9 8 1 3 3 3 1 : 4 8 0 3 3 1 1 1 1 0 0 0 0 0 1 , 1 3 3 1 , > > > 1 3 3 3 3 < 3 3 e e e 3 3 e # & # ; g j ) 7.$.Y G k j j k R E #.+.=.=.-.=.+.+.@.Q W H H ) U G G H Q &.O.O.O.O.T Q W H H H ~ ~ W Y Y Y W Y Y H H H H H H H G G G k k k j j j j j j j j j j l p p p h h a 4 4 : ; + .       . + # > ; : : : : 1 1 # @ . . . + # ; > : : 4 5 i i p j z G G G ",
"n.-.O.T T T O.+.+.+.O.O.E Y W W Y H H H G G H H H T #.#.<.i.<.T j p j G Y Q O.+.+.+.+.+.+.=.=.+.=.-.-.-.-.-.-.-.-.-.-.-.a.a.-.a.a.a.a.a.a.a.a.a.s.s.s.a.g.g.a.-.=.=.-.d.f.x.x.l.l.l.s.a.=.+.+.<.=.=.a.a.l.x.x.s.s.l.l.v.s.-.<.H k z H T +.j.k.j.+.O.E G k U { ~ $.%.%.<.0.<.>.%.<.<.>.>.<.<.<.>.1.1.1.1.1.1.1.j.Z.Z.j.j.1.1.,.1.8.$.Q Q W H G b m p p z R r.+.-.x.c.z.l.l.l.l.^.^.`.[.{.2X2X{.2X6X{.(.n.=.O.0.R p j Y +.f.'.`.[..X/.(.f.+.O.a.b./.[.}.[.{.2X{.[.[.[.[.[././././././././././.^././././.^.`.`.`./.^.^././.^.^.^.^.^.^.^.^.^.^.z.l.f.-.-.g.v.b.^.`.b.l.d.=.T Y H ~ 2.+.-.s.z.^.^.^.^.^.z.z.(.c.x.f.-.=.>.=.=.:.d.+.H ] s 5 4 ; ; ; : : : : : : : : : : : : : : : : : : : : ; : : : : : ; ; ; ; ; ; ; ; ; ; ; ; ; ; ; ; ; : 4 h U ~ $.%.T H G k j k W &.+.+.=.=.=.=.=.+.@.Q Y H H H K G G H T O.O.O.O.O.T T Y Y H H E T Y Y Y Y Y Y Y Y H H H H H H G G k k k j j j j j p p j j j p p p p p p i 5 4 4 : ; $ @ .     . + # ; ; ; ; : : , > > + @ . @ $ # ; ; : : 4 4 5 i j z k G G G ",
"n.-.+.T T T O.+.+.+.O.T E Y Y Y Y H H H G G H H H T O.#.<.q.>.T j p j G Y Q O.+.+.+.+.+.+.=.=.=.=.-.-.-.-.-.-.-.-.-.-.-.a.a.a.a.a.a.a.a.a.a.a.a.s.s.s.s.s.g.g.=.+.=.-.a.f.s.l.l.l.l.f.a.=.=.;.1.+.=.-.a.s.l.s.s.l.l.l.b.k.g.<.Y k k H T +.j.j.:.;.+.~ Y H ~ r.0.>.,.,.g.g.g.g.g.g.g.g.g.h.g.h.s.x.x.x.x.x.x.v.v.m.v.v.v.b.b.b.v.D.Z.j.1.<.*.~ ! U k k K T u.=.a.z.(.z.l.l.l.z.^.^. X[.{.2X2X{.2X{.[._.n.+.O.8.Y p j Y +.f.'.`.[..X X_.f.+.O.a.b./.[.}.[.{.2X{.[.[.[.[./././././././././././.^.^./././.^.`.`.`./.^.^.^.^.^.^.^./.^.^.^.^./.^.z.x.a.-.-.s.v.b.^.`.(.l.k.=.T Y Y ~ 2.+.-.s.z.^./.^.^.z.z.z.z.c.x.a.a.-.>.=.=.g.g.=.E { z i 5 : 4 5 5 i i p i i 5 5 i i i i i 5 5 5 5 5 5 5 5 5 5 i i i 5 5 5 5 5 4 5 4 4 4 4 4 4 4 4 4 : 4 5 j P &.%.%.T H G k j k W &.+.+.=.=.=.=.+.+.O.T Y H H H J G G H T O.O.O.O.O.T T Y Y H G W Y Y H Y Y Y Y Y Y H H H H H H G G k k k j j j j j p p j j j j p p p p s i 5 4 4 : ; $ @ .   . . + # ; ; ; : : : : ; # + . . @ # ; ; ; : 8 4 5 5 i j k k G G G ",
"n.-.+.T T T O.+.=.+.O.T E Y W Y Y Y H H G G H H Y T O.#.<.<.+.T j p j k Y T O.+.=.=.=.=.+.+.=.=.-.-.-.-.-.-.-.-.-.-.-.-.a.a.a.a.a.a.a.a.a.a.a.a.s.l.l.s.h.h.-.=.=.=.-.a.a.s.s.l.l.x.v.g.-.=.>.1.=.=.-.a.s.l.l.s.l.l.l.b.v.g.<.Y G G H T +.j.j.:.+.O.O.T T %.q.,.a.a.g.s.h.k.k.k.s.s.s.s.s.s.l.x.l.z.z.z.z.z.z.z.z.z.z.(.(.(.(.b.$Xm.b.v.f.g.;.*.E H H T O.1.=.f.z.(.(.z.z.l.z.^./.[.[.{.2X2X{.{.{.[._.x.+.O.0.Y p j Y =.f._.`.[..X X_.f.+.O.a._./.[.}.[.{.2X{.[.[.[././.[./././././././.^.^.^./././././././././.^.^././././././.^.^.^././.^.z.l.a.-.-.f.v.b.^.^.(.l.k.=.T Y Y &.4.+.-.l.z.^./.^.^.z.z.z.z.z.l.a.a.-.,.-.-.g.f.-.O.~ G j j p z I U ! ~ ~ ~ ! ! ! R ! ! ! ! ! ! R K K K R ! / ! ! K K K K G G G G k k k k k k k k j p 5 5 i k H O.*.*.E H J k j k Y @.+.+.=.=.=.=.+.+.O.T Y Y H P G G G H Q @.+.O.+.O.O.T Y Y H G Y Y H H H Y Y Y Y Y H H H H H H G G k k k k j j j j j p j j j j j p p p p i 5 5 4 : ; $ @ .   . @ # > > ; : : : : : ; # + @ . + # ; ; : : 8 8 5 i p j k k G G G ",
"n.a.+.T T T O.+.>.=.O.T T T T Y Y Y H H H H H H Y T O.#.<.;.+.T j p j G Y O.+.+.=.=.=.=.=.+.=.=.-.-.-.-.-.-.-.-.-.-.-.-.a.a.a.a.a.a.a.a.a.a.a.a.s.l.l.l.k.h.a.=.=.=.-.g.f.s.l.l.l.x.n.f.-.=.>.1.=.=.-.a.l.x.l.l.l.l.l.b.v.g.<.Y G G Y T ;.N.N.:.+.O.O.O.O.=.g.g.a.-.a.a.a.f.f.x.x.l.s.s.l.l.x.z.z.z.z.z.z.^.^.^.z.^.^.^.(.(.^.^.^.^._._.b.s.-.;.O.Y Y T O.1.=.a.z.].'.z.z.l.z.^./.[.{.{.2X2X{.{.{.{.`.x.=.+.p.Q j j Y =.f.(.[.[..X X_.f.+.O.a._. X[.}.[.{.2X{.[.[.[.[./.[./././././././.^.^.^.^./././././././././././././././././.^./././.^.z.z.a.-.-.f.b.b.^.^._.l.f.=.T Y Y &.4.=.-.l.z.^./.^._.^.z.z.z.z.l.s.a.-.-.,.-.g.f.-.+.O.Y H G G / e.*.1.,.j.1.<.<.*.;.<.1.1.<.<.<.<.#.#.#.#.<.<.<.;.<.<.<.*.*.*.#.@.O.O.O.@.&.@.&.~ ) I j p j G Y O.;.*.Y H I l p j Y O.+.+.=.=.=.=.+.+.O.Q W Y W ! G G G H Q *.+.+.+.O.O.T Y Y H H W Y Y Y Y Y Y Y Y Y H H H H H H G G G G k k k j j j j j j j j j p p p p p i 5 4 : : ; $ + .   . @ # > ; ; : : : 8 : , # # @ @ $ # ; ; : : 4 4 5 i p j z k G G G ",
"n.g.+.T T T O.+.1.;.+.O.T E T W W W Y H H H H H Y T O.#.<.;.+.T j p j G Y O.+.=.=.=.=.=.=.=.=.-.-.-.-.-.-.-.-.-.-.-.-.-.a.a.a.g.a.a.a.a.a.a.a.s.s.l.s.s.k.k.g.=.=.-.g.d.f.l.l.l.s.l.f.g.-.=.>.1.=.-.a.a.l.x.l.x.l.l.l.b.v.j.1.Y G J R O.=.N.N.:.=.+.+.+.+.>.S.j.-.-.-.-.a.a.f.f.s.s.s.s.l.x.x.x.l.l.z.z.z.z.z.z.z.z.z.c.(.c.z.z.^./.^.^.(.c.f.,.+.T Y T O.;.=.a.z.).].^.z.z.z.^./.[.{.{.6X2X{.{.{.|.].x.=.%.p.Q j j Y =.f.(.`.[..X X_.f.+.O.a._./.[.[.{.{.2X{.{.[.[.[.[.[.[././.[./././././././././././././././././././././././.^.^./././.^.z.l.a.a.a.f.m.b.^./._.z.f.=.O.Y Y &.4.=.a.x.b.^./.^.`.^.^.^.^.z.l.x.a.=.-.,.-.g.f.-.=.+.O.T Y H &.<.g.f.v.z.l.f.a.a.a.s.s.f.k.f.s.a.a.a.a.a.f.f.f.s.f.f.h.f.g.g.g.g.-.-.-.-.-.-.,.<.e.) J k k K E O.;.%.Y G b l i j H O.+.+.=.=.=.=.=.+.O.@.T W W ! H G G Y O.*.+.+.+.+.O.T T Y H H R W Y Y Y Y W W Y Y H H H H H H H G G G G k k k j j j j j j j j j j p p p i 5 5 4 : ; # + . . . @ # > ; : : : : 8 8 , ; # + % $ ; ; : : : 4 4 5 i p j z k G G G ",
"n.g.+.T T T +.+.1.;.+.O.T Q T T T W Y P H H H H Y T O.+.<.<.+.T j p k H T O.+.=.=.=.=.=.=.=.=.-.=.=.-.-.-.-.-.-.-.-.a.a.a.a.a.a.a.a.a.a.a.a.a.s.s.l.l.s.h.k.g.-.=.=.-.g.f.s.l.l.s.l.f.a.-.=.>.1.=.-.a.a.l.l.l.l.l.l.l.b.n.k.5.Y G J H T =.j.k.:.=.+.+.+.+.=.j.j.-.-.-.a.a.f.s.x.l.l.l.l.l.l.z.c.z.z.z.z.z.z.z.z.(.(.^.(.(.^.z.z.^.^.^.^.^.c.n.j.>.T Y T O.<.=.a.c.).(.^.^.z.z./. X{.{.{.6X{.{.{.{.|.).x.=.+.p.Q j j Y =.f.(.[.[..X[._.f.+.O.a._. X[.[.{.{.2X{.{.[.[.[.[.[.[./././././././././././././././././././././././././././././././.^.^.c.a.a.a.f.m.b.^./.`.z.n.-.O.T Y &.4.=.a.x.b.^./.^./././.^.^.^.c.x.a.=.=.,.-.g.g.-.=.+.$.$.Y Y <.1.n.b.^.^.^.z.x.l.b.b.b.b.b.v.v.l.l.l.l.v.v.c.b.b.l.l.l.l.l.l.s.s.s.s.g.g.g.a.a.,.*.Q H G G R @.+.1.%.Y G b l i j H O.+.+.=.=.=.=.=.+.O.&.Q W W _ H G H Y O.#.+.+.+.+.O.O.T Y H H R Y Y Y Y Y T T W Y Y H H H H H H H G G G k k k k j j j j j j j j j j p f s i 5 4 : ; # + . . . @ # > ; ; : : : 8 : , ; # @ @ $ > , : : : 4 5 5 i p j k k G G G ",
"V.g.+.T T T +.=.,.;.+.O.T E T Y T W Y H H H H H Y T O.+.;.<.%.T j p k H Q %.+.=.;.=.=.=.=.=.-.-.=.=.-.-.-.-.-.-.-.-.a.a.a.a.a.a.a.a.a.a.a.a.a.s.l.l.s.s.h.g.g.-.=.=.-.a.f.s.l.l.s.l.f.a.-.=.,.1.=.-.a.f.x.l.l.l.l.l.l.b.F.A.5.Y G J H T =.k.k.d.=.+.+.+.O.+.;.-.d.a.a.a.l.v.z.z.b.b.^.^.^.^._._.^.^.^.^.^.^././.`././././././.^.z.z.z.z.z.l.f.,.;.T Y Q O.i.=.a.(.).^.z.^.z.z./. X.X{.{.6X{.{.{.{.|.).l.+.+.p.W j j Y =.x.(.[.[..X[.`.x.+.O.a.b. X[.[.{.{.2X{.{.[.[.[.[.[.[. X/././././././././././././././././././././././././././././././.(.c.f.a.a.f.m.b.^.`.`.z.v.-.O.T Y &.4.=.a.x.b.^././././././.^.^.z.x.a.=.=.1.,.-.g.-.+.T T _ H H r.q.k.b.^.^.z.l.s.f.l.z.z.l.l.s.s.s.s.s.l.l.l.l.l.l.l.l.l.l.l.x.f.f.f.f.f.g.g.g.g.-.>.$.H H Y E #.;.Z.>.Y H L x p j Y O.+.=.-.-.=.=.=.+.O.&.Q Y W ~ H G H Y O.*.+.+.+.+.O.O.T H H H R Y Y Y Y Y T T W Y Y H H H H H K H G G J J k k k j j j j j j j k j j j p i 5 5 4 : ; # + . . . @ # ; ; ; : : : : : : ; # @ @ + ; ; : : : 4 4 5 i p j k k G G G ",
"I.d.+.O.T O.+.;.=.;.+.O.T Y Y Y W Y H H H H H H H T O.O.+.<.<.T k j G R &.*.;.=.-.=.=.=.=.-.-.-.=.=.-.-.-.-.-.a.a.a.a.a.a.a.a.a.a.a.a.a.a.a.a.a.l.x.s.a.s.j.g.-.=.=.a.f.s.l.l.l.l.l.f.a.-.=.,.Z.-.-.f.v.m.x.l.l.l.l.l.b.m.k.1.Y J J H T =.k.n.f.-.=.+.+.O.+.;.-.f.a.s.s.l.l.z.z._._.^.^.^.^.^.^.`././.^.^.^././.`././././././.^.z.z.z.l.l.l.f.,.;.T Y Q O.i.=.a.'.).^.z.^.z.^./. X.X{.{.6X{.[.{.2X|.).l.=.+.p.W j j Y =.x._./.[.{. X(.f.+.+.a.b./.[.[.{.{.{.{.{.{.[.[.[.[.[. X[././././././././././././././././././././././././.`././.}.}.).(.c.f.a.a.s.v.b.^.`.).z.n.-.O.T Y &.<.=.a.x.(._.`./././././.^.^.z.x.a.=.=.1.,.-.:.=.*.&.E } H H 8.1.k.b.z.^.z.z.l.x.b.b.b.v.l.l.s.s.l.x.x.x.l.l.l.c.l.l.s.s.s.s.a.a.a.a.a.g.g.g.g.-.>.O.Y Y E O.=.=.Z.>.Y G L x p k W %.;.=.-.-.=.=.=.+.O.O.Q Y Y ! K H H Y O.*.+.+.+.+.+.$.T Y H H R Y Y Y Y T Q Q W Y Y H H H H G K K G G J J k k k j j j j j j j j j j p p i 5 4 4 : ; # + . . . @ # # ; ; ; : : : : : ; # + @ + # ; ; ; ; : 4 5 i p j k k G G G ",
"J.-.+.O.O.O.+.O.+.+.+.O.T T T Y Y H H G G G K K W T T O.;.<.%.T k j G W Q +.;.=.=.=.=.=.-.-.,.-.-.-.-.-.-.a.a.-.-.-.a.a.a.a.-.-.a.a.a.f.f.a.a.s.s.s.s.a.f.f.g.=.+.;.d.s.l.l.l.l.z.b.x.a.=.=.-.j.-.-.a.x.m.l.x.c.l.l.z.b.v.k.1.T G G H T =.f.v.x.a.-.+.O.O.+.=.-.a.a.a.s.l.v.z.z.z.z.^.^.^.^.^.^.^.^.^.^.^.^.^.^.^.^.^.^.^.^.^.^.z.l.l.l.l.s.g.-.%.T Y T O.1.-.a.'.^.^.^.z.z.^.^./.[.[.{.{.{.[.[.{.{.^.l.=.+.p.Q j k Y =.x.`.[.{.{. Xc.d.+.+.a.c.`.[.{.{.{.{.{.{.[.[.[.[.[.[./.[./.}.[./././././././././././././././.[./././. X/././././././.^.c.s.a.a.a.b.(./././.z.n.-.T Y Y 2.<.-.a.z.(.^.^.^./././.^.^.^.b.v.a.=.=.;.=.-.d.:.O.T &.&.T T ;.,.k.x.z.z.z.z.l.l.z.z.z.z.z.z.z.l.l.l.l.l.l.l.l.l.x.l.l.s.s.s.s.a.s.a.a.a.a.a.a.-.+.O.T Y T +.;.-.,.+.Y G z j j k Q +.+.=.=.=.=.=.=.=.+.O.Q Y Y ~ K H H T &.+.+.+.+.+.O.O.T Y H H Y Y T E T T T T T Y Y H H H G G G G G G J J k j k j j j j j j j k j j p p i 5 5 4 : : ; + .     @ # # > ; ; : 8 4 : : : # @ @ = > ; ; ; : : 4 4 i p j k k k G G ",
"J.-.+.+.O.O.+.O.O.+.+.O.T T Y Y Y H H G G G K H Y Y T O.*.<.#.T k j G W O.+.;.=.=.=.=.=.=.=.-.-.=.-.-.-.-.-.a.-.a.a.a.a.a.a.-.-.a.a.a.f.f.a.a.s.a.a.a.f.f.f.g.-.+.;.f.x.l.l.l.l.z.b.l.a.=.=.-.g.-.-.a.x.c.l.l.x.l.l.z.b.v.k.1.T G G H T =.f.c.c.s.a.+.O.O.+.-.-.a.a.a.a.s.l.l.z.z.z.^.^._._.^._.^.^.^.^.^.^.^.^.^.^.^.^.^.^.^.^.z.l.z.z.z.l.g.1.*.T Y T O.1.-.s.(._._.^.z.z.z././.[.[.{.{.{.{.{.{.{.^.l.=.+.p.T j k Y =.x.`.[.{.{.`.m.d.+.+.a.b.`.[.{.{.{.{.{.{.[.[.[.[.[.[./.[.[.}.[./././././././././././././././. X/./. X X/././././././.^.c.s.a.a.a.b.(./././.z.n.-.T Y Y r.<.-.a.z._.^.^.^.^.^.^.^.^.(.b.x.a.-.-.=.=.-.d.:.+.T O.*.T O.>.-.f.s.l.z.z.z.z.z.z.z.z.z.z.l.l.l.l.l.l.l.l.l.l.s.x.l.l.s.s.s.s.a.s.a.a.a.a.a.a.-.;.O.T T O.+.-.-.,.%.Y G J j j G Q +.;.;.=.=.=.-.=.=.+.O.O.Y H ~ H H H T &.#.+.+.+.O.O.O.T H H H Y T T T T T T T T Y Y H H G G k G k k k J k k j j j j j j j k j k j j p p i 5 5 4 4 : > # .     @ # # # # ; : : 4 : : : # @ . = > ; ; ; : : 4 4 i p k J J G G G ",
"J.=.+.+.O.+.+.O.+.+.O.O.T T W Y Y H H G G G G H Y Y T O.*.<.+.T k j G W O.+.;.=.-.-.=.=.=.=.=.=.-.-.-.-.-.-.-.-.a.a.a.a.a.a.a.a.g.a.a.f.a.a.a.f.a.a.a.a.k.f.h.-.=.:.f.x.l.c.l.z.z.b.x.a.=.=.-.a.-.a.a.x.c.l.l.l.l.l.z.b.l.k.1.T H G H T =.f.c.b.x.a.+.O.+.;.-.a.a.a.a.s.s.l.l.z.z.z.^.^.^.^.^.^.^.^.^.^.^.^.^.^.^.^.^.^.^.^.^.^.c.z.z.z.z.l.g.1.*.T Y T O.1.-.s.b.^._.(.z.z.z.).`.[.[.{.{.{.{.{.{.{._.x.=.+.p.T j k T =.x.`.[.{.{.`.m.d.+.+.a.c.`.[.{.{.{.{.{.{.[.[.[.[.[.[.[././.}.}./././././././././././././././.[./././././././././././.^.c.s.a.a.f.b.(./././.z.n.-.O.Y T r.<.-.a.z._.^.^.^.^.^.^.^.^._.b.x.a.-.-.-.-.-.d.-.+.O.$.O.T O.=.-.a.s.l.z.z.z.z.z.z.l.z.l.l.l.l.l.l.l.l.l.l.l.l.l.l.l.s.s.s.s.s.a.s.a.a.a.a.a.a.-.>.O.T T O.+.-.-.,.*.Y G I z k G T +.;.;.=.=.=.-.=.=.+.O.O.Y Y E H G H T &.#.+.+.+.O.O.O.T H H H Y E T T T T T T T Y Y H H G G k k k k k k k k j j j j j j j k k k j j p p i a 5 5 4 : > # .     @ # # # # ; : : 4 4 4 : # + @ = ; ; ; ; : : 4 4 i p z L L J G G ",
"J.=.+.+.O.+.#.O.O.+.O.$.T T W Y Y H H G G G G H H Y T O.*.<.+.T k p G R T +.=.=.-.-.=.=.=.=.=.=.-.-.d.d.a.-.a.a.a.a.a.a.a.a.a.a.g.g.a.a.a.a.a.s.a.a.a.a.k.f.h.-.=.:.f.v.l.v.l.z.b._.m.a.=.=.-.a.a.a.l.x.c.z.l.l.z.l.z.b.l.k.1.T K P Y T =.f.c.b.x.a.+.O.+.<.g.g.a.a.s.s.l.l.z.z.z.z.^.^.^.^.^.^.z.^.^.^.^.^.^.^.^.^.^.^.^.^.^.^.z.z.z.z.z.l.f.-.*.T H T O.1.-.f.^.^._.(.z.z.^./.[.[.{.{.{.{.{.{.{.{.^.x.=.+.p.Q j k T =.x.`.[.{.|.`.m.a.+.+.a.'.`.[.{.{.{.{.{.{.[.[.[.[.[.[.[.[./.[././././././.`././././././././.[.[./././././././././././.^.c.s.a.a.f.b.(./././.z.n.-.T Y Y r.<.-.a.z._.^.^./.^.^./.^.^._.b.x.a.-.-.-.-.-.d.-.+.O.O.O.T O.=.-.f.s.l.z.z.^.b.z.l.l.l.l.l.l.l.l.l.l.l.l.l.l.l.l.l.l.s.s.s.s.s.a.s.a.a.a.a.a.a.-.;.O.T T O.;.-.-.,.>.T H I z k G T +.<.1.-.=.-.-.=.=.+.+.$.Y H E K H H E &.*.+.+.+.+.O.O.T Y H H E E T T T T T T T Y Y H H G G k k k k k k k j j j j j j j j j j k j j j p i i 5 4 4 : ; + .     @ # # # # # ; : 8 8 8 : # + + $ ; ; ; ; , : 4 4 i p k J G G G G ",
"J.=.+.+.O.+.#.+.+.+.+.O.O.T T W Y H H G G G G H H Y T O.*.<.+.T k p k H E O.+.=.=.=.=.=.=.;.;.-.-.-.d.d.a.-.a.a.a.a.a.a.a.a.a.a.g.g.a.a.a.a.a.s.a.a.a.a.h.f.h.-.=.-.s.v.l.l.l.z.b._.m.a.=.=.-.g.-.a.l.l.b.z.l.l.l.l.b.b.l.k.<.T G G H T =.f.'.'.l.a.=.O.+.;.-.h.f.f.s.l.l.z.b.z.z.z.^.^.^.^.^._.z.z.z.z.z.z.^.^.^.^.^.^.^.^.^.^.z.z.z.z.z.l.f.,.*.Y H Q O.1.-.f.(.^.^.^.^.z.z.^.[.[.{.{.{.{.{.{.{.{._.x.=.+.p.Q j k T =.x.`.[.{.|.`.c.a.+.+.a.'.`.[.{.{.{.{.{.[.[.[.[.[.[.[.[.[././././././././.`././.^./././././.[.[./././././././././././.^.z.s.a.a.s.b.(./././.z.x.-.T Y Y 8.<.-.a.z._.^.^.^././././.^._.b.x.a.-.-.-.-.-.d.-.+.+.O.O.O.O.=.-.f.l.l.z.^.(.b.b.l.l.l.l.l.s.l.s.l.l.l.l.l.s.l.l.l.s.s.s.s.s.a.a.s.a.a.a.a.a.a.-.+.O.T T +.;.-.-.,.;.T H K J k G $.+.<.1.-.-.-.-.-.=.+.+.&.T Y ~ R H H T &.+.+.+.+.+.O.O.T Y H H E E T T T T T T T Y Y H H G G k k k k k k k k j k k j j j j j j k j j p p i i 5 5 4 : ; + .     + # # # # # ; : 4 8 8 : # # # $ ; ; ; : : : 4 4 i p k k G G G G ",
"J.=.+.+.+.+.*.+.+.+.+.+.$.T Y Y Y H H G G G H H H Y T O.%.<.+.T j p k H Y O.+.+.+.+.+.+.=.=.=.=.-.-.-.-.-.-.-.-.a.a.a.a.a.a.a.a.a.g.g.a.a.a.a.s.a.a.a.a.f.f.h.a.+.-.f.v.l.z.l.z.b.b.v.a.=.+.-.-.a.a.l.l.z.z.l.l.l.l.b.b.v.k.<.T H H Y T =.f.c.'.s.a.=.O.O.+.-.g.a.a.s.l.l.l.z.z.z.^.^.^.^.^.^._.^.^.z.^.^.^.^.^.^.^.^.^.^.^.^.^.(.(.^.^.^.c.f.j.<.T H Q O.1.-.f.].^.^.^.^.^.z.^.[.[.{.{.{.{.{.{.{.{._.x.=.+.p.Q j k T =.x.`.[.{.{.`.c.a.+.+.a.'.`.[.[.{.{.{.{.{.{.[.[.[.[.[.[./.}.[./.}././././.`././././././././.[.[./././. X/././././././.^.z.s.a.a.f.b.(./././.z.x.=.T Y Y *.;.-.a.z._.^.^./././././.^._.b.x.a.-.-.-.-.g.g.-.+.;.+.O.O.+.=.g.f.l.z.z.^.^.b.b.l.s.s.s.s.s.s.s.s.a.s.a.a.a.a.s.s.s.s.a.s.s.a.a.a.a.a.a.a.a.a.-.+.O.T T +.;.-.-.,.;.T H K J k H O.=.;.,.-.-.-.-.-.-.=.+.*.T W ~ R H H Y O.O.+.+.+.O.O.O.T H H H E T T T T T T T T Y Y H H G G k k G G k k k k k k k j j j j j j k j j p p i i 5 5 4 : ; # .     @ # # # # # ; : : 4 4 ; # + + # ; : : : : 4 4 5 i p k J J G G G ",
"J.=.+.+.+.+.*.+.*.+.+.+.$.T Y Y Y H H H G G K K Y Y T O.%.<.+.T k p k H Y O.+.+.+.+.+.+.=.=.=.=.-.-.-.-.-.-.a.a.a.a.a.a.a.a.a.a.a.g.g.a.a.a.a.a.a.a.a.a.s.k.h.a.=.-.x.b.z.z.l.z.b.b.x.-.+.+.=.-.a.a.l.l.l.z.l.l.l.l.b.b.v.k.<.Y H K Y O.-.f.b.b.v.a.=.O.O.+.-.a.a.s.s.l.l.z.z.z.^.^.^.^.^.^.^.^.^.z.z.z.z.z.z.z.^.^.^.^.^.^.^.^._.^.^.^.^.b.v.j.<.T H ~ O.1.=.x.(.^.^.z.^.z.^.^.[.[.{.{.{.{.{.{.{.{.`.x.=.+.p.Q k k T -.x.`.[.{.{.`.c.a.+.+.a.m./.[.[.{.{.{.{.{.{.[.[.[.[.[.[./.}.[./.}././././././././././././././././././.[./././././././.^.z.s.a.a.f.m.(./././.z.v.-.T Y Y 8.;.-.a.z._.^.^././././././._.b.v.a.-.-.-.-.g.g.-.+.1.<.+.+.+.=.g.f.l.z.z.^.^.z.z.s.s.s.s.s.a.a.a.a.a.a.a.a.a.a.a.a.a.a.a.s.s.a.a.f.a.a.a.a.a.a.-.=.O.T T O.=.-.-.g.>.T H K G G H %.=.=.-.-.g.-.-.-.-.=.+.%.T T 7.R H H Y O.O.+.+.+.O.O.O.T H H H @.O.T T T T T T T Y Y H H H G G k G G k k k k k j j j j k k k k c z j j p p i 5 5 4 : ; # .     @ # # # # ; : : : 8 8 ; # # # # ; : ; : : 6 4 5 i p k L L J G G ",
"J.=.+.+.+.+.;.+.;.+.+.+.O.T Y Y W Y H H G K K ! Y T T O.*.<.+.T k p k K Y O.+.+.=.=.=.=.=.=.=.-.-.-.-.-.a.a.a.a.a.a.a.a.a.a.a.a.a.g.g.a.a.a.a.a.s.s.a.a.s.k.h.a.=.-.x.b.z.b.z.z.b._.x.a.+.+.-.g.a.s.l.l.l.z.z.l.l.l.b.b.v.k.<.Y G G Y T -.x.'._.m.a.=.O.+.;.g.a.s.s.l.l.z.z.z.^.^.^.^.^.^.^.^.^.z.z.z.z.z.z.z.z.^.^.^.^.^.^.^.^.^.^.^.^.^.z.f.j.<.T Y ~ O.1.=.x.(.^.^.^.z.z.^./.[.[.{.{.{.{.{.{.6X.X).x.=.+.p.T k k T -.x._.[.{.[.`.x.a.+.+.a.m./.[.[.{.{.{.{.{.{.[.[.[.[.[.[./.[./././././././.^.^./././././././.`. X/././.[.`././././././.^.z.s.a.a.f.m.(./././.z.n.-.T Y Y 8.;.-.a.z._.^.^././././././._.b.v.a.-.-.-.-.g.g.-.+.5.1.+.+.+.=.g.f.l.z.z.^.b.b.z.s.a.s.a.a.a.a.a.a.a.a.a.a.a.f.f.a.a.a.a.s.s.a.a.f.a.a.a.a.a.a.-.>.O.T T O.+.-.g.j.>.T Y K G G Y *.=.=.-.-.g.a.-.-.-.=.+.+.T Y 7.R H Y T &.#.+.+.+.+.O.O.T Y H H @.O.T T T T T T T Y Y H H H H G G G G k k k k k j j j j j k k k L c z j j p i i 5 4 : ; # .     + # # # # ; : : 4 0 0 : ; # $ $ ; : : : : 4 4 5 i p z L J J G G ",
"A.-.+.+.+.+.+.+.+.+.+.O.O.T T Y Y H H K K H H H W T T O.<.0.;.Q k p k H E @.+.=.=.=.=.=.=.;.-.-.=.-.-.-.-.-.a.a.a.a.a.a.a.a.a.a.a.a.a.a.a.a.a.a.s.s.s.s.k.f.h.-.=.-.l.b.b.z.l.l._._.v.a.=.+.-.j.a.a.l.l.z.z.l.l.l.z.z.l.v.k.;.Y G H Y T =.s.b.(.l.a.=.O.+.;.g.s.a.s.l.l.l.l.z.(.^.^.^.^.^.^.^.^.z.z.z.z.z.z.^.z.^.^.^.^.^.^.^.`.`.^././.`.(.x.j.<.T Y T O.;.-.s.(.`.^.^.z.z.z.^./.[.|.{.{.{.{.{.{.[.).l.=.;.0.Q k k T -.v.`.[.{.{.`.c.d.=.+.a.c./.[.{.{.{.{.{.{.[.[.[.[.[.[.[.[.[.}.[.[./.}./././././././././././././././././.`.[./././././.(.'.s.a.a.f.m.(./././.^.x.-.T Y T r.<.=.a.b.^./././././././.`._.b.l.a.-.-.-.g.g.g.-.=.<.+.>.=.+.-.g.a.l.z.l.z.z.b.l.s.a.s.s.s.s.f.f.a.a.a.a.a.a.a.a.s.a.a.a.a.a.a.a.a.a.a.a.a.a.a.g.>.+.O.T O.+.-.-.j.1.T Y H K G Y %.=.;.-.-.-.-.a.-.-.=.>.O.T T Q R H H Y O.+.+.+.+.+.O.O.Q Y K Y E T T T T T T Y T Y Y H H H H G G G k k k k k j j j j j j j k k k k j j p p i i i 5 8 : # .   . + ; > # # # ; : 0 8 8 : # + + # ; : : : : 4 4 5 i j c L J J G G ",
"j.-.+.+.+.+.+.+.+.+.+.+.$.O.T Y Y H H H K H H H W T T O.<.0.;.Q k p k H E @.+.=.=.=.=.=.=.-.-.-.-.-.-.-.-.a.a.a.a.a.a.a.a.a.a.a.a.a.a.a.a.a.a.a.a.a.a.a.f.k.s.-.=.-.x.b.b.z.z.z._._.v.a.=.=.-.j.a.a.l.z.z.z.l.l.z.z.z.b.v.k.;.T H H Y O.-.x.'.(.l.a.=.+.+.;.g.a.a.s.l.l.l.l.z.z.^.^.^.^.^.^.^.^.z.z.z.z.z.^.^.^.^.^.^.^.^.^.^./.`././././.(.v.j.<.T T T O.;.-.s.(.`._.^.^.^.^.^./.{.|.{.{.{.|.{.{.{.).l.-.<.0.$.k k T -.v._.[.{.[.`.x.a.+.+.a.c./.[.{.{.{.{.{.{.{.[.[.[.[.[.[.[.[.[.[.[./.[./././.^././././././././././././././././././././.(.c.s.a.a.f.b._./././._.x.-.O.Y T r.<.=.a.b._././././././.`.`.(.b.x.a.-.-.-.g.g.g.g.=.;.+.;.+.+.-.g.f.l.l.l.l.z.l.l.s.s.s.s.f.f.f.f.f.a.a.a.a.f.f.f.f.a.a.a.a.a.a.a.a.a.a.a.a.a.a.a.;.+.O.T O.+.-.-.j.<.T H H K G Y %.>.-.-.-.-.a.a.-.-.;.;.O.T T Q R H H T $.#.+.+.+.+.O.O.Q Y H Y E T T T T T T Y Y Y Y Y H H H G G G k k G k k k k k k k j j k k k k j j j p p i i 5 4 : # .   . # ; > # # # ; : 6 8 8 : # # + # : : : : : 4 4 5 i j k L J G G G ",
"j.-.+.+.+.+.+.+.+.+.+.+.O.O.Q Y Y Y H H H K K H W T T O.<.<.+.T j p j H E @.+.=.=.=.=.=.=.-.-.-.-.-.-.-.-.a.a.a.a.a.a.a.a.a.a.a.a.a.a.a.a.a.a.a.a.a.a.a.s.k.g.-.=.-.x.b.b.z.z.z._._.x.a.=.=.-.g.a.a.l.z.z.b.z.z.z.z.z.b.v.k.;.T H H Y O.-.x.'._.b.a.=.+.+.=.a.a.a.s.l.l.l.l.z.z.z.z.z.z.^.^.^.z.z.z.z.z.z.(.^.(.(._.^.^.^.^.^.^.`././././._.v.k.<.T T T +.;.-.f.(.`./.^.^.^.^.^.[.{.|.{.{.{.|.{.{.|.).l.-.<.q.$.k k T -.v._.[.{.[./.x.a.+.+.a.c./.[.{.{.{.{.{.{.{.{.[.[.[.[.[.[.[.[.}././.[./././././././././.^.^.^././././././././././././.^.c.s.a.a.f.c._./././._.v.-.O.Y T 7.<.=.a.b._././././././.`.`.(.c.x.a.-.-.-.g.j.g.g.=.;.+.;.+.+.-.g.f.s.l.l.l.l.l.l.l.s.a.s.f.x.f.s.a.a.a.a.a.f.f.f.a.a.a.a.a.a.a.a.a.a.a.a.a.a.a.a.=.+.T T O.+.-.-.,.;.T H H G G H %.>.,.,.-.-.a.a.-.-.=.+.O.T T Q R H H T &.#.+.+.+.+.O.O.T Y H Y E T T T T T T Y Y Y Y Y Y H H H G G G G G k k k k k k k k k k k k k j j j p p i i 5 4 : # .   . # ; > # # ; ; : 8 8 8 : # # # > : : 8 8 : 4 4 5 i p k k J G k k ",
"j.-.+.+.+.+.+.+.+.+.O.O.O.$.T T Y Y H H H H K Y W T $.O.%.<.+.T j p k H E O.+.=.=.=.=.=.=.-.-.-.-.-.-.-.a.a.a.a.a.a.a.a.a.a.a.a.a.g.a.a.a.a.a.a.a.a.a.a.f.f.g.-.=.-.x.b.z.z.l.z._._.v.a.=.+.-.g.a.a.l.z.b.b.z.z.z.z.z.b.v.h.;.T H H Y O.-.x.(._.z.a.=.+.+.=.a.a.f.f.a.s.l.l.z.z.z.z.z.z.z.z.z.z.z.l.z.z.z.b.^.(.(.(.^.^.^.^.^.^.`././././.(.v.k.<.T T T +.-.-.l._.`.^.^.^.^.^./.[.{.{.{.{.2X{.{.{.[.).l.=.>.0.$.G G T -.b._.[.{.{.`.c.a.=.+.a.b.`.[.{.{.{.{.{.{.{.[.[.[.[.[.[.[.[.[.[././././././.^././././.^.^././././././././././././././.^.z.s.a.a.f.b._./././._.x.-.O.Y Y &.<.-.a.b././././././././._.z.l.s.-.-.=.-.-.j.g.d.=.=.+.+.+.+.,.g.f.a.s.l.l.l.l.x.x.s.a.a.f.f.s.a.a.a.a.a.a.a.a.a.a.a.a.a.a.a.a.a.a.a.a.a.a.a.a.a.;.+.O.T O.+.=.-.-.;.T H H G G H %.=.,.,.-.-.-.-.-.-.;.+.O.T T ~ R H H T O.+.+.+.+.O.O.T T Y H R E T T T T T T Y Y Y Y Y W Y H H G G G G G k k k k k k k k k k k k k j j j j p p i 5 4 : # .   . # > > # # ; ; : 4 8 8 : ; # # > : 4 8 8 : : 4 5 i p j k G G k k ",
"A.-.=.+.+.+.+.+.+.+.O.O.O.$.T T Y Y H H H H K Y Y T O.O.>.<.+.T j p k H T O.+.=.=.=.=.=.=.-.-.-.-.-.-.-.a.a.a.a.a.a.a.a.a.a.a.a.a.g.a.a.a.a.a.a.a.s.a.a.f.f.g.-.+.-.f.b.b.z.l.z.^._.b.a.=.=.-.j.a.a.l.z.b.z.l.l.z.z.b.b.v.k.=.T H H T O.-.x.(._.z.a.=.+.+.=.g.a.s.a.a.s.l.l.l.l.z.z.z.z.z.z.z.z.l.l.l.z.z.z.^.z.(.(.^.^.^.^.^.^./././././.(.v.k.>.T T T +.-.-.l._.`.`.^.^.^.^./.[.[.{.{.{.2X{.{.{.[.).l.=.>.q.$.G G T -.x.^.[.{.{.`.c.d.=.+.a.c.`.[.{.{.{.{.{.{.{.{.[.[.[.[.[.[.[.[.[.[././././.^.^././././.^.^././././././././././././././.^.z.s.a.a.f.b._./././.^.x.-.O.Y Y &.<.-.a.(.^./.[./././././.^.z.l.f.-.=.=.=.-.g.g.g.=.=.+.+.+.+.,.-.f.a.s.l.l.s.s.v.l.s.a.a.s.s.a.a.a.a.a.a.a.a.a.a.a.f.f.f.f.f.a.a.a.a.a.a.a.a.a.a.,.;.O.O.O.+.=.-.-.#.Y G G G G H O.=.;.-.-.-.-.-.-.-.=.+.O.T T E R H H T @.+.+.+.+.O.O.T Y H H R T T T T T E T Y Y Y Y Y W W Y H H G G G G k k j k k k k k k k k k j j j j j p p i 5 4 : # @   . # > > ; # ; ; : : 8 8 : ; # # ; : 4 8 8 : : 4 5 i p j k G G k k ",
"J.g.=.+.+.+.+.+.+.+.+.+.O.O.T T W Y H H H H H H W T O.+.<.<.+.T j p k H E +.+.=.=.=.=.=.-.-.-.-.-.-.-.-.a.a.a.a.a.a.a.a.a.a.a.a.a.g.a.a.a.a.a.a.a.a.a.a.f.f.a.=.+.-.x.b.b.z.z.z._._.b.f.-.=.g.k.a.a.l.z.b.z.l.l.z.z._.b.b.k.=.O.H H T O.-.x.(._.z.a.=.+.+.-.g.a.f.f.a.s.l.l.l.l.z.z.z.z.z.z.z.l.l.l.l.l.z.z.z.z.(.^.^.^.^.^.^.^././././.`.(.x.k.>.T T O.+.-.a.l.].`.`.^.^.^.^./.[.[.{.{.{.{.{.{.{.|.).l.-.1.q.$.G G O.a.v.^.[.{.{.`.x.a.+.+.a.c.`.{.{.{.{.{.{.{.{.{.[.[.[.[.[.[.[.[.[.[.[./././.^.^././././.^.^.^.^././././././././././././.^.c.x.a.a.s.b.(././.[.`.x.-.O.Y T &.<.-.a.(.`./.[./././././.^.b.x.f.-.=.=.=.-.g.g.g.=.;.+.+.+.=.,.g.f.a.s.l.l.l.l.v.s.s.s.a.a.a.a.a.s.s.s.s.a.a.a.f.f.f.f.f.f.a.a.a.a.a.a.a.a.f.a.a.,.;.O.O.O.+.=.-.-.#.Y G G G G H O.+.=.=.=.-.-.-.-.=.=.+.O.T T E K H H E &.#.+.+.+.+.O.T Y H H R T T T T T T T Y Y Y Y Y Y Y Y H H G G G G k k k j j j k k k k k k k j j j j p p i i 5 : # .   . # ; ; # # ; ; ; : 8 8 : ; # # ; : 4 8 8 : 4 4 5 i p j k G G k k ",
"J.g.=.+.+.+.+.+.%.+.+.O.O.$.T T W Y R H H H H H Y T $.+.<.q.;.T k p k H E +.+.=.=.-.-.-.-.-.-.-.-.-.-.-.a.a.a.a.a.a.a.a.a.a.a.a.a.g.a.a.a.a.a.a.a.a.a.a.f.g.a.=.+.-.f.b.b.z.z.z._._.b.a.-.=.a.h.a.a.s.l.z.z.l.l.z.z._.b.b.k.-.O.Y Y E O.-.x.(._.z.s.-.+.+.:.g.f.f.f.a.s.l.l.l.l.l.l.l.l.z.z.z.l.l.l.l.z.z.z.z.z.(.^.^.^.^.^.^.^./.^././.`.(.v.g.;.T T O.+.-.a.l.].XX]._.^.^.^./.[.[.{.{.2X2X{.{.{.|.].l.-.1.q.$.G G O.g.b.^.[.{.{.`.x.a.+.+.a.c.`.[.{.{.{.{.{.{.{.{.[.[.{.{.[.[.[.[.[.[.[./././.^.^.^.^./././.^.^./././././././././././././.(.c.l.a.a.a.b.(././.[.^.x.-.O.Y T 7.<.-.a.(.`./. X/./././.`.^.b.x.n.-.=.=.=.-.-.g.g.=.:.+.+.+.=.1.-.a.f.s.s.s.l.x.f.s.s.l.s.s.a.s.s.x.x.f.s.a.a.a.a.f.f.f.f.a.a.a.a.a.a.a.a.f.f.a.a.,.;.O.O.+.#.:.:.:.#.Y G J J G H O.+.=.=.=.-.-.-.-.=.=.+.O.T Y Q H H H E &.*.+.+.+.+.O.T Y H H E T O.T T T T T Y Y Y Y Y Y Y Y H H G G G J k k k j k k k k k k k k k j j j j p p i i 5 : # @   . # ; ; # # ; ; ; : 8 8 : ; # # ; : 4 4 4 4 4 4 5 i p k k G G G G ",
"J.g.=.+.+.+.+.O.%.+.+.O.O.T T Y Y Y R K K G G G Y T O.+.<.1.*.T j p k K @.#.+.=.-.=.-.-.-.-.-.-.-.-.-.-.a.a.a.a.a.a.a.a.a.a.a.a.a.a.a.a.a.a.a.a.s.s.s.a.f.k.g.=.+.-.f.c.b.l.l.l._._.v.a.=.=.-.g.-.-.s.l.z.z.z.z.z.z.^.b.b.k.-.O.Y W T +.-.x.(.`.b.l.-.=.=.-.f.f.a.a.s.l.l.l.l.l.l.l.l.l.z.z.z.l.z.z.z.z.z.z.z.z.^.^.^.^._.^.^.^./.^./. X`.^.l.f.;.T T O.;.:.a.l.]. X`.^.z.z.^./.[.[.{.{.2X2X2X{.{.[.).l.=.>.q.$.G G O.g.b.^.[.{..X`.x.a.+.+.a.m.`.{.{.{.{.{.{.{.{.{.{.[.{.{.{.[.[.[.[.[.[./././././././././././.^.^./././././././././././.`.).(.s.a.a.a.b.^./././.^.l.-.O.Y T &.<.=.a.b.`./. X/./././.`._.b.m.n.-.=.=.=.-.a.g.d.=.;.+.+.+.;.1.-.a.a.s.a.a.l.v.s.s.l.x.l.s.a.s.x.x.f.s.s.a.a.a.a.f.f.f.a.a.a.a.a.f.a.a.a.f.f.a.a.-.+.O.O.+.;.:.j.-.#.Y H J J G H O.+.;.=.=.-.-.-.=.=.=.+.$.Y Y W H G H T *.*.+.+.+.+.O.O.Y H R E O.O.T T T E T Y Y Y Y Y Y Y Y H H G G G G J k k k k k k k k k k k k j j j j p p i 5 5 : # @   . $ ; ; # ; ; ; ; : 8 : : ; # # # : 4 4 4 4 4 4 5 i j k k G G G G ",
"j.-.+.+.+.+.+.+.O.+.+.O.$.T T Y Y Y Y H K J k k G Y +.<.1.<.*.W j p k K ~ O.+.=.=.=.-.-.-.-.-.-.a.-.-.a.a.a.a.a.a.a.a.a.a.a.a.a.s.a.a.a.f.f.a.a.l.s.s.s.f.g.-.=.=.-.s.b.b.l.l.z.z.z.x.a.-.-.f.f.a.a.a.x.z.z.z.z.z.(.z.b.b.h.1.T Y Q @.+.-.x.(.`._.c.a.-.-.a.f.l.s.l.l.l.l.l.l.l.l.l.l.l.z.z.b.b.z.z.z.z.^.^.^.^.z.z.z.^._._./.^.^././././._.b.n.-.O.O.+.;.=.-.l.].[.`.`.^.z.^./. X[.{.{.2X2X2X6X6X{.].x.=.<.q.T k G O.a.v.`.[.[.[./.m.a.+.=.a.b.`.{.{.{.{.{.{.{.{.{.{.{.{.{.{.[.[.{.{.{.[.[.[.[././././.`.`././././././././.`./././././.}././.(.a.a.a.s._././././._.x.-.O.T T r.+.=.a.x._./././././. X/./.(.b.v.a.-.-.:.-.a.a.a.;.+.+.+.+.;.1.j.a.a.s.l.l.l.x.x.s.l.l.l.l.l.s.s.s.s.s.a.a.a.s.a.f.f.f.a.a.a.a.a.g.a.a.g.g.a.a.-.;.+.O.T O.+.-.-.,.+.T H H G G H O.+.+.=.=.=.-.-.-.=.;.+.T T Y Y H G Y O.#.;.;.=.+.+.O.O.T Y H W O.O.O.T T O.T Y Y Y Y Y H H H H H G G G G k k k k j j j j j j j k k k k j p p i i 5 4 : # . . . + ; ; ; ; : : : 8 : : ; # # # ; : 4 4 4 4 5 5 5 i p j k k G G G ",
"j.-.+.+.+.+.+.+.+.+.%.+.$.T T Y Y H H H G k k k G Y +.;.1.<.&.R j p k K ~ O.+.=.=.=.=.=.=.=.-.-.a.a.a.a.a.a.a.a.a.a.a.a.a.a.a.a.a.a.a.a.a.a.a.s.l.l.s.s.h.g.-.=.=.-.l.b.b.l.l.z.z.(.c.f.-.-.a.f.-.-.a.l.z.l.l.l.z.b.z.b.m.k.1.T Y W E +.-.x.(._.^.c.a.-.-.a.f.l.l.v.v.v.l.l.l.l.l.l.l.l.z.b.b.z.z.z.z.^.^.^.^.^.z.z.z.^.^.^././.^.^./././.^.b.f.-.+.O.+.;.=.-.x.].[.`.`.^.^.^./.[.[.{.{.2X2X2X3X3X{.].x.=.<.w.T k G O.a.x._.[.[.[./.m.a.+.+.a.b.`.{.{.{.{.{.{.{.{.{.{.{.{.{.{.[.{.{.{.{.[.[.[.[././././.[.[. X/././././././.`.`././.^./.}././.(.a.-.a.l._././././.(.v.-.+.T T *.#.=.a.x._./././.[.[. X X`._.'.m.a.-.-.d.a.a.f.a.-.+.+.+.+.=.:.d.a.a.s.l.l.l.l.l.s.s.l.l.l.l.s.s.s.s.s.s.a.a.a.a.a.f.s.s.a.a.a.a.g.a.a.a.a.a.-.-.;.+.O.T O.=.,.g.j.=.T Y K G H H O.+.+.;.=.=.=.=.-.=.=.+.T T Y Y H H Y @.;.;.-.-.=.+.O.O.T Y Y T O.O.O.T O.O.T Y Y Y Y H H H H H H H G G G k k k k j j j j j j j k k k k j p i i i 5 4 : # @ . . + > ; ; ; : : : 8 : : ; # # $ < : : 4 4 4 5 5 5 i p j k k G G G ",
"j.-.=.+.+.+.+.+.+.+.%.+.O.T T T Y H H H G G k k G Y O.=.1.1.*.Y j p k K E O.+.=.=.=.=.=.=.-.-.-.a.a.a.a.a.a.a.a.a.a.a.a.a.a.a.a.a.a.a.a.a.a.a.s.l.l.s.s.k.g.-.=.=.-.v.b.b.z.l.z.z.(.m.f.-.-.a.a.-.a.a.l.z.l.l.l.z.(.z.b.m.k.1.T Y W Q O.-.x.(.^._.b.a.-.-.a.s.l.x.b.b.b.b.b.l.l.l.l.l.z.z.z.b.z.z.z.^.^.^./.^.^.z.z.z.z.^.^././.`.^./././.`.b.f.-.+.O.+.;.=.a.x.].[.`.`.^.^.^.).[.[.{.{.2X2X2X2X3X{.].x.=.<.w.T k G O.-.x._.`.[.[. Xm.a.=.=.a.'.`.{.{.{.{.{.{.{.{.{.{.{.{.{.{.{.{.{.{.{.{.[.[.[././././.[.[././././././././././././.^./.}.[./._.a.-.a.x.`.`./.^.`.(.v.-.+.T T *.*.=.a.c._././. X[./././.`.].b.v.a.-.-.d.a.f.f.f.-.;.+.+.+.=.-.a.a.a.s.l.l.l.l.l.s.s.s.l.s.s.s.a.s.s.s.s.s.s.a.a.a.s.s.a.a.a.a.a.a.a.a.a.a.a.a.-.;.+.O.T O.=.,.g.j.=.T Y K G G H O.+.+.=.=.-.=.=.=.=.;.+.O.T Y W H H Y @.;.;.-.-.=.+.O.O.T Y Y W O.O.O.O.O.O.O.T T Y Y Y R R H H H H G G G J z k k j j j k k k k k k k k j p i i i 5 4 , # @ . . # > > ; : : : : 4 8 : ; # # & 2 : : 4 8 4 5 5 5 p p j z G G G G ",
"j.-.=.+.+.+.+.+.+.+.%.+.O.T T E Y Y Y H G G z G G Y O.=.1.1.*.H j p k K E O.+.=.=.=.=.=.=.-.-.g.a.a.a.a.a.f.a.a.a.a.a.a.a.a.a.a.a.a.a.a.a.a.s.x.x.l.l.f.k.k.-.-.=.a.v.b.b.z.l.l.z.(.m.f.a.-.a.f.a.a.a.l.z.z.l.l.z.z.z.b.m.k.1.T H Y E O.-.x.(.^._.v.a.-.-.-.f.s.l.l.l.l.l.l.l.l.l.l.z.z.z.z.b.z.z.z.z.^.^./.^.^.^.z.z.z.^.^./.`.`.^././.[.`.b.f.,.+.O.+.<.=.a.x.]./.`._.^.z.^.).[.[.{.{.{.2X2X2X2X[.].s.=.;.q.T k G O.-.x.(./.[.[. Xc.a.=.=.f.'.`.{.{.{.{.{.{.{.{.{.{.{.{.{.{.{.{.{.{.{.{.[.[.[.[./././.[./././././././././././. X/././.}.[.`._.a.-.a.v.`. X/./.`.(.v.-.+.T T *.;.=.a.l._././. X[./././.`._.b.l.a.-.-.a.a.f.x.f.,.>.=.+.+.=.-.g.a.a.l.l.l.l.l.s.s.s.s.s.s.s.s.s.a.s.s.s.s.s.a.a.a.s.s.a.a.a.a.a.a.a.a.a.a.a.a.-.=.O.T T O.;.,.g.j.=.T Y K J H H O.+.+.;.=.=.-.=.-.;.;.+.O.T T R H H Y O.*.;.-.-.=.+.O.T T H Y W O.O.O.O.O.O.O.T T Y Y Y R R K H H G G G G z k k k j j j k k k k k k k j j p i i i 5 8 : ; @ . . # > > ; : : 4 : 8 8 : : ; # & < ; : : 8 4 5 5 5 i p j z G G H H ",
"k.-.=.+.=.;.+.+.+.+.+.+.O.T T E Y Y Y Y H G J J H Y O.=.,.1.+.H j p k H Q O.+.=.=.=.=.=.=.-.-.g.a.a.a.a.f.f.a.a.a.a.a.a.a.a.a.a.a.a.a.a.a.a.s.x.x.l.l.f.k.k.-.-.=.a.v.b.b.b.l.z.z._.c.a.a.a.f.f.a.a.s.x.z.z.l.z.z.z.z.b.m.k.1.T H Y T O.-.x.(.^.b.l.a.-.=.-.f.s.l.l.l.l.l.l.l.l.l.z.z.z.z.z.z.z.z.z.z.^.^./.^.^.^.z.z.z.^.^./.`.].`././.[.`.b.f.j.+.O.+.<.-.a.l.`./.^.^.z.z.^./.[.[.{.{.{.2X2X2X2X[.).s.+.;.0.T k G O.-.x._./.[.[. Xc.a.=.=.f.'. X{.{.{.{.{.{.2X{.{.{.{.{.{.{.{.{.{.{.{.{.{.[.[.[./././././././././././././././. X/.^./.}.[.[.(.a.a.a.x.`.`./././.(.v.-.+.T T r.;.-.a.l._././. X X/./././.^.b.s.a.-.a.a.a.f.x.s.-.,.=.=.+.=.-.g.a.s.l.l.l.l.l.s.s.s.s.s.s.s.s.s.s.s.s.s.s.s.s.a.a.s.s.a.a.a.a.a.a.a.a.a.a.a.a.-.=.O.T T O.+.,.g.1.+.T Y K J G H O.+.+.=.-.-.-.=.-.;.;.+.T T T W H H Y O.+.;.=.=.=.+.O.T Y H Y W T O.O.T O.O.T T T Y Y Y W R K H H G G G G k k k k j j k k k k k k k k j j p p i i 5 4 : ; @ . . # ; ; : : : 4 4 8 8 : : ; # # ; ; : : : 4 4 5 5 i p k J J G H H ",
"S.g.=.=.=.;.;.+.+.=.=.+.+.O.O.Q Y Y Y Y H G G G H Y O.=.,.1.+.Y j p k H Q O.+.=.=.=.=.=.=.-.-.-.a.-.-.a.a.f.a.a.a.a.a.a.a.a.a.a.a.a.a.a.a.a.a.s.l.l.s.s.k.g.-.=.=.a.x.b.b.c.z.l.z._.c.a.-.a.n.n.a.a.a.l.z.z.l.l.z.z.z.b.m.k.1.T H H Y T -.x.'.^.b.x.a.-.=.-.f.s.l.l.l.l.l.l.l.l.z.z.z.z.z.z.z.l.z.z.z.^.^.^.^.^.^.^.z.z.^.^./.`.`.^././././.z.s.g.+.O.+.<.-.a.l.`./.^.^.z.z.^./.[.[.{.{.{.{.{.{.6X[.].s.=.;.i.O.k G O.-.x._.`.[..X Xc.a.=.=.a.'. X{.{.{.{.{.2X2X{.{.{.{.{.{.{.{.{.{.{.{.{.{.[.[.[./././././././././././././././. X/.^.^.}. X[.(.s.a.a.l._././././.(.v.-.+.T T r.;.-.a.l._././. X[./././.`.^.b.l.a.-.a.a.a.x.x.l.-.-.=.=.=.=.-.g.s.s.l.l.l.l.l.s.l.l.s.s.s.s.s.s.s.s.s.s.s.s.s.a.f.s.s.s.a.a.a.a.a.a.a.a.a.s.g.-.;.O.T T O.+.,.,.1.+.T H K G G H O.+.+.=.=.-.-.-.=.=.+.O.T T T T H H Y O.+.;.=.=.=.+.O.T Y H Y T T O.O.T T T T T Y Y Y H Y R H H H G G G G k k k k j j j k k k k k k k j j p p i i 5 4 : ; @ . . # ; ; ; : : 4 4 8 8 8 : ; # # ; ; : : 4 8 4 5 5 i j k J K H H H ",
"k.g.-.=.=.;.;.=.=.+.+.+.+.+.O.T Y Y T W H G G G Y T +.-.,.1.+.Y j p k H T O.+.=.=.=.-.-.=.=.-.-.-.-.-.a.a.a.a.a.a.a.a.a.a.a.a.a.a.a.a.a.a.a.a.a.l.s.s.s.h.g.-.=.=.a.x.b.b.b.z.z.^._.b.s.a.a.f.n.a.-.a.l.z.z.l.l.z.z.z.b.m.k.1.T H H Y T -.x.'.^.z.l.a.=.=.-.f.s.l.l.l.z.z.z.z.z.z.z.z.z.z.z.z.z.z.z.z.^.^./.^.^.^.^.z.^.^.^././.`././././.^.z.f.,.+.O.+.<.-.a.s.].`._._.z.z.^./.[.[.{.{.{.{.{.{.6X[.].s.=.;.i.O.k G O.-.x._.`.[..X Xm.g.=.=.a.b. X{.{.{.{.{.2X2X{.{.{.{.{.{.{.{.{.{.{.{.{.{.{.[.[.[.[./././././././././././././. X/.^.^.}. X}.^.s.a.a.l._././././._.v.-.+.T T u.<.-.a.z._././. X X/././.^._.b.x.a.a.a.f.s.x.b.l.a.,.-.=.=.=.-.g.s.l.l.l.l.l.l.l.l.l.s.s.s.s.l.l.s.s.s.s.s.s.s.s.f.f.s.a.a.a.a.a.a.a.a.a.a.f.f.-.;.+.T T O.+.;.,.1.+.Y H G G G H O.+.+.=.=.=.-.-.=.=.+.O.T T T E Y Y Y O.>.;.=.=.=.+.O.T Y Y Y T T O.O.O.T T T T Y Y Y H H H H H H G G G G k k k k k k k k z k k k k k j j p p i i 5 4 : # @ . . # ; : : : 4 4 4 8 8 8 : ; # # # , , : : 8 5 5 i i j k J K K H H ",
"A.g.-.=.=.;.;.=.=.+.+.+.+.%.O.T Y E ~ Q W H G H Y T +.-.,.1.%.Y j p k H T O.+.=.=.-.-.-.=.=.-.-.-.-.-.a.a.a.a.a.a.a.a.a.a.a.a.a.s.a.a.a.f.f.a.a.l.l.s.s.k.g.-.=.=.-.x.b.b.b.b.z.^.^.b.x.a.a.f.f.a.-.a.l.z.z.l.z.z.z.z.b.m.g.1.T Y H Y T =.n.'.^.z.l.a.=.=.-.a.s.s.l.l.z.z.z.z.z.z.z.z.z.z.z.z.l.z.z.^.^.^./.`._.^.z.^.^.^.^././.`.`.[. X/.^.b.x.,.+.O.+.<.-.a.s.].`.`._.^.z.^./.[.[.{.{.{.{.{.|.2X[._.s.+.#.0.T k G O.-.v.(.`.[..X Xm.g.=.=.a.b. X{.{.2X{.{.2X2X{.{.{.{.{.{.{.{.{.{.[.{.{.{.{.[.[.[.[.[. X X/././././././././. X/./.^.^.}..X}.^.a.a.a.v.`././././._.x.-.+.T $.u.<.-.a.z.^././. X/./././.^.z.b.x.s.a.a.f.f.x.b.v.h.j.,.=.=.=.-.h.s.l.l.b.b.v.l.l.l.l.l.s.s.l.l.l.s.s.s.s.a.a.s.s.f.f.f.s.s.a.a.a.a.a.a.a.a.f.f.-.;.+.T T O.+.>.,.1.+.Y H G G G H O.+.+.=.=.-.-.-.-.=.;.+.O.T $.~ Y Y T +.>.-.=.=.+.+.O.T Y Y Y T $.+.O.O.O.T T T Y Y Y Y H H H K H H G G G k k k k k k k z z z J G k k j j p p i i 5 4 : # @ . @ # ; : : : 8 4 4 4 4 : : ; # # # ; ; : : : 4 5 5 i j k J K H H Y ",
"k.a.-.=.;.;.=.=.+.+.=.+.+.O.$.Q Y Y T Q ! P J G Y T +.-.g.1.+.W j p k P ~ O.+.=.-.-.-.-.-.-.-.-.-.a.a.a.a.a.a.a.a.a.a.a.a.a.a.a.a.a.a.f.f.s.s.s.s.s.s.s.k.h.-.=.=.-.l.b.b.b.z.z.^._.b.l.a.a.f.v.a.a.a.l.z.z.l.l.z.b._.b.v.k.=.T Y H Y O.-.x.(.^.(.v.a.=.=.-.f.s.l.l.l.z.z.z.z.z.l.z.z.z.z.z.z.z.z.z.^.^././.`.`.^.^.^.z.^.^././././././././.b.x.,.+.O.+.;.-.-.x._.].].^.z.^.^.^. X{.{.{.{.{.{.{.{.{.].s.+.<.i.T k G O.-.x.'.`./.[. X'.f.=.=.a.b. X{.{.2X{.{.2X{.2X2X2X2X{.{.{.{.{.{.{.{.{.{.{.{.[.[.[.[.[.[./././././.`. X[. X X/./.^.^./.[.[.(.a.a.a.v.`. X/./.^.(.m.-.+.T T u.;.-.a.z._./././././././.^._.b.l.a.a.a.n.v.v.b.v.h.,.-.=.=.=.a.f.s.l.v.b.b.l.l.l.l.l.l.l.l.l.s.s.l.l.s.s.s.s.l.x.a.f.f.s.a.a.a.a.a.a.a.a.a.f.f.g.1.+.O.T O.+.=.=.>.+.Y H K G G H O.;.;.=.=.-.-.=.-.=.+.+.O.T T ~ Y Y T +.;.;.-.;.+.O.O.T Y H Y T O.+.O.O.O.T T Y T Y Y H R ~ R G G H K J G k k k k k k k k k k k G G k k j p p i i 5 4 : ; @ . @ ; , : : : 4 8 4 4 8 8 : ; # # # ; ; : : : 4 5 i p j k G H H Y Y ",
"k.a.=.=.=.=.=.=.+.+.=.+.+.O.$.T Y Y T Q W H G H Y T +.-.j.1.%.W j p k K Q O.+.=.=.-.=.=.-.-.-.-.-.a.a.a.a.a.a.a.a.a.a.a.a.a.a.a.a.a.a.f.f.f.a.s.s.s.s.s.k.g.-.=.=.-.l.b.b.b.z.z.^._.b.l.a.a.l.x.a.a.a.l.z.z.l.l.z.z._._.m.k.=.T H H Y O.-.x.(.^.z.l.a.=.=.-.f.a.l.z.z.z.z.z.z.z.z.z.z.z.z.z.z.z.z.z.^.^./././.^.^.^.^.^.^.^././.^.^././././.z.x.g.+.+.+.;.-.a.x.(.`.).^.^.^.^.^..X.X{.{.{.{.{.{.{.{.].s.+.<.p.T k G O.-.x.'.`./.[. X'.f.=.=.a.b. X{.{.2X{.{.2X2X2X2X2X2X{.{.{.{.{.{.{.{.{.{.{.{.[.[.[.[.[././././././.`.`. X X X/./.^.^./.}.`._.a.a.a.v.`. X[.}.^.(.m.-.+.O.T u.;.-.s.z.`./././././././.`._.b.l.a.-.a.f.x.l.b.l.g.-.=.=.=.=.-.f.s.l.v.b.b.z.l.l.l.l.l.l.l.l.s.s.l.l.s.s.s.s.l.x.a.s.s.a.s.s.s.a.a.a.a.a.a.a.f.g.,.+.O.T O.+.=.=.>.+.Y G J G k H O.;.-.=.=.-.-.=.-.=.+.+.O.O.$.&.T Y T +.<.,.-.-.+.O.O.T Y Y Y Q $.+.O.O.O.O.T Y Y Y Y H R R R H G H K J G k k k k k k k k k k k G G k j j p p i i 5 4 : ; @ . + ; : : : 4 4 4 4 4 4 : : ; # # # ; ; : : : 4 5 i p j k G H H Y Y ",
"k.a.=.=.=.=.=.=.=.=.=.+.+.O.O.T Y Y Y W H H G H Y T +.-.j.1.+.R j p k H Q O.+.=.=.=.=.=.-.-.-.-.-.a.a.a.a.a.a.a.a.a.a.a.a.a.a.a.a.a.a.a.a.a.a.s.s.s.s.s.k.h.-.=.=.-.l.b.b.b.z.z.^._.b.l.a.a.l.x.a.a.a.l.z.z.l.z.z.z.^.b.m.k.;.T H Y Y O.=.f.(._.z.l.a.=.=.-.f.s.l.l.z.z.z.z.z.z.z.z.z.z.z.z.z.z.z.^.^.^.^./.^.^.^.^.^.^.^./././././././././.z.x.-.+.+.+.;.-.a.x.^.`.`.^.^.^.^./.{.{.{.{.{.{.{.|.{.{.].s.+.<.i.T k G O.-.l._.`./.[. Xc.a.=.=.a._. X{.{.2X{.{.2X2X2X2X2X{.{.{.{.{.{.{.{.{.{.{.{.{.[.[.[.[.[././.^.^./././././.[. X/./.^.^./././.^.a.a.a.v.`. X[.}.^.z.v.-.+.O.O.u.;.-.s.z.`./././././././._.(.b.l.a.-.a.f.f.x.b.s.a.=.=.=.=.=.g.k.s.l.v.b.z.z.l.l.l.l.l.l.l.l.l.s.l.l.s.s.s.s.l.x.s.s.s.s.s.x.s.a.a.a.a.s.f.f.f.g.,.+.O.T O.+.=.=.>.+.Y G J G k H +.;.;.=.=.-.-.=.-.=.=.+.+.O.$.&.T Y T +.1.1.-.=.+.+.O.O.T Y Y Q O.O.O.O.O.O.Q Y Y Y Y H Y R H H G G J G G k k J k k k k k k k k G G k k j p p i i 5 4 : ; @ . + ; : : 4 4 4 5 4 4 4 : ; ; # # # ; : : : 4 4 5 i p p k G H Y Y Y ",
"k.g.-.=.-.;.;.;.=.=.=.+.+.O.O.T Y Y Y Y H H G H Y T +.-.j.1.#.Y j p k H T O.+.=.=.=.=.=.-.-.-.-.-.a.a.a.a.a.a.a.a.a.a.a.a.a.a.a.s.a.a.a.a.a.s.s.l.l.l.s.k.h.-.=.=.-.l.b.b.b.z.z._.^.b.l.a.a.l.x.a.-.a.l.z.z.l.z.z.z.^.b.m.k.;.T H Y T O.=.s.b._.z.l.a.=.=.-.f.s.l.l.z.z.z.z.z.z.z.z.z.z.z.z.z.z.z.^.^.^.^.^.^.^.^.^.^.^.^././././././.[././._.x.-.+.+.+.;.-.a.v._.`.`.^.^.^././.{.{.{.{.2X2X{.6X2X[.].s.+.<.i.T k G O.-.l.(.`./.{..Xc.a.=.=.f.'. X{.{.2X2X2X2X2X2X2X{.{.{.{.{.{.{.{.{.{.{.{.{.{.[.[.[.[.[././.^./././././.[.[.[. X/.^.^./././.^.a.a.a.c.`. X[.}./.z.v.-.+.O.O.i.;.-.s.z.`./././././././.^._.b.l.a.a.a.f.f.x.c.s.-.=.=.+.+.=.-.h.s.l.v.b.z.z.z.l.l.v.v.x.x.x.l.s.l.l.l.s.s.s.l.l.l.s.s.s.x.v.x.a.a.a.a.s.f.f.a.a.,.=.O.T O.+.=.=.>.+.Y G J G G H +.;.-.-.-.-.-.=.-.=.=.;.+.O.$.&.Q Y T O.>.,.=.=.+.+.O.@.E Y Y Q O.O.O.O.O.O.O.T Y Y Y Y H H H H H G G G G k k L k k k k k G k G G G k k j p p i i 5 4 : ; @ . + > : : 4 4 4 5 5 4 4 : : ; # # # ; : : : 4 5 a a p j k G K Y Y Y ",
"k.a.=.=.=.;.;.;.=.=.=.+.+.O.T Y Y H Y Y H H G H Y T +.-.j.1.O.H j p k H T O.+.=.=.=.=.=.-.-.-.-.-.a.a.a.a.a.a.a.a.a.a.a.a.a.a.a.a.a.a.a.a.a.s.l.l.l.l.x.k.k.-.=.=.-.l.b.b.z.l.z.^.^.b.l.a.a.l.s.a.-.a.l.z.z.l.z.z.z.^.b.m.k.;.T Y Y E O.-.f.(._.z.l.a.=.-.-.f.s.l.z.z.z.z.z.z.z.z.z.z.z.z.z.z.z.z.^.^.^.^.^.^.^.^.^.^.^.^././././././.[. X/.(.v.-.+.+.+.;.d.a.x.`.`.`.`./.^./.[.{.{.{.{.2X2X{.|.2X[.].s.+.<.i.Q k G O.-.l.(.`./..X.X'.f.=.=.f.'.[.{.{.2X2X2X2X2X2X2X2X2X{.{.{.{.{.{.{.{.{.{.{.{.{.[.[.[.[././././././././.[.[.[. X/.^.^./././.z.a.a.a.c.`..X[././.z.v.-.+.O.O.u.-.a.s.z.`./././././././.^.(.v.l.a.a.a.f.f.x.x.a.-.=.+.+.+.=.-.g.s.l.l.b.z.b.z.l.v.x.l.x.x.l.l.l.l.l.l.s.l.l.l.l.l.s.a.s.x.x.f.s.a.a.s.s.s.s.a.a.g.=.O.O.O.+.=.=.>.+.Y H K G G Y +.-.-.-.-.-.-.-.=.=.=.=.+.O.$.&.T T T +.>.,.=.=.+.+.O.@.T Y W Q O.O.O.O.O.O.O.T Y Y Y Y H H H H H G G G k k k L k k k k k G G G G G k k j j p i i 5 4 : ; + . + ; : 4 4 4 4 5 5 7 4 4 : ; # # ; : : : : 4 5 a p p j k J K Y H H ",
"k.-.=.=.=.=.=.=.=.+.+.+.+.O.T Y H H Y Y H H G H Y T +.-.1.<.O.H j p k K Q O.+.=.=.=.=.=.=.=.-.-.-.a.a.a.a.a.a.a.a.a.a.a.a.a.a.a.a.a.a.a.a.a.s.s.l.l.l.x.k.k.-.=.=.-.l.b.z.z.l.z.^.`.b.l.a.a.l.l.a.-.a.l.z.z.l.z.z.z.^.b.m.k.;.T Y W T O.-.x.(._._.z.a.=.-.a.s.l.l.z.z.z.z.z.z.z.z.z.z.z.z.z.z.z.z.^.^.^./././.^.^.^.^.^.^./././././././.[./._.x.g.+.+.+.;.d.a.x.]. X`.`./././.{..X{.6X2X2X2X2X6X2X[.(.s.+.<.u.Q k G O.-.l._.`./..X X'.f.=.-.f.'.[.{.{.2X2X2X2X2X2X2X2X2X2X{.{.{.{.{.{.{.{.{.{.{.{.{.[.[.[././././././././.[.[.[. X/.^.^./././.^.a.a.a.c.`. X[././.z.x.-.+.O.O.<.-.a.s.z.`./././././././._.(.b.x.a.-.a.a.a.f.x.a.-.;.+.+.+.;.-.g.s.l.b.b.z.b.z.z.l.l.l.l.l.l.l.s.l.l.s.s.s.l.l.l.l.s.a.s.x.x.s.s.a.a.s.s.s.s.s.f.g.=.+.O.O.+.=.=.1.+.Y H K J G Y ;.-.-.-.-.-.-.-.=.=.=.+.+.O.$.&.Q T T +.>.-.=.=.+.+.O.O.E Y W Q O.O.O.O.O.O.O.T T Y Y Y Y H H H H G G G G G k L k k k k k G G G G G k k j j p i i 5 4 4 ; + . + ; : : 4 4 4 5 5 7 8 4 : ; # # ; ; : : : 4 4 5 i p j k J H H H H ",
"d.-.=.=.=.=.+.+.+.+.+.+.O.O.T T H H H H H H G H Y T +.,.j.<.O.H j p k K ~ O.+.=.=.-.-.=.=.=.-.-.a.a.a.a.a.a.a.a.a.a.a.a.a.a.a.a.a.a.a.a.a.a.a.s.s.s.s.f.k.h.-.=.=.-.l.b.z.z.l.z.^._.b.l.a.f.l.l.a.-.a.l.z.z.l.z.z.z.^._.m.k.;.T W W T O.:.x.(./.^.b.a.-.-.a.f.l.z.z.z.z.z.z.z.z.z.z.^.^.z.z.z.z.z.^.^.^././././.^.^.^.^.^././././././.[.[./.(.v.g.+.+.+.;.g.a.x.].`.`.`./././.{.6X6X3X3X2X2X2X2X{.[.(.f.+.*.u.Q k G O.-.l.'.`./..X X'.f.=.=.s.'. X{.{.2X{.2X2X2X2X2X2X2X2X2X{.{.{.{.{.{.{.{.{.{.{.{.[.[.[.}./././././././.[.[. X X/.^.^./././.(.a.a.a.b.`. X[././.z.x.-.+.O.O.<.-.a.s.z.`./././././././._.b.x.f.a.-.-.a.a.f.x.a.,.;.+.O.+.;.-.a.s.l.b.b.b.b.z.z.l.l.l.l.l.l.s.s.l.l.s.s.s.l.l.l.l.s.s.s.s.s.s.x.s.s.s.s.s.s.f.f.g.-.+.O.+.;.-.-.1.+.Y H K G G Y ;.-.-.-.-.-.-.-.-.=.=.+.+.O.$.*.T T O.+.>.;.=.=.+.+.O.O.T Y W Q $.O.O.T O.O.O.T T Y Y R R H H H H H G G G G k k k k k k G G J G G G k k j j p i i 5 9 4 ; + . + , : : 4 4 4 4 5 5 4 : : ; # # ; ; : : 4 4 5 5 i p j k G H H H H ",
"j.-.=.=.=.=.+.+.+.+.+.+.+.O.T Y H H H Y P H G H H T +.,.j.1.@.H j p k P ~ O.+.=.-.-.:.-.=.=.-.d.a.a.a.a.a.a.a.a.a.a.a.a.a.a.a.a.a.a.a.a.a.a.a.a.a.s.a.s.h.g.-.=.=.-.l.b.z.l.z.z.`.`.b.l.a.f.l.s.a.a.a.l.z.z.l.l.z.z._._.b.k.;.T T T T +.a.m.)./._.c.a.-.-.a.f.l.z.z.z.z.z.z.z.z.z.z.z.z.z.z.z.z.z.^.^.^././././.^.^.^.^.^././././././.[. X X_.m.g.+.+.+.=.g.a.x.].`./././././.{.6X3X3X3X2X2X2X2X6X[.(.f.=.<.u.Q k G O.-.x._.`.[.{. X'.f.-.=.s._. X{.{.2X2X2X2X2X2X{.2X2X2X{.2X{.{.{.{.{.{.{.{.{.{.{.[.[.[.}.}././././././.[.[. X X/.^.^././.`.(.a.a.a.b.].XX[.}./.z.x.-.+.O.O.<.-.a.l.^.`.`./. X/././.^.^.b.x.s.a.-.a.a.a.f.n.f.,.;.+.O.+.=.-.a.s.l.b.z.b.z.z.z.v.l.l.l.l.l.l.s.l.s.s.a.s.s.s.s.s.a.a.s.s.a.a.x.s.s.a.a.a.s.x.f.j.,.+.O.+.;.,.,.,.+.Y H H G G Y ;.-.-.-.-.-.-.-.-.=.=.+.+.$.$.*.T T O.+.=.=.=.=.+.+.O.O.T Y W Q O.O.O.O.O.O.O.T Q Y Y R R H H H H G G G G k k k k k k k G J J J G G k k j j p p i 5 4 4 ; + . + : : 4 4 4 4 4 5 5 4 : ; # # # ; : : 4 8 7 5 i i p j k G H H R Y ",
"j.-.=.=.=.;.;.;.=.+.+.+.O.O.T Y Y H H H H H H H H Y +.,.j.1.@.H j p k H T O.+.=.=.=.-.-.-.-.-.-.a.a.a.a.a.a.-.-.-.a.a.a.a.a.a.a.l.s.a.a.a.a.a.a.a.a.a.s.h.g.-.-.=.a.l.l.v.c.c.b.^.^.(.l.a.a.s.x.a.a.l.b.b.b.z.z.^.^.z.z.b.n.<.T Y T T +.f.c.`.`.`.c.a.=.-.g.s.v.z.z.z.z.z.z.z.z.z.z.z.z.^.^.^.^.^.^.^.^././././.^././././././././././.[.[./._.m.g.=.O.+.-.a.a.l.`./.`.`./.^./.{.|.6X2X2X3X2X2X{.2X{.].s.=.<.2.Y k G O.a.b.[.[.{.{. X'.s.-.-.l.`.[.{.{.{.{.{.2X2X{.{.{.{.{.{.{.{.{.{.{.{.{.{.{.{.{.{.[.{.[.[.}.}.}.}.}.}.[.[.[./././././././.^.z.s.a.a.c.`.}.[.[./.z.x.-.+.O.O.1.-.a.l.^././.[. X[.}././._.(.c.s.a.-.-.d.a.s.x.s.,.<.+.+.=.-.k.f.x.l.b.b.b.z.l.l.l.l.l.s.l.s.a.l.s.s.s.a.a.a.a.a.a.a.a.a.a.a.a.s.s.s.s.s.s.s.s.f.g.;.+.O.+.+.=.-.,.+.T H G G G Y #.=.-.-.a.a.-.-.-.;.+.O.#.T Y &.Y Y T %.>.=.=.=.+.+.+.O.T Y Y T O.+.O.O.O.T T Y E Y Y H H H G G G G G G G k k k k k k k G G G G G k k k k j j p i 5 4 : ; + . + ; 4 4 4 4 4 4 5 7 4 : : ; # # ; ; : : 4 4 5 i p j j k G H H H H ",
"j.-.=.+.=.=.=.;.+.+.+.+.O.O.T Y Y H H G H H H H H Y +.,.k.1.@.H j j k H Q O.=.=.=.=.-.-.-.-.-.-.a.a.a.a.-.-.-.-.-.a.a.a.a.a.a.a.l.s.s.a.a.a.a.a.a.a.a.a.h.g.-.-.-.a.l.v.v.c.c.z.^./.(.l.a.a.s.s.a.s.l.z.b.b.z.z.^.^.^.^.b.k.>.T Y E O.+.f.(.`.[._.c.a.=.-.g.s.v.z.z.z.z.z.z.z.z.z.z.z.z.^.^.z.^.^.^.^.^.^.^./././././././././././././.[.[./._.m.j.=.+.+.-.a.a.l.`./.`.`./.^./.[.|.6X2X2X2X2X2X2X3X{.].s.-.<.2.Y G H O.a._. X{.{.{. X(.l.-.-.l.`.[.{.{.{.{.{.2X2X{.{.{.{.{.{.{.{.{.{.{.{.{.{.{.{.{.[.[.{.[.[.[.[.[.[.[.[.[.[.[./.[.`././././.^.z.s.a.s.c.(.}.[.[./.z.x.-.+.+.O.1.g.a.l.^. X[.[.[.[./././.^.(.x.a.a.-.a.g.f.x.x.f.-.<.+.=.=.=.k.f.v.l.z.b.z.z.l.l.l.l.s.s.s.s.a.l.s.s.s.a.a.a.a.a.a.a.a.a.a.a.a.s.s.s.s.a.a.a.a.f.-.=.+.O.O.+.;.-.,.+.E H G G H Y #.=.-.-.a.a.a.-.-.;.+.O.$.T T &.Y Y T %.>.-.=.=.+.+.+.O.T Y Y T +.+.O.O.O.T T Y Y Y H H H G G G G G G G G k k k k k k k G G G J J z z k k j j j i 5 4 : ; + @ + : 4 4 8 4 4 4 4 8 4 : ; ; # # $ > ; : 4 4 5 i p j k G G H H H H ",
"M.-.+.+.=.;.+.+.=.+.+.+.O.T T Y Y Y H H H H H H H Y +.,.k.1.@.H j j k H Q +.;.:.=.=.=.=.=.=.-.-.-.a.a.a.-.-.-.-.-.a.a.a.a.a.s.s.l.s.s.a.a.a.a.a.a.a.a.a.h.g.-.-.-.a.l.b.v.c.l.z.^./.(.l.a.a.s.l.a.s.l.z.b.z.l.l.z.^./.^.b.k.>.T Y T T +.f.(.`.[._.c.a.=.-.j.l.v.z.z.z.z.z.z.z.z.z.z.z.z.z.z.z.z.^.^.^.^.^.^././././././././././././././.[./._.m.k.=.+.=.-.a.a.z.`././.`./././.{.|.6X2X2X2X2X{.2X3X{.(.a.-.<.2.Y k H O.-._. X{.{.{..X(.l.-.a.l.`. X{.{.{.{.{.2X2X{.{.{.{.{.{.{.{.{.{.{.{.{.{.{.{.{.{.[.[.{.{.[.[.[.[.[.[.[.[.[./.[.`././././.(.(.s.a.s.c.(.[.{.[./.z.x.a.+.+.O.1.g.a.z.^.[. X[.[././././.^.(.x.a.a.-.a.f.f.x.c.x.-.1.=.=.=.=.k.n.v.b.z.b.z.l.l.l.s.l.l.s.l.s.a.s.s.s.s.s.a.a.s.f.a.a.a.a.a.a.a.s.s.s.a.a.a.a.a.a.-.=.+.O.O.+.-.,.>.+.E K K G G Y +.=.=.-.a.a.a.-.-.=.+.O.O.T T &.Y Y T +.>.-.=.=.=.+.+.O.Q Y T $.+.+.+.O.O.O.T T Y Y H H H G G G G G G G k k k k k k k k G G G J J z k k k k j j p 5 4 : ; + @ # : 4 7 7 5 5 4 4 4 : : ; # # # # ; : : 4 4 5 i p j k G G H H H H ",
"L.-.=.+.;.;.;.+.=.+.+.+.O.O.T Y Y H H H H H H H H Y +.,.j.1.O.H j j k H Q O.=.=.=.=.=.=.=.=.-.-.-.a.-.-.-.-.-.a.-.a.a.a.a.a.s.s.l.s.s.a.f.a.a.a.a.a.a.a.h.g.-.-.=.a.x.b.b.x.l.l.^./.(.l.a.a.s.l.s.l.l.b.b.z.l.l.z.^./.^.b.k.>.T Y E T +.f.(.`.[.^.c.a.=.-.h.l.b.z.z.z.z.z.z.z.z.z.z.z.z.z.z.z.z.^.^.^.^.^.^.^.^././././././././././././.[./.(.m.k.=.+.=.-.g.s.b.`./././././.[.{.{.6X2X2X2X2X2X2X3X|.].s.-.1.r.E k G T -._. X{.{.{..X(.l.-.a.v.`..X|.{.2X{.{.2X2X{.{.{.{.{.{.{.{.{.{.{.{.{.{.{.{.{.[.[.[.{.{.[.[./.[.[.[.[.[.[./.[.`././.}.).(.(.s.a.s.c.(.[.[.[./.z.x.a.+.+.+.1.g.a.z._.[. X[.[.[.}././._._.c.s.a.-.a.f.s.x.b.l.-.1.=.=.=.=.k.v.v.v.z.b.z.l.l.l.s.l.l.s.x.l.s.s.s.s.s.s.a.s.s.f.a.a.a.a.a.a.s.s.s.s.s.s.a.a.a.a.-.=.O.O.O.+.,.,.,.+.T H G G G Y +.=.=.-.a.a.a.a.-.=.+.O.O.T T &.Y Y T +.1.-.-.=.=.+.+.O.T T T $.+.+.+.O.O.O.T T Y Y H H H H H G G G G G G G k k k k k k k G G k z k k k k k j p s i 4 : ; + @ # : 4 7 7 5 5 4 4 4 4 : : # # # > ; ; : 4 4 5 i p j k k G H H H H ",
"L.-.=.+.;.;.;.+.=.+.+.+.+.O.T Y Y H H H H H H H H Y +.-.g.,.O.H j j k H Q O.+.=.-.-.=.=.=.-.-.-.-.-.-.-.a.a.a.a.-.-.a.a.a.a.a.s.s.s.a.a.a.f.f.a.a.a.a.s.s.g.-.=.=.a.x.b.v.v.l.l.^./.(.l.a.a.s.l.s.l.l.b.b.b.z.z.^.^./.^.b.k.>.T Y T T +.f.(.`.[.^.b.a.=.-.f.l.b.z.z.^.z.^.^.^.^.z.z.z.z.z.z.z.z.^.^.^.^.^.^.^.^./.^././././././././././.[./.(.x.k.=.+.=.,.g.s.b.`././././././..X{.{.2X2X3X2X2X2X3X.X'.f.=.4.u.E G H O.-.b. X{.{.{. X(.l.-.a.v.`..X|.{.2X{.2X2X2X2X{.{.{.{.{.{.{.{.{.{.2X{.{.{.{.{.[.[.[.{.{.[.[./.[.[.[.[.[.[./.[.`.[./.}.).(.(.s.a.s.c.(.[.[.[./.z.v.a.+.+.+.1.g.a.z._.[.[.[.[.[./././._._.c.s.a.-.a.f.l.c.b.v.g.1.+.=.=.-.h.s.x.l.z.b.z.l.l.s.s.l.s.s.x.l.s.s.s.s.a.a.a.s.s.s.a.a.a.a.a.a.s.s.s.s.s.a.a.a.a.a.-.=.O.O.O.+.,.,.,.+.Y H G G G Y +.=.=.-.a.a.a.a.-.=.+.+.O.T $.&.Y Y T +.1.,.-.=.=.+.+.O.T T T &.+.+.+.O.O.O.T E Y Y Y H H H H H H H G G G G G k k k k k k k k k k k k k k k j p s i 4 : ; # @ # : 4 4 5 5 4 5 4 4 6 0 : # # # ; ; ; : 4 4 5 i p j k k G H H H H ",
"J.-.=.+.=.=.+.=.=.+.+.+.O.O.T Y Y H H H H P H H H Y +.-.g.,.O.H j j k H Q O.+.=.-.-.=.=.=.-.-.-.-.a.-.-.a.a.a.a.a.a.a.a.a.a.a.a.l.s.a.a.a.f.f.f.a.a.a.s.s.g.-.=.=.a.v.b.v.l.l.z.^./.(.l.a.a.l.l.s.l.l.b._.b.z.z.^.^.^.^.b.k.>.T Y W T +.f.(.`.[.^.b.a.=.-.f.l.b.z.z.^.^.^.^.z.z.z.z.z.z.z.z.z.z.^.^.^.^.^.^././././././././././././././.[./.(.x.k.=.+.=.,.g.l.b.`./././.^././.{.{.{.2X2X3X3X2X2X3X.X].f.=.4.u.E G H O.-.b. X[.{.{. X(.l.a.a.v.`. X{.{.2X{.2X2X2X2X{.{.{.{.{.{.{.{.{.{.{.{.{.{.{.{.[.[.[.{.{.[.[.[.[.[.[.[.[.[./.[././.[./.).(.c.s.a.s.c.(.[.[.{./.z.x.a.+.+.+.1.g.a.z.^.[.[. X[./././.^.^.(.b.s.a.a.a.x.l.c.(.l.g.1.+.=.=.-.h.s.l.l.z.b.z.l.s.l.s.l.s.s.x.x.s.s.s.s.a.a.a.a.s.s.a.a.a.a.a.s.s.s.a.a.a.a.a.a.a.a.-.=.O.O.O.+.-.,.,.+.T H G G G H +.=.-.-.a.a.a.a.-.=.+.+.T T $.Q Y Y T +.1.,.-.=.=.+.+.O.T T T &.+.+.+.O.O.O.T E Y Y Y H H H H H H H H H G G G k k k k k k k k k k k k k k k j p p i 4 : ; # @ # : 4 4 4 5 5 4 4 4 6 0 : ; # # ; ; ; : 4 5 5 i p j k G G H H H H ",
"J.-.=.+.=.=.=.;.=.=.+.+.+.O.T Y Y Y H H P P H H H Y +.-.g.,.O.H j j k K Q O.=.=.=.=.=.=.=.-.-.-.a.a.a.a.a.a.a.a.a.a.a.a.a.a.a.a.l.s.a.a.a.f.a.a.a.a.a.a.h.g.-.=.=.a.v.b.v.l.l.z.^./.^.l.a.a.l.l.s.l.z.b.b.b.z.z._.^.^.^.b.A.;.T Y T T +.f.(.`.[.^.b.a.=.-.f.l.b.z.^.^.^.^.z.z.z.z.z.z.z.z.z.z.z.^.^.^.^.^.^./././././././././.`././././././.(.x.j.=.+.=.,.g.x.b.`. X/./.^.^./.{.{.{.2X2X3X3X2X2X3X|.'.f.=.<.u.E G H O.-.b. X[.{.{. X(.l.a.a.v.].[.{.{.{.{.{.2X2X2X{.{.{.{.{.{.{.{.{.{.{.{.{.{.{.{.[.[.{.{.{.[.[.[.[.[.[.[.[.[./.[./.[.[././.^.z.s.a.s.c.).}.[.[./.z.x.a.+.+.+.1.g.a.z.^.`.[.[.[./././.^.^.(.b.s.a.a.a.x.l.b._.l.g.1.+.=.=.-.h.f.l.l.l.z.z.l.l.l.s.l.s.s.x.x.s.s.l.s.s.s.a.s.s.s.a.a.a.a.s.s.s.s.a.a.a.a.a.a.a.a.-.=.O.O.O.+.-.,.=.+.T Y H G G H +.=.-.-.g.s.g.g.g.=.;.#.T T &.T Y Y T +.1.,.-.=.=.+.+.O.T T T &.+.+.O.O.O.O.T T Y Y Y H H H H H H H H H G G G k k k k k k k k k k k k k k k j p i 5 4 : ; + + # : 4 4 5 5 4 4 4 4 8 8 : ; ; ; # ; : : 4 5 5 i p j k G G H K Y Y ",
"J.d.=.=.=.=.;.;.=.=.+.+.+.O.T Y Y Y K K P P H H H Y +.-.g.,.O.H j j k ! &.+.=.=.=.=.=.=.=.-.-.-.a.a.a.a.a.a.a.a.f.f.s.a.a.a.a.a.l.s.a.a.a.a.a.a.a.a.a.a.h.g.-.=.-.a.v.b.l.l.l.b.^./.^.l.a.a.l.l.s.s.l.z.b.b.z.z.(.^.^.^.b.A.;.T Y W T +.f.(.`.[.^.b.a.=.-.f.l.z.^.^.^.^.^.^.z.z.z.z.z.z.z.z.z.z.^.^.^.^.^.^./././././././././.`././././././.(.x.j.=.+.=.,.f.x.b. X[././.^.^./.[.{.{.2X2X3X3X3X2X2X{.(.a.=.<.r.Y G H O.-.b. X[.{.{. X(.l.-.a.v.].[.{.{.{.{.{.2X2X{.{.{.{.{.2X2X2X{.{.{.{.{.{.{.{.{.{.[.{.{.{.[.[.[.[.[.[.[.[.[.[. X/.[./././.^.z.s.a.s.z.).}.[.[./.z.c.a.+.+.+.1.a.a.l.^./.[.[.[././././._.(.b.l.a.a.a.v.l.b._.l.a.1.=.=.=.=.f.v.l.l.l.b.z.l.l.l.s.l.s.s.v.x.s.l.l.l.x.s.s.s.s.s.f.f.f.f.s.s.s.s.s.a.a.a.a.a.f.f.g.=.O.O.O.+.-.-.=.+.T R K G G H +.=.-.a.g.s.s.g.g.=.>.+.T T &.T W Y T +.1.,.-.=.=.+.+.O.T T T &.+.+.O.O.O.O.O.T T Y Y Y Y H H H H H H H H G G k k k k k k k k k z k k k k z j j i 5 4 : ; # + # 8 8 7 7 5 4 4 4 4 4 : ; ; < ; # ; : : 4 4 5 i p j k G G H K Y Y ",
"A.-.=.+.=.=.=.=.=.=.+.+.O.O.O.Q Y Y H H H W H H H Y +.-.g.,.T H j j k K Q +.=.=.=.=.=.=.=.=.-.-.-.a.a.a.a.a.a.a.a.a.s.s.s.a.a.s.s.a.a.a.a.f.f.s.l.s.s.s.h.g.-.=.-.-.v.'.l.l.c.z.^./.^.l.a.a.l.l.l.s.l.b._.b.z.z.z.^.^.z.b.k.>.T Y Y O.=.f.(.`././.z.a.-.a.h.v.b.z.^.^.^.z._._.z.z.z.z.z.z.z.z.z.^.^.^.^././.`.`./.^./././././.`.`./././././.(.m.g.=.+.=.g.g.s.b.`.[.[./.^.^./.[.{.{.{.2X3X3X3X3X2X{.(.a.=.1.u.Y G H O.-.b. X[.{.{. X(.x.a.a.v.].[.{.{.{.{.{.2X2X{.{.{.2X2X2X{.{.2X2X2X2X2X2X{.{.{.{.[.{.{.{.[.[.[.[.[.[.[.[.[.[././././././.^.(.s.a.s.b.)./.{.{.}.(.c.f.=.+.;.j.g.a.l.^./././.[././././._.(.c.s.a.a.a.x.c.b._.b.a.;.+.+.=.-.f.f.l.l.z.z.z.l.l.l.l.l.s.s.s.s.l.l.s.l.s.l.s.s.s.a.s.a.a.a.s.s.s.s.s.s.a.a.a.a.a.a.-.=.O.O.+.;.,.g.j.+.T W K G G Y #.=.-.-.g.s.a.a.g.-.;.+.O.T $.&.Y Y T +.1.,.-.-.=.+.+.O.T T T O.O.+.O.O.O.O.$.T T Y Y Y Y H H H H H H H H G G k k k k k k k k k k k k k k j j j i i 5 8 : # # # 0 q 7 7 5 5 4 4 4 4 4 : ; # # ; ; : 4 4 5 5 p j j k k G H K Y Y ",
"J.-.=.=.=.=.;.;.=.=.+.+.+.O.Q T Y Y H H W W ! ! H Y +.-.g.,.O.H j j k K &.+.=.=.-.-.-.-.-.-.-.-.a.a.a.a.a.a.a.a.a.a.s.s.s.a.a.s.s.a.a.a.a.f.s.s.s.l.s.s.h.g.-.=.-.-.x.c.l.l.c.z././.^.z.a.a.l.x.l.l.l.b._.b.z.z.^.^.^.^.b.k.;.T Y Y T +.f.(.`././.b.a.-.a.k.v.b.z.^.^.^.z._.(.z.z.z.z.z.z.z.z.^.^.^.^.^.^././.`././././././././././././././.(.m.a.=.+.=.g.g.s._.[.[.[././.^./.[.{.{.2X2X3X3X3X3X3X{.(.f.-.1.<.Y G H O.-.b. X[.{.{. X(.l.a.a.v.].[.{.{.{.{.{.2X2X2X{.{.2X2X2X{.{.2X2X2X2X{.{.{.{.{.[.[.{.{.{.[.[.[.[.[.[.[.[.[.[././.[.[.[./.).(.s.s.l.c.).}.[.{./.^.l.a.=.+.;.H.d.a.l.^././.[.[././././.^.(.c.s.a.a.a.f.x.b.z.v.a.;.+.+.=.-.g.f.l.v.z.b.z.z.l.l.l.l.l.s.s.s.s.l.s.l.s.l.l.s.s.s.f.f.s.s.x.x.x.l.s.s.s.a.a.a.a.a.-.=.O.O.+.;.,.g.j.+.T Y K G G Y +.=.-.-.a.s.a.a.-.-.;.+.O.T T &.Y Y T +.1.,.-.-.=.+.+.O.T T T O.O.+.O.O.O.O.O.T T Y Y Y Y Y Y H H H H H H G G G J k k k k k k k k k k k k j j j i i 5 4 ; # # # 8 7 7 5 5 4 4 4 4 4 8 : ; # # ; ; : : 4 5 5 i j k k G H H Y Y Y ",
"A.g.=.=.=.;.;.;.=.=.=.+.+.O.Q T Y Y H H H ! ! Y H Y +.,.g.,.O.H j j k ! &.+.=.=.=.=.-.-.-.-.-.-.a.a.a.a.f.a.a.a.a.a.s.s.s.a.s.s.s.s.a.a.f.f.s.s.s.s.l.s.h.g.-.=.-.-.x.b.l.l.z.z././.^.z.s.s.v.c.l.l.l.z.b.b.z.z.z.^.^.z.v.k.+.Y Y Y T +.f.(.`.[./.b.a.-.a.f.v.z.^._.^.^.^.^.(.z.^.^.z.z.z.z.(._.^.^.^.^.^.^././././././././././.^.^./././.^.(.v.a.=.+.=.g.s.s.(. X{.[././././.[.{.{.2X2X3X3X3X3X3X|.(.f.-.1.<.T G H O.a.b. X{.{.{.[.(.l.-.a.v.].[.{.{.{.{.{.2X2X2X{.2X{.2X2X{.{.{.{.{.{.{.{.{.{.{.[.[.{.{.{.[.[.[.[.[.[.[.[.[.[. X/. X[././.^.(.s.s.l.b.].[.{.{./.^.l.a.=.+.=.j.d.a.l.^././.[.[././././.^.(.c.s.a.a.a.f.x.c.z.v.-.;.+.+.=.-.g.f.v.b.b.b.z.z.z.l.l.l.l.s.s.s.l.l.s.s.l.l.l.l.s.s.s.s.s.f.x.x.l.s.s.s.a.a.a.a.a.a.-.=.O.O.+.;.g.g.j.+.T Y K G H Y +.=.=.-.a.a.a.a.-.=.=.O.T T T &.Y Y T +.1.-.-.-.=.+.+.O.T T T O.O.+.O.O.O.O.O.T Y Y Y Y Y Y Y Y H H H H G G G G J J J J k k G k k k k k k k j j i i 5 4 ; # # # 4 4 5 5 4 4 4 4 4 4 8 : ; # # ; ; : : 4 5 i i p c J J H H H Y Y ",
"A.g.=.=.=.;.;.1.=.=.=.+.+.O.T T Y Y H H H W H H H T +.,.h.j.O.H k j G ! &.+.+.=.=.=.-.-.-.-.-.-.a.a.a.f.f.s.s.s.a.s.s.s.s.a.a.s.s.s.a.a.f.f.s.l.s.l.l.l.h.g.-.-.-.a.l.b.v.l.l.z././.^.z.s.a.v.v.l.l.l.z.b.z.z.z.z.^.^.z.v.j.+.Y H Y T +.f.(.XX X`.b.a.-.a.s.b.z._._.^.^.^.^.^.z.z.z.z.z.z.z.(._.^.^.^.^.^.^././././././././././.^.^.^././.^.^.x.a.=.+.=.j.f.s.(. X{.[././././.[.{.{.2X3X3X3X3X3X2X{.(.a.-.1.u.Q H H O.a._. X{.{.{.[.(.l.-.a.v.]..X{.{.{.{.2X6X2X2X{.{.2X2X2X{.{.{.2X{.{.{.{.{.{.{.[.[.{.{.{.[.[.[.[.[.[.[.[.[.[././.[.[././.^.c.l.a.l.c.].[.{.{.}.).c.f.=.+.=.j.d.s.l.^.[.}.[.[./././.^.^.(.c.s.a.a.a.f.x.v.z.l.-.;.+.+.=.-.g.f.l.l.z.z.z.z.z.l.l.l.l.l.s.l.l.l.s.s.l.l.l.l.s.s.s.a.s.s.l.x.s.s.s.s.a.a.a.a.a.a.-.=.+.O.+.;.g.g.j.=.T Y H G G Y +.=.-.-.a.a.a.a.a.=.+.O.T T $.8.Y Y T +.,.-.-.-.=.+.+.+.T T T T O.+.+.O.O.O.O.T T Y Y Y Y Y Y Y H H H G G G G G J J G G G k k k k k k k k k j j p a 7 4 ; ; # # 4 4 5 5 5 5 5 5 7 8 8 : ; # # ; ; : : 4 5 i i p c k G G H H H H ",
"k.-.=.=.=.;.;.;.=.=.=.+.+.O.T T E Y Y H Y W W H H T +.g.h.j.O.H k j G ! &.+.+.=.=.=.-.-.-.-.-.-.a.a.a.a.f.f.s.l.s.s.s.s.s.s.a.s.l.s.a.a.a.f.s.l.s.s.l.l.k.g.-.=.=.a.l.v.b.x.l.z././.^.z.s.s.v.c.l.l.l.z.b.z.z.z.(.^.^.^.m.k.%.Y H Y T +.f.(.XX X`.b.s.-.a.s.v.z._._.(.z.z.^.z.z.z.z.^.^.^.^.^.^.^.^.^.^.^.^././././././././././.^.^./././.^.z.x.a.=.+.=.g.s.l._..X{.[././././.[.{.{.2X3X3X3X3X3X2X{.(.s.-.j.i.Q H Y +.g._. X{.{.{.[.(.s.a.a.v.]..X{.{.{.{.2X6X2X2X{.{.{.2X2X2X{.2X2X2X2X2X2X2X{.{.[.[.{.{.{.{.[.{.{.[.[.[.[.[.[.[./.[.[././.^.^.s.s.l.b.]. X{.{.}.).c.f.=.+.=.j.d.s.z.^.[.}.[.[././././.^.(.x.s.a.a.a.f.s.x.l.s.-.+.+.+.+.-.g.f.l.b.z.z.z.z.z.z.l.l.l.l.l.l.l.l.s.l.l.l.l.l.s.s.a.a.s.s.l.s.s.a.s.s.s.a.a.a.f.a.-.=.+.O.+.;.g.h.Z.=.T Y K G G Y +.=.-.a.a.a.a.a.g.-.=.O.O.T $.8.Y Y O.+.,.-.-.-.=.+.+.O.T T T T O.+.+.O.O.O.O.T T Y Y Y Y Y Y Y H H H G G G G G G G G G G k G k k k k k k k j j p a 7 4 : ; # ; 8 5 5 5 5 5 5 5 4 8 8 : ; # # ; ; : : 4 5 i p p k k G H H H Y Y ",
"k.-.=.=.=.=.=.;.=.=.=.+.+.O.T T Y Y H H H W W Y H T =.g.h.j.O.H j j k ! &.+.+.=.=.=.=.-.-.-.-.-.a.a.a.a.a.s.l.x.s.s.l.s.s.s.a.s.l.s.a.a.a.s.s.l.l.l.l.l.k.g.-.=.=.a.s.v.b.c.l.z././.`.z.s.l.b.b.l.l.l.z.b.z.z.z.^.^.^.^.m.j.+.Y H Y T +.f.(.XX X/._.s.-.a.s.b.z._.^.^.^.^.^.^.z.z.z.^.^.^.^.^.^.^.^.^.^.^.^././././././././././.^.^./././.^.(.v.a.=.+.=.g.s.l._.[.{.[././././.}.{.{.2X3X3X3X3X3X3X6X].s.-.1.0.T H Y +.g._. X.X|.{.[._.l.a.a.c.]..X{.{.{.{.2X6X2X2X{.{.{.{.2X2X{.2X2X2X2X2X2X2X{.{.[.[.{.{.{.{.{.{.{.[.[.[.[.[.[. X X[.[.[./.).(.s.s.l.(.]. X{.{./.^.z.a.=.+.=.j.a.s.z.^./.}.[.[././././.^.(.c.s.a.a.a.f.f.x.l.s.=.+.O.+.+.-.g.f.v.b.b._._.b.z.z.l.l.l.l.l.l.l.s.l.l.l.l.l.l.s.s.a.s.s.s.l.l.s.s.s.s.s.a.a.a.a.a.-.=.+.O.+.=.g.k.Z.=.T R K G G H +.=.g.g.f.s.s.g.g.-.;.+.O.T $.8.Y Y O.+.,.-.-.-.=.=.+.O.T T T O.+.+.+.O.O.O.O.T T Y Y Y Y Y Y Y H H H G G G G G G G J J G G G k k k k k k k j j p i a 8 : ; # ; 4 5 5 5 5 5 4 4 5 4 8 : ; # ; > : : 4 4 5 i p j j k G H H H Y Y ",
"k.-.=.=.=.=.=.=.=.=.+.+.+.O.O.Q Y Y H H H W Y H H Y +.g.h.j.O.H j j k H Q +.+.=.=.=.=.=.=.=.-.-.a.a.a.a.a.a.s.s.s.s.l.l.s.s.a.s.s.s.a.a.a.s.s.s.l.l.l.l.k.g.-.=.=.g.s.l.m.m.l.b./.`.`.z.l.l.b.b.l.l.l.b._.b.z.z.z.^.^.^.v.j.+.Y H Y T +.f.(. X X/.^.a.a.a.k.b.b.z.z.z.z.z.z.^.^.^.^.^.^.^.^.^.^.^.^.^.^.^.^././.^./././././././._.^././././.(.m.g.-.+.=.j.f.l.(. X{.[././.^./.}.{.{.2X3X3X3X3X3X3X6X].s.-.1.1.T H Y +.g._. X|.|.{. X_.l.a.a.b.]..X{.{.{.2X4X3X2X2X2X{.{.{.2X{.2X{.{.2X2X2X2X{.{.{.{.{.{.{.|.{.{.{.[.[.[.{.{.[.[.[. X[.[.[.}.).(.s.a.l.(.].[.{.{.[.^.z.a.=.+.=.j.a.s.z.^././.[.[././././._.(.c.s.a.-.a.d.f.x.l.a.=.+.O.O.+.-.g.n.v.b._._.^._.z.z.l.l.l.l.l.l.l.s.l.l.l.l.l.l.s.s.s.s.s.s.l.l.s.s.s.l.s.a.a.a.a.a.-.=.+.O.+.=.g.h.g.=.T W K G G H +.=.g.d.f.a.a.f.g.-.;.+.O.T $.*.E Y O.+.1.-.-.-.=.=.+.O.O.T T @.+.+.+.O.O.O.O.T T Y Y Y Y Y Y H H H H G G G G G G G J K K G G G J z k k k j j j p i a 8 : ; # ; 8 5 9 5 5 5 5 4 4 4 8 : ; ; ; > : : 8 4 5 i p j j k G H H H Y Y ",
"A.-.=.=.=.=.=.=.=.=.+.+.+.O.O.Q T T Y H H Y Y H H T +.,.g.j.+.Y j p k H Q +.+.=.=.=.=.=.=.=.=.-.a.a.a.a.a.a.a.a.s.s.l.l.s.a.a.s.s.a.a.a.a.a.s.s.l.l.l.l.k.g.-.=.=.g.s.l.'.c.l.b././.^.z.s.l.b.b.l.l.z._._._.z.z.z.^.^.^.m.k.+.Y Y Y T +.f.'.XX[./.z.a.-.a.k.b.b.z.z.z.z.^.^.^.^.^.^.^.^.^.^.^.^.^.^.^.^.^.^././.^./././.[.[././.`./././././.(.m.g.-.+.=.j.g.s.(. X[.[././.^./.[.|.{.3X3X3X3X3X3X3X|.].s.-.j.i.O.H Y +.g._. X|.|.{.[._.l.a.a.b.].oX{.{.{.2X6X3X2X2X2X{.{.{.2X2X2X{.{.{.{.{.{.2X{.{.{.{.{.{.|.|.{.{.{.[.[.{.{.{.[././.[.[.[.[.`.'.a.a.l._. X[.[.[.}.).c.f.=.+.=.j.-.s.z.^././.[.[.[.}././.`.(.b.s.a.a.a.f.x.x.l.a.=.O.O.O.=.-.f.n.l.z.z.^.^.z.z.z.l.l.l.l.l.l.l.s.x.l.l.l.l.s.s.s.l.s.s.s.s.s.s.s.l.s.s.s.a.a.a.a.-.=.+.O.+.=.-.g.j.+.T W K G G Y +.-.d.g.g.a.s.f.g.-.;.;.O.T $.&.T T O.+.1.-.-.=.=.=.+.O.O.T Q &.+.+.+.O.O.O.O.T T T Y Y Y Y Y H H H H H G G G k G G G J K G G G J z z k k j j p i i a 7 : ; ; ; 7 7 7 5 5 5 5 5 4 4 4 : ; ; > 1 : 4 8 4 5 i p l j k G H H H H H ",
"A.=.=.+.+.;.=.=.>.=.=.+.%.%.$.O.T Y Y H H H H Y Y O.%.1.Z.Z.=.T k p k Y T O.+.=.=.=.=.=.=.-.-.a.-.a.a.a.a.s.x.s.s.s.s.s.s.f.s.s.s.s.f.f.f.f.s.l.x.l.l.s.k.k.-.=.=.-.l.b.b.z.z.z././.^.l.s.l.b.l.s.s.z.z._.b.z.z.z.^.^.^.m.J.*.Y Y Y O.+.a.c.`.`./.z.a.-.-.a.b._.z.z.z.^.^.^.^.^.^.^._.^.^.^.^._.^././././.^./.`.^./././.[.[.[.[.}./././.[./.(.v.a.=.+.,.j.f.x.(. X/./././.^./..X{.2X3X3X3X3X3X3X3X|.].s.-.,.4.O.H Y +.a.^.[.{.{.6X[.].x.a.a._. X{.{.2X2X{.{.{.{.2X{.{.{.{.{.{.2X2X{.{.2X{.{.{.{.{.{.{.{.{.2X6X2X{.{.{.{.{.[.[.[./././.[..X.X`.b.a.a.l._.oX{.[././.^.z.a.=.+.=.,.a.a.z.^./.[.[././././././.].m.s.a.a.s.l.c.m.s.-.=.+.+.+.=.g.f.l.b.z.^.^.^.z.z.b.z.l.l.l.l.l.l.l.l.s.s.s.s.s.s.s.s.x.x.s.s.l.s.s.s.s.s.s.s.s.s.f.g.-.+.+.+.=.-.-.1.O.T R H G H Y +.-.-.g.s.s.a.a.g.-.-.;.O.O.$.O.T T O.=.-.-.-.-.=.=.+.O.O.T T *.;.+.+.;.O.+.<.O.O.T T T T T Y Y G G H H H H G G G G k k G G G G k k k k k j j p p i 5 8 : ; ; : d a a i 5 5 5 7 4 8 4 : ; ; , , : 4 4 4 5 i f j k k G H K Y Y Y ",
"J.=.=.+.+.;.;.;.>.=.=.+.%.%.O.T T Y Y H H H H Y Y O.%.<.i.H.>.T k p k Y T O.+.+.+.=.+.=.=.-.-.a.-.-.a.a.a.s.x.s.s.s.s.s.s.s.f.a.s.a.f.f.f.f.s.s.x.l.s.s.k.k.-.=.=.a.v.c.b.b.z.z././.^.l.s.l.c.z.s.s.z.b.(.b.z.z.z.^.^.^.m.k.+.Y Y Y T +.a.c.`./._.z.a.-.-.a.b._.z.z.z.^.^.^.^.^.^.^.^.^.^.^.^.^.^./././.^.^./././././.[.[.[.[.[.}./././.[./._.v.g.+.O.+.-.g.s.z.`././././././..X{.6X3X3X3X3X3X3X3X|.].s.-.1.4.O.H Y +.a.^.[.{.{.6X{.].x.a.a.(. X{.2X2X2X{.{.{.{.2X{.{.{.{.{.{.2X2X{.{.{.{.{.{.{.{.{.2X{.{.2X2X2X{.{.{.{.{.[.[.[./././.[..X.X`.c.a.a.l._.oX{.[.}./.^.z.a.=.+.=.,.a.a.z.^.`.}.[././././././.`.c.a.a.a.l.l.b.b.s.-.;.+.+.+.=.a.f.l.z.z.^.^.^.^.z.z.z.l.l.l.l.l.l.l.l.l.s.s.s.s.a.s.l.x.x.l.l.l.l.s.s.s.s.s.s.s.s.a.g.-.+.+.+.=.-.-.1.O.T R H G H Y =.-.-.g.g.s.a.a.a.-.-.=.O.O.&.@.T T O.;.,.-.-.-.=.+.O.O.O.T T *.<.+.+.;.+.+.;.O.O.T T T T T Y Y H G H H H G G G G G G G G G G k k k k k k j j p p i 5 8 : ; ; : d p p i i 5 5 5 8 8 8 : ; : , : 4 4 5 5 5 p s j j k G G H Y Y Y ",
"J.-.=.=.+.;.=.=.>.=.=.+.%.+.$.T T Y Y H H H H Y Y T +.<.w.q.>.T j p k ! T +.+.+.=.=.+.=.=.-.-.-.-.-.a.a.a.f.x.l.l.l.s.s.s.s.a.a.s.a.a.a.a.a.a.s.x.l.s.s.k.k.-.=.=.a.v.b.b.b.z.z./.`.(.l.s.l.b.b.s.l.z.b.(.b.z.z.z.^.^.^.b.k.+.T Y Y O.=.a.c.`./._.z.a.-.-.s.b._.z.z.z.z.^.^.^.^.^.^.^.^.^.^.^.^.^./.^./././././././././.[.[.[.[././././.[./._.v.j.=.O.+.-.f.l.^.`./././.^.^./.[.{.6X3X3X3X3X3X3X3X7X].s.-.1.u.T H Y +.a.^.[.{.{.6X[.].x.a.a.(. X{.2X3X2X{.{.{.{.2X{.{.{.{.{.{.2X{.{.{.{.{.{.{.2X{.{.2X{.{.2X2X{.{.{.{.{.{.[.[.[./././. X{.oX`.'.a.-.l._..X.X[.[./.^.c.a.=.+.=.,.a.a.z.^./.}.[.}./././././._.x.a.a.a.l.b.b.m.s.-.;.+.+.+.=.-.f.l.z.z.^.^.^.^.z.z.l.z.z.l.l.l.l.l.x.l.s.s.s.s.s.s.l.x.x.l.l.l.l.s.s.s.s.s.s.s.s.a.g.-.+.+.+.=.1.,.1.O.T R H G H Y =.-.-.a.g.a.a.a.a.-.-.=.O.O.&.&.T T O.;.1.-.-.-.=.=.+.O.O.T T *.<.+.+.+.+.+.%.O.O.T T T T T T Y H H H H G G G G G G G G J G G k k k k k k k j p p i 5 8 : ; ; : d p p i i 5 5 5 7 q 8 : ; ; ; : 4 4 5 5 i s s j j k G H H Y Y Y ",
"U.-.=.=.+.;.+.+.=.=.+.+.+.+.$.T T Y Y H H H H H Y T $.%.0.0.+.Y j p G ! $.+.;.=.=.=.=.=.=.-.-.-.-.-.a.a.a.s.x.l.l.l.s.s.s.s.a.a.s.a.a.a.a.a.a.a.l.l.s.s.k.g.-.=.=.a.v.b.b.b.z.z.^./._.l.a.s.b.z.s.l.z.b.(.(.z.z.z.^.^.^.v.g.+.T Y T O.=.f.c.].`._.l.a.-.-.f.b._.z.z.z.^.^.^.^.^.^.^.^.^.^.^.^.^.`./.^./.`.`././././././.[.[.[.[./././.[.[./._.v.j.=.O.+.-.g.l.(.`. X/./.^.^./.[.{.6X3X3X3X3X3X3X3X|.].s.-.1.4.T H Y +.a._.[.{.{.{.[.(.x.a.a.(. X6X3X2X2X2X{.6X2X2X{.{.{.{.{.{.2X{.{.{.{.{.{.{.2X{.{.2X{.{.2X2X{.{.{.{.{.{.[.[.[.}././.[.{..XXX'.a.-.s.^..X.X{.[.}./.c.a.=.+.=.j.a.a.z.^././.[.[././.[.[. X`.c.a.a.f.v.b.b.m.s.-.;.+.+.+.=.a.f.l.z.z.^.^.^.^.z.z.l.z.z.z.z.l.l.l.l.l.l.s.l.l.l.s.l.l.l.s.s.l.l.s.l.l.s.l.l.l.l.s.f.-.+.+.+.;.,.j.1.O.T R H G H Y =.-.-.a.a.a.a.a.a.-.-.=.O.O.&.&.T T O.;.,.-.-.=.=.=.+.O.O.T T 8.;.=.+.+.+.+.+.O.O.T T T T T T Y H H G G G G G G G G G G G G G k k k k k k j j p p i 5 8 : ; ; : g f s p i 5 5 9 8 8 4 : ; ; ; : 4 4 5 5 5 p f j j k G H H Y Y Y ",
"Y.-.-.=.+.;.+.+.=.+.+.+.+.+.$.T T Y Y Y H H H H W T T $.8.u.$.H j p G ~ $.%.;.=.=.=.=.=.=.-.-.-.a.a.a.a.f.s.s.x.l.s.s.s.s.s.a.a.a.a.a.a.a.a.a.a.s.s.s.s.h.g.-.=.=.a.b._.b._.z.^././._.z.s.s.z.b.s.l.z.z.(.(.(.z.z.^./.^.v.a.+.T Y T O.=.f.(.].[._.l.a.-.-.f.b.b.z.z.z.^.^.^.^.^.^.^.^.^.^.^.^.^.`./.^././.`./././././.[.[.[.[.[./././.[.[.`._.v.-.+.+.=.-.a.l.(.`.[././.^././.}.{.{.2X3X3X3X3X3X3X|.(.s.-.1.<.T H Y +.f._. X{.{.{.[.(.l.a.a.(. X6X6X3X2X2X2X6X2X2X{.{.{.{.{.{.{.{.{.{.{.{.{.2X2X{.{.2X{.{.2X2X{.{.{.{.{.{.{.[.[.}././.[.{..XXX'.a.-.s.^..X.X[.[.}./.c.a.=.+.=.j.a.s.z.^././.[.[././. X X X`.c.a.f.f.b.b.b.m.s.-.;.+.+.+.=.a.f.l.z.^.^.^.^.^.z.z.z.z.z.z.l.l.l.l.l.l.l.l.l.l.l.x.s.a.a.s.s.s.s.s.l.l.l.l.l.l.l.l.f.-.+.+.+.=.,.j.1.O.T R H G H Y =.-.-.a.a.a.a.a.g.-.-.=.O.O.&.&.Y T O.;.,.-.-.=.=.=.+.O.O.T T 8.+.;.+.+.+.+.O.O.O.T T T T T T Y H H G G G G G G G G G G G G G G G k k k k j j p p i 5 8 : ; ; : g f f s i 5 5 5 9 4 4 : ; ; ; : 4 4 5 5 i p j j k k G H Y Y Y Y ",
"Y.-.-.=.+.;.+.=.+.+.+.+.+.+.O.T T T Y Y H H H H Y Y Y T 8.r.&.Y j p G ~ $.+.;.=.=.=.=.=.-.-.a.a.a.a.a.a.f.a.s.l.s.s.s.s.s.s.a.a.a.a.a.a.a.f.s.s.s.s.s.s.h.g.-.=.=.d.m._._._.^.^./.`._.z.s.l.b.b.s.s.z.z._.(.(.c.z.^./.^.b.g.+.T Y T O.=.f.c.`.`.`.l.a.-.-.f.v.b.z.z.z.^.^.^.^.^.^.^.^.^.^._.^.^.^./.^./././././././.[.[.[.[.[.[.[./.[.[.[.[._.v.-.=.=.;.-.a.l._.`.[././.^.^./.}.[.{.2X3X3X3X3X2X3X{.(.a.-.1.<.T H Y +.f._..X{.{.{.[.(.l.a.a.(. X.X3X2X2X2X2X6X6X2X{.{.{.{.{.{.{.{.{.{.{.{.{.2X{.{.{.2X{.{.2X2X{.{.{.{.{.{.{.[.[.[./.[.[.{..X`.'.a.-.s._..X.X[.[.}./.b.a.=.+.=.j.a.s.z.^./.[.[.[././. X[./._.c.s.a.f.b.b.b.c.f.a.;.+.+.+.=.a.f.l.z.^.^.^.^.^.z.z.z.z.z.z.l.l.l.l.l.l.l.l.l.l.x.x.s.a.a.s.s.s.s.s.l.s.s.l.l.l.l.s.h.-.=.+.+.=.-.,.1.O.T R H G H Y ;.-.-.a.a.a.s.g.f.-.-.=.O.O.&.&.T T O.;.1.-.=.=.=.+.O.O.O.Y Y *.+.;.+.+.;.+.O.O.O.T T T T Q T Y H H G G G G G G G G G G G G G G G k k k k k j p p i 5 8 : ; ; : a s s i i i 5 5 9 4 4 : : : : 8 4 5 5 5 i f l j k G H H Y Y Y Y ",
"Y.-.-.=.+.=.=.=.=.+.=.=.+.+.O.T T T Y Y H H H H H H H Y &.r.&.H k j G E $.+.=.=.=.=.=.-.-.-.a.a.a.a.a.f.a.a.a.s.s.s.s.s.s.s.s.a.a.a.a.a.f.f.s.s.l.l.l.l.h.g.-.=.=.f.m._._._.(._. X`.^.z.l.l.b.z.s.s.l.z._.(.b.z.z.^.^.^.b.f.+.T Y T O.=.a.c.`./.`.l.a.-.-.f.v.b.z.z.^.^.^.^.^.^./.^.^.^.^._.^.^.^./././././././.[.[.[.[.[.[.[.[.}./.[.[.[.}._.v.a.=.=.;.g.a.l.(.`.[.).^.^.^./.}.[.|.2X2X3X3X3X2X3X{.(.a.-.1.i.T H Y +.f.`..X{.{.{.[.(.l.a.a.(. X{.2X2X2X{.{.6X6X2X2X2X{.{.2X2X2X{.2X2X{.{.2X2X{.{.{.2X2X2X2X2X{.{.{.{.{.{.[.[.[././.[.[.{..X`.b.-.-.l._..X.X[.[.}.).b.a.=.+.=.Z.a.s.z.^.`.[.[.[././. X[./._.c.s.a.s.x.b.b.c.s.a.;.;.+.+.=.a.f.x.z.^.^.^.^.z.z.z.z.z.z.z.z.z.z.l.b.b.l.l.l.l.v.l.s.a.a.s.s.s.s.l.l.l.l.l.l.l.l.l.k.-.=.+.+.=.-.,.1.O.T W H G H Y >.-.-.a.g.g.s.f.f.-.-.;.O.O.&.@.T T O.+.1.-.-.=.=.+.O.O.T Y Y &.+.;.+.+.;.+.O.O.O.O.T T Q Q T W H G H G G G G G G G G G G G G G G k k k k k j p p i 5 7 : ; ; : a p s i i i i a g 7 4 4 : ; : 8 4 5 5 i p f l j k G G H Y Y Y Y ",
"Y.-.-.=.+.=.=.=.=.=.=.=.;.+.O.T T T Y Y H H H H H H H Y Q &.E G k j K ~ %.>.-.=.-.;.;.-.-.a.g.a.a.a.a.a.a.a.a.s.s.s.s.s.s.f.s.s.s.a.a.a.f.n.x.l.l.v.l.x.k.h.-.-.=.f.m._._.^.^.^././.^.l.l.l.b.z.s.s.l.z._.(.b.z.z.^.^.^.b.k.+.Y T T O.=.f.(.`./.`.z.a.-.-.f.v.b.z.z.^.^.^.^.^.^.^.^.^.^.^.^.^.^.^././././././.[.[.[.[.[.[.[.[.[.}.}.[.{.[.[._.v.g.=.+.=.-.a.l.^.`. X).^.^.^./.}.[.{.2X2X3X3X3X2X3X{.(.a.-.5.i.T H Y +.f.`..X{.{.2X[.(.l.a.a.(. X{.2X2X{.{.{.6X6X2X2X2X{.{.2X2X2X{.2X2X{.{.2X2X{.{.{.2X2X2X2X2X{.{.{.{.{.{.[.[.[././.[.[.{..X`.b.-.-.l.`.oX.X[. X}.).b.a.-.+.;.Z.a.a.z.^.`.[.[.[././.[.[./.`.c.x.a.a.v.b.c.c.s.a.;.;.+.+.=.g.x.x.b._.^.^.^.z.z.z.z.z.z.z.z.z.z.l.b.b.v.l.l.l.l.l.s.a.a.s.s.s.s.l.l.l.l.l.l.v.z.l.k.-.=.O.+.=.-.-.1.O.T R H G H Y >.-.a.a.g.f.f.f.h.a.g.;.O.O.&.O.T T O.+.;.-.-.=.=.+.O.O.T Y Y &.+.;.+.+.;.+.O.O.O.O.T T Q Q T W H G H G G G G G G G G G K K J G G k k k k j j p p i 5 7 : ; ; : a s s s i i a a d 5 4 4 : ; ; : 4 5 5 5 i f l j k k G H Y Y Y Y ",
"U.g.=.=.+.+.=.+.=.=.=.=.;.+.O.T $.T T E ! H H ! H Y H H Y e.~ G k k H E *.;.=.-.=.=.=.-.-.a.a.a.a.a.a.a.a.a.s.s.s.s.s.s.x.f.f.s.a.a.a.s.f.f.s.l.l.v.v.l.k.k.g.-.-.f.b._._._.^.^. X X^.l.s.s.z.z.s.l.z.z.b.z.z.z.^.^./.^.b.f.;.T T T O.=.f.(.`./.`.b.a.-.a.h.b.b.^.^.^.^.^.^.^./.^././.`.`._.^.^.^.^././././././.[.[.[.[.[.[.[.[.}.[.[.[.[./._.m.a.=.+.=.-.a.l.^.[. X/./.^././.}.{.{.2X2X2X2X2X2X2X{.(.a.-.1.i.T H Y +.a.^..X|.2X2X[._.l.a.a.(. X{.{.{.2X2X2X6X2X2X2X2X2X2X{.2X2X2X{.{.{.{.2X2X{.{.{.{.2X2X2X2X2X{.{.{.[.[.[.[.[.}./.[.[.{..X`.b.a.a.l.`.oX{.[. X}.).c.a.=.+.=.,.a.a.z.^.`.[.[.[././.[.[./.`.'.s.a.a.l.b.b.b.x.a.=.+.+.+.=.-.f.x.z._.^.^.^.^.z.z.z.z.z.z.l.l.z.z.z.l.l.l.l.l.l.l.s.a.a.s.s.s.s.l.l.l.l.l.b.b.l.l.a.-.=.+.+.+.=.-.1.+.T Y H G H T >.-.g.g.g.a.a.a.f.-.,.;.O.O.&.&.T T O.+.;.-.-.=.+.+.O.T E Y Y O.+.+.+.+.+.O.+.O.O.T T T T T Y Y H H H H G G G G G G G G G G G G G k k k k k j j p s a 9 : ; ; : i p s i i 5 i a d 7 9 4 : : : : 4 5 5 5 i p l j k k H H Y Y Y Y ",
"I.a.=.=.=.=.;.=.=.=.=.=.+.+.O.T O.T T W R H H K H Y H H T &.E G k k H ~ %.=.=.-.-.-.-.-.a.a.a.a.a.a.a.a.a.a.s.s.s.s.s.s.s.x.f.s.s.s.s.f.f.f.s.l.l.v.v.l.k.k.g.-.-.a.b._._.^.^.^./.`.^.z.s.l.b.b.l.l.l.z._.(.z.z.^.^./.^.b.k.;.T T T O.=.f.(.`./.`.b.a.-.a.k.b.b.^.^.^.^.^.^././.^.^././.^.^.^.^.^.^./././././.[.[.[.[.[.[.[.[.[.}.}.[.[.[./._.m.a.=.+.=.-.a.l.^.`. X/./.^././.}.{.{.2X2X2X2X2X2X6X.X(.f.-.5.u.T H Y +.f./..X|.2X2X[.(.l.a.a._. X{.{.{.2X2X2X6X2X2X2X2X2X2X{.{.{.2X{.{.{.{.2X2X{.{.{.{.2X2X2X2X2X{.{.{.[.[.[.[.}.[.[.[.{.{..X`.'.a.a.l.`..X{.[.[.}.).b.a.-.=.;.j.a.s.z./.`.[.[.[././.[.[./.].'.s.a.a.l.b.b.b.x.a.=.;.+.+.=.a.f.x.z._.^.^.^.^.z.z.z.l.z.l.l.l.l.l.z.l.l.l.l.l.l.v.l.s.s.s.s.s.s.l.l.l.l.l.z.z.l.l.s.-.=.=.+.=.=.-.1.+.T Y H H H T >.-.g.g.f.g.a.f.f.-.-.=.O.O.&.@.T T O.;.1.-.-.=.=.#.O.O.T Y Y &.+.=.+.+.+.O.O.O.O.T T T T T Y Y H H H H G G G G G G G G G G G G G k k k k k j j p p a 9 4 ; ; : a s s i i i i a a 5 9 4 : : : : 4 5 5 5 i p j j k G H H Y Y Y T ",
"B.a.=.=.=.=.:.;.=.=.=.=.;.+.O.O.O.T T Y H H H H Y H Y Y &.&.T H k k H Q %.=.=.-.-.-.-.-.a.a.a.a.a.a.a.a.a.a.a.a.s.a.s.s.s.s.s.s.s.s.f.f.f.a.a.s.l.v.v.l.k.k.g.-.-.a.b.b._._.^.^././.^.l.s.l.b.b.l.l.l.z.^._.z.z.^.^./.^.b.f.>.T T T O.=.f.(.`././.b.a.-.a.k.b._.^.^.^.^.^.^././.^./.^./.^.^.^.^.^.^././././.[.[.[.[.[.[.[.[.[.[.}.}.[.[.[.[._.c.a.=.+.=.-.f.l.^.[. X/././././.[.{.{.2X3X3X2X2X2X6X.X(.f.-.5.u.T H Y +.f.^..X{.2X2X[.(.l.a.a._./.{.{.{.2X2X2X6X2X2X2X2X2X2X2X2X2X2X2X{.{.2X2X2X{.{.{.2X{.2X2X2X2X{.{.{.{.{.[.[.[././.[.{.{..X`.'.a.a.l.`..X{.[.[.}./.(.a.-.=.,.Z.a.s.(.`./.[.[.[.}./.[.[./.].'.s.a.a.l.b.b.b.x.a.=.+.+.+.=.a.x.c.z._.^.^.^.^.z.z.z.l.z.l.l.l.l.l.v.l.l.l.l.l.v.v.l.s.s.l.l.s.s.l.l.l.l.l.l.l.l.l.s.-.=.+.+.=.-.-.1.+.T Y H H H T ;.-.g.g.a.a.a.f.f.-.-.=.O.O.O.O.T T O.;.1.-.-.=.=.#.O.O.T T Y &.+.=.=.+.+.+.O.O.O.T T T T T T Y H H H H H H H H G G H H G G G G G k k k k k j j p i i 9 4 ; ; : a p s i i i i a a 5 5 4 : : : 4 4 5 5 5 i p j j k G H H Y Y Y Y ",
"M.-.=.=.=.=.:.=.=.=.=.=.;.+.O.O.O.O.T Y H R R H W Y Y $.r.*.T Y k k H Q %.=.-.-.-.-.-.-.a.a.a.a.a.a.a.a.f.f.a.a.s.a.s.s.s.s.s.s.s.s.s.s.a.a.a.a.l.l.l.s.h.k.g.-.=.a.v.z.z.^.z.^.^./.z.l.a.s.c.b.l.l.l.z._.(.z.z.^.^./.^.b.f.>.T Y T O.=.f.(.`././.z.a.a.a.v._._.^.^.^.^.^.^./.^.^.^.^.^.^.^.^.^.^.^./././.[.[.[.[.[.[.[.[.[.[.[.}.}.[.[.[.[._.m.a.=.+.=.-.f.l.^. X[.[./././.[.[.{.2X2X3X3X3X2X2X3X.X(.a.-.1.4.T H Y +.a.`..X{.2X2X[.(.l.a.a._./.{.{.{.2X{.2X6X2X2X2X2X2X2X2X2X2X2X2X2X2X2X2X2X2X2X{.2X{.{.{.2X2X{.{.{.{.{.[.{.[.[./.[.[.{..X`.'.a.a.l.`..X{.[.[.}./.b.a.-.=.,.J.a.s.z.^././.[.[.}./.[.[. X].'.a.a.a.l.b.b.b.x.a.=.=.+.+.=.g.x.c.z._.^.^.^.^.z.z.z.l.l.l.l.l.l.l.l.l.l.l.l.l.v.v.x.l.l.l.l.s.s.l.l.l.l.l.l.l.l.l.k.-.=.+.+.=.-.-.1.+.T Y H H H T =.-.-.a.a.a.a.a.f.-.-.=.O.O.O.O.T T O.;.,.-.-.=.+.+.O.T T Y Y &.+.=.;.;.+.+.O.O.O.T T T T T T W H H H H H H H H G G H H G G G G G k k k k k j j p i i 9 4 ; ; : a p i i i i i p i i 5 4 4 : : 4 4 4 4 5 i p p j k k G H Y Y Y Y ",
"k.-.=.=.=.=.;.=.=.=.=.=.;.+.O.O.O.O.T H Y R R H T Y T 8.p.*.O.Y k k H Q >.=.-.-.-.-.-.-.a.a.a.a.a.a.a.a.a.a.a.a.a.a.a.a.l.l.s.s.a.a.a.a.s.a.s.s.s.l.l.s.s.h.a.-.=.a.v.z.b.b.z.z././.^.l.a.s.l.l.s.l.z.^._.z.(.(.^.^./.^.b.f.;.T Y Y T +.a.c.`././.z.a.a.a.v._._.^.^.^.^.^.^.^./././.^.^.^.^.^.^././././.}.[.[.[.[.[.[.[.[.[.[.[.[.[.[.[.[.[._.b.a.=.+.=.-.a.l.^. X[.[./././.[.{.{.2X3X3X3X3X2X2X3X|.(.a.-.1.4.T H Y +.a./..X{.2X6X{.).c.a.s.(. X{.{.{.2X{.2X6X2X2X2X2X2X2X2X2X2X2X2X2X2X2X2X2X{.2X2X2X{.{.{.2X2X{.{.{.{.{.[.{.[.[.[.[.[..X.X`.b.a.a.l./..X{.[.[.}./.b.a.-.=.1.H.a.s.z.^./.[.[.[.}./.[.[. X].b.a.a.a.b.b.b.b.x.a.=.+.+.+.-.d.n.c.z.^.^.^.^.^.z.z.z.l.l.l.l.l.l.l.l.l.l.l.l.l.v.v.x.l.l.l.l.s.s.l.l.l.l.l.l.l.l.l.f.-.=.+.=.=.-.g.1.+.T Y H H H T ;.-.a.g.g.s.s.f.g.-.-.=.O.O.O.O.T T +.<.j.g.-.-.=.=.O.T T Y Y $.+.=.;.;.+.+.O.O.O.T T T T T T W H H H H H H H H G H G G G G G G G G k k k k j j p i 5 9 4 ; ; : a i i i i p p p i i 5 4 4 : 4 4 4 4 4 5 i p p j k k G H H Y Y Y ",
"k.-.=.=.=.=.=.=.;.=.=.=.;.+.+.O.O.T Y Y Y Y Y H T T $.0.i.<.O.Y k k H $.;.-.-.-.-.-.-.-.a.a.a.a.a.a.a.a.f.f.a.a.a.a.a.s.s.l.l.l.s.a.s.f.f.s.l.l.s.l.l.s.s.h.a.-.=.a.v.b.b.b.z.^.`.`.(.l.a.f.l.z.s.l.b._.^.z.^.(.^././.^.b.f.;.T Y Y T +.a.c.`. X/.z.s.a.a.v._.^.^.z.^.^.^.^./.^./././.^.^.^.^.^././././.}.[.[.{.[.[.[.[.[.[.[.[.[.[.[.[.[.[._.b.a.=.+.=.a.a.l.^.[.{.[./././.[.{.{.2X3X3X3X3X3X2X6X.X(.f.-.5.u.T H Y +.f.`..X2X2X6X{.].c.a.s._. X{.{.{.2X{.2X6X2X2X2X2X2X2X2X2X2X3X2X2X2X2X2X2X2X2X{.2X2X{.{.{.{.{.{.{.{.{.[.{.[.{.[.[.[.{..X`.b.a.a.l.`..X6X[.[.}./.b.a.-.=.,.H.g.s.z.^.[.[.[.[.}./.[.[. X`.b.a.a.a.b._.b.'.x.a.-.=.+.+.-.g.v.x.z.^.^.^.^.^.z.z.l.l.l.l.l.l.l.l.l.l.l.l.l.v.b.b.x.l.l.l.l.s.s.l.l.l.l.l.l.l.l.l.n.a.=.+.=.=.-.g.1.+.T Y H H H T >.-.d.g.f.f.f.f.g.-.-.=.O.O.&.O.T O.+.1.j.d.a.-.=.;.+.O.T Y Y &.+.=.=.+.+.+.O.O.O.T T T T T T Y H H H H H H H H H H G H H H H G G G G G k z k j p i 5 9 4 ; ; : a i i i p p p p f a 5 5 4 : 4 4 4 4 4 5 i i p j k k G H Y Y Y Y ",
"n.a.-.=.=.=.;.=.-.=.=.=.=.+.+.O.O.T Y Y Y H Y Y T T O.<.i.<.+.Y G k R &.;.-.-.a.-.-.-.-.a.a.a.s.a.a.a.a.a.a.a.f.s.a.s.s.l.x.l.l.s.s.s.f.f.x.l.l.l.l.l.s.h.h.a.-.-.a.v.b.b.(.b.^./.`.z.l.a.f.l.z.s.l.z._._._.^.(.^././.^.b.f.;.T Y Y T +.a.c.`. X`.(.s.a.a.v._.^.^.z.^.^.^.^.^.^././././.^.^.^.^././././.}.[.[.{.[.{.[.[.{.{.[.[.[.[.[.[.[.[._.c.a.=.+.=.a.s.z._.[.{.[.[././.[.{.{.2X3X3X3X3X3X3X6X.X(.f.-.5.u.T H Y +.f.`..X2X{.6X{.).c.a.s.(.XX{.{.{.{.2X2X6X2X6X2X2X2X2X2X2X2X2X2X2X2X2X2X2X2X2X{.2X2X2X2X{.{.2X{.{.{.{.[.[.[.[.[.[.[.{..XXX'.a.a.l.`.6X6X{.[.}./.b.a.-.=.,.Z.a.l.z././.[.[.[.}./.[.{./.^.b.a.a.s.b.'._.'.m.a.-.;.+.+.-.d.v.v.z.^.^.^.^.^.z.z.l.l.l.l.l.l.l.l.l.l.l.l.l.v.x.v.x.l.l.l.l.l.l.l.l.l.s.s.l.l.x.x.n.g.=.=.=.=.,.j.,.+.T Y H H H T >.-.g.g.g.s.s.s.g.-.-.=.O.O.&.&.O.O.+.-.j.g.a.-.=.;.+.O.O.Y Y $.+.=.+.+.+.+.O.O.T T T T T T Y Y Y H H H H H H H H H H H H H H G G G G G k J z j j p i 9 4 : ; : d i i i p p p p f f i 5 4 : : 4 4 4 4 5 5 i p j z k J H H Y Y Y ",
"n.a.-.-.=.=.:.=.-.=.=.=.=.+.+.O.T T T Q E H H W Y T +.>.q.1.+.Y G k K &.<.1.-.a.-.-.-.-.a.a.a.a.a.a.a.a.a.a.f.s.s.s.s.s.x.x.l.l.s.s.s.s.s.s.s.s.l.l.l.l.s.k.g.-.-.a.b.b.b.(.b.(.^.^.z.l.a.f.l.x.l.l.z.z._.(.(.^.^././.^.b.f.+.T Y Y T +.a.c.`./.`.(.s.a.a.l._.^.^.^.^.^.^.^.^.^././././././././.^././././.[.[.[.{.{.{.{.{.{.{.[.[.[.[.[.[.[._.c.g.-.=.=.a.s.z._.[.{.[./././.[.{.{.2X3X3X3X3X3X3X2X[.(.a.-.5.4.T H Y +.f.`..X{.{.2X[.(.x.a.s._. X{.{.{.2X2X2X2X2X2X2X2X2X2X2X2X2X2X2X2X2X2X2X2X2X{.{.2X2X2X2X{.{.2X2X{.{.{.{.[.[.[.[.[.[.{.{.XX%Xa.a.c.].6X6X{.{.[./.z.a.=.=.,.Z.a.s.z./././.[.[././.[.{./.^.z.a.a.s.b.'._.'.m.a.,.;.+.+.-.f.v.z.^.^.^.^.^.^.z.z.l.l.l.l.l.l.l.l.l.l.l.l.l.x.x.v.l.l.l.l.l.l.l.v.l.s.s.s.l.l.x.v.n.g.=.+.=.;.,.j.1.+.T Y H H H T ;.-.a.g.a.a.a.a.g.-.-.=.O.O.*.&.T O.+.-.g.a.a.-.=.;.+.O.T Y Y $.+.+.+.+.+.+.O.O.T T T T T T Y Y Y H H H H H H H H G H H H H H G G G G k k J z j j p i 9 4 : ; : d p i i i p p p h f a 5 4 4 : : 4 4 4 5 i i p j k k G H H H Y Y ",
"f.a.-.-.-.-.=.-.-.-.=.=.=.+.O.O.T T T T T Y Y Y Y T +.1.q.<.O.H k k G T *.,.-.-.a.a.a.a.a.a.a.a.a.a.a.a.a.s.s.s.l.l.l.s.s.s.s.s.s.l.s.s.s.a.s.l.l.l.v.l.l.k.g.-.-.f.z.z.z.^.(.(./.^.b.l.a.f.v.b.l.l.z._._._.(.^.^././.^.b.k.;.T Y T O.+.a.c.`././._.s.a.a.l.b.^.^.^.^.^.^.^././././././././././././././. X[.[.[.[.[.{.{.{.[.[.[././.[.[.[. X_.b.a.=.=.=.k.a.z.`.[.[.[./././.[.{.{.6X3X3X3X3X3X3X2XoX(.a.-.H.0.T H Y ;.f.`..X{.2X{.[.^.l.a.l.]. X{.2X2X{.2X2X3X3X{.2X2X2X2X{.2X6X2X2X2X2X2X2X2X2X{.{.{.{.2X2X2X2X{.2X{.{.{.|.{.[././.[.[.{.{./.(.a.a.b.`.6X6X{.[.[./.(.x.-.=.-.A.a.l.(.`./.[.[.[.}./.[.{./.^.z.s.a.x.b.z.]._.l.a.-.=.+.+.=.a.x._.^./.^.^.z.z.z.z.z.l.l.l.l.l.l.l.z.l.l.l.l.l.l.l.l.l.l.l.x.l.l.s.l.s.s.l.l.l.l.l.f.g.=.+.=.=.=.-.,.O.Y H H G H Y ;.-.a.a.a.a.a.a.a.a.,.;.+.O.O.*.O.O.+.-.d.a.a.-.;.*.@.T T T T O.+.+.+.+.+.O.O.O.O.O.O.T T T T Y H H H H H H H H H H H G G G G G G G G k k k j j l l s a 4 ; ; : h f i i i i i p v s i 5 4 4 4 4 4 4 4 5 i p l z k G H H Y Y W Y ",
"f.a.-.-.-.-.-.-.-.-.-.=.=.+.O.T T T T T T Y Y Y Y T +.,.1.;.T G k k H E *.1.-.a.a.a.a.a.a.-.-.a.a.a.a.a.a.s.s.s.l.l.l.l.s.s.s.s.s.l.l.s.s.a.s.l.l.v.v.l.x.v.a.-.-.f.z.z.z.^.(.(././.b.s.a.a.v.v.l.l.z.^.^.^.^.z.^.^./.^.b.k.>.T T T O.=.a.c.`././._.s.a.a.l.b.z.^.^.^.^.^.^././././././././././././././. X X[.[.[.[.{.{.{.{.[.[././.[.[.[. X_.m.a.=.=.=.k.a.z.^.}.[.}./././.[.[.{.6X3X3X3X3X3X3X3XoX(.a.-.H.0.T H Y ;.f.`..X{.2X{.[.^.l.a.l.`. X{.2X2X2X2X3X3X3X2X2X2X2X2X2X2X2X{.{.2X2X2X2X2X{.{.{.{.{.2X2X2X2X{.2X{.{.{.|.{.[.[./.[.[.{.{.`.(.a.a.b.`.6X6X{.[.[./.(.l.-.=.-.J.a.l.(././.[.[.[.}./.[.[./.^.z.s.a.x.b.z.]._.l.a.-.=.+.+.=.a.v.^././.^.^.z.z.z.z.z.z.z.l.l.z.z.z.l.l.l.l.l.l.l.l.l.l.l.l.x.l.l.s.s.s.l.l.l.l.l.l.k.j.=.+.+.=.=.-.>.O.Y H H G H Y 1.g.g.a.a.a.a.a.a.-.1.;.+.O.O.%.O.O.+.-.a.a.-.=.=.+.O.T Y T T O.+.+.+.+.+.+.O.O.O.T O.T T T T Y Y H H H H H H H H H G G G G G G G G G k k k k k j p p 5 4 ; # : h f i i i i i p p p i 5 4 4 : : 4 4 4 5 i p j c k G H H Y W W W ",
"f.a.-.-.-.-.=.-.-.-.=.=.=.+.O.T T T T T T Y H H Y T +.=.1.>.T G k k H T *.1.-.a.a.a.a.a.a.-.-.-.a.a.a.a.a.a.s.s.s.s.l.l.s.s.s.s.l.s.s.s.s.s.s.l.l.v.v.l.v.v.a.-.-.f.z.^.^.^.(.^././.z.l.a.a.l.v.l.l.z.^.^._.^.^.^.^./.^.b.k.;.T T T O.=.a.c.`././._.l.a.a.l.b.z.^.^.^.^.^.^././././././././././././././.[. X[.[.[.[.{.{.{.[.[.[.}.}.{.{.[.[.`.'.g.=.=.=.k.a.z./.}.{.}././././.[.{.{.3X3X3X3X3X3X3X7X(.a.-.H.i.$.H Y ;.f.`..X{.2X{.}.^.l.a.l.`. X{.2X2X2X2X3X3X3X3X2X2X2X2X2X2X2X{.{.{.{.2X2X2X{.2X2X{.{.2X2X2X2X2X2X{.{.{.|.{.[.[.[.[.[.{.{.[.(.a.a.b.`.6X3X{.[.[./.(.l.-.=.-.J.a.l.(./.[.[.[.[.}./.[.[./.^.z.s.a.x.b.b.`._.l.a.-.=.+.+.=.a.x._././.^.^.z.z.z.z.z.z.z.z.z.z.z.z.l.l.l.l.l.l.l.l.l.l.l.l.l.l.l.s.s.s.l.l.l.l.l.l.k.j.=.+.+.=.=.-.>.O.Y H H G H Y 1.g.g.s.a.a.a.a.a.:.1.;.+.O.O.+.T O.+.-.a.a.-.=.+.+.O.T Y T T O.+.+.+.+.+.+.O.O.O.T T T T T T Y Y H H H H H H H H H G G G G G G G G k k k k k k j p p 5 4 ; # : d f p i i i p p p i i 5 5 4 : : 4 4 4 5 i p j k k G H H Y Y W W ",
"f.a.-.-.-.-.=.-.-.-.=.=.+.+.O.T T T T T Y Y H H Y T +.=.1.>.T H j k H T *.;.-.-.a.a.a.a.a.-.-.a.a.a.a.a.a.a.s.s.s.s.s.s.s.s.l.l.l.s.s.s.s.s.s.s.l.v.v.x.v.n.a.-.-.f.z.^.^.^.^.^.^./.z.l.a.a.v.b.l.l.(.^._.^.(.(.^.^./.^.b.f.;.T T O.O.=.a.c.`. X/._.l.a.a.l.b.^.^.^.^.^./././.^./././././././././.^././. X[.[.[.[.{.{.{.{.[.[.[.}.[.{.{.[.[.`.$Xg.-.=.=.k.a.z.^.[.[.}././././.[.{.{.3X3X3X3X3X3X3X7X(.a.-.H.q.T H Y ;.f.`.oX{.2X{.[.(.l.a.l.`. X{.2X2X2X2X3X3X3X3X2X2X2X2X2X2X{.2X2X2X2X2X2X2X2X2X{.{.{.{.{.2X2X2X{.{.{.{.{.{.[.[./.[.[.{.{.[.'.a.a.b.`.6X6X{.[.}./.z.l.-.=.,.J.a.x.(./.[.[.[.{.}./.[.{./._.c.s.a.s.b.b._._.l.a.-.=.+.+.=.a.x._././.^.^.z.z.z.z.z.z.z.z.z.z.z.z.l.l.l.l.l.l.l.l.l.l.l.l.l.l.l.s.s.s.s.l.l.l.l.l.k.j.=.+.+.=.-.,.>.O.Y H H G G Y 1.g.g.g.a.s.a.a.a.:.:.=.+.O.+.+.T O.+.-.a.a.-.=.+.O.O.Q T T T O.+.+.+.+.+.+.+.O.O.T T T T T T T Y H H H H H H H G G G G G G G G G G k k k k k k l j s i 4 ; ; : d s p i i i p p p p i 5 5 4 4 4 4 4 5 5 i p j k k G H H H Y Y Y ",
"f.a.-.-.-.=.=.-.-.-.=.=.=.+.O.T T T T T Y Y H H Y O.+.,.1.;.T H j k H T +.;.-.-.a.a.a.a.a.a.a.a.a.a.a.a.a.s.s.l.s.s.s.s.s.l.l.l.l.s.s.a.s.s.s.s.l.v.v.v.x.n.f.-.-.f.b.^.^.^.^.^././.z.l.a.a.v.b.l.z.(._._._.(.(.^.^././._.f.;.O.T O.O.=.a.b.`. X/.^.l.a.a.l.(.^.^././.^.^.^./././././././././././././././. X[.[.[.{.{.{.[.{.[.[.}.}.{.[.[. X`.F.g.-.=.=.k.a.z./.[.[.}./././.[.[.{.{.3X3X3X3X3X3X3XoX(.a.-.Z.0.T H Y ;.f.`.oX{.2X{.[.].z.a.l.`..X{.2X2X2X2X3X3X3X3X2X2X2X2X2X2X{.2X2X2X2X2X2X2X2X2X{.2X2X2X2X2X2X2X{.{.{.{.{.{.[.[./.[.[.{.{.[.'.a.a.b.`.6X6X{.[.[./.z.s.-.=.,.J.f.x.(./.[.[.{.{.[./.[.{./.`.c.s.a.s.z._._._.x.a.-.=.+.+.=.a.x._././.^.z.z.z.^.^.z.z.z.z.z.z.z.z.z.l.l.l.l.l.l.l.l.l.l.s.l.l.l.s.s.s.s.l.l.l.l.s.f.j.=.+.=.=.-.,.;.O.Y H G G G Y 1.a.a.a.s.s.s.a.a.-.:.=.+.O.+.+.T O.+.:.d.a.-.-.+.O.O.Q T T T #.+.+.+.+.+.+.+.O.O.T T T T T T T Y H H H H H H H H G G G G G G G G G G k k k k j l l f a 4 : ; : d p p i i i p p f p i 5 5 4 4 4 5 5 5 i i p j k G G G H H Y Y Y ",
"f.a.-.-.-.-.=.-.-.-.=.=.=.+.O.O.T T T T Y Y H H Y T +.,.1.<.T H k k H T *.;.-.a.a.a.a.a.a.-.-.a.a.a.a.a.a.s.l.l.s.s.s.s.s.s.s.s.l.s.s.a.s.s.s.s.l.v.v.l.v.n.f.-.-.s.b.^.^.^.^.^././._.l.a.s.b.b.l.z.(.^.^._.z.^.^.^././.'.h.=.O.T O.O.=.a.b./. X/.^.l.a.s.x.(.^./././.^.^.^./././././././././././././././. X[.[.{.{.{.{.[.[.{.[.}.}.[.[.[.[.`.m.g.-.=.=.k.a.z.`.}.[.[./././.[.[.{.{.3X3X3X3X3X3X3XoX(.a.-.Z.0.T H Y ;.f.`.oX{.2X{.[.].z.a.l.]. X{.2X2X2X2X3X3X3X3X2X2X2X2X2X2X2X2X2X2X2X2X2X2X2X2X{.2X2X2X2X2X2X6X2X{.{.{.{.{.[.[.}.[.[.{.{.XX'.a.a.c.`.6X6X{.[.[./.z.s.-.=.,.J.f.l.^./.[.[.[.[.}.[.{.[.[.`.c.s.a.a.z.b._._.c.a.-.+.+.+.=.a.v._././.^.z.z.z.^.^.z.z.z.z.z.z.z.z.z.l.l.l.l.z.l.l.l.l.s.s.l.s.s.s.a.s.s.l.l.l.l.s.f.j.=.+.=.=.-.,.=.O.Y H G G G T ;.-.a.a.s.l.s.f.a.-.=.+.+.+.+.+.T O.=.d.d.a.a.-.=.+.O.Q T Y T *.+.=.+.+.+.+.+.O.O.O.T T T T T T Y H H H H H H H H G G G G G G G G G G k k k j j z l p i 4 ; ; : h f p i i i p p l p i 5 5 4 4 4 7 5 i i p p j k G G G H H H Y Y ",
"n.a.-.-.-.-.-.-.-.-.=.=.;.+.O.O.Q T T T T Y H H Y T +.,.q.<.E G k k H T +.;.-.a.a.a.a.a.a.a.a.a.a.a.a.a.a.s.s.s.l.l.s.s.s.s.s.s.l.s.a.a.s.s.s.s.s.l.v.l.x.n.f.a.-.s.b.^.^._._.^././.^.l.s.s.b.b.l.l.b._._.z.z.^.^.^././.'.f.=.O.O.O.+.=.s.(. X[. X^.l.a.s.c.^.^././././.^.^.^./././././././././././././. X X[.[.{.{.[.[.[.[.{.[.}.[.[.[.{. X].m.g.-.=.=.k.a.z.`.}.[.}./././. X[.{.6X3X3X3X3X3X3X3XoX(.a.-.Z.0.T Y Y ;.f.`.7X{.2X{.[.].z.a.l.]. X{.2X2X2X2X3X3X3X2X2X2X2X2X2X2X2X2X2X2X2X2X2X2X2X{.{.{.{.2X2X2X2X6X2X{.{.|.{.[.[.[.}.[.{.{.|.}.(.a.a.b.`..X6X{.[..X/.z.s.-.=.-.Z.a.l.z./.[.[.[.[.[.[.{.{.[.`.c.s.a.a.z._.b._.m.a.=.+.O.+.=.a.x._././.^.z.z.z.^.^.z.z.z.z.z.z.z.z.l.l.l.z.z.z.l.l.l.l.s.s.s.s.s.s.a.s.s.l.l.l.l.s.k.j.=.+.=.=.-.,.=.O.Y H G G G T ;.-.a.a.s.s.s.f.a.-.=.=.+.+.+.+.T O.=.j.j.d.a.-.=.O.O.Q T Y T *.+.=.+.+.+.O.O.O.O.O.O.T T T T T Y H H H H H H H H H G G G G G G G G k k k k k k z l p i 4 : ; : h f p i i i p p l p i i 5 4 4 4 7 i i p p j j k G G G H H H H Y ",
"n.a.-.-.-.=.-.-.-.-.-.=.;.+.O.O.O.O.O.T T R K H Y T +.>.q.;.T G j k H T O.=.-.-.-.a.a.a.a.a.g.g.g.a.a.a.a.a.s.a.l.l.l.s.s.s.s.s.l.s.s.a.s.s.s.s.s.l.l.l.x.n.f.a.-.a._.^.^.`._.^././.^.z.s.x.b.b.l.l.b.(._.z.z.^.^.^././.'.s.+.O.O.O.+.-.l.(. X[. X^.l.s.s.z.^.^./././.^.^.^.^././././././././././././././. X[.[.{.{.{.{.[.[.{.[.[./.[.[..XoX].b.a.=.=.=.A.a.z.`.[.[.}././././.[.{.6X3X3X3X3X3X3X3X7X(.a.-.H.w.$.Y Y ;.x.`.7X{.2X{.[.).z.a.l.]. X{.2X{.{.2X3X3X3X2X2X2X2X2X2X2X6X2X2X2X2X2X2X2X2X{.{.{.{.2X2X2X2X6X2X{.2X6X{.{.{.[./.[.[.{.{.[.(.a.a.b.`..X6X{.[..X).z.s.-.=.-.j.a.l.z./.[.[.[.[.[.[.{.{.[.`.c.s.a.a.l._.b._.m.a.=.+.O.+.=.a.x._././.^.z.z.z.^.^.z.z.z.z.z.z.z.z.l.l.l.l.z.z.l.l.l.l.s.s.s.s.a.s.a.s.s.s.l.l.s.a.k.j.=.+.=.=.-.-.=.O.Y Y H G H T 1.d.a.f.s.s.a.a.a.-.=.+.+.+.+.#.T O.=.j.d.d.a.-.=.O.O.Q Y Y T *.+.=.+.+.+.O.O.O.O.O.O.O.T T T Y Y H H H H H H H H H G G G G G G G G k k k k k k z l f i 4 : ; : h p p i i i p p l f p i 5 4 4 4 a i i p p j j k J G G H H H H Y ",
"f.a.-.-.-.-.-.-.-.-.=.=.;.+.+.O.T T T T Y Y H H Y T +.=.>.%.T H k k H T O.+.=.-.a.a.a.a.g.g.g.a.a.a.a.a.a.a.s.s.l.l.l.l.s.s.s.s.s.s.a.a.a.a.s.s.s.l.v.l.l.f.g.a.a.x.b.^.`.].^.`. X/._.l.s.x.b.b.l.l.z._.^._.z.z.^./. X^.'.n.+.O.O.+.+.=.f.(. X[.[./.l.s.l.z.^././././././././././././././././././././././././.[.[.[.[.[.[.[.{.[.[.[.[.[.[.[.].m.a.=.=.=.k.a.b.].}.[./././././.[.{.{.3X3X3X3X3X3X3XoX(.a.g.H.i.$.H Y ;.n.XX.X2X6X{.[.(.l.s.l.`..X{.2X2X2X3X3X3X3X2X{.2X2X2X2X2X2X2X2X2X2X6X6X2X2X2X{.2X2X2X2X2X2X2X2X2X2X{.{.{.{.[.[.[.{.|.|.[.(.a.a.b.`.6X6X{.[.[./.b.l.-.=.-.Z.a.l.^./.[.[.[.[.[.[.{.[.[.`.z.s.a.s.z.b._._.l.a.=.+.O.O.=.d.v._././.^.z.z.b.^.^.z.z.z.z.z.z.z.z.z.z.z.z.l.l.l.l.l.s.s.s.l.s.a.a.a.a.s.s.l.l.s.s.a.-.=.+.+.=.-.-.,.O.T R H G H Y ;.-.a.f.s.a.a.f.a.-.-.=.+.+.;.+.T O.+.-.a.a.a.=.+.O.O.~ T T O.*.;.=.=.+.+.+.O.O.O.O.$.$.O.O.T T Y H H Y H H G H H G G G G G G G k k G k k k k j j l f i 4 : ; : f p i i i p p f v l p i 5 5 4 4 a i p p p j k k G G G H H H H H ",
"f.a.-.-.-.-.-.-.-.=.=.=.=.+.O.T T T T T Y Y H H Y T +.=.>.%.T H k k H T O.+.=.-.-.a.a.a.g.a.g.a.a.a.a.a.a.a.s.s.s.s.s.s.s.s.s.s.l.s.a.a.a.a.l.s.s.l.v.l.l.f.g.a.a.x.b.^.`.`.^.^. X/._.l.s.f.b.b.l.l.z.z._.^.z.z.^./. X^.'.n.+.O.O.+.+.=.a.(. X[. X/.z.s.l.z.^.^././././././././././././././././././././././.[.[.[.[.[.[.[.{.{.[.[.[.[.[.[.[.].m.a.=.=.=.k.a.z.`.}.[./././././.[.{.6X3X3X3X3X3X3X3XoX(.a.g.H.q.$.H Y =.n.]..X2X2X{.{.(.l.a.l._..X{.{.2X2X2X3X3X3X2X2X2X2X2X2X2X2X2X2X2X2X6X6X2X2X2X2X2X2X2X2X2X2X2X2X{.{.{.{.{.{.[.}.[.{.{.{.`.b.a.a.b.`.6X6X{.{.[./.z.s.-.=.-.j.a.l.^./.[.[.[.[.[.[.{.[.[.`.z.a.a.s.l.b._._.l.a.-.=.+.O.=.d.m.(././.^.z.z.b.^.^.z.z.z.z.z.z.z.z.z.z.z.z.l.l.l.l.l.l.s.s.s.s.s.a.a.a.s.s.l.l.l.s.s.a.=.=.+.=.-.-.-.O.T R H G H Y ;.-.a.f.s.s.a.a.a.-.-.=.+.+.;.+.T O.=.-.a.a.a.=.=.O.O.~ T T T *.;.=.+.+.+.+.+.O.O.O.$.$.$.T T T Y H H Y H H H H H G G G G G G G G G G k k k k k z l x i 4 : : 8 h x p i i p p p l l p i 5 5 4 4 i i p p p j j k G G G H H H H H ",
"n.a.-.-.-.-.-.-.-.=.=.=.=.+.O.T T T T T Y Y H H Y T +.>.1.*.E H k k H T O.+.=.-.-.a.a.a.a.a.a.g.g.a.a.a.s.s.l.s.s.s.s.s.s.s.s.s.l.s.s.a.s.s.l.l.s.l.v.l.l.f.a.-.-.s.b.^._._.^.^.`./._.l.a.s.b.b.l.l.z.z._._.^.^.^./. X/.'.n.+.O.O.O.+.=.a.(.[. X.X/.l.l.s.l.^.^./././././././././././././././././././././. X[.[.[.[.[.[.[.[.[.[.}.[.[.[.[.[.`.m.a.=.=.=.k.a.z.`.}.[./././././.[.{.6X3X3X3X3X3X3X3XoX(.a.g.Z.0.$.H Y =.n.`.{.{.2X{.{.(.l.a.l.^. X{.2X2X2X2X3X3X3X2X2X{.2X2X2X2X2X2X2X2X2X6X6X2X2X2X2X2X2X2X2X3X2X2X2X2X{.{.{.{.{.[.}.[.{.{.{.`.z.a.a.b.`.6X6X{.{.[./.z.s.-.=.-.k.a.l.^./.[.[.[.[.[.[.[.[. X`.z.s.a.a.l.b.b.b.l.a.-.=.+.+.=.d.m._././.^.z.z.^.^.^.z.z.z.z.z.z.z.z.z.z.z.z.l.l.l.l.l.l.s.s.s.s.s.a.a.a.s.s.l.l.l.l.k.g.=.=.=.=.-.g.-.O.T R H G H T ;.-.-.a.s.l.a.a.a.-.-.=.+.+.;.+.O.O.=.-.d.a.a.=.=.O.O.~ T Y T *.;.=.+.+.+.+.+.+.O.O.$.$.$.T T T Y H H H H H H H H G G G G G G G G G G k k k k k k l x i 4 : : 4 S v p i i i p p l f p i 5 4 4 4 5 i i p p j k k G G H H H H Y H ",
"n.f.-.-.-.-.-.-.-.-.=.=.=.+.O.O.T T T T Y Y H H Y T +.,.q.<.T H k k H T +.+.=.-.-.a.a.a.a.a.a.s.f.a.a.a.f.x.l.s.l.l.l.l.s.s.s.s.l.l.s.s.s.s.x.l.s.l.l.s.l.f.a.-.-.f.b.^._.^.z.^.`./._.l.a.s.b.b.s.l.l.z.z.^.(.^.^./. X/.'.n.+.O.O.O.+.=.a.(.[.[. X/.z.s.s.l.z.^././././././././././././././././.^.^././././.[.[.[.[.[.[.[.[.[.[.}.[.[.[.[.[.`.m.a.=.=.=.k.a.z.`.}.[./././././.[.{.6X3X3X3X3X3X3X3XoX(.a.-.j.0.T H Y =.n.`.{.{.2X{.{.(.l.a.l._. X{.2X2X2X2X3X3X3X2X{.{.2X2X2X2X2X2X2X2X2X6X6X2X2X2X{.2X2X2X2X3X2X2X2X2X2X2X{.{.{.[.}.[.[.{.{.`.(.a.a.b.`.6X6X{.[.}.).z.s.-.=.-.A.a.l.^./.[.[.[.[.[.[.{.[. X`.b.l.a.s.l.b._.b.l.a.-.=.+.O.=.d.m._././.^.z.z.^.^.^.z.z.z.z.z.z.z.z.z.z.z.z.l.l.l.l.c.l.l.s.l.s.s.s.s.s.s.s.l.l.l.l.v.g.=.=.=.=.,.g.-.O.T E K H W T ;.-.a.f.s.l.s.a.a.-.-.=.+.+.;.+.O.O.=.:.d.a.a.=.=.+.O.Q T Y T #.;.=.=.+.+.+.+.+.O.O.O.$.O.T T T Y H H Y H H G H H H G G G G G G G k k k k k k k j l j i 4 : : 4 S v p i i i p p l p p i 5 4 4 4 5 i i p p j k k G G H H H H Y Y ",
"B.g.-.=.-.-.-.-.-.-.-.=.=.+.O.O.T T T T Y H H H Y T +.,.q.<.T H k k H Q *.=.=.-.-.a.a.a.a.a.a.s.f.a.a.a.s.s.l.s.l.l.l.l.s.s.s.s.l.l.s.s.s.s.x.l.s.l.l.l.l.f.a.-.-.f.b.^.^.^.z.^.`./._.l.a.s.v.v.s.s.l.z.b._.(.(././.[./.'.n.+.T O.O.+.=.f.(.[.[. X_.l.s.s.l.z.^././././././././././././././././.^.^.^./././.[.[.[.[.[.[.[.[.[.[.}.[.[.[.[. X_.b.a.=.=.=.k.a.z.`.}.[././././.[.[.{.{.3X3X3X3X3X3X3XoX(.a.-.j.0.T H Y =.n.`.{.{.2X{.[.(.l.s.l.`..X{.2X2X2X2X3X3X3X2X2X2X2X2X2X2X2X2X2X2X2X2X3X2X2X2X{.2X2X3X3X3X2X3X2X2X2X2X{.{.{.[./.[.[.{.|.[.'.a.a.b.`..X2X{.[..X).(.s.-.=.-.J.a.l.z./.[.[.[.[.[.[.{.[. X`.c.l.a.s.v.b._.b.l.a.=.+.O.O.=.d.m.(././.^.^.z.(._.^.^.z.z.z.z.z.z.z.z.z.z.l.l.z.z.b.c.l.l.s.l.l.l.s.s.s.s.l.l.l.l.l.v.g.=.=.=.:.j.j.-.O.T ~ R H ! T ;.d.d.f.s.s.s.s.a.-.-.=.+.=.;.+.O.O.=.:.d.a.-.=.=.+.O.Q T Y T #.;.=.+.+.+.+.+.+.O.O.$.O.O.T T T Y H H Y H H G H H H G H K K G G G k k k k k k k j j j i 4 : : 4 v x p i i i p f l p p i 5 4 4 4 5 i i i p j k k G H H H H Y Y Y ",
"B.a.-.=.-.-.-.-.-.-.-.=.+.+.O.T T T T T Y H H H Y T +.>.1.*.E G k k H Q *.;.=.-.-.-.a.a.a.a.a.g.a.a.a.a.a.s.s.s.l.s.s.s.s.s.s.s.l.l.s.s.s.s.x.l.s.l.l.l.x.n.a.-.-.f.b.^.^.^.z.^.`./.b.l.a.f.l.l.s.s.l.z.b.(.(.(././.[./.'.n.+.T O.O.+.=.f.c.).[.[.^.l.s.s.l.^.^././././././././././././././././.^.^.^./././.[.[.[.[.[.[.[.[.[.[.}./.[.[.[. X_.b.a.=.=.=.k.a.z.`.}.[././././.[.[.{.6X2X3X3X3X3X3X3X.X(.a.-.j.0.T H Y =.v.`.{.2X6X{.[.(.l.s.l.`..X{.2X2X2X2X3X3X3X2X2X2X2X2X2X2X2X2X2X2X2X2X2X2X2X2X{.2X2X3X3X3X2X2X2X2X2X{.{.{.[.[./.[.[.{.|. X'.a.a.b.`.{.2X{.[..X/.(.s.-.=.,.J.a.s.z././.[.{.[.[.{.{.[. X`.c.l.a.s.l.b._.c.x.a.=.+.O.O.+.d.v._./././.^.z.^.^.^.^.^.z.z.z.z.z.z.b.z.z.z.z.z.z.z.b.l.l.l.l.l.l.l.l.l.l.l.l.l.l.l.v.a.=.=.=.:.j.j.=.O.T R H H W T =.d.d.a.a.a.s.f.a.-.-.-.=.=.;.;.O.O.=.:.d.a.-.=.=.O.O.Q T Y T #.;.=.+.+.+.+.+.+.O.O.O.O.T T T T Y H H H H H H H H H H H K K G G J G k k k k k k k z x i 5 : : 4 h p p i i i p f l p p i 5 5 4 4 5 i i i p j k k G H H H Y Y Y Y ",
"n.a.-.-.-.-.-.-.-.-.-.=.+.O.O.T T T T T Y H H H Y T +.=.>.%.T H k k H E *.;.=.=.-.-.a.a.g.a.g.a.a.a.a.a.a.a.s.s.l.s.s.s.s.s.s.s.l.s.s.s.s.s.s.s.l.l.l.l.x.n.a.-.-.f.c._.(.^.z.^.`./.b.s.a.a.l.v.s.s.l.z._.(.(.^.^./. X/.'.n.=.O.O.O.O.=.f.c./.[.[.^.l.s.s.l.z.^./.[./././././././././././././././.^.^./././.[.[.[.[.[.[.[.[.[.[.[./.[.[.[.[._.b.a.=.=.=.k.a.z.`.}.[./././././.[.{.6X6X3X3X3X3X3X3X.X(.a.-.Z.0.$.H Y =.n.`.{.6X5X{..X(.l.a.l._. X{.2X2X2X3X3X3X3X2X2X2X2X2X2X2X2X2X{.2X2X2X2X2X2X2X{.2X2X3X3X3X3X2X2X2X2X{.{.{.[.[.[.[.[.{.{. X(.a.a.b.`..X6X{.[..X/.z.s.-.=.-.J.a.s.z././.[.[.[.{.{.{.[.[.`.z.l.a.s.l.b._.b.l.a.=.+.O.O.+.d.v._././.^.^.^.(.^.^.^.^.z.^.z.z.z.z.z.z.z.z.z.z.z.z.l.l.l.l.l.l.l.l.l.l.l.l.l.l.l.v.s.a.=.=.=.,.j.j.-.O.T R H G W T ;.d.d.a.a.s.s.a.f.a.-.-.=.=.;.;.O.O.+.:.d.-.-.=.=.O.O.Q T Y T #.;.=.=.+.+.+.+.+.O.O.O.O.T T T T Y H H H H H H H H H G G K G G G J k k k k k k k k z x i 5 : : 4 h x p i i p p p l j p s i 5 4 4 5 i i i p j k k G H H H Y Y Y Y ",
"k.a.-.-.-.-.-.-.-.-.-.=.+.+.O.T T T T T Y H H H Y T +.=.>.*.E H k k H Q #.;.-.-.-.a.a.a.g.f.s.a.a.a.a.a.a.a.s.l.l.l.l.l.l.s.s.s.s.s.s.a.s.s.s.s.l.l.l.l.v.n.f.-.-.f.'.^.^.^.z.(.`.`.b.l.a.f.l.v.s.l.z.b._.(.(.^.^././.^._.D.=.O.O.O.O.=.a.z./.[.`.^.l.s.s.l.^./././././././././././././.^.^./././././././.[.[.[.[.[.[.[.[.[.[.[.[.[.[.[.[.[._.b.-.=.=.=.k.a.z.`.[.[././.^././.[.{.6X3X3X3X3X3X3X2X.X(.a.a.H.q.$.H Y =.n.].|.6X8X2X.X).l.a.l._. X{.2X2X3X6X6X3X3X3X2X2X2X2X2X2X{.2X2X{.2X2X2X2X{.2X2X{.{.2X2X2X2X2X2X2X2X{.{.{.{.[.[.[.[.{.{.`.'.a.a.b.`..X6X{.[.[./.z.a.-.+.-.A.a.s.z././.[.[.[.[.[.[.[.[.`.z.s.a.a.l.b.b.b.s.-.=.+.O.O.=.d.v._././.^.^.^._._.^.^.z.^.z.z.z.z.z.z.z.z.z.z.z.z.z.l.l.l.l.l.l.l.l.l.l.l.l.l.l.l.v.s.-.=.=.;.,.j.g.,.O.T R H H ! T 1.d.d.a.s.x.s.a.f.-.-.-.=.=.1.;.O.O.+.:.d.-.=.=.=.O.$.O.T Y T #.;.=.=.=.=.+.+.O.O.O.O.O.T T T Y Y H H Y H H G G H G G G G G G G G G k k k k k k j l j i 4 : : 4 h x p p p p p p l j f s i 5 4 4 5 5 i p p j k k G H H Y Y Y Y T ",
"k.-.=.=.-.-.-.=.-.-.-.=.+.+.O.O.T Y T Y Y K H H Y T +.;.1.*.T G k G R @.;.-.a.a.-.a.g.g.g.a.a.a.a.a.a.s.x.x.x.l.l.s.s.s.s.s.f.x.l.l.s.s.s.s.f.s.l.l.l.v.v.v.s.a.a.x._.^.^._.^.z.`.].(.s.a.f.b.z.l.l.z.^._._.^.^.^.^./.^.'.n.+.O.T O.+.=.s.(.[. XXX^.s.a.a.l.^./././././././././././././././././././././././././.[.[.[.[.[.[.[.[.[.[.[.[.[.[.].m.a.=.=.=.f.s.z.`.oX{.}./././.[.{.6X3X3X3X3X3X3X5X6X[.].s.a.H.q.O.H T =.x.`.{.|.2X{.[.^.x.a.s.(. X6X3X3X3X3X3X3X3X2X2X{.{.{.2X2X2X2X2X2X2X2X2X2X2X{.{.2X{.{.2X2X{.{.{.{.{.{.{.{.{.[.[.{.{.{.[.].(.a.l.(. X.X{.{.[.[.`.(.a.-.=.,.J.a.s.z././.[.{.{.[./.[.{.[.`.c.s.a.a.s.v.c.b.f.-.+.O.O.+.=.k.n.c._.^.^.^.^.^.^.^.^.z.^.z.z.z.z.z.z.z.z.z.z.z.z.b.l.l.l.l.l.l.l.l.l.l.l.l.l.l.l.l.k.a.=.=.-.-.g.j.-.+.T Y H G H T :.a.a.a.a.s.a.a.g.g.:.;.=.=.=.;.O.O.+.:.d.d.-.=.=.+.%.$.T Y T *.+.=.=.=.=.+.+.+.+.+.O.O.O.T Y Y H H H H H G G G G G G G G J J G K G G G G G k k k j p i 4 : : 4 S x p p j j l j l l f p i 5 4 4 5 i i i p p j k J H H Y Y Y Y T ",
"J.-.=.=.-.:.:.=.-.-.=.=.=.+.O.O.T Y T Y W K K H Y T +.=.1.*.Y G k G Y @.;.-.a.a.a.a.g.g.g.a.a.a.s.a.s.s.l.l.l.s.s.s.s.s.s.s.s.s.s.s.s.s.f.f.f.s.s.l.l.l.b.b.l.a.a.x._.^.^._.^.z.^.^.z.s.a.f.b.z.l.l.z.^._.^.^.^.^.^./.^.'.n.+.T T O.+.=.s.(. X X`.z.s.a.a.l.^./././././././././././././././././././././././.[.[.[.[.[.[.[.[.[.[.[.[.[.[.[.[.`.c.a.=.=.=.n.l.^.[..X{.[././././.{.3X3X3X9X3X3X3X6X6X[.].s.-.H.q.O.Y T =.x.`.{.{.{.{.[.(.l.a.a._. X6X3X2X3X3X3X3X3X2X2X2X2X2X2X2X2X2X2X2X{.{.{.2X2X{.{.2X{.{.2X{.{.{.{.{.{.{.{.{.{.[.[.{.{.{. X].'.s.l.^. X.X{.{.[.[.).b.a.-.=.,.J.a.s.z././.[.[.[.}./.{.{. X`.c.s.a.a.s.l.b.v.f.=.+.O.O.+.=.h.v.b.b.^.^.^.^.^.^.^.^.^.^.^.z.z.z.z.z.z.z.z.z.z.z.z.l.l.l.l.l.l.l.l.l.l.l.l.l.l.l.v.k.a.=.=.=.-.g.g.,.+.T Y H G H T :.a.a.a.a.a.s.f.a.-.-.=.+.+.=.+.O.O.+.:.d.d.-.=.=.+.+.$.T Y T @.=.=.=.=.=.+.+.+.+.O.O.$.T T Y Y Y H H H K H G G k G G G G J J G J G G G G G k k k j p i 4 : : 4 h f p p j l l l l l p i 5 5 5 4 5 i i i p p k k G H H Y Y Y T T ",
"I.a.=.=.-.:.-.=.-.=.=.=.;.+.O.T T Y T T W R K H Y T +.=.1.*.T G k k Y @.;.-.a.a.a.-.a.-.a.a.a.a.s.a.s.s.l.s.s.s.s.s.s.s.s.s.s.s.s.s.s.a.a.a.f.s.s.l.l.l.v.v.l.a.a.l.(.^.^.^.^.z.^.^.b.s.a.s.x.z.l.l.z.^._.^.^.^.^.^./.^.'.n.+.T T O.+.=.s.(. X X`.z.a.a.f.l.^./././././././././././././././././././././././././././.[.[.[.[.[.[.[.[.[.[.[.}.^.l.a.=.=.=.n.l.^.[.{.[.[././.^./.{.3X3X3X3X3X3X3X3X2X[.'.a.-.H.<.O.Y T =.n.`.{.{.2X{.[.(.l.a.s._. X6X2X3X3X3X6X3X3X6X2X2X2X2X2X2X2X2X2X{.{.{.{.2X{.{.{.2X{.{.2X{.{.{.{.{.{.{.{.{.{.[.[.{.{..X X].'.s.l.^. X.X{.{.[.[.`.b.a.-.=.,.J.a.s.z././.[.[.[.}.[.{.{. X`.c.s.a.a.s.l.v.v.f.=.+.$.O.+.=.g.v.c.z.^.^.^.^.^.^.^.^.^.^.^.z.z.z.z.z.z.z.z.z.z.z.z.l.l.l.l.l.l.l.l.l.l.l.l.l.l.l.x.v.a.=.=.=.-.a.g.,.+.T Y H G H T :.a.a.a.s.s.s.f.a.-.=.=.+.+.+.+.O.O.+.;.d.a.-.-.=.+.O.$.T Y T O.=.-.=.=.=.+.+.+.+.O.O.T T T Y Y Y H H H ! ! H G k G G G G G J G G G G G G G G k k l s i 4 : : 4 h p p p j l z l l j p i 5 5 4 5 5 5 i i p j k k G H H Y Y T T T ",
"I.-.=.=.=.=.=.=.=.=.=.=.;.;.+.T T T T T W Y K H Y T +.=.1.<.Q H k k Y @.;.-.a.a.a.-.-.-.a.a.a.a.a.s.s.s.s.s.s.s.s.s.l.s.s.s.s.s.s.s.s.a.a.a.f.s.s.l.l.l.v.v.s.a.a.l.(.^.^.^.^.z.`.`.(.l.a.s.v.l.l.z.z._.^.^._.^.^.^./.^.'.k.O.T T O.+.=.s.(. X X`.z.a.a.f.l.^./././.^.^.^././././././././././././././././././././././.[.[.[.[./.[.[.[.[.[./._.x.a.=.=.=.f.s.z.`.[.[.[././././.{.6X3X3X3X3X3X3X2X2X[.'.a.-.H.<.O.Y T =.n.`.{.2X2X{.[.(.l.a.s._. X{.3X2X3X3X3X3X3X3X6X2X2X2X2X2X2X2X2X2X2X2X2X2X2X{.{.{.{.{.2X{.{.{.{.{.{.{.{.{.[.[.[.{.{.{.[.].'.s.l.^. X.X{.{.[.[./.b.s.-.=.,.J.a.s.z./. X[.[.[.}.[.{.[././.c.a.a.a.s.l.c.v.f.=.+.O.O.+.-.f.v.c.z.^.^.^.^.^.^.^.^.^.^.^.^.z.z.z.z.z.z.z.z.z.z.l.b.x.x.x.l.l.l.l.l.l.l.l.l.v.v.x.n.a.=.=.=.-.a.g.j.=.T Y H G H T =.a.a.a.s.s.s.f.a.-.-.=.+.=.=.;.O.O.+.=.-.-.-.=.=.+.+.$.T Y T @.;.-.=.=.=.=.+.+.+.O.O.T T Y Y Y Y Y H H K K G G k G G G G G G G G G G G G G G k z l s i 4 : : 4 h p p p j l z z l j p i 5 5 4 5 5 5 i i p j k k G H H Y Y T T T ",
"I.a.=.=.=.=.-.=.-.=.=.=.;.;.+.T T T T T W Y H H Y T +.-.1.<.$.H k k Y @.;.-.-.a.a.-.-.-.a.a.a.a.a.a.s.s.l.l.l.l.s.s.l.l.s.s.a.a.l.s.s.a.a.f.s.l.s.l.l.l.v.v.s.a.a.s.z.^.^.^.^.^.].`.(.l.a.s.v.z.l.z.z.^.^.^._.^.^.^./.^.'.k.O.T T O.+.=.s.(. X X`.z.s.a.s.z.^././.^.^.^.^././././././././././././././././././././././.[.[./././.}./.[.[.[.[.(.m.a.=.=.=.k.s.z.`.{.[.[././././.{.6X3X3X3X3X3X3X2X2X[.'.a.-.H.<.O.Y T -.n. X{.2X2X{.{.].l.a.s.(. X{.2X2X3X3X6X3X3X3X2X2X2X2X2X2X2X2X2X2X2X2X2X2X2X{.2X2X{.{.2X{.{.{.{.{.{.{.{.{.[.[.[.{.{.{.[.].(.s.l.^. X.X.X{.[.[./.b.s.-.=.,.A.a.s.z./. X[.[.[.}.[.{.{././.b.s.a.a.l.l.b.x.a.=.+.O.O.+.-.f.v.b.z.^.^.^.^.^.^.^.^.^.^.^.^.z.z.z.z.z.z.z.z.z.z.z.c.c.c.x.v.l.l.l.l.l.l.l.l.v.v.x.n.a.=.+.=.=.a.g.j.=.T Y H G H T =.a.a.s.s.s.s.g.a.-.-.=.=.=.=.;.O.O.+.=.-.-.-.-.=.=.%.$.T Y T #.;.;.;.;.=.=.+.+.O.O.O.T T Y Y Y Y Y Y H H G G G G G G G G G G G G G k G G G G k z l s i 4 : : 4 h f p p j j j j j j p i i 5 5 5 5 5 i i p j k k G H H Y Y Y T T ",
"I.g.-.=.=.=.-.=.-.-.=.=.;.;.+.O.T T T T W Y H H E O.=.-.1.<.$.Y k k Y @.<.-.-.a.a.-.-.-.a.a.a.a.a.a.s.l.l.l.l.x.l.l.s.l.s.s.s.a.l.l.s.s.f.s.s.l.l.l.l.l.v.v.l.a.a.s.z._.^.^.^.^./.^.z.l.a.s.b.b.l.z.z.^.^._.^.^.^.^./.^.m.f.O.T T O.+.=.s.(. X X`.z.s.a.s.z.^./.^.^.^.^.^.^.^.^././././././././././././././././././././././.[./.}./.[.[.[.).(.m.a.=.=.=.k.s.z.)..X[./././.^.[.{.6X3X3X3X3X3X3X{.{.[.'.a.-.H.<.O.Y T -.v. X{.2X3X2X{.].l.a.l.]. X{.2X3X3X3X6X3X3X2X2X2X2X2X2X2X6X2X2X6X6X6X3X2X2X2X2X2X2X2X4X2X{.{.{.{.{.{.{.{.[.[.[.{.2X.X X].(.s.l.^. X.X.X{.[.[./.b.s.-.=.,.j.a.s.z./. X[.[.[.}.[.{.{.[.`.c.s.a.a.l.b.b.b.a.-.+.O.+.+.-.f.v.b.^.^.^.^.^.^.^.^.^.^.^.^.^.z.z.z.z.z.z.z.z.z.z.z.b.x.x.x.v.l.l.l.l.l.l.l.l.l.l.l.n.a.=.=.=.-.a.g.j.=.T Y H G H T =.a.s.f.x.l.s.a.a.-.=.=.+.+.=.;.O.O.+.=.-.-.-.-.=.>.<.%.T Y T *.;.=.=.=.=.=.+.+.O.O.O.T T Y Y Y W W Y H H G G H G G G G G G G G G k k G G G G k z l p i 4 : : 9 v l p p j j j j j j p i i 5 5 5 5 5 i i p j k k G H H Y Y Y T T ",
"J.-.-.=.=.=.:.-.-.-.=.=.=.+.+.O.T E T T W Y H H E O.=.-.,.1.$.Y k k Y @.<.-.-.a.a.a.a.a.a.a.a.a.a.s.s.s.s.s.l.l.l.l.l.s.s.a.s.s.s.s.s.s.s.s.s.l.l.l.l.l.b.m.f.a.a.s.z._.^.^.^.^./.^.z.l.a.s.b.b.l.z.z.^.^._.^.^.^.^./.^.b.k.O.T T O.+.=.f.(. X X`.z.s.a.s.z.^./.^.^.z.^.^.^.^.^.^.^.^.^./.^././././././././././././././././././.}././.[.[./.(.m.-.=.=.=.k.s.z.)..X[././.^.^.[.|.6X3X3X3X3X3X3X{.{./.'.a.-.H.<.O.Y T -.v. X6X6X3X2X{.].z.a.l.]. X{.3X2X3X3X3X3X3X2X2X2X2X2X2X2X3X2X2X3X6X6X3X3X2X2X2X2X{.2X4X6X{.{.{.{.{.{.{.{.[.{.{.{.2X.X[.).c.s.l.^. X.X{.{.{.[./.z.s.-.=.,.j.a.s.z.`. X[.[.[.[.[.{.{.[.`.(.l.a.s.l.b.b.c.s.-.+.O.+.+.-.s.v.c._.^.^.^.^.^.^.^.^.^.^.^.z.z.z.z.z.z.z.z.z.z.z.l.l.l.l.l.l.l.l.l.l.l.l.l.l.l.l.l.k.a.=.=.=.-.a.g.g.=.T W H G H T =.a.f.k.v.l.s.a.a.-.=.+.+.+.=.+.O.O.+.:.-.-.-.-.=.;.%.$.T Y T *.+.=.=.=.=.;.+.+.O.O.O.T T T T Y Y Y Y H H H H H G G G G G G G k G k k k G G k k z j p i 5 : 4 9 v l p p j j k j j j p p i i 5 5 a i 5 i p j k k G H H Y Y Y Y Y ",
"M.-.=.=.=.=.-.-.-.-.-.-.=.+.O.O.T T T T T Y H H T O.=.-.j.1.$.Y k k Y @.<.-.-.a.a.a.g.g.g.a.a.s.a.s.s.s.s.a.s.l.l.l.l.s.s.s.s.s.s.s.s.s.s.s.s.s.l.z.z.l.b.v.f.a.a.s.z._._.^.^.(.`./.z.l.s.s.b.b.z.z.^.^._.^._.^.^.^./.^.b.h.O.T T O.+.=.a.(. X X`.z.s.a.s.l.^.^.^.z.z.^.^.^.^.^.^.^.^.^./.^././.`./././././././././././././././.}././.[.[./.z.x.-.=.=.=.k.a.z.`..X[./.^.^.^./.|.6X3X3X3X3X3X3X{.{./.'.a.-.H.<.O.Y T -.v. X6X6X3X2X|.].z.a.l.]. X{.3X3X2X6X6X3X2X{.{.2X2X2X2X3X3X2X2X3X3X3X3X2X2X2X{.{.{.2X6X6X{.{.{.{.{.{.|.{.[.[.[.{.{.{.[._.z.s.l.^. X.X{.{.{.{./.b.s.-.=.,.j.a.s.z./. X[.[.[././.[.{././.b.s.a.s.v.b.b.c.s.-.+.+.+.=.-.a.v.z.^.^.^.^.^.^.^.^.^.z.z.z.z.z.z.z.z.l.z.l.l.l.z.l.l.l.l.l.l.l.l.l.l.l.l.l.l.l.l.l.k.a.=.=.=.-.a.g.,.+.T W H H H T -.a.f.k.v.l.s.a.g.a.-.=.+.+.=.=.O.O.=.-.-.-.-.-.=.+.+.$.T Y T @.+.+.+.=.;.;.+.+.O.O.O.T T T T T Y Y H H R R K G G G G G G G G k G k k k G G k k k j p i 5 4 4 9 v l p p j j k k j j j p i i 5 5 a i i i p j j k G H H Y Y Y Y Y ",
"U.-.=.=.=.=.-.=.-.-.-.-.=.+.O.O.T T T T W Y H H T O.=.-.,.1.$.Y k k Y @.=.-.-.a.a.-.-.-.g.f.s.s.a.a.s.s.s.l.l.l.l.l.l.s.s.s.s.s.s.s.s.l.l.l.l.l.z.z.z.b.v.x.a.a.a.a.z._._.^.z.z./.`.(.l.s.x.b.b.l.l.z.^.^.^.z.^.^././.^.b.f.O.T $.O.O.=.s.'. X[.`.(.s.a.s.c.^.^.^.^.z.z.z.z.^.^.^.^./././././././.`./.^.^./././././././././././././.[.[.[.}.'.x.-.=.=.=.M.s.z./..X[./.^.^.^./.{.2X3X3X3X3X3X2X{.{.}.l.a.-.H.;.T Y T -.x.`.6X3X3X2X{.).l.a.x.].*X6X3X3X2X2X6X3X3X2X2X2X2X2X2X2X2X{.2X2X2X2X2X2X{.2X2X2X2X2X2X2X{.{.{.{.{.{.{.{.{.[.[.{.2X{.[.].(.s.l.`. X{..X{..X[./.z.s.-.=.,.j.f.l.z./. X[.[.{.[./.{.{. X`.(.s.s.s.b.b.b.c.l.-.;.+.+.=.-.s.c._.^.^.^./.^.^.^.^.^.z.z.z.z.z.z.z.z.z.z.l.l.l.l.l.l.l.s.l.l.l.l.s.l.l.l.l.l.l.l.s.f.a.=.+.=.-.g.g.,.=.O.E R G H T =.a.a.f.s.s.a.a.g.-.-.=.+.+.=.;.O.O.+.-.a.a.-.-.=.=.+.$.T Y T *.+.+.=.=.;.+.+.+.+.O.O.$.T T T Y Y Y Y Y Y H H G G G G G G G G G G k G k k k k k j j l i 5 4 4 9 h p p p j j j j z j p p i 5 5 5 a i i i p j j k G H H H Y Y Y Y ",
"I.-.=.=.=.=.=.=.-.-.-.-.=.+.O.O.T T T T T Y H Y T O.=.-.,.1.%.Y G k Y @.=.-.a.a.a.-.-.-.g.f.s.s.a.a.s.s.l.l.l.l.l.l.s.s.s.s.s.s.l.l.l.l.l.l.l.l.z.z.z.b.x.x.a.a.a.s.z._._.^.z.^.^.`.z.l.a.x.b.z.l.l.z.^.^._.^.^.^.^./.^.b.k.O.T T O.O.=.a.(. X/./.(.a.a.s.c.^.`.^.z.z.z.z.^.^.^.^.^./././././././.`././././././././././././././././.[.[.[.).(.x.-.=.=.=.M.s.z./. X[./.^.^.^./.{.2X3X3X3X3X3X2X2X{.XXl.a.-.K.<.O.Y T -.x.`.6X3X3X2X{.).l.a.x.(.*X6X3X3X3X6X6X6X3X2X2X2X2X2X2X2X2X2X2X2X3X2X2X2X{.2X2X2X2X2X2X{.{.{.{.{.{.{.{.{.{.[.[.{.2X{.[.].(.s.l.`. X{.6X{..X[.[.(.s.-.=.,.A.g.l.z.`. X[.[.[.[.[.{.|.[.`.(.l.s.s.z.b.z.b.l.-.=.+.+.=.-.s.c.(.^.^.^./.^.^.^.^.z.z.z.z.z.z.z.z.z.z.z.l.l.l.l.l.l.l.s.l.l.l.l.l.l.l.l.l.l.l.l.x.f.a.=.+.=.-.g.g.,.=.O.E K G H T =.a.f.f.s.s.s.a.h.g.-.=.=.=.;.;.+.+.=.-.a.-.-.-.=.+.+.$.T Y T @.+.+.+.=.=.+.+.+.O.O.O.O.T T T T Y Y Y Y R K H G G G G G G G G G G k G G G k k k j j l i 5 4 4 4 h l p p j j k j j j p i 5 5 5 5 a i i i p j j k G G H H Y W Y Y ",
"J.-.=.=.=.=.=.=.=.-.-.-.=.+.O.O.T E T T T Y K Y T O.=.-.j.1.%.Y G G Y @.;.-.-.a.a.-.-.-.g.f.a.a.s.s.s.s.l.l.l.l.l.l.l.s.s.s.s.s.x.l.l.l.l.l.l.l.z.z.z.b.x.l.a.a.a.s.z.^.^.^.z.z./.`._.l.a.x.b.z.l.l.z.^.`.^.^.^.^.^./.^.b.f.O.T T O.+.=.a.(.`././.(.s.a.s.c.^./.^.^.^.^.^.^.^.^.^.^.^.^.^.^./././.`./././././././././././././././.}.[.[.[.).(.x.-.=.=.=.M.s.z.`.[.[./.^.^.^./.[.2X3X3X3X3X3X2X{.{.}.l.a.-.J.<.O.Y T =.x.`.{.2X3X2X|.).l.s.l._..X6X3X2X3X6X6X6X3X2X2X2X2X3X3X3X2X3X3X3X3X3X3X2X{.2X2X2X{.2X2X{.{.{.{.{.{.{.{.{.{.{.{.{.2X6X[.`.(.l.l.`. X{.6X{..X{.}.(.s.-.=.j.J.a.l.z.`.[.[.[.[.[.[.{.|.[.XX(.l.a.s.z.b.z.z.l.a.:.+.+.=.-.s.c.(.^.^.^./.^.^.^.^.z.z.z.z.^.z.z.z.z.z.z.z.l.l.v.v.l.s.s.l.l.l.l.l.l.l.l.l.l.l.l.x.s.a.=.=.=.-.a.g.-.+.T W H G H T :.a.f.f.s.s.s.a.g.a.-.=.=.=.=.;.+.+.=.-.a.a.-.-.=.+.+.$.T Y T @.+.+.+.+.+.+.+.+.O.O.O.T T T T T Y Y Y Y R H H G G G G G G G G G G G G G G G G k j j f i 5 4 4 7 v v p p j j k z j j p i 5 5 4 5 a i i i p j j k k G H H Y R R R ",
"J.-.=.-.-.=.=.=.=.-.-.=.=.+.O.O.T E T T W Y K Y T O.=.-.j.q.%.Y k G Y @.;.-.a.a.a.-.-.-.g.a.a.a.s.s.s.s.l.l.l.l.l.l.l.s.s.s.s.l.l.v.l.l.l.l.l.z.l.z.z.b.v.x.a.-.a.f.z.^.^.z.z.z.`.`.(.l.s.x.b.b.z.l.z.^._._.^.^.^.^./.^.'.k.+.T $.O.+.-.s.(. X[.`.(.s.a.s.z.^.^.^.^.^.^.^.^.^.^.^.^.^.^.^.^./././././././././././././././././.}.}.}.[.[.[.[._.x.-.=.=.=.n.s.z.`. X X/.^.^.^./.[.{.3X3X3X3X3X2X{.{.}.z.a.-.H.<.O.Y T =.x.`.|.2X3X2X|.).l.a.l._. X.X2X2X2X2X2X3X3X3X2X2X2X3X3X3X3X3X3X3X3X3X3X2X{.2X2X2X{.2X2X{.{.2X{.{.{.{.{.{.{.{.{.{.2X{.[.`.(.l.l.`. X{.6X{..X[.`.b.s.-.=.,.J.a.s.z.`.[.[.[.[.[./.{.{.[.`.(.l.s.s.b._.z.b.c.a.:.;.=.=.a.s.z.(.^.^././.^.^.^.^.z.z.z.z.z.z.z.z.z.z.l.l.l.l.v.v.s.s.s.s.l.l.l.l.l.l.l.s.s.s.l.x.f.a.=.=.=.-.a.g.-.+.T W H G H T ,.d.f.f.s.s.s.s.a.-.-.=.=.=.=.=.+.+.=.-.d.a.-.-.=.=.+.$.T Y T @.+.+.+.+.+.+.+.+.O.O.O.T T T T T Y Y Y H H H G G G G G G G G G G G G G k G G k k j l f i 4 : : 8 S v p p j j j l l j p i 5 5 5 5 a i i i p j j k k G H H Y R R R ",
"J.-.-.-.-.=.-.=.=.-.=.=.=.+.O.T T Y T T W Y K Y Y O.=.-.j.q.%.Y k k Y O.=.-.-.a.a.a.-.-.a.a.a.a.s.s.s.l.l.l.l.l.l.l.l.s.s.s.s.l.l.l.s.s.l.l.z.z.l.l.l.b.v.x.g.a.a.f.z.^.^.z.z.z.`.`.(.l.s.x.b.b.l.l.z.^._._.z.^.^.^./.^.'.n.+.T $.+.+.-.s.(. X X`.(.s.a.s.z.^.^.^.^.^.^.^.^.^.^./.^.^.^.^././././././././././././././.[.[.[.[.}.}.[.[.[.[.}._.x.a.=.=.=.n.s.^.XX.X.X/./.^.^./.[.{.3X3X3X3X3X2X{.{..Xz.s.-.J.<.O.Y T =.x.`.|.2X3X2X|.`.l.a.s.^. X{.2X2X2X2X2X3X2X3X3X3X3X3X3X3X3X3X3X3X3X3X3X2X2X2X2X2X{.2X2X2X2X2X{.{.{.{.{.{.{.{.{.{.2X{.[.`.b.l.l.`. X{.6X{..X[./.b.a.-.=.,.A.a.s.^.`.[.[.[.[././.[.{.[./.^.l.s.l.z.^._.(.c.a.:.;.=.-.a.l.z.(.^.^././.^.^.^.^.z.z.z.z.b.b.z.z.l.l.l.l.l.l.v.v.s.s.s.s.l.l.l.l.l.s.s.s.s.l.l.l.s.a.=.=.=.-.a.a.-.+.T Y H G H T ,.f.f.s.s.s.s.s.s.g.,.-.;.=.;.;.+.+.=.-.g.a.-.-.=.=.%.O.T Y E @.O.+.+.+.+.+.+.O.+.O.O.T T T Q Q Y Y Y Y Y H H G G G H H G G H K K G G G G G k k k l s 5 4 : : 8 Z v p p p j j l j p p i 5 5 4 4 5 i i p p j j k k G H H H Y Y Y ",
"I.-.=.-.-.=.-.-.-.-.=.=.=.+.O.T Y Y T T W H H H Y O.=.-.j.q.%.Y k k Y @.=.-.-.a.a.a.-.-.g.a.a.a.s.s.s.l.l.l.l.l.l.l.l.s.s.s.s.l.s.l.s.s.l.l.z.z.l.z.z.b.v.v.g.-.a.f.z._._.^.(.^./.`._.l.s.l.b.z.l.l.z.^._.^.z.^.^.^./.^.'.n.+.T $.O.+.=.a.(. X X/.(.s.a.s.c.^./.^.^.^.^.^.^.^.^./.^.^.^.^.^././././././././././././.[.[.[.[.[.[.[.[.[.[.[.[._.x.a.=.=.=.f.s.^.XX.X.X/./.^.^./.[.{.3X3X3X3X2X2X{.2XoXz.s.-.J.<.T Y T =.x.`.|.2X3X2X|.`.l.a.s.^. X6X3X2X2X2X6X3X3X3X3X3X3X6X6X6X6X3X3X3X3X3X3X2X3X2X2X2X2X2X2X2X2X{.{.2X{.{.{.{.{.{.{.{.2X{.[.`.b.l.l.`. X{.6X{..X[.).(.s.-.=.,.J.a.s.z.`. X[.[.[.}.[.{.{.[./.(.l.l.l._._._.(.c.a.:.;.=.-.a.l.b.(.^.^././.^.^.^.^.^.z.z.z.z.b.b.b.z.l.l.l.l.l.l.l.l.s.s.s.l.l.l.l.s.l.l.l.l.l.l.x.s.a.=.=.=.-.a.a.-.+.T Y H G H T :.f.f.f.s.s.s.s.h.g.g.-.;.;.;.;.+.+.=.d.d.a.a.-.-.=.%.O.T Y E @.O.+.+.+.+.+.+.O.O.O.O.T T Q &.&.Y Y Y Y R K H H H H H H G K H H U P J G H G G k k l s 5 4 : : 8 h s p p p j j j p p i 5 5 4 4 4 5 i i p p j j k k G H H H Y Y H ",
"I.-.=.-.-.=.-.-.-.-.=.=.=.+.O.T Y Y T Y Y H H H Y T =.-.j.q.%.Y k k Y @.;.-.-.a.a.a.a.-.g.a.a.a.s.s.l.l.l.l.l.l.l.l.l.s.s.s.s.l.l.l.l.l.l.l.l.z.l.z.z.b.b.v.g.-.-.a.z._.(.(.z.^.^.`.^.l.s.x.b.z.z.l.z.^.^.^.^.^.^.^./.^.'.n.+.T $.O.O.=.s.(. X X/.(.a.a.s.c.^././././.^./.^././././.^.^.^.^.^./././.[././.[.[./.[.[.[.[.[.[.[.[.[.[.[.[.[.[._.c.a.-.=.=.f.l.^. XoX X/.`.^.^./.[.{.2X3X3X3X2X2X{.{.{.z.a.-.J.;.T Y T =.x.`..X|.2X3X6X).z.a.s.^. X6X3X2X2X2X6X3X3X3X3X3X3X3X6X6X6X3X3X3X3X2X2X3X3X2X2X2X2X2X2X2X2X{.{.{.{.{.{.{.{.{.{.2X2X{.{.`.b.l.l.`. X{.6X{..X{.}.'.s.-.=.1.L.a.s.z.`. X[.[.[.[.[.{.{.[.`.(.l.l.l._._._.(.z.a.:.;.=.-.a.l.b._.^.^././.^.^.^.^._.^.z.z.z.b.b.b.b.b.l.l.l.l.l.l.l.l.s.s.l.l.l.l.s.l.l.x.x.l.l.s.s.a.=.=.=.-.a.a.,.+.T Y H G H T -.a.f.f.l.s.s.a.g.a.-.-.=.=.=.=.+.+.=.d.f.a.a.-.-.=.%.O.T Y T @.O.+.+.+.+.+.+.O.O.O.O.T T Q Q ~ Y Y Y Y Y H H H G G G G G G H H P K G G K J G k k l f i 4 : : 8 d s i i p p j j p p i 5 5 4 4 4 5 i i p p j j k k G G H H H Y H ",
"I.-.=.-.=.-.-.-.-.-.-.=.=.+.O.T Y Y T W Y H H H H T +.-.1.q.O.Y G G Y @.;.-.-.a.a.a.a.a.g.a.a.a.a.s.s.l.l.l.l.l.l.l.l.l.s.s.s.s.x.v.l.l.l.l.l.l.l.l.z.b.b.v.g.-.-.a.l.^.^.^.z.z.^.`.^.l.s.x._.b.z.z.z.^.^.^.^.^.`.^./.^.m.n.+.T $.O.O.=.x.'.XX X/.(.s.a.s.c.^././././.^.^./././././.^.^.^.^.^./././. X/./.[././.[.[.[.[.[.[.[.[./.[.[.[.[.[.`.c.a.-.=.=.f.s.^. X.X[././.^.^./.[.{.2X3X3X3X2X{.{.{.|.z.s.a.L.q.O.Y T =.x.`..X6X2X3X6X].z.s.l._. X{.2X{.{.{.{.6X2X3X3X3X3X3X3X3X3X3X3X3X3X3X3X3X3X2X2X2X2X2X2X2X2X{.{.{.{.{.{.{.{.[.{.{.6X{.[.`.(.l.l.`. X{.6X{.|.[.].'.s.=.=.,.L.f.l.z./.[.[.[.[.}.[.{.{.[.`.(.l.l.l.b.^.^.b.l.a.:.=.=.-.a.l.b._.^././././.^.^.^._.^.z.z.z.b.b.(.b.b.b.l.l.l.l.l.l.l.s.s.l.l.l.s.s.s.l.l.l.l.l.s.s.a.=.=.=.-.a.a.g.=.T Y H G H T -.a.f.f.l.s.s.a.a.-.-.=.=.=.=.=.+.+.=.g.f.a.a.-.=.=.+.$.Y Y T @.O.+.+.+.+.+.+.+.+.O.O.T T T T T Y Y Y Y H H H G G G G G G G H G K G G G G G k k z l f i 4 : : 0 a i i i i p p p j p i 5 5 4 4 4 5 i i p p p j k k G H H H Y Y Y ",
"V.a.a.a.-.a.a.-.-.-.-.=.=.+.+.O.Y Y T Q Y H G H Y T +.-.,.>.O.Y k k H Q #.=.=.-.-.a.a.a.a.f.a.s.a.a.a.a.s.l.l.v.l.l.l.l.s.s.s.l.s.l.s.s.s.l.l.z.z.z.z.z.v.s.a.-.a.a.l.z.^.^.^.^./.(.(.z.l.l.z.z.l.z.z.^.^.^.^.^.^./././.b.f.=.T T O.+.-.x.(.XX.X X_.l.a.s.l.^./././././././././././.^.^.^.^./././././././././././././././././././.[.[.[.{.[.].m.a.=.=.-.k.l._.[.{.{.[././.^./.[.6X3X3X3X3X8X6X{.2X{.^.a.g.j.<.T Y T =.x.`.{.2X2X2X|.`.z.l.l./..X{.2X{.{.{.{.6X3X2X3X3X2X2X6X3X{.2X2X2X3X6X3X2X2X2X{.2X2X2X2X2X2X{.{.{.{.{.{.{.[.[.[.{.6X6X.X].c.l.z./..X.X6X6X{.[.`.b.s.-.=.,.k.a.l.^././.[.[.[./.}.[.[.[.`.^.l.s.l.z.z.z.z.l.a.-.=.-.-.a.l._.^./././././.^.^.^.).^.z.(.z.z.z.(.'.b.z.l.l.l.l.l.l.l.l.l.l.l.l.s.l.l.l.l.x.x.l.s.f.-.=.=.-.g.g.g.-.+.T R H H H T =.-.a.f.l.l.s.a.g.j.-.=.=.=.;.=.+.+.-.g.k.g.-.:.-.=.+.O.Y Y T $.+.+.+.+.+.+.O.O.O.O.T T T T Y Y Y Y Y H H H H H H H G G G H H H H G G G G G k k j p s 5 4 : : 8 a p i 5 i p l l j f a 5 4 4 4 7 5 i i p p j j k k G H H Y Y Y Y ",
"V.a.a.a.a.a.a.-.-.-.-.=.=.+.+.O.T Y T Q W H G K Y T +.-.-.;.O.Y k k H ~ *.+.=.-.-.-.a.a.a.a.a.a.s.a.s.s.l.l.x.x.l.l.l.l.l.s.s.l.l.s.s.s.s.l.l.z.z.z.z.c.v.f.a.a.a.s.l.z.^.^.^.^.^.^.z.l.l.z.z.z.l.l.z.^.^._.^.z.^./././._.f.=.T T O.+.=.s.(. X[. X_.s.a.s.l.^./././././././././././.^.^.^././././././././././././././././.}.[.[.[.[.[.[.{.[.].m.a.=.=.-.f.l._.[.2X{.{.[.`././..X6X3X3X3X3X3X6X{.6X{.^.a.g.j.<.O.Y T -.v. X{.2X2X2X|.XXz.l.l.`..X{.2X{.{.{.{.3X3X2X2X2X2X2X2X2X{.2X2X2X3X3X3X2X2X2X{.2X2X2X2X2X2X2X2X2X{.{.{.{.[.[.[.{.{.oX X].c.l.z./.[.{.6X{.{.[.`.b.a.-.=.-.k.f.l.^.`.[.[. X[./.[.[.[.[.`.^.l.s.l.z.z.z.c.s.a.:.-.-.a.a.v.(.^././././././.^.^.^.^.z.z.z.z.z.z.b.z.l.l.l.v.v.l.l.l.l.l.l.l.l.s.l.l.l.l.x.x.v.l.f.-.=.=.-.g.f.g.-.+.T R H H Y $.-.a.a.f.f.s.s.a.g.j.,.=.+.=.;.=.O.+.-.h.k.g.-.-.-.-.;.O.Y Y T %.+.+.+.+.+.+.O.O.O.O.T T T T T Y Y Y Y Y H H H H H H H H H H H H H H G G G G G k j p s 5 4 : : 9 s p i 5 5 i j j j p a 4 : : 4 9 5 i i p p j j j k G H H Y Y Y Y ",
"m.a.a.a.a.a.a.-.-.-.-.=.=.+.O.O.T T T T W H K K Y T +.-.,.;.O.Y G k H Q *.;.-.-.a.a.a.a.a.a.a.a.f.s.s.s.l.l.x.x.l.l.l.l.l.l.l.x.l.l.l.s.s.l.l.z.z.z.z.c.m.x.a.a.a.s.z.z.^.^./.^.^.^.z.l.l.l.z.z.l.z.z.^.^._.^.z.^././.`.'.k.=.T T O.+.=.s._. X[./.^.s.a.s.l.^././././././././.`./././././././././././././././.[./././.[.}.[.[.[.[.[.{.[.[.[.].m.g.=.=.-.f.l._.[.4X{.{.[././.[..X6X3X3X3X3X3X6X{.6X.X(.a.g.H.<.O.Y T -.v. X{.2X2X6XoXXXz.l.l.`..X{.2X{.{.{.{.6X3X2X2X2X2X2X2X2X{.2X2X2X2X2X3X2X{.2X2X2X2X2X2X2X2X2X6X6X{.{.{.{.[.[.[.{.{..X X`.b.s.l.^.[.{.6X{.{. X`.b.a.-.=.,.k.a.l.^.`.[.[. X[.}.[.[.[.[.`.^.l.s.l.z.z.b.c.s.a.:.=.-.a.a.c.'.`././././././.^.^.^.z.z.z.z.z.l.z.z.z.l.l.l.v.l.l.l.l.l.l.l.l.l.s.l.l.l.l.v.x.v.x.f.-.=.=.-.g.h.g.-.+.O.E R H Y $.-.a.f.f.s.s.s.a.a.-.-.=.+.=.;.=.O.+.-.h.k.-.-.=.-.-.;.O.Y Y $.%.+.+.+.+.+.+.O.O.O.O.T T T T T T Y Y Y Y H H H H G H H H H H H H H H G G G G G k j p s a 4 : : 9 h p i 5 i p j j j s 7 4 : : 4 9 5 i i p p p j j k G H H H W T Y ",
"m.a.a.a.a.a.a.-.a.-.-.=.=.+.O.T T Y T Y W P K G Y T +.-.,.;.O.Y G G H Q +.;.-.a.a.a.a.a.a.f.s.f.s.a.s.s.s.s.l.l.l.l.l.l.l.l.l.x.l.l.l.s.s.l.l.l.z.z.b.b.m.v.a.a.a.l.z.z.^.^.^.^.^.(.z.z.l.z.b.z.l.z._.^._.^.^.^.^././.`.'.f.=.O.$.O.+.=.s.(. X[./.^.s.a.s.l.^././././././.`.`.`././././././././././././././.[.}.[./.[.[.}.[.[.[.[.[.[.[.[.[.].m.a.=.=.-.f.l._.[.{.{.{././././. X{.3X3X3X3X3X6X|.6X.X(.a.g.H.<.O.Y T -.v. X{.2X2X6XoX].z.s.l./. X.X2X{.{.{.{.3X3X3X2X3X2X2X2X2X2X2X2X2X2X2X2X2X{.2X2X2X2X2X2X2X2X6X6X6X{.{.{.[.[.[.[.{.{..X X`.b.s.l.^. X{.{.{.{.[.`.b.a.-.=.,.k.a.l.^././.[.[.[.}.[.[.[.[.`.^.l.s.l.b.z.b.b.s.a.:.=.-.a.a.x.'._.^./././././.^.^.^.z.z.z.z.z.l.z.z.z.l.l.z.v.z.l.l.l.l.l.l.l.l.s.s.s.l.l.l.v.l.l.f.-.=.=.-.g.g.g.-.+.T R H H Y $.-.a.f.f.f.s.s.a.-.-.-.=.+.+.=.+.O.+.-.h.k.-.=.=.-.-.;.O.Y Y $.%.+.+.+.+.+.O.O.O.O.T T T T T T T Y Y H H H H H H G H H H H H H H H H G G G G G k j l s d 4 : : 9 V f i 5 i s p p p s 7 : ; ; : 7 5 i i i p p j j k G H H Y W Y Y ",
"n.a.a.a.-.-.g.-.-.-.-.=.=.+.O.T T T T Y W P K G Y T +.-.,.;.O.Y G k H T +.=.-.a.a.a.a.a.a.f.s.f.a.a.s.s.s.l.s.l.l.l.l.l.l.l.l.x.x.v.l.l.s.l.l.l.z.z.b.b.m.x.a.-.a.l.z.z.^.^.^.^.^.^.z.z.l.z.c.z.l.z.(.^._.^.^.^.^.^././.'.k.=.T $.O.+.-.s.(. X[./._.s.a.s.l.^././././././././.`././././././././.}./././././.[.}.[./././.[.[.[.[.[.[.{.[.{.[.`.m.g.=.=.-.f.l.^.[.{.{.{./././.[..X{.3X3X3X3X3X6X6X6X{.z.a.g.j.<.O.Y T -.v. X{.2X2X{..X).z.s.l.^. X.X2X2X{.{.2X3X3X3X3X3X6X3X2X2X3X2X2X2X{.2X2X2X{.2X2X2X2X2X2X2X2X2X2X2X{.{.{.[.[.}.[.{.{..X X_.c.s.l.^. X{.6X{.{.[.`.b.s.-.-.,.A.a.l.^././.[.[.[././. X[.[.`.^.l.s.l.z.^.b.c.s.-.=.=.=.-.a.x.'._._././././.^.^.^.^.z.z.z.z.z.l.z.z.z.z.z.z.z.z.l.l.l.l.l.l.l.s.s.s.s.s.s.l.l.l.s.f.-.=.=.-.a.g.g.-.+.T R H H Y $.-.a.a.f.s.s.a.a.-.-.-.=.+.=.;.=.O.+.a.h.k.-.=.=.-.-.;.O.Y Y $.%.+.+.+.+.+.O.O.O.O.T T T T T T T Y Y H H H H H H G H H H H H H H H H G G G G G k j l f d 4 : : 9 V l i i a s p p p a 4 : ; ; : 8 5 i i i p p j j k G H H H W W Y ",
"n.a.a.a.-.-.g.-.-.-.-.=.=.+.O.T T T T T W ! P K Y T +.-.,.<.O.Y G k H T +.=.-.-.a.a.a.a.a.a.s.s.a.a.a.s.l.l.l.l.l.l.l.l.l.l.l.l.x.v.l.l.l.l.l.z.z.z.b.b.b.x.a.-.a.l.z.^.^.^.^.^.^.^.z.l.l.l.z.l.l.z.z._._._.^.z.^.^././._.f.+.T T O.+.-.s._..X[. X_.s.a.s.z.^./././././././././././././././././././././././././.[./././.[.[.[.[.[.[.{.[.{.[.`.c.g.=.=.-.f.l.^.}.{.4X|./.^./. X.X6X2X3X3X3X3X6X{.2X{.c.a.g.j.<.O.Y T -.x. X{.2X2X{..X).l.a.l.^.oX{.2X{.{.{.2X3X3X2X2X3X3X2X{.2X2X2X2X{.{.2X2X2X2X2X2X2X2X2X2X2X2X2X2X2X{.{.{.[.[.}.[.{.{..X X].c.s.l./.[..X6X{.{.[.`.b.s.-.-.j.J.a.l.^.`.[.[.[. X/./. X[.[./.z.l.a.l.z.z.b.b.s.-.=.+.=.-.-.l.m.(.^.^.^.^.^.^.^.^.z.l.l.z.z.l.l.z.z.z.z.z.b.z.z.l.l.l.l.l.l.l.s.s.l.s.s.s.l.l.l.s.a.-.=.=.=.-.g.g.-.+.T R R H W $.-.a.a.a.a.a.a.a.a.-.,.;.=.;.;.=.+.+.-.h.k.g.=.=.-.-.;.O.Y Y $.%.+.+.+.+.+.O.O.O.O.T T T T T T T Y Y H H H H H H G H H H H H H H H H G G G G G k j p s d 4 : : 8 h p i i i i i i i 5 : ; # # ; 4 7 i i p p l j k k G H H H W W Y ",
"v.a.a.a.-.-.g.-.-.-.-.=.=.+.O.O.T T O.T Y P P K Y T +.-.j.1.O.Y G G H Q +.=.-.-.a.a.a.a.a.a.a.a.a.a.s.s.l.l.l.l.l.l.l.l.s.s.s.s.v.v.l.l.l.l.l.z.b.z.b.b.b.l.a.a.a.l.z.(.^./.^.^.^.^.z.l.l.l.l.l.l.l.z.^._._.^.z.^.^././._.f.+.T T O.+.-.l.`. X{. X`.l.a.l.z.^./././././././././././.^.^.^.^./././././././././././././.[.[.[.[.[.[.[.{.[.{.[.`.c.g.=.=.-.f.l.^./.{.|.|./.^.^. X.X6X2X3X3X3X3X6X{.{.[.z.a.g.1.;.T Y T =.v. X{.2X2X{..X).l.a.l.^..X{.2X{.{.2X2X3X3X2X2X3X6X2X{.{.3X2X2X2X2X2X2X2X2X2X2X2X2X2X2X2X2X2X2X2X{.{.{.{.[.[.[.{.{..X X].c.l.z./.[..X6X6X{.[.`.b.s.-.-.,.k.a.l.^.`.[.[. X[././.[.[.[.`.z.l.a.l.b.(._.b.s.-.=.+.=.=.-.s.c.b.^.^.^.^.^.^.^.z.z.l.l.z.z.l.z.z.z.z.z.z.b.b.z.z.l.l.l.l.l.l.l.l.v.l.l.s.l.l.l.s.a.-.=.=.=.a.g.g.-.+.T R R H W O.-.a.a.a.a.a.a.a.a.:.-.=.=.=.=.+.+.+.-.h.h.a.-.-.-.-.;.O.Y Y $.%.+.+.+.+.+.+.O.O.O.T T T T T T Y Y Y H H H H H H H H H H H H H H H H H H G G G k j p s d 4 : : 8 f p i i i i i i 5 5 : # + + ; 1 7 5 i i p l l z k G G H H R Y Y ",
"v.a.a.a.-.-.g.-.-.-.-.=.=.+.O.O.T T O.T H H K K Y T =.-.j.1.O.Y G G Y $.*.=.-.a.a.a.f.f.f.f.s.a.a.a.a.s.l.l.l.l.l.l.l.s.s.s.a.s.v.l.l.l.l.l.l.z.b.z.b.b.b.l.a.a.a.l.z.(.`./././.`.).(.z.l.l.l.l.l.l.z._.^.^.^.^.^././.`.'.k.=.T $.O.+.-.x.].oX.X X`.l.a.l.z.^./././././././././.^.^.^.^.^.^.^././././././././././././.[.[.[.[.[.[.[.{.[.{.[.`.c.g.=.=.-.f.l.^./.[.{.[./.^.^./.[.6X2X3X3X3X3X6X{.{.[.z.a.g.1.>.T Y T =.x. X{.2X2X{..X(.l.a.l._.oX{.2X2X{.2X2X3X3X3X2X6X3X3X{.2X6X2X2X2X2X2X2X2X2X2X2X2X2X2X2X2X2X2X2X2X{.{.{.{.{.[.[.{.{..X X].'.l.z./. X.X6X6X|.[.`.b.s.-.=.,.k.a.l.z./.[.[. X/./.[.[.[. X).z.l.a.l.z.(._.c.s.-.=.+.=.=.-.f.c.b.^.^.^.^.^.^.z.z.z.z.z.z.z.z.z.b.z.z.z.z.b.b.b.z.l.l.l.l.l.l.l.l.x.l.l.l.l.l.l.s.f.-.=.=.-.a.g.g.-.+.T R H H Y $.-.a.a.a.a.a.a.a.-.-.-.=.+.+.+.+.+.=.-.h.h.g.-.-.-.-.;.O.Y Y $.%.+.=.+.+.+.+.O.O.O.T T T T T Y Y Y H H H H H H H H H H H H H H H H H H H G G G k j p s a 4 : : 4 f f a i 5 i i i 5 4 ; # @ + < 3 4 5 5 i i p j k k G G G H R Y H ",
"n.a.a.a.-.-.-.-.g.-.-.-.=.+.O.T T T T Y Y H H H Y T +.-.j.1.O.Y G G R &.*.;.j.a.a.a.a.a.a.a.a.a.s.a.a.a.l.l.l.s.l.l.v.l.s.s.s.l.v.v.l.l.l.l.l.z.z.z.b.b.b.v.a.a.a.x.'.(././././.`./.z.l.l.l.l.l.s.l.b._._.^.z.^.^.^././.b.f.+.T $.O.+.-.x._. X[. X^.l.a.l.z._./././././././.^.^.^.^.^.^.^./.^.^./././././././.[.[.[.[.[.[.[.[.[.[.[.{.[.[.}.`.c.a.=.-.-.k.l._.[.{.{.[./.^.^.`. X{.2X3X3X3X3X6X2X6X.Xl.f.-.H.;.T Y T =.x./.{.2X{.6X.X].z.s.l.^. X{.2X2X2X2X2X3X3X3X2X2X6X6X2X2X6X2X2X2X2X2X2X2X3X2X2X2X2X2X2X2X2X2X{.{.{.{.{.{.{.[.[.{.{..XXX(.c.s.l.^. X.X6X{.{. X].'.s.-.-.j.J.a.l.^.`.[.[. X/././.[. X X`.z.l.l.l.z.z.b.z.s.a.=.+.+.=.a.f.m.'.(.^.^.^.^.z.z.z.z.z.z.z.z.z.z.z.z.z.z.z.b._._.b.l.l.l.b.x.x.l.l.v.l.l.l.l.l.l.x.f.-.=.-.:.j.h.g.g.+.T R K H Y O.:.a.a.f.s.a.a.a.g.-.-.;.+.+.=.+.O.=.g.k.h.-.-.-.-.-.=.O.T Y $.%.=.=.+.+.+.O.O.O.T T T T Y Y T Y Y H H H H H H H G G H H H H H H H H G G G G G k j p i 5 4 : : 8 f l a i 5 5 5 5 5 : ; + @ + + ; 4 4 5 5 i p j j k G G H H H H Y ",
"n.a.a.a.-.-.-.-.-.-.-.-.=.+.O.T T T T T Y H H H Y T =.-.j.1.O.Y G k Y &.+.=.-.-.a.a.a.a.a.a.a.a.s.a.a.a.l.l.l.s.s.l.l.l.s.s.s.l.v.v.l.l.l.l.z.z.z.z.b.b.b.x.a.a.a.l.'._././././.`.`.^.l.l.l.l.l.s.l.z._._.^.z.^.^.^././.b.f.+.T O.O.+.-.x.)..X[. X^.l.a.l.z.^././././././././.^.^.^.^./.^.^.^.^././././././.[.[.[.[.[.[.[.[.[.[.[.[.{.[.{.}.`.c.a.=.-.-.f.l._.[.{.{.[./.^.^.`. X|.2X3X3X3X3X2X2X6X.Xl.a.-.H.>.T Y T =.x.`.6X2X2X6X.X].l.s.l.^. X{.2X2X2X2X2X3X3X3X2X2X6X6X2X2X3X2X2X2X2X3X3X3X3X2X2X2X2X2X2X2X2X6X{.{.{.{.{.{.[.}.[.[.{..X X_.c.s.l.^. X.X{.{.{.[.`.b.s.-.-.,.A.a.l.^.`.[.[.[. X/./.[.[. X/.z.l.l.l.z.^.b.b.l.a.:.+.+.=.a.f.v.c.(.^.^.^.^.z.z.z.z.z.z.z.z.z.z.z.z.z.z.z.b.b.b.z.l.l.l.b.v.v.l.l.l.l.l.l.l.l.l.f.a.-.=.=.-.d.h.g.-.+.T R H H Y O.-.a.a.f.s.a.a.a.g.-.-.;.+.+.;.+.+.=.a.k.k.g.-.-.-.-.=.O.T Y $.%.+.=.=.+.+.O.O.T T T T T Y Y T Y Y H H H H H H G G G G H H H H H H H G G G G G k j p p 5 4 : : 8 f l a 5 4 5 5 5 4 : # + . . & < 8 4 5 5 i p j j k G G H H H Y Y ",
"v.f.a.a.-.-.-.-.-.-.-.=.=.+.O.T T T T T W W K K Y T =.-.j.1.+.Y G k H $.+.=.-.-.a.a.a.a.a.f.s.s.f.a.a.a.l.l.l.s.s.s.s.s.s.s.s.l.l.l.l.l.l.l.z.z.z.z.b.b.b.l.a.a.a.l.(._././././.`./.^.z.l.l.x.l.s.l.z.^._.z.z.^.^.^././.b.f.+.T $.O.+.-.x._..X[..X^.l.a.l.z.^./././././././././././././././.^.^././././././.[.[.[.[.[.[.[.[.[.[.[.[.{.[.[.[.`.c.a.=.-.-.n.l.^.[.{.{.}./.^.^.`. X6X3X3X3X3X3X2X{.6X.Xz.f.-.H.*.T Y T =.x.`..X2X2X|..X).l.s.l.^. X{.2X{.{.2X2X3X3X3X2X2X2X2X2X2X2X3X3X3X3X3X3X3X3X2X2X2X2X2X2X2X2X6X{.{.{.{.{.[.[.}.}.[.{..X X_.c.s.l./.[..X{.{.{. X`.b.s.-.-.,.k.a.l.^./.[.[.[.[./././.[.[./.z.l.l.l.z._._.b.l.a.1.;.=.=.a.f.m.b.z._.^.^._.b.z.z.z.z.z.z.z.z.z.z.z.z.z.z.b.b.b.z.l.z.l.b.v.l.l.l.l.l.l.l.l.l.l.f.a.-.=.=.-.d.h.g.-.+.T R H G Y O.-.a.a.f.s.s.s.a.a.-.-.=.+.=.;.=.+.+.-.s.k.j.-.=.-.-.;.O.T Y $.%.+.=.+.+.O.O.O.T T T T Y Y Y T Y Y H H H H H H G G G G G G H H H H H G H G G k k j p i 5 4 : : 9 v f i 5 4 4 5 5 8 : # @ . . @ ; : 4 4 5 i p j j k G H H H H Y Y ",
"n.f.a.a.-.-.-.-.-.=.=.=.=.+.O.T T T T T W W K K Y T =.-.j.1.+.T G G Y &.+.;.g.a.a.a.a.a.f.f.x.x.f.s.a.a.l.l.l.s.s.s.s.s.s.s.s.s.l.l.l.l.l.z.z.z.z.z.z.b.b.l.a.a.a.l.b.^.^./././.[.).^.z.l.l.x.l.s.l.z.^._.z.z.^.^.^././.b.f.+.T $.O.+.-.x._.[.[. X^.l.a.l.z.^././././././././././././././.^.^.^././././././.[.}.[.[.[.[.[.[.[.[.[.[.{.[.{.[.`.c.a.=.-.-.n.l._. X[.[.[./.^.^./.[.6X3X3X3X3X3X2X{.6X.Xz.f.-.H.%.T Y T =.f.`..X{.{.{.{.).l.s.l.`..X{.2X{.{.2X2X3X3X2X2X2X2X2X2X2X2X3X3X3X3X2X2X2X2X2X2X2X2X2X2X2X2X6X2X{.{.{.{.[.[.}.[.{.{..X X(.c.s.l._.[..X{.{.{.[.`.b.s.-.-.,.A.a.l.z./.[.[.[. X/././. X[.`.z.l.l.l.b.(._.b.l.a.1.;.=.=.a.n.m.b.z.^.^.^._._.z.z.z.z.^.z.z.z.z.z.z.z.z.z.b.b.z.z.z.z.l.v.v.l.l.l.l.l.l.l.s.s.s.f.a.-.=.=.-.j.h.h.-.+.T Y H G Y $.-.a.a.a.s.s.s.g.a.-.-.=.+.=.;.=.+.+.-.h.k.g.-.=.-.-.=.O.T Y $.>.=.=.+.+.+.O.O.T T Y Y Y Y Y T W Y H H H H H G G G G G G H H H H H H H H K G k k j p i 5 4 : : q v f i 4 4 4 5 7 8 : # .   . @ # , : 4 5 5 i p j J J H H H H Y Y ",
"n.f.a.-.-.-.-.-.-.=.=.=.=.+.O.T T T T T W Y H H Y T =.-.g.1.+.Y H G Y &.+.;.g.a.a.a.a.a.f.f.x.s.s.s.s.s.s.s.l.s.s.s.s.l.s.s.s.s.l.l.l.l.l.l.z.z.z.z.z.b.b.x.a.a.a.l.z.^././.[./. X].(.z.l.l.l.l.s.l.z.^._.z.z.^.^.^./.^.b.f.+.T $.O.+.-.l.`..X[. X^.l.s.l.z.^./././././././././././.^.^.^.^./.^././././././.[.}.[.[.[.[.[.[.[.[.[.[.{.[.{.[._.x.g.=.-.-.n.l._.[.[.[./.^.^.^./.[.6X3X3X3X3X3X2X{.6XoXz.f.-.H.%.T Y T =.f.`..X{.{.2X{.`.z.s.l.`..X{.2X{.{.{.2X3X3X2X2X2X2X2X2X2X2X2X2X2X2X2X2X2X2X2X2X2X2X2X2X2X2X6X2X{.{.{.{.[.[.}.[.{.{..X X(.c.s.l.^.[..X{.{.{.[.`.b.s.-.-.,.A.a.l.z.^./.[. X X/././.[. X/.z.l.l.l.b._._.b.l.a.;.#.+.=.a.n.m.b.z.^.^._._._.z.z.z.z.^.z.z.z.z.z.z.z.z.z.b.b.b.b.l.l.z.z.l.l.l.l.l.l.l.l.s.s.s.f.g.-.=.=.-.j.k.k.-.+.O.R H H Y $.-.a.a.a.s.s.s.s.a.-.-.=.+.=.;.+.+.=.a.k.h.a.-.-.-.-.=.O.T Y $.>.=.=.=.+.+.O.O.Q T Y Y Y Y Y T W Y H H H H H G G G G H G H H H H H H H H K G G k z j s 5 4 : : q h s 5 4 : 4 4 4 8 , # .     @ + ; : 4 4 5 i p j k G H R R W Y Y ",
"n.f.a.-.-.-.-.-.-.=.=.=.=.+.O.T T T T T W H H H Y T +.-.g.1.+.Y G G Y $.+.=.-.a.a.a.a.f.s.f.l.s.s.s.s.s.s.s.l.l.s.s.s.l.l.l.s.s.l.l.l.l.l.l.z.z.z.z.z.b.b.x.a.a.a.l.z.^./. X[.[. X).(.z.l.l.l.s.s.l.z.^._.z.z.^.^.^./.^.b.f.+.T $.O.+.-.x.`..X{. X^.l.s.l.z.^././././././././././././././.^.^.^././././././.[.[.[.[.[.[.{.{.{.{.[.[.[.[.{.[._.x.a.=.-.-.n.l._.[.[.[./.^.^.^./.[.|.3X3X3X3X3X2X{.2XoXz.f.-.H.%.T Y T =.n.`..X6X2X2X|.).z.l.z.`.oX{.2X{.{.{.{.6X3X2X2X2X2X2X2X2X2X2X2X2X2X2X2X2X2X2X2X2X2X2X2X2X2X6X2X{.{.{.{.[.[.[.}.[.{..X X(.c.s.l.^.[..X{.{.{. X`.b.s.-.-.,.k.a.l.z./.[.[. X X/.^./././.^.z.l.l.l.z._._.b.l.a.=.;.=.=.-.f.m.b.z.^.^._._._.z.z.^.^.^.^.^.^.^.^.z.z.l.l.b.b.b.b.l.l.z.z.l.l.l.l.l.l.s.l.s.s.s.s.a.-.=.=.-.d.k.g.-.+.O.E H H Y $.-.a.a.s.s.s.s.a.a.-.,.=.+.=.<.+.+.=.g.k.s.-.-.-.-.-.=.O.Y T $.>.>.;.=.+.+.O.T T T Y Y Y Y Y T W Y H H H H H G G G G G G G G G G H H H H K G G k k j s 5 4 : : q h i 5 : : : 4 4 : > + .     % + ; : : 4 5 i p j k G H R W W Y Y ",
"f.a.a.-.-.-.-.-.-.-.=.=.=.+.O.T T T T T W H H H Y T =.-.j.1.+.Y G G Y O.+.=.-.a.a.a.a.a.s.s.s.a.a.a.s.s.l.l.l.l.l.l.s.l.l.l.s.s.v.v.l.l.l.l.z.z.z.z.b.b.b.v.a.a.a.l.z.^./. X X[.[.`.^.l.l.l.l.l.s.l.z._._._.z.^.^.^./.^.b.f.+.T $.O.+.-.x.). X{..X^.l.s.l.z.^././././././././././././././.^.^.^././././././.[.[.[.[.[.[.{.{.{.{.[.[.[.[.{. X_.x.a.=.-.-.n.l._.[.[.[././.^.^./.[.{.2X3X3X3X3X2X{.{..Xz.f.-.H.;.T Y T :.n.`.{.6X6X2X|.XXz.l.b.`. X{.2X{.{.{.{.6X2X2X3X3X2X2X2X2X2X2X2X{.2X2X2X2X2X2X2X2X2X2X2X2X2X3X{.{.{.{.{.{.[.}./.[.{..X X(.c.a.l.^.[..X{.{.{.[.`.b.s.-.-.,.A.a.l.^.`.[.[.[. X/.^././././.z.l.s.l.z._._.b.l.a.=.;.=.=.-.f.m.b._.^.^._._.b.^.^.^.^.^.^.^.z.^.z.z.z.l.z.b.b.b.z.l.l.z.z.l.l.l.s.l.l.l.s.s.s.s.s.f.-.=.=.-.g.h.g.-.+.O.E K H W $.-.a.a.s.s.a.a.a.a.-.,.=.+.;.1.+.+.=.g.k.h.-.-.-.-.-.=.O.Y T $.0.,.-.=.+.O.O.T T Y Y Y Y Y W T T Y H H H H H G G J G G G G G G G H H G G G G k k j p s 5 4 : : 9 h i 4 : : : : : : > + .   . % & # ; : 4 5 i p z L G H Y W T Y Y ",
"n.a.-.-.-.-.-.-.-.-.-.=.=.+.O.T T T T T Y H H H Y T =.g.j.1.O.Y G G Y $.+.=.-.a.a.a.a.a.a.a.a.a.a.a.s.s.s.l.l.l.l.l.l.l.l.l.l.s.v.v.l.l.l.l.z.z.z.z.b.b.b.v.s.a.a.l.z.^./. X X[././.z.l.l.l.x.l.a.l.z._._.^.^.^.^.^././.b.f.+.T $.O.+.-.l.`. X.X X^.l.s.l.z.^././././././././.^././././././././././././././.[.[.[.[.[.[.{.{.{.{.[.[.[.[.{. X`.c.a.=.-.g.n.l.`.}.[.[.}./.^.^./.[.{.2X3X3X3X3X3X2X{.}.z.f.-.H.;.T H T :.v./.[.{.3X3X6XXX(.l.z.`. X6X6X2X{.{.{.2X2X2X3X3X2X2X3X2X2X2X2X2X2X2X2X2X6X2X2X{.2X2X2X2X2X3X{.{.{.{.{.{.[.}.}.[.{..XXX(.c.a.l.^.[.{.{.{.{.[.].'.s.-.-.j.J.a.l.^.).}.[.[. X/./.[.[. X`.z.l.s.l.z.(._.b.l.a.=.;.;.=.-.a.b._._.^.^._.^.z.^.^.^.^.^.^.^.z.z.z.z.z.l.z.z.z.l.l.z.z.z.z.l.l.s.s.s.s.l.s.s.s.l.s.f.-.=.=.-.g.h.g.-.+.@.E K H W %.-.a.a.f.s.s.a.a.-.-.-.=.+.;.1.;.+.=.g.k.g.-.=.=.-.-.=.O.Y Y $.>.,.;.=.+.O.T T Y Y Y Y Y W W Q T Y H H H H H H G K K G H G H H H H G G G G G k k j p a a 4 : : 8 d i 4 : : : : : ; # @ .     % % # # ; : 4 5 p j L G H H Y T T T ",
"n.s.a.-.a.-.-.-.-.-.-.-.;.+.O.O.T T T T W Y H Y Y O.=.,.j.1.#.E G G Y O.+.;.-.a.a.a.a.a.s.s.l.s.a.a.a.l.l.l.l.l.l.l.l.l.l.l.l.l.l.l.l.l.l.l.z.z.z.b.b.b.m.v.a.a.a.l.b.^././.[./.[.`.z.l.l.x.x.a.a.s.z.z._.^.^.^.^./. X/.$Xn.+.O.T O.=.a.l._.[.[./.^.z.l.l.z.^.^././././././././././././././.`.[././././.[.[.[.[.[.[.[.{.{.{.|.{.[.{.{.{.{.[.].c.a.-.-.a.n.l.`.[.[.[././.^.^./.}.{.2X3X3X3X3X2X2X2X}.l.-.a.Z.<.T H T :.x.`..X{.3X3X6X}.z.l.l._. X6X2X2X{.2X2X3X3X2X2X2X2X3X3X3X3X2X2X2X2X2X2X2X6X2X2X2X2X6X6X2X{.{.{.{.{.{.[.[.[.}.[.[.{.{. X(.c.s.l.`. X{.6X{.|.[.`.b.s.-.-.j.M.a.l.z././.[. X X/./.[.[./.`.c.s.a.l.z._._.(.l.a.-.=.+.+.-.f.b._.`./.^._.z.z.z.^.^.z.^.z.z.z.z.z.(.b.z.z.z.z.z.z.b.z.z.l.l.l.l.s.s.s.s.s.l.l.v.x.n.a.=.=.-.d.g.-.=.+.E R H G Y $.-.a.a.a.s.s.a.a.a.-.-.=.+.=.>.;.+.=.a.s.a.-.=.=.-.=.+.T Y Y O.<.;.;.;.+.O.T W W ! ! _ ! Y W Q W Y Y H H H H H G G G G H H H H H G G G G k k k k l f a 5 4 : : 8 g a 4 : ; ; , > * + .       . = @ + # ; : 5 p j k G H Y Y Y T T ",
"m.f.a.a.a.-.-.-.-.-.-.-.;.+.+.O.T T T T E Y H Y Y O.=.,.j.1.#.Y G G Y O.+.;.-.-.a.a.a.a.a.a.s.s.a.a.s.s.l.l.l.l.l.l.l.l.l.l.l.l.l.l.l.l.l.l.l.z.z.b.z.b.m.n.a.a.a.l.b.^././.[./.)./.z.l.l.x.x.s.a.s.z.z._._.^.^././. X/.'.n.+.O.T O.=.-.l.^.`./.`.^.z.z.z.^.^.^././././././././././././././. X X/./././.[.[.[.[.[.[.[.[.[.{.{.{.{.{.{.{.{.{.].c.a.-.-.a.v.l./.[.[.}./.^.^.^./.[.{.2X6X3X3X3X6X6X2X}.x.-.a.A.<.T Y T g.x.`..X2X3X3X6X}.z.l.l._. X6X3X2X2X2X3X3X3X2X2X2X2X3X3X3X3X3X3X2X2X2X2X{.2X2X2X2X2X6X6X{.{.{.{.{.{.{.{.{.[.}.[.{.{.{.[.].'.s.l.`.[.{.6X{.|.}.`.b.s.-.-.,.k.a.s.z././.[. X[././.[.[./.`.c.s.a.l.b.b.(.(.l.a.g.-.+.+.=.f.b._././.^._.z.z.^.^.^.z.z.z.z.z.z.z.b.b.z.z.z.z.z.z.z.z.z.l.l.l.s.s.a.a.s.s.l.v.b.x.f.-.=.=.-.d.g.a.=.O.E R H G Y O.:.a.f.s.s.s.s.f.a.-.-.=.=.=.>.>.+.=.a.s.a.-.=.=.-.=.%.T Y Y $.;.;.=.+.O.T T W W W G H ! W Q Q Y W Y H H H R K H G G H H H H H H G G G G k k k j l s a 5 4 : : 8 g a 4 : : ; > < * @ .         O . @ # ; : 5 i p k G H Y Y T T T ",
"m.f.a.a.a.a.-.-.-.-.-.-.;.+.+.@.T T T T E Y H Y Y O.=.,.j.1.+.Y G G Y O.%.;.-.-.a.a.a.a.a.a.s.s.a.a.s.s.l.l.l.l.l.l.l.l.l.l.l.l.l.l.l.l.l.l.z.z.z.z.z.z.m.n.a.a.a.l.b.^././.[./.`./.z.l.l.x.x.s.a.l.z.z._._.^.^.`./. X/.'.n.+.T T O.+.-.l.^.`./.`.^.^.z.^.^.^./././././././././././././././././././././././.[.[.[.[.[.[.[.[.[.[.{.{.{.{.{.{.].'.a.-.-.a.v.l./.[.[.[./.^.^.^./.[.{.2X3X3X3X3X3X6X2X}.x.-.a.A.<.T Y T g.x.`..X2X3X3X6X}.z.s.l._. X6X3X3X3X2X3X3X3X3X2X2X2X3X3X3X3X3X3X2X2X2X2X{.{.2X2X2X2X6X2X{.{.{.{.{.{.{.{.[.[./.[.{.{..X X(.m.l.l.`.[.{.6X{.{.}.).b.a.-.=.:.j.a.s.z.^.}.[. X[././.[.[./.`.'.s.a.s.z.b._.(.l.a.g.-.=.+.=.d.b._././.^._.b.z.z.z.^.z.z.z.z.z.z.z.z.z.z.z.z.z.z.z.z.z.z.l.l.l.l.s.s.s.s.s.l.v.b.v.f.-.=.=.-.-.g.g.=.O.E R H G Y O.:.a.f.s.l.s.s.f.a.a.-.=.=.=.>.>.+.=.a.f.f.-.=.=.-.>.%.$.Y Y T %.;.+.O.O.T T T W _ Y W _ W W Q Y W Y H H H G G G G G H H H Y Y Y G G G G k k k j l s i 5 4 : : 8 g i 4 : : ; ; $ % . .         . . . + # : 5 i p k G H Y T E T T ",
"m.f.a.a.a.a.-.-.-.-.-.-.=.+.+.#.T T T T T Y Y Y T O.=.g.j.1.+.Y G G Y O.%.;.-.-.a.a.a.a.a.a.s.s.s.s.s.l.l.x.x.c.l.l.l.l.l.l.l.l.l.l.l.l.z.z.z.z.z.z.z.z.m.v.a.a.a.l.b.^././.[./.`.).^.l.l.l.x.s.a.l.z.z._._.^.^.`./.[./.'.f.+.T Q O.=.-.l.(.`.[.`./.^.z.^.^.^./././././././. X X/././././././././././././././.[.[.[.[.[.[.[.[.[.[.{.{.{.{.{.].c.a.-.-.a.m.l./.[.[.[././.^.^./.[.{.{.2X3X3X3X3X3X2X[.x.-.a.J.<.T Y T g.b.`.oX2X3X3X6X).z.s.l._. X6X3X3X3X3X3X3X3X3X2X2X2X3X3X3X3X3X3X3X2X2X2X2X2X2X2X2X2X2X2X{.{.{.{.{.{.{.[.[.[./.[.{.{..X X(.c.l.l.`.[.{.6X{.{.[.`.b.a.-.=.-.j.a.s.z./.}.[. X[././.[.[./.`.'.s.a.s.z.b._.(.l.a.g.,.;.+.=.g.b._././.^._.b.b.z.z.^.z.z.z.z.z.z.z.z.z.z.z.z.z.z.z.z.z.l.l.l.l.l.s.s.s.s.l.l.v.v.l.a.-.=.=.=.-.g.g.=.O.T H H G Y O.-.a.a.s.s.s.s.a.a.-.-.=.+.=.,.>.+.=.a.f.f.a.=.=.=.>.%.$.Y Y T +.;.+.O.O.O.T T T T Y ~ E H H T H H H R K J k J I J J J K K H Y Y G G G G G k k j j p i 5 : : ; 4 a 5 4 : : ; ; $ @ .             . . + ; : 5 i p k G H Y E T Q O.",
"m.s.a.a.a.a.a.a.-.-.-.-.=.=.+.+.$.T $.T T Y Y Y T O.-.g.j.,.+.T G G Y O.%.=.-.-.a.a.a.a.a.a.s.a.s.s.s.l.l.x.c.x.l.l.l.l.l.l.l.l.z.l.l.l.z.z.z.z.z.z.z.z.m.v.a.a.a.l.b.^././.[.[./.).^.l.l.l.x.s.a.l.z.z._.^.^.^./././.^.b.f.O.T T O.+.-.l.^.`././.^.^.^.^.^.^./././././././. X X/./././././././././././././././.[.[.[.[.[.[.[.[.[.[.{.{.{.[.`.c.a.=.-.a.v.l./.[.[.[.}././././.[.|.|.6X3X3X3X3X3X2X[.x.a.g.A.1.T Y T g.b.`.oX2X3X3X6X/.z.s.l._. X{.2X2X3X3X3X3X3X3X3X3X3X3X3X3X3X3X3X3X2X2X2X2X2X2X2X2X2X2X2X2X{.{.{.{.{.{.[.[.[.[.[.{.{.{.[.(.c.l.l.`.[.{.6X{.{.}.`.c.a.-.=.-.j.a.s.z./.}.}. X/././.[.[./.`.'.l.a.s.z.z._._.x.f.g.,.;.+.=.g.b.`././.^.^._._.^.z.^.z.z._.z.z.z.z.z.z.z.z.z.z.z.c.z.z.l.l.l.l.l.l.s.s.s.l.l.v.v.l.a.-.-.=.=.-.g.j.=.O.T Y H G Y $.-.a.a.a.s.s.s.a.a.-.-.=.+.;.>.>.+.=.a.f.f.a.-.=.-.=.%.$.Y Y T +.*.+.O.O.O.O.O.$.T T &.T H Y ~ H H G G k k j p l x c c L G H Y H H H K J G G k j l p i 4 : ; ; : 7 5 5 4 : ; > # . .               . @ # : 5 p j k G H Y T Q O.O.",
"v.s.a.a.g.g.a.a.a.a.-.-.=.=.+.+.$.$.$.$.T T Y Y T +.-.g.k.,.+.T G G Y O.+.=.-.a.a.a.a.a.f.a.s.s.s.a.s.s.l.l.l.l.l.l.l.l.l.l.l.l.b.l.l.z.z.b.z.z.z.^.z.b.m.v.a.a.a.l.b.^././.[././.).^.l.l.l.x.x.s.l.z.z._.^.^.^./././.^.b.f.O.T T T +.-.s.^.`././.^.^.^.^.^.^././././././././././././././././././././././.[./././././.[.[.[.[.[.[.[.{.[.[.[.`.b.a.-.-.a.v.l./.[.[.[.[./././.}.{.|.6X3X3X3X3X3X3X2X{.c.a.s.A.1.T Y O.g.b.`.oX3X3X3X6X/.z.s.l._. X{.2X2X3X3X3X3X3X3X3X3X3X3X3X3X3X3X3X3X2X2X2X2X2X2X2X2X2X2X2X{.{.{.{.{.{.{.[.[.[.[.[.{.{..X[._.c.l.l.`.[.{.6X[.{.}.`.z.a.-.=.-.j.a.s.z./.}.}.[.[././.[.[./.`.'.l.a.s.z.z._._.x.s.g.-.=.+.=.d.b.`././.^.^._._.^.^.^.z.z._.z.z.z.z.z.z.z.z.z.z.z.z.z.z.l.l.l.l.l.l.a.s.s.l.v.v.v.l.a.-.-.=.-.-.g.j.-.+.E R K H W O.-.a.f.s.l.s.s.f.a.-.-.=.+.=.>.>.+.=.a.f.f.-.=.-.-.=.%.$.Y Y T O.#.+.O.O.+.+.+.O.O.O.Q Y R R K G J k j j l h h N d f f j k G H H H H K K G G k k l p i 5 : ; ; : a 5 5 4 : ; # + . .               . @ # : 5 p j k G H Y T T Q T ",
"v.s.a.a.f.g.a.a.a.a.a.-.=.=.+.O.$.T $.$.T T Y Y T +.-.g.j.,.+.Y G G Y O.+.;.-.a.a.a.a.f.s.a.s.a.a.a.s.s.l.l.l.l.l.l.l.l.l.l.l.l.b.l.l.z.b.b.z.z.z._.b.b.m.v.a.a.a.l.c.^.^./.[./././.(.z.l.l.l.l.s.l.z.^._.^.^.^.^././.^.'.f.O.T Y T +.-.s.^./././.^.^.^.^.^././././././././././././././././././.`./.^././.`./././././././././.[.[.[.{.[.[.[.`.c.a.=.-.a.v.l./.[.[.[.}././././.[.|.6X3X3X3X3X3X3X3X{.c.a.s.A.1.T T O.h.b.`.7X3X3X3X6X/.z.s.l._. X{.2X3X3X3X3X3X3X3X3X3X3X3X3X3X3X3X3X3X2X2X3X2X2X2X2X2X2X2X2X{.{.{.{.{.{.{.[.[.[.[.[.{.{..X[.(.z.s.l._./.[.|.[.{.[./.z.a.-.=.-.j.a.s.z./.}.}.[./.}./.[.[./.`.'.l.a.s.l.z.^.b.l.s.g.-.+.+.=.f.c.`././.^.^.^.z.^.^.^.z._._.z.z.z.z.z.z.z.z.z.z.z.z.z.z.l.l.l.l.l.l.a.a.s.x.v.l.l.l.s.-.-.=.-.-.g.g.,.+.E R K H W O.-.a.a.s.l.l.s.f.a.-.-.=.+.=.>.=.+.=.a.f.a.-.=.-.-.=.%.$.Y Y T O.@.&.*.+.+.+.+.+.O.O.Y H H G k ^ J m ' F n 4 : : 4 4 5 p j k G G H H H G G G G k z p i 5 : ; ; : a i 5 4 4 ; # @ .                   @ # : 7 p j G H H Y T T T T ",
"m.f.a.a.f.a.a.-.a.a.a.-.-.=.+.O.O.$.$.$.T T Y Y T +.-.g.g.,.+.Y G G Y O.+.=.-.a.a.a.f.f.x.s.s.a.a.a.s.l.x.x.l.l.l.l.l.l.l.l.l.l.b.l.l.z.b.b.z.z.z._.b.b.m.v.a.a.a.l.c.^.^./.[./././.(.z.l.l.l.l.s.l.z.^._.^.^.^.^.^./.^.'.k.O.T T E +.-.s.^.`.[././.^.^.^././././././././././././././././././././.^.^.^./././.^./././././.[.}.}.[.[.{.{.{.[.].c.a.=.-.a.n.l./.[.[.[.}././././.[.{.{.2X3X3X3X3X3X3X{.c.a.s.D.1.O.T O.h.b. X7X3X3X3X6X/.l.a.l._. X{.2X3X3X3X3X3X3X3X3X3X3X3X3X3X3X3X3X3X2X2X2X2X6X2X2X{.{.2X2X2X{.{.{.{.{.{.{.[.[.[.[.{.{..X X_.z.s.s._./.[.|.[.{.[.^.z.a.-.=.-.j.a.s.z./.}.}. X/.[./.[.[./.`.'.l.s.l.z.z.^.b.z.a.g.=.+.+.=.f.'.`././.^.^.^.z.^.^.^.z._._.z.z.z.z.z.z.z.z.z.z.z.z.c.l.l.l.l.s.s.s.a.a.s.x.l.l.l.s.f.-.=.=.-.d.g.g.-.+.T Y H H Y O.-.a.a.s.l.s.a.a.a.d.-.=.+.=.=.+.+.=.a.f.a.-.-.-.-.=.%.$.Y Y T $.O.@.*.%.+.+.+.+.+.*.T H K k ^ KXIXIXIXIXKXt # ; # ; : 9 p l z J G H G G G G G z z l i 5 4 ; ; : a i 5 9 8 , # @ .                   @ # : a p j G H H Y Y W W W ",
"n.s.a.a.a.a.a.a.a.a.a.-.=.=.+.O.$.$.O.T T Y Y Y T +.-.g.g.j.+.Y G G Y O.>.;.-.-.a.a.a.f.s.s.l.l.s.s.s.s.x.x.x.l.l.l.l.l.l.x.v.b.l.l.z.b.l.z.z.z.z.z.z.z.b.v.a.a.a.x.c.z./.}././././.^.z.l.x.v.x.s.l.z.^._.^.^.^./.^./.^.b.k.O.Y Y T +.-.l.(.XX}././.^.^.^././././././././././././././. X X/./././.^.^.^././././././././././.[.}.[.[.[.[.{.[.].c.a.-.-.g.f.l.^.}.[.[.[./././.}..X{.{.3X3X3X3X3X3X3X.Xc.a.s.A.1.O.T O.g._.`.{.3X3X3X6X).l.s.l._. X{.3X3X3X3X3X3X3X3X3X3X3X3X3X3X3X3X3X3X3X2X2X2X2X2X2X2X2X2X{.{.{.6X{.{.{.{.|.{.[.[.[.{.6X{..X].z.s.l._./.{.6X[.{.}.^.z.a.-.=.-.j.a.s.z.^./.[. X[./.[.[.[. X`._.l.a.s.z._._.b.l.a.a.-.=.+.=.n.b.^. X/.^.^.^.^.^.^.^.z.z.z.z.(.z.z.z.z.z.z.z.z.z.z.l.l.l.z.x.x.s.s.s.s.s.s.s.l.x.x.k.-.=.=.-.-.g.j.=.+.T Y H G Y O.:.f.s.s.l.l.s.a.a.-.-.=.+.+.=.+.+.=.g.f.f.a.-.-.-.=.>.%.Y Y $.$.T T T O.O.+.+.+.u.Y E H G Q.LXUXUXIXIXKXu + % % . + # ; 4 a v ' G G G G H G G k j j s 5 : ; ; : 5 i d 9 : ; $ @ .                   @ # : 7 p j J G H Y W W Y H ",
"v.s.a.a.a.a.a.a.a.a.a.-.=.=.+.O.$.$.O.O.T T Y Y T +.,.g.k.j.+.T G G Y O.%.;.-.-.a.a.a.f.s.s.l.l.a.a.a.s.l.l.l.s.s.l.l.l.l.l.v.b.z.b.b.b.l.l.z.z.z.z.z.z.m.v.a.a.a.x.z.z./.[././././.^.z.l.l.v.l.s.l.z.^._.^.^.^./.^./.^.b.f.+.T T T +.-.l.(.`.}././.^.^.^././././././././././././././. X/././././.^.^.^./././.^././.}.}.}.}.[.[.[.[.[.[.{.[.`.c.a.-.-.g.f.l.^.}.{.[.[./././.}.{.{.{.3X3X3X3X3X3X3X.Xc.a.s.A.1.O.Y O.a.b./.{.2X3X3X4X).l.a.l._. X{.3X3X3X3X3X3X3X3X6X3X3X3X3X3X3X3X3X3X3X2X2X{.{.2X2X2X2X{.{.{.{.6X{.{.{.{.{.{.[.[.[.{.6X{..X].z.s.l._./.{.|.[.[.}.).c.a.-.=.-.j.a.s.z.^./.[. X X/.[.[.[. X`.(.l.a.s.z._.^.(.l.s.a.-.=.+.=.B.b.^. X/.^.^.^.^.^.^.^.z.z.^.z._.z.z.z.z.z.z.z.z.z.l.z.l.l.l.s.s.l.l.l.s.s.s.s.l.l.x.k.-.=.=.-.-.g.g.=.+.T Y H G Y O.-.f.s.l.l.l.s.a.a.a.-.+.+.+.>.+.+.=.g.f.f.a.-.-.-.=.>.%.Y Y T $.T T T O.O.+.+.O.@.Y H K KXPXKXKXX., > $ .   .   o . @ # ; 4 a v J G G G K K G k k l f i 4 : : 8 a i 5 4 : 3 $ @ .                   . # : 5 p j J G H H ! ! H G ",
"v.a.a.a.a.a.-.-.a.a.a.-.=.=.+.O.$.T O.O.T T Y Y T +.-.g.k.j.+.Y G G Y O.%.=.-.a.a.a.a.a.a.s.l.l.s.s.a.s.s.s.s.a.s.l.l.l.l.l.l.l.b.b.l.l.l.l.z.z.z.z.z.z.m.v.a.a.a.x.l.z.^.}./././.^.z.z.l.l.x.l.l.l.z.^.^.^.^.^./.^././.b.f.O.T T T +.-.l.(.`./././.^.^.^./././././././././././././././././././.`././././././././././.}.}.}.}.[.}.[.[.[.{.[._.c.a.=.-.g.f.l.^.[.{.[.[./././.}.{.{.2X3X3X3X3X3X3X2X.Xc.a.s.A.1.O.Y O.a.b./.{.2X3X3X4X).l.a.l.(. X{.3X3X3X3X3X3X3X3X2X2X2X3X3X3X3X3X3X3X2X2X{.{.2X2X2X2X2X2X2X{.{.6X{.{.{.{.{.{.[.[.[.{.6X{..X].z.s.l._./.[.|.[.{.}.).c.a.-.=.,.k.a.s.z.^./.}. X[./.[.[.[. X/.b.l.s.l.z._.^.(.l.s.g.-.=.+.=.n.b./. X/./.^.^.^.^.^._.z.z.z.z.(._.^.z.z.z.z.z.z.z.l.z.l.l.s.s.s.s.l.l.l.s.s.s.s.l.f.f.-.=.=.-.-.a.g.=.+.T R H G Y O.-.a.s.s.l.l.s.f.a.a.-.+.+.;.>.>.+.=.a.f.f.a.-.-.a.-.>.%.Y Y T O.O.T T T O.O.O.$.~ K J ..KXKXZ : > . . = . O O X X o . @ # ; 8 a z G G G G G G k z x f a 4 : : 8 h a 5 4 8 3 * .                     . # : 7 p j J G H H P K G k ",
"n.a.-.-.-.-.-.-.-.a.-.-.=.+.+.O.T T T T T Y Y Y T O.=.g.j.,.+.Y G G Y O.>.;.-.a.a.a.a.a.a.a.l.l.s.s.a.a.s.s.a.a.s.s.l.l.l.l.l.l.b.v.l.l.l.l.l.z.z.b.z.l.v.f.a.-.a.x.c.z.`.[.[.}././.^.z.l.l.v.l.l.l.z._._.^.^.^./.^././.b.k.+.T &.O.+.-.l.].XX/././.^.^.^.^././././././././././././././././././.`./././././././././././.[.[././.}.[.[.[.[.}._.c.a.=.-.g.f.l.^.[..X{.[./././.}.{.{.2X3X3X3X3X3X3X2X[.c.a.s.A.1.O.T +.g.b.`.{.2X3X3X4X).l.a.l.(. X{.3X3X3X3X3X3X3X3X2X2X2X3X3X3X2X3X3X2X2X{.{.{.{.2X3X3X3X3X2X2X2X2X{.{.{.{.{.{.[.[.[.{.6X{. X].z.s.l._./.[.|.[.{.}.`.z.a.-.=.,.k.a.l.z././.}. X X[.[.[.[. X/.z.s.s.l.z._.^.(.l.s.k.-.=.+.-.n.b./. X/./.^.^.^.^.^.^._.z.z.z.(._._.z.z.z.z.z.z.z.l.l.l.l.l.l.s.s.s.l.l.s.s.s.s.s.s.g.-.=.=.-.-.a.g.=.+.T R H H Y O.-.a.a.s.l.l.l.s.a.-.-.+.+.;.<.<.+.=.a.f.f.a.-.-.a.-.>.%.Y Y T O.O.O.T T O.$.Q E ! G b X.o.w # > @ . = =       X X     . @ # > 4 v J G G G G G k k l l i 4 : : 4 N f 5 : : 3 * .                     . # : 5 p j z G G G J J k j ",
"f.a.-.-.-.-.-.-.-.-.-.-.=.=.+.O.T T T T T Y Y Y Y O.=.j.j.1.O.Y G G Y O.%.;.-.-.a.a.a.a.a.a.l.l.l.l.s.s.a.a.a.a.s.s.s.l.l.l.l.l.v.v.l.s.l.l.l.l.z.b.z.l.m.f.a.-.a.s.l.z.`././.}././._.z.l.x.v.l.l.l.z.^._.^._.^.`.^././.c.k.+.T $.O.+.-.z.].XX/././.^.^.^.^././././././././././././././././././././././././././././././.[.[.[.[.}.[.[.{.[.}._.c.a.=.=.g.f.l.^.[..X{.[./././.[.{.{.2X3X3X3X3X3X3X2X}.x.a.s.A.,.O.T O.g.b.`.{.2X3X3X6X).l.a.l.(. X{.2X3X3X3X3X3X3X2X{.2X2X3X2X2X2X3X2X2X{.{.{.{.{.2X3X3X3X3X3X3X2X2X2X{.{.{.{.{.{.{.[.2X2X{..X].z.s.l._./.[.{.[.[.}./.l.a.-.-.j.M.a.l.^./.}.}. X[.[.[.[.[. X/.z.l.s.l.z._.^.(.z.l.k.-.=.+.-.n.b./. X X/.^.^.^.^.^.^._.z.z.z._._.z.z.z.z.z.z.z.z.l.s.s.s.l.l.l.l.l.l.l.s.s.s.s.s.s.g.-.=.=.-.-.a.a.=.+.Q R H H W O.-.a.a.s.l.l.l.s.a.-.-.+.+.+.<.<.O.+.a.f.f.a.-.a.a.-.>.%.Y Y T O.O.O.O.O.O.Q E ! k j S Z 0 > + @ .     O X X X X         . @ # : v L L G G J J G k l x i 4 : : 4 Z h 7 4 ; ; $ .                     . + ; 5 p j k G G J z k j j ",
"k.a.-.-.-.-.-.-.-.-.-.=.=.+.+.O.O.Q Q T T Y H Y T O.=.j.Z.1.O.Y G G Y O.%.;.-.-.a.a.a.a.a.a.l.l.l.l.s.s.a.s.s.a.s.s.s.s.l.l.l.l.v.l.s.s.l.l.l.l.l.z.l.v.m.f.-.-.a.s.l.z.^././././.)._.z.l.l.v.v.l.l.z.^.^.^._.^.`.^././.c.k.O.T T O.+.-.l.).[./././.^.^.^.^.^./././././././././././././././././././././.`.`././.[.[././.[.[.[.[.[.[.[.[.[.}._.c.a.=.-.g.f.l.^.[.{.{.}./././.[.{.{.2X3X3X3X3X3X3X2X}.x.a.a.k.,.O.Y O.g.b.`.{.2X3X3X|.).l.a.l.(. X{.2X3X3X3X3X3X3X2X{.{.2X6X2X2X2X2X2X{.{.{.{.{.{.2X3X2X2X2X2X2X2X2X2X{.{.{.{.{.{.{.[.2X6X{..X].z.s.l._./.[.|.[.[.}./.z.a.-.-.j.J.a.l.z./.}.}.[.[.[.[.[.{.[./.z.l.s.l.z._.^._.z.s.f.-.=.+.-.f.z./. X X/.^.^.^.^.^.^._.z.z.b.b.z.z.z.z.z.z.z.z.z.l.l.s.s.s.s.l.x.x.l.s.s.s.s.s.s.f.g.-.=.=.-.-.a.g.=.+.E R H H Y O.-.a.s.s.l.l.l.s.a.-.-.+.+.+.>.>.O.+.a.s.f.a.a.a.a.-.>.%.Y Y T O.+.+.O.O.$.~ R U j i d 0 # * *   O X                       . @ ; f J L G G J J G z z x i 5 4 : 8 h h 9 : ; # @ .                     . + ; 4 i j k k k J k j j p ",
"k.a.-.-.:.:.-.-.-.-.-.=.=.=.+.O.$.Q O.T T Y H Y E O.=.Z.J.1.@.Y G G H O.%.;.-.-.a.a.a.a.a.s.l.l.l.s.s.a.s.s.s.s.s.s.s.s.l.l.l.l.l.s.s.s.l.l.l.l.l.z.l.x.m.f.-.-.a.s.l.z.`./././././._.z.l.l.v.l.l.l.z.^.^.^.^.^./.^./.^.b.k.O.T T O.=.a.l.`.[.[././.^.z.^.^.^././././././././././././././././././././././.`././././.[.[.[.[.[.[.[.[.{.[.[.}._.m.a.=.=.a.f.l.^.}.{.{.[./././.[.{.{.2X3X3X3X3X3X3X2X}.x.a.a.k.,.O.T O.g.b.`.{.2X2X3X|.).l.a.l.(. X{.3X3X3X3X3X3X3X3X{.{.6X6X2X{.2X{.{.{.{.{.{.{.{.{.2X2X2X2X2X2X2X{.2X{.{.{.{.{.{.{.[.2X6X{..X].z.s.l._./.[.|.[.[.}./.z.a.-.-.,.k.a.l.z./.}.}.[.[.[.[.[.{..X/.z.l.s.l.b._.`._.z.s.g.=.=.=.-.f.z./. X[./.^.^.^.^.^._.z.z.z.b.b.z.z.z.z.z.z.z.z.z.l.l.l.s.s.s.l.x.x.s.s.s.x.s.s.s.f.g.-.=.=.-.-.a.g.=.+.E R H H W O.-.f.s.l.l.l.s.f.a.:.-.+.+.+.+.+.O.+.a.s.f.a.a.a.a.-.>.%.Y Y T $.+.+.+.O.&.E ! U j i : ; # . . O   o o   X   X O         . . . # i k G k k G G k k z x i 5 4 4 8 d d 7 : # + @ .                     . @ ; 4 i j j k z z z j p p ",
"k.a.-.-.-.:.-.-.-.-.-.=.=.;.+.O.O.Q T T Y Y H H T O.=.j.A.1.O.Y G G H O.%.;.-.-.a.a.a.f.s.s.l.s.l.s.s.a.a.s.s.s.s.s.s.s.s.s.l.l.l.s.s.s.x.x.l.l.l.l.l.x.F.k.-.=.a.x.l.z.)././.}./.`.^.z.l.l.l.l.s.l.z.^.^.^.^._./.^./.^.b.k.O.T T O.=.a.z.`. X[./.^.^.z.^.^.^./././././././././././././././././.`././././.`././././.[.[.[.[.[.[.[.[.{.{.[.}.).m.a.=.-.a.f.l.^.[.[.{.[./././.[.|.{.2X3X3X3X3X3X3X2X Xx.-.a.Z.,.T T +.g.b.`..X6X3X2X|.).l.a.l.(. X{.3X3X3X3X3X3X3X3X{.2X6X4X2X{.2X{.{.{.{.{.{.{.{.2X2X2X2X2X2X2X{.{.{.{.{.{.{.{.{.{.[.2X6X{..X].z.s.l.(.[.[.|.[.[.[._.z.a.-.=.-.d.a.s.z./.}.[.[.[.}.[.[.{. X/.z.l.s.l.b._.`._.z.s.g.=.=.=.-.x.z.^. X/./.^._._.^.^.z.z.z.z.b.z.z.z.z.z.z.z.z.z.z.l.s.l.l.x.x.x.l.s.s.s.s.x.s.f.s.f.f.-.=.=.-.-.g.g.=.+.E R H H Y O.:.a.s.s.l.l.s.a.a.-.-.=.+.+.+.+.O.+.-.s.f.a.-.a.-.=.>.%.Y Y $.%.O.O.O.O.Q R P b 4 q ; @ & O o O o O o   X X         . . . . . # i l z k k G G k k k j i 5 : : 8 g 9 4 ; # + . .                     . @ # 4 i p j k k z l p p i ",
"n.a.-.-.-.-.-.-.=.=.=.=.+.+.+.O.T T T T T W Y Y T O.=.g.j.1.#.Y G G Y O.>.=.-.a.a.a.a.a.a.a.s.s.s.s.s.s.s.s.s.s.s.l.x.s.s.s.s.x.x.s.s.s.s.s.l.l.l.l.v.s.n.k.=.=.a.s.l.z.^./.`./.^.^.z.l.l.l.l.s.a.s.z.b._._.(._.^././.^.'.h.+.T T O.=.a.z.`.[././.^.z.z.^._./.^././././././././././././././././././././././././.[.[.[.[.[.[.[.[.[.[.[.[.{.[._.m.a.-.-.g.l.z./.[.[.[.[./././.[.7X{.3X3X3X3X3X3X2X6X}.x.-.g.Z.<.T Y O.h.'.`.{.{.2X{.}.(.l.a.l.`.XX|.3X3X3X3X3X3X3X3X2X2X6X6X2X2X{.2X2X2X2X{.{.2X2X2X2X2X2X2X2X2X{.{.{.{.{.{.{.[.[.[.[.[.{..X/.(.l.a.s.z.`.[.[.{.[. X`.c.a.-.-.:.j.a.l._.`. X[.[.[./.[.[.[.[.`.^.l.s.l.b._._._.c.f.-.-.-.-.a.x.c.^././.^.^.^.z.^.^.^.^.^.z.z.z.z.z.z.l.l.z.b.b.v.l.l.l.l.x.x.l.l.l.l.l.s.s.s.s.s.a.g.=.=.=.=.-.a.a.=.O.&.R H H H $.-.a.f.a.s.s.s.a.a.-.=.=.=.=.=.+.+.=.a.f.f.a.-.-.-.-.=.+.T T %.%.O.O.O.Q Q W L v 4 # @ .       o                           . . # 5 l j j k G k k k k j i 5 4 : 4 q 8 : # @ .                           . + ; 4 i l k k k j p i i ",
"n.a.a.a.a.-.a.-.-.:.;.=.;.;.#.+.O.T T T T W Y Y T O.=.g.g.1.#.Y G G Y O.>.=.-.a.a.a.a.a.s.s.s.s.s.s.s.s.s.s.s.s.s.l.s.s.a.a.s.s.l.s.a.s.s.s.l.l.l.l.l.s.f.k.=.=.a.s.l.z.^./.`./.^.^.z.l.l.l.l.s.a.s.l.z.b.b._.(.^././.^.'.h.+.T T O.+.a.z.`.[././.^.z.z.^._././././././././././././././././././././././.[./.[.[./.[.[.[.[.[.[.[.[.[.[.[.{.[.].m.a.-.-.g.l.b./.[.[.[.[./././.[.4X2X3X3X3X3X3X3X2X6X Xf.-.,.Z.<.T Y O.g.b.`.[.{.{.{.}.(.l.a.l.`.XX{.2X3X3X3X3X3X3X2X2X2X3X2X2X2X{.2X2X2X2X2X2X2X2X2X2X2X2X{.{.{.{.{.{.{.{.{.{.{.[.[.[.[.{..X/.'.l.a.s.^.`.[.[.[.[. X`.c.a.-.-.:.j.a.s._./. X[.[././.[.[.[.[.`.^.l.s.s.b._._._.v.a.-.:.-.-.a.x.b.^.^.^.^.^.^.^.z.z.^.^.^.^.z.z.z.z.z.l.l.l.x.x.l.l.l.l.l.l.x.l.l.l.s.s.s.s.s.s.s.f.g.=.=.=.=.-.g.a.=.O.@.R H H H O.;.a.f.a.s.x.x.f.a.-.-.=.=.=.=.+.+.=.a.f.k.d.:.:.-.-.=.+.T T %.%.O.T T T T W L v : + .       . O                           . . + 4 s l j k k k k k k j i 5 4 : 1 r 8 ; # . .                             @ # 4 i l k k k j p i 5 ",
"B.a.a.a.a.-.a.-.-.=.=.+.=.;.+.O.O.T T T Y W Y Y T O.=.g.g.-.+.Y G G Y O.>.=.-.a.a.a.a.f.s.s.s.s.s.s.s.s.s.s.s.s.s.s.s.s.a.a.s.s.l.s.a.s.l.l.l.l.l.l.l.s.f.k.=.-.a.s.l.z.^./.`.`./.(.z.l.l.l.v.l.a.s.l.z.b.b.^.^.^./././.'.k.+.T T T +.a.z.). X[.`.^.z.z.^._././././././././././././././././././././././././././././.[.[.[.[.[.[.[.[.[.[.{.[.(.m.a.-.-.g.l.b./.[.[.[.[./././.[.|.2X3X3X3X3X3X3X2X6XXXf.-.,.Z.<.T Y O.g.b.`.[.{.2X{.}.(.l.a.l.`. X{.2X2X3X3X3X3X3X2X2X2X2X2X2X2X2X2X2X2X2X2X2X2X2X2X2X2X{.{.{.{.{.{.{.{.{.|.{.{.[.[.{.[.{..X/.'.l.a.s.^.`.[.[.{.[. X`.c.a.-.-.:.k.a.s.b././.[.[././.[.[.[.[.`.^.l.s.s.z._._._.v.a.-.,.-.-.a.x.b.^.^.^.^.^.^.^.z.z.^.^.^.z.z.z.z.z.z.l.l.l.l.l.l.l.l.l.l.l.l.l.l.l.s.s.s.s.s.s.s.f.j.=.+.=.=.-.g.g.=.O.@.R H H H O.-.a.f.a.s.l.f.f.a.-.-.+.=.=.=.+.O.+.a.s.g.g.-.-.-.-.=.+.T T %.%.O.T T T T W L v : # .     o O .         . . .             . . # 5 p l j z k k G k k j i 4 4 : 1 r 0 ; + . .                             . # 4 a l k k k j p i 5 ",
"n.a.a.a.-.-.-.-.=.=.=.+.+.+.+.O.O.T T T Y W Y Y T O.=.g.g.-.+.Y G G Y O.>.=.-.a.a.a.f.f.f.s.s.s.s.s.s.s.s.s.s.s.s.s.s.s.a.a.a.s.l.s.a.s.s.l.l.l.l.l.l.s.f.k.=.-.a.s.z.z.^./.`.`.`.^.z.l.l.l.x.l.s.s.z.z.b.z.z.^.^./././.$Xk.+.T Y T +.a.z.). X[.`.^.z.z.z.^.^./././././././././././././././././.^.^././././././././.[.[.[.[.[.[.[.[.[.[.{.[._.m.a.-.-.g.l.b./.[.{.[.}./././.[.{.2X3X3X3X3X3X3X3X6XXXf.-.,.Z.<.T Y O.g._. X{.2X{.{.}.(.l.a.l.`. X{.2X2X3X3X3X3X3X2X{.2X2X2X2X2X2X2X2X2X2X2X2X2X2X2X2X2X{.2X{.{.{.{.{.{.{.{.{.{.[.[.{.[.{..X/.'.l.a.l._.`.[.{.{.[.XX].c.a.-.-.j.M.a.s.b./. X[.[.[.[.[.[.[.[./.z.l.l.l.z._.`._.c.a.j.,.-.a.a.c.(.^.^.^././.^.^.^.z.z.z.z.z.z.z.z.z.z.z.l.l.v.c.x.l.l.l.l.l.l.l.l.l.s.s.s.s.s.l.f.f.g.=.+.=.=.-.g.g.-.O.@.R H H H $.-.a.f.a.s.s.s.a.a.-.-.=.=.;.=.=.+.=.a.s.a.-.=.=.-.-.=.+.T T $.+.O.T O.T T W L v 4 # .                 o                   . . # 5 l l k J J k G k j p i 4 : : 1 r 3 ; + . .                             . # 8 a l k G k j p i 5 ",
"n.a.a.a.-.-.-.-.-.=.=.=.=.+.+.O.O.T T T T W Y Y T O.-.j.g.1.+.Y G G Y O.%.=.-.a.a.a.f.f.x.s.s.s.s.s.s.s.l.x.s.s.s.s.s.s.s.s.s.s.l.s.s.s.s.l.l.l.l.l.l.s.f.k.=.-.a.l.z.^.^./.`./.`./.z.z.z.c.x.l.s.l.z.b.b.z.^.^.^.`././.$Xk.+.T T T +.a.z.].XX[.`.^.z.z.z.^./.^././././././././././././././././.^.^./.^././././././././.[.[.[.[.[.[.[.{.{.[.`.c.a.-.-.a.l.b./.[.[.[.[./././.[.{.2X3X3X3X3X3X3X6X6XXXx.-.,.Z.<.T Y O.h._. X{.2X2X{.}.(.l.a.l.`. X{.2X2X2X3X3X8X3X2X2X2X2X2X2X2X2X2X2X2X2X2X2X2X2X2X2X2X2X2X{.{.{.{.{.{.{.{.{.{.[.[.{.{.{..X/.(.l.a.l._./..X{.{.[.XX].c.a.-.-.j.M.a.l._./. X[.[.[.}.[.[.{.[.`.z.l.x.l.z._.`.'.c.a.g.-.-.a.s.c._._.^.^./././.^.^.z.z.z.z.z.z.z.z.z.b.z.z.z.l.l.l.l.l.l.l.l.l.s.l.l.s.s.s.s.s.s.f.f.g.=.+.;.=.-.g.a.=.O.@.R H H H $.-.a.a.a.s.s.a.a.a.a.-.=.=.;.=.=.+.=.g.k.g.g.-.-.-.-.=.+.T T %.+.O.O.O.O.T W U b 4 # .                         o           . . # 5 l z k J G G G k j p i 4 : : 1 0 , # @ .                               . # : a l z G k k j i i ",
"B.f.a.a.a.-.a.-.-.=.=.=.;.+.+.+.O.T T T T W R Y T O.-.k.j.1.+.Y G G Y O.%.=.-.a.a.a.a.f.f.s.s.s.s.s.s.s.s.x.l.s.x.s.s.s.s.l.s.s.s.l.s.a.s.x.l.l.l.l.v.s.n.k.=.-.a.l.z.^.^./././.`.^.z.l.z.c.x.s.s.l.b.b.b.b._.^.^.`././.$Xk.+.T E T +.a.z.).XX}.`.^.z.z.z.^.^./././././././././././././././././././././././././././././.[.[.[.[.[.[.[.{.{.[.`.c.a.-.-.a.l.b./.[.[.[.[.[././.[.|.6X3X3X3X3X3X3X3X6X Xx.-.g.Z.<.T Y O.s._. X{.2X2X{..X(.l.a.l.`. X{.2X2X2X3X3X8X8X3X2X2X2X2X2X2X2X2X2X2X2X2X2X2X2X2X2X2X2X2X2X2X{.6X{.{.{.{.{.{.{.[.{.{.6X.X/.(.l.a.l.^. X.X{.{.{. X`.c.a.-.-.:.k.a.l._./. X[.[.[.[.[.[.{.[./.z.l.l.l.z._._._.v.a.g.-.-.a.s.b._.`.^././././.^.^.^.z.z.z.^.^.z.z.z.z.z.z.z.l.l.l.l.l.l.l.l.l.l.l.l.s.s.s.s.s.s.s.f.g.=.+.;.;.,.g.-.=.O.@.R H H H $.-.a.a.f.x.l.l.x.a.a.-.=.=.=.=.=.+.=.a.f.f.d.:.-.-.-.>.+.T T %.%.O.O.T T T Q U b 5 ; .     o o o o           o o           . @ # 5 l z k J G G G k l f i 4 : ; > 3 > + . .                               . + : 5 v k G G k j p i ",
"B.a.a.a.a.-.g.-.-.=.+.+.+.+.O.O.T T T T T W R Y T O.-.k.j.;.+.Y G G Y O.>.;.-.a.a.a.a.a.s.s.s.s.s.s.s.s.f.f.l.l.x.x.s.s.l.l.l.l.s.s.s.s.s.x.l.l.l.l.v.l.n.k.=.-.a.l.c.^././././.`.^.z.l.l.c.x.s.s.l.z.b.b.b.^.^.^././.^.'.h.+.T E O.+.-.z.`. X[.`.^.z.z.z.^.^./././././././././././././././././.`./././././././././././.[.[.[.[.[.[.[.[.{.[.`.m.-.-.-.a.l.b./.[.[.[.[.}././.[.|.6X3X3X3X3X3X3X3X6X Xx.-.g.j.;.T Y +.h._. X|.3X3X6X|.(.l.s.z.`.[.{.2X2X2X3X3X3X3X3X2X2X2X2X2X2X2X2X2X2X2X2X2X2X2X2X2X2X2X{.{.{.{.2X{.{.{.{.{.{.{.[.{.{.6X.X X(.l.a.l.^. X.X{.{.{. X`.c.a.=.=.:.j.a.s.b./. X[.[.[.}.[.[.{. X/.z.l.l.l.z._.^._.l.s.g.-.-.a.l.b.^./././././././.^.^.z.z.z.z.z.z.z.z.z.z.z.z.l.l.l.l.l.l.l.l.l.l.s.s.s.s.s.s.s.s.s.f.j.=.+.=.=.-.g.-.-.O.@.R H H H %.,.a.a.x.x.l.x.n.f.a.-.=.=.=.=.=.+.=.a.s.g.-.-.=.-.=.;.+.T T %.%.+.O.O.O.$.T ! ' i : @ . O o o o   . . . .   o o           . @ ; i b z z J G k G z l f 5 4 ; ; ; ; # @ .                                 . + : 5 l k G G k j p p ",
"n.a.a.a.a.-.g.-.-.=.=.=.;.+.O.O.T T T T Q Q R Y T O.-.j.j.;.O.Y G G Y O.>.=.-.a.a.a.a.a.a.a.s.s.s.s.s.s.f.f.x.l.x.x.s.s.l.x.l.l.s.s.s.a.s.x.l.l.l.l.v.l.n.k.=.-.a.l.c.(././././.`.^.z.l.l.c.x.s.s.l.z.z.b.^.^.^.^././.^.b.h.O.T E O.+.-.l.`.[.[.`.^.z.l.z.(._././././././././././././././././././././././././././././././.[.[.[.[.[.[.{.{.[.`.m.-.-.-.a.l.b./.[.[.[.[.}./.[.{.4X6X3X3X3X3X3X3X3X6X Xx.-.g.j.>.T T +.h._. X|.3X3X4X.X(.l.s.z.`..X{.2X2X2X3X3X3X3X3X3X2X2X2X2X2X2X2X2X2X2X2X2X2X2X2X2X2X2X{.{.{.{.{.{.[.[.{.{.{.[.[.{.{.3X6X X(.l.a.l.^. X.X{.{..X X`.c.a.-.-.:.j.a.s.b./. X[.[.[.}./.[.{. X/.z.l.l.v._._.^._.z.s.k.-.-.a.l.b._.^././././././.^.^.z.z.z.z.z.z.z.z.z.z.b.b.b.l.l.l.l.l.l.l.x.l.s.s.l.l.s.s.s.s.s.a.k.=.+.+.=.-.g.a.-.O.@.R H H H %.,.a.f.x.x.s.s.f.f.a.-.=.=.=.>.;.=.-.g.f.g.-.-.=.-.-.>.+.T T %.%.+.O.O.O.O.~ ! U h 4 # @ . o o   O . . . . . o o           . % ; i b L z J G k k z l f 5 4 ; ; ; # # @ .                             X     @ : 5 l k G G k j p p ",
"f.f.a.a.a.a.-.-.=.=.=.+.+.+.+.O.T T T T T W H H Y O.-.-.g.1.O.Y G G Y @.*.1.j.-.-.a.f.a.a.a.a.a.s.a.s.s.s.s.a.s.l.l.s.l.l.l.l.x.l.s.s.s.l.l.l.z.l.l.v.l.f.a.-.=.f.l.z.^./././././.^.z.z.z.z.x.l.s.l.z.b._._.z.^.^././.^.b.k.O.T E @.=.a.z.`./.}.`.^.z.l.z.^._.^././././././././././././././././././././././././././././.[.[.[.[.[.[.[.{.{.[._.m.a.-.-.g.l.z./.oX{.[.[././.}.[.{.2X3X3X3X3X3X3X8X6X[.x.-.g.Z.>.T Y +.s._. X|.3X3X2X.X].l.s.c.]. X{.2X2X3X6X3X3X3X2X2X2X2X2X2X2X2X2X2X2X2X2X2X2X2X2X2X2X2X2X2X{.{.{.{.[.{.{.{.{.{.{.{.2X{.6X/.(.l.a.l.`. X.X{.{.{. X`.c.a.-.-.j.k.a.s.z./. X[.[.[.}.}.[.[..X`.b.l.l.l.z._.^._.z.s.-.-.-.a.s.b._.^././. X/./.^.^.^.^.z.z.z.z.z.z.z.z.z.z.z.b.b.b.b.l.l.l.l.s.l.l.s.s.a.a.s.l.x.s.a.g.=.+.=.;.j.g.-.-.O.@.R H G H $.-.a.f.s.s.s.s.a.a.d.g.=.=.=.>.;.=.=.-.a.g.g.-.=.-.=.;.O.Y Y %.%.O.O.O.O.O.O.~ { b i : + . .         O O = O O o       . O @ + ; f k k k k G k k k z f 5 : ; ; ; > # @ .                                 . + : 5 p k G G k k j j ",
"f.f.a.a.a.a.a.-.=.=.=.+.+.+.+.O.T E T T T W H H Y O.=.g.j.:.O.Y G G Y @.+.;.-.-.a.a.f.f.f.f.s.a.a.a.a.a.a.a.a.s.s.s.s.s.s.s.s.s.l.l.s.s.l.l.l.z.z.l.v.x.f.a.-.-.f.l.z.^./././././.^.z.z.l.l.l.l.s.l.z.z._.^.z.^.^././.^.b.k.O.T E @.=.a.z.`./.[./.z.l.z.z.(._.^./././././././././././././././././././././././././.[.[.[.[.[.[.[.[.[.[.{.{.[._.c.a.-.-.g.l.z./.oX.X[.[././.}.[.{.2X3X3X3X3X3X3X3X6X[.x.-.g.Z.<.T T +.s._. X{.3X3X{.|.).l.a.l.`.[.{.2X2X2X3X3X3X3X2X2X2X2X2X2X2X2X2X2X2X2X2X2X2X2X2X2X2X{.2X2X{.{.{.[.[.{.{.{.{.[.{.{.2X{.6X/.'.l.a.l._. X.X{.{..X X`.c.a.-.-.j.j.a.s.z./. X[.[.[.}.}.[.[.[.`.b.l.l.l.z._.^.^.z.s.a.-.-.a.l.b._./././. X/./.^.^.^.^.^.^.z.z.z.z.z.z.z.z.z.b.b.b.v.l.l.l.l.s.s.l.s.a.a.a.a.s.s.s.a.g.=.+.=.=.j.g.-.-.O.@.R H G H $.,.a.f.f.l.l.s.a.a.g.-.=.=.;.,.;.=.=.a.a.f.d.-.-.-.=.;.+.Y T %.%.+.O.O.O.O.O.E ! J p 4 ; + @ O O O O   . O - y u u - .   . @ # 6 f k k k k k k k z l h i : ; ; ; ; # @ . .                               . + : 5 j G H H G G k j ",
"f.a.a.a.a.a.-.-.=.=.=.+.+.+.+.O.T E T T T Y H H T O.=.j.j.;.O.Y G G Y @.+.;.-.-.a.a.f.f.f.f.s.a.a.a.a.a.a.a.a.s.l.l.l.s.s.s.s.s.l.l.s.s.s.l.l.l.z.z.v.x.k.g.-.-.a.l.z.^./././.[./.^.z.z.z.l.l.l.l.l.b.b._._._.^.^././.^.m.k.O.T Y O.+.-.z.`./.[./.z.z.l.z.^._.^.^././././././././././././././././././././././.[.[.[.[.[.[.[.[.[.[.[.{.{.{.[._.x.-.-.-.g.l.z./.oXoX[.}././.[.[.{.6X3X3X3X3X3X3X6X8X.Xl.-.g.J.<.T T +.s._.[.{.3X3X2X|.^.l.a.l._. X{.2X2X2X2X2X3X3X2X2X2X2X2X3X3X3X2X2X3X3X3X3X3X2X2X2X2X{.{.2X{.{.{.{.{.[.{.{.[.[.[.{.2X{.6X/.].l.a.l._. X.X{.{..X X].c.a.-.-.:.j.a.s.z./. X[.[.[.}.}.[.[..X`.b.l.l.l.z.^.`._.z.s.g.-.-.a.s.b.`././././././.^.^.^.^.^.^.z.z.z.z.z.z.z.z.z.z.z.l.l.l.l.l.l.l.s.s.s.s.a.a.s.s.s.s.a.j.=.+.=.=.g.g.-.-.O.@.R H H H %.-.a.a.s.x.v.s.a.f.g.-.=.=.>.,.=.=.=.g.f.f.g.-.-.-.=.;.O.Y T %.0.+.+.+.+.O.O.T W ! z i : ; # @ % = O = - u u X.o.- = . . + # : 7 l k k k k k k k z l h 5 : ; ; > 3 > + .                                 . # : 5 j G H H H G k k ",
"f.a.a.-.a.-.-.-.=.=.=.+.+.+.+.O.T E T T Y Y K Y E O.=.j.j.;.O.Y G G Y @.+.;.-.-.a.a.a.a.a.a.a.a.a.a.a.a.a.s.s.s.x.x.l.s.l.l.l.l.l.l.s.l.l.l.l.z.b.b.b.v.k.g.-.=.a.l.z.^.^./. XXX`.^.^.z.z.l.l.l.l.l.b.^._._.(._.^././.^.m.k.O.T Y O.+.-.z.`.[.[.`.z.l.l.z.z.^.^./././.`.`./././././././././././././././././.[.[.[.[.[.[.[.[.[.[.[.[.{.{.{.[._.c.a.-.-.g.l.z./.oX.X[.[./././.[.{.6X3X3X3X3X3X3X3X3X{.l.-.g.A.<.T T +.s._.[.{.3X3X2X.X).l.s.l._. X{.2X2X2X2X2X3X3X3X3X3X3X3X3X3X3X3X3X3X3X3X3X3X2X2X2X{.{.{.2X{.{.{.{.[.[.{.{.[.[.[.{.{.{.7X/.].l.a.l.(. X.X{.{..X X`.c.a.-.-.:.j.a.s.z.`. X[.[.[.[./.[.[. X`.b.l.l.l.z.^.`._.z.a.g.g.-.a.s.b._././././././.^.^.^.^.^.^.^.z.z.z.z.z.z.z.z.l.l.l.l.l.l.l.l.l.l.s.s.l.s.s.s.s.l.s.a.j.=.+.=.=.-.g.-.=.O.@.Y H H Y *.-.a.a.s.l.v.s.a.f.a.-.=.=.1.1.=.+.-.f.f.f.g.-.-.-.=.+.O.Y Y %.<.+.+.+.+.O.O.O.E ~ U l 5 : # + @ . . . = * - * % . . @ # : 8 7 i l k k j k k k k z l h a 4 : ; 1 3 > # . .                               . # : i j G H H H H G k ",
"f.a.a.a.a.a.a.-.=.=.=.+.+.+.+.O.T E T T W Y K Y E O.=.j.j.;.O.Y G G Y @.+.=.-.-.a.a.a.a.a.a.a.s.s.a.a.a.s.f.f.s.s.s.l.l.l.l.v.v.s.l.s.l.l.l.l.z.b.b.b.x.v.g.-.=.a.l.z.^.^./. X X`.^.^.z.z.l.l.l.l.l.b._._.^._.(.^././.^.m.k.O.T Y O.+.-.z.`. X[./.z.l.l.l.z.^.^./././././././././././././././././././././.[.[.[.[.[.[.[.[.[.[.[.[.[.[.{.{.[._.c.a.-.-.g.l.z./.oX{.[.[./././.[.{.6X3X3X3X3X3X3X3X3X[.l.-.g.A.<.T T +.l.`. X{.3X3X2X.X).l.s.l._. X|.2X2X2X2X3X3X3X3X3X3X3X3X3X3X3X2X2X2X3X3X3X3X2X2X2X{.{.{.2X2X{.{.{.[.[.[.[.[.[.[.{.{.{.7X/.'.l.a.l._. X.X{.|.{. X].b.a.-.-.:.j.a.s.b./. X[.[.[.[./.[.[. X/.z.l.l.l.z.^.`._.z.s.g.-.-.-.s.c._.^./././././.^.^.^.^.^.^.^.z.z.z.z.b.b.z.z.l.l.l.l.l.l.l.l.l.l.s.s.l.l.s.s.s.s.s.f.g.=.+.+.=.-.a.-.=.+.&.R H H Y *.-.a.a.s.l.v.s.a.a.a.-.=.=.,.,.=.+.=.f.f.f.a.-.-.-.=.+.O.Y Y %.<.+.O.O.+.+.+.O.T E R G p 5 : ; # $ + @ @ + + @ . + # # ; 4 7 f v c z k k j k k z z l f 5 4 : : 3 0 > # @ .                               . # 4 i k G H Y Y R H G ",
"f.f.a.a.a.d.d.-.-.=.=.+.+.+.+.O.T T T T Y Y K H E O.=.d.j.1.O.Y G G Y E O.+.-.-.a.a.a.f.f.a.s.f.s.a.a.a.f.x.x.s.s.s.s.s.l.l.v.v.s.s.l.l.l.l.l.z.z.b.b.x.v.g.-.-.a.l.z.^./././.[.`.`.^.z.z.l.v.l.s.l.z._._._.z.^.^././.^.m.k.O.Y Y O.+.a.z.).[.[.`.z.l.l.l.z.^.^.^./././././././././././././././././././.[.[.[.[.[.[.[.[.[.[.[.[.{.[.[.{.{.[._.c.a.-.-.g.l.z./.oX{.[.[./././.[.|.{.3X3X3X3X3X3X3X3X[.l.-.g.k.>.T T =.v.`..X2X3X3X2X.X/.l.s.l.`. X|.2X2X2X2X3X3X3X3X3X3X3X3X3X3X3X2X2X3X3X3X3X3X3X2X2X{.{.{.2X{.{.{.{.[.[.[.[.[.[.}.{.{.{.oX/.'.l.a.s.^.`..X{.{.[. X`.c.a.-.-.:.j.a.s.z.`. X[.[.}.[././. X X/.z.s.l.l.z.^.`._.z.s.a.-.-.-.s.c.(.^././././.^.^.^.^.^.^.^.^.z.z.z.z.b.b.z.z.l.l.l.l.l.l.l.l.l.l.s.s.l.s.a.a.s.s.s.a.g.=.+.+.=.-.g.-.=.+.&.Y G H Y *.-.a.a.s.l.l.l.f.a.a.-.=.=.,.,.=.+.-.a.s.f.a.-.=.-.=.;.O.Y Y %.<.O.O.O.O.+.+.+.O.O.T H k i 4 : > @ . . @ + # # # # ; : 4 5 f b c z z k j j k k k z l f 5 4 : : 3 0 , # @ .                               . # 4 i z H Y Y Y W ! H ",
"f.f.a.a.a.d.g.-.-.=.=.+.=.+.+.O.T T T T Y Y H H Y O.=.-.j.1.#.Y G G Y E O.+.-.-.g.a.a.f.a.a.a.f.f.a.a.a.f.f.s.a.s.s.s.s.s.l.l.l.l.s.l.l.l.l.l.l.z.z.b.v.v.a.-.-.a.l.z.^././././.`.^.^.z.z.z.l.l.s.l.z.^._._.z.^.^././.^.m.k.O.Y Y O.+.-.b.).[.[.`.z.l.l.l.z.^.^././././././././././././././././././.[.[.[.[.[.[.[.[.[.[.{.{.{.{.[.[.[.{.{.[._.c.a.-.-.g.l.z./.oX[.[.[./././.[.|.{.3X3X3X3X3X3X3X3X{.l.-.g.A.<.O.T =.v.`. X2X3X3X2X|.).l.s.z.`.[.{.{.2X{.2X3X3X3X2X2X2X2X3X3X3X3X3X3X3X3X3X3X3X3X2X2X{.{.{.2X{.{.{.{.[.[.{.[.[.[.}.[.{.{..X/.'.s.a.s.z./..X{.{.[. X`.c.a.-.-.:.j.a.s.b.`. X[.[.}./././. X/./.z.s.l.l.z.^.`._.z.s.-.-.-.a.s.b._.^.^./././.^.^.^.^.^.^.^.^.z.z.z.z.b.b.z.z.z.z.z.z.l.l.l.l.l.l.s.s.l.s.s.a.s.s.s.a.g.=.=.=.=.-.g.a.=.+.2.R G H Y %.-.a.s.s.l.l.l.x.a.g.g.=.=.-.-.=.=.=.a.s.f.g.-.=.-.=.;.O.Y Y $.%.+.O.O.O.+.+.+.+.+.Q R G l a 7 , > > > > ; ; ; ; ; : 9 d x c G k z z k j j j k k k l f 5 4 : : 0 0 : # @ .                               . # 4 i k H Y Y T Q W P ",
"f.f.a.a.a.a.-.-.-.=.=.=.=.+.+.O.O.T T T Y W H Y Y O.=.-.j.i.#.Y G G R &.O.=.-.-.a.a.a.a.a.a.a.s.s.a.a.a.s.f.s.a.x.l.l.l.l.l.l.l.l.s.l.l.l.l.l.l.l.l.l.l.x.g.-.-.s.l.z._./././././.^.z.z.l.l.l.l.l.l.z._._._._.^.^.^./.^.m.k.O.Y T @.=.a.b.].[.}._.z.l.l.l.z.^.^./././././././././././././././././.[.[.[.[.[.[.[.[.[.[.{.{.{.{.{.[.[.[.[.[.[._.v.-.-.-.j.l.z./.oX[.[.}./././.[.{.{.3X3X3X3X3X3X6X3X{.l.-.g.A.1.O.T +.v.`..X2X3X3X2X|.).l.l.z.]..X{.{.{.{.2X3X3X3X2X2X2X2X2X2X2X2X3X3X3X3X3X3X3X3X2X2X2X{.{.2X{.{.{.{.[.[.{.{.{.[.[.{.{.{.oX/.'.s.a.s.z./.[.{.[.[./._.z.a.-.-.:.j.a.s.z.`.[.[.[.[./././.[./.^.z.s.l.l.z.^./._.z.l.-.-.-.a.s.c.(.^.^./././.^.^.^.^.^.^.^.^.z.z.^.z.(.b.z.z.z.z.b.b.c.l.l.l.l.l.l.l.x.l.s.s.s.s.s.f.j.=.=.=.=.-.k.g.=.+.2.R G H Y %.-.a.s.s.s.a.s.x.a.g.j.-.=.-.-.=.=.=.a.s.h.g.-.=.-.=.+.O.Y Y O.%.%.O.O.O.O.+.+.O.O.T Y H J m v n 7 6 4 4 4 4 9 q 9 h N v x L G G k k j j j j k k k l s 5 4 : : 0 0 : # @ .                             . @ # 4 i k H Y Y T T W H ",
"f.f.a.a.a.-.-.-.-.-.-.=.;.+.O.O.O.O.$.$.T T Y Y T +.-.j.A.1.O.Y G G Y Q +.=.-.-.-.-.-.a.a.a.a.a.s.s.s.s.s.l.l.l.s.s.l.l.l.l.l.l.l.l.l.l.l.l.l.l.z.z.z.x.f.a.-.=.a.l.z.^./.[./././.^.z.l.l.l.x.l.s.l.b.z.z.z.z.(.^././.^.m.g.O.T E O.+.a.z.].].`._.z.l.l.l.z.z.^.^.^././.`./././././././././././././././.[.[.[.[.[.[.[.[.[.{.{.[. X[.[.[.[.`.(.x.-.=.-.j.a.l.`.oX{.{.[./.^.^./.{.6X3X3X3X3X3X3X6X6X.Xl.-.g.j.;.O.T +.s._. X|.3X3X6X.X`.z.l.c.`.{.6X3X6X2X2X2X3X3X3X3X3X2X3X3X3X6X6X3X3X3X3X3X3X2X2X2X2X2X2X{.{.{.{.[.[.{.{.{.{.[.}.[.[.6X.X`.'.a.-.a.z./.[.{.{.[./.^.l.a.=.=.,.j.a.s.z.^./.[.[././././././.^.z.s.a.s.z._.^.^.z.s.-.=.-.-.a.m._.^.^././././.^.^._.^.^._.^._._._._.z.z.z.z.z.z.(._.l.l.l.l.l.l.l.s.l.l.s.s.s.f.s.f.j.=.+.=.-.-.a.g.-.+.u.Y Y H T <.:.a.a.s.l.v.l.a.s.g.-.=.=.;.-.=.=.-.g.h.g.a.=.=.=.=.;.O.Y Y O.+.O.O.O.O.O.O.O.O.O.T T Y H H G z z l j j j l z b l b L L J G G J k z z k k k k z l l s 5 4 : : 1 8 : ; + .                             . + ; 4 p c J H W Q Q T Y ",
"f.a.a.-.-.-.-.-.-.-.-.=.=.+.O.O.O.$.$.$.T T Y Y T +.-.g.j.1.O.Y G G R Q %.;.-.-.-.-.-.a.a.a.a.a.s.s.s.s.l.l.s.s.s.s.l.l.l.l.l.x.l.l.l.l.l.l.l.l.z.z.z.l.f.a.-.-.a.l.z.^./.[.[././.^.z.l.l.l.x.l.s.l.b.z.z.z.z.c.z.^.^.^.m.a.O.Y T O.=.a.v.].].`.^.z.l.l.l.z.^.^.^.^./././././././././././././././././.[.[.[.[.[.[.[./.[.[.[.[.[./. X[.[./.`.c.f.=.+.=.g.a.l.`.[.{.|.[.}././.[.|.2X3X3X3X3X3X2X2X6X Xl.-.g.j.+.T T +.s._. X|.3X3X6X.X`.z.l.c.`.{.6X3X6X2X2X3X3X3X3X3X2X2X2X3X3X3X3X3X3X3X3X3X3X2X2X2X{.{.2X{.{.{.{.[.[.[.[.{.{.[.}.[.[..X.X`.'.a.-.a.z.`.[.{.{.{.}.(.l.a.-.-.1.j.a.s.z.^./.[. X/.`././.[./.^.l.s.a.s.z._.`._.b.s.-.=.=.-.a.x.b.^.^./././.^.^.^.^.^.^.^._._.^._._.z.z.z.z.z.z.z.z.l.l.l.l.l.l.s.s.l.s.s.s.s.s.s.a.g.=.+.=.-.,.g.g.-.+.2.Y W H T +.:.a.a.s.l.l.l.s.g.g.-.=.=.;.-.;.+.=.g.h.h.-.=.=.=.=.%.O.T T O.+.O.O.O.O.O.O.O.O.O.T T T Y H H H H G G G G G G J G G G G G G G G k z k k k k k z j x f 5 : ; : 0 8 : ; + .               o             . # : 9 s z G H Y T Q T T ",
"f.a.a.-.-.-.-.-.-.-.-.=.+.+.O.O.O.O.$.$.Q T T E T +.-.a.j.;.O.Y G G R @.%.;.-.-.-.-.-.a.a.a.a.a.a.s.s.s.s.s.s.s.s.s.s.s.s.s.l.x.l.l.l.l.l.l.l.l.z.z.b.l.f.a.-.-.a.l.z.^./.[.[././.^.z.l.l.l.l.l.s.l.b.z.z.z.z.z.z.^.^.z.v.a.O.Y T O.=.a.l.).]./.^.z.l.l.l.z.^.^.^.^.^./././././././././././././.[.[.[.[.[.[.[.[.[.[./.[.[.[.[.[./.[.[.[./.).c.f.=.+.=.g.a.z./.[.{.{.[./././.[.oX2X3X3X3X3X3X2X{.6X Xl.-.j.j.+.T T +.s._. X{.2X3X3X.X`.z.l.z.`.[.{.2X{.2X2X3X3X3X2X2X2X2X2X2X2X2X2X2X3X3X3X2X2X2X{.{.{.{.{.{.{.[.{.[.[.[.[.[.[.[.[.[.{.|.[.`.'.a.a.a.b.`.{.{.{.{.}.).z.a.-.-.1.j.a.s.z./.}.}. X`.`././.[./.^.l.s.s.l.z.(.`._.b.s.-.;.=.=.a.x.b.^.^.^././.^.^.^.^.^._._.^.^.z._._.z.z.z.z.z.z.z.l.l.l.l.l.l.l.s.s.l.s.a.a.s.s.a.a.-.=.+.+.-.,.g.g.-.+.*.Y R Y T O.-.a.a.s.l.l.l.s.g.g.-.=.=.;.-.=.+.=.g.s.g.-.=.=.-.=.>.O.T T O.+.O.O.O.O.O.O.O.O.O.T T Y Y H H H H H H H H H H K G G G G G G k k k k k k k k k j p f h 7 : ; : 0 0 : ; + .                         X   . # : 7 s z G H Y T T T T ",
"s.a.a.a.-.-.-.d.-.-.-.=.=.+.O.O.T O.O.$.Q T W E T +.=.a.g.;.O.Y G G W @.%.;.-.-.a.-.-.a.a.a.a.a.a.s.s.s.s.s.s.l.s.s.s.s.s.s.l.l.l.l.l.l.l.l.l.l.z.z.b.l.f.a.-.-.a.l.z.^./.`. X/.`.^.z.l.l.l.x.l.s.l.z.z.z.z.z.z.z.^.^.^.v.a.O.Y T O.=.a.l.(.`./.^.z.l.l.l.z.^.^.^.^.^./././././././././././././.[.[.[.[.[.[.[.[.[.[.[.[.[.[.[.[. X[.[.[.[.).'.x.-.+.;.j.s.z.`.[.{.[.[./././.[.oX2X3X3X3X3X3X2X{.6X[.l.-.j.Z.+.T Y O.s.(. X{.2X2X6X|.`.z.l.z.`.[.{.{.{.{.{.2X3X3X2X2X2X2X2X2X2X2X2X2X2X2X3X2X2X2X{.{.{.{.{.{.{.[.{.{.[.[.[.[.[.[.[.[.[.{.[.`.'.a.a.a.b.`.{.{.{.{.}./.z.a.-.-.,.j.a.s.z.`./.}.[.[.`./.[.[./.^.l.a.f.s.z.(.`._.v.a.,.;.=.-.a.x.b.(.^./././.^.^.^.^.^.^.z.^.z.z.z.z.z.z.z.z.z.z.l.l.l.l.l.l.l.l.s.s.l.l.s.a.s.s.a.a.-.=.+.+.;.,.g.g.-.+.2.Y R H Y +.-.a.a.s.l.l.s.a.g.a.-.=.=.;.;.=.+.=.g.s.g.-.=.=.-.=.=.O.T T +.+.O.O.T T O.O.O.O.O.T T Y Y H H H H H H H H H H H P K G G G G G k k j k k k k j j p f h 5 : ; : 0 0 : ; + . .                           . # : 5 p j k H Y Y T T T ",
"f.a.a.a.a.-.-.d.-.-.-.-.=.+.O.O.T T O.O.Q T W E O.+.=.-.g.;.O.Y G G R @.%.;.-.-.a.a.-.a.a.a.a.a.a.s.s.l.l.l.l.l.l.l.l.s.s.s.l.l.l.l.x.x.l.l.l.l.z.z.b.x.f.a.-.-.a.l.z.^.^./././.`.).z.l.l.x.x.l.s.l.z.z.z.z.z.z.z.^.^.^.b.g.O.T T O.=.a.v.).`./.^.z.l.l.l.b._._./.^././././././././././././././.}.[.[.[.[./.[.[./././.[.[.[.[.[./.[.[.[.}.).'.x.=.=.1.j.s.z.`.{.{.{.[./././.[.|.2X3X3X3X3X3X2X{.6X Xs.-.j.Z.+.T Y O.g._.].{.2X2X6X|.).z.l.z.`.[.{.{.{.{.{.{.2X2X2X2X2X2X6X6X6X6X2X2X2X6X6X2X2X2X2X{.{.{.{.{.{.{.{.{.{.{.{.{.[.[.[.[.[.{.[.`.$Xa.a.a.b.`.[.{.{.[.}./.z.a.-.-.j.j.a.s.z.`././.`.`.`./.[.[.`.^.l.a.f.s.l.z._.b.l.a.-.;.=.=.a.x.c.(.^.^./.^.^.^.^.^.^.^.z.z.z.z.z.z.z.z.b._.b.z.z.l.l.l.l.l.l.l.s.s.l.s.s.s.s.s.a.a.-.=.+.+.;.-.-.a.=.+.r.R Y H Y +.-.a.a.s.s.s.s.a.a.a.-.=.=.;.;.=.+.=.g.h.g.-.=.=.-.-.+.O.T T +.+.O.T T T O.O.O.O.T T T Y Y H H H H H H H H H H G P K G G G G k k j j j j k j j j p p i 4 : ; : , 0 : ; + .                             . # : 5 i j k H H Y Y Y Y ",
"a.a.a.a.-.-.-.-.-.-.-.-.;.+.+.O.T T O.T T T W Y O.+.-.a.j.1.O.Y G G Y Q %.=.-.-.-.-.-.a.a.a.a.a.a.s.s.l.l.l.l.l.l.l.l.l.l.l.l.x.l.l.l.x.l.l.l.l.z.z.b.x.f.a.-.-.a.l.c.^././././.`.).z.l.l.l.x.l.s.l.z.z.b.(.z.z.^././.^.c.g.O.T T O.+.a.z.`.`./.^.z.l.l.l.b._.^.`./././././././././././././././.}.[.}.[.[./.[.[././.[.[.[.[.[.[././.[././.`.b.f.=.+.1.j.a.l./.{.{.{.[././.`.[.{.{.3X3X3X3X2X{.{.6X Xs.-.j.H.%.T Y O.g.b.].[.{.2X2X{.).z.l.l.`. X[.{.[.[.[.{.{.{.2X2X2X6X6X3X6X6X2X2X2X2X2X2X2X{.{.{.{.{.{.{.{.{.{.{.{.{.{.{.{.[.[.{.{.{.[.`.-Xa.a.a.b.`.[.{.{.{.[.).z.a.-.-.j.k.a.s.z.^./././.`././.[.[./.^.l.a.a.a.l.z.b.c.l.a.=.+.=.=.a.x.b.z.^.^.^.^.^.^.z.z.^.^._.z.z.z.^.^.z.z._._.b.z.z.z.l.l.l.l.l.l.s.s.l.l.s.s.s.s.f.f.-.+.+.+.;.-.-.-.=.+.r.R H H Y *.-.a.f.s.s.s.s.a.a.-.-.=.=.;.;.=.+.-.s.h.h.-.=.=.-.=.+.O.T T +.+.O.T T T O.O.O.O.T T T Y Y H H H H H Y R Y H H H K G G k k k k k j j j j j j j j p p i 4 : ; ; , 0 : ; + .                             . # : 5 i j k G H Y Y Y Y ",
"a.a.a.a.a.-.-.-.-.a.-.-.;.+.+.O.T T T T T Y Y Y O.+.-.a.j.1.O.Y G G Y Q +.=.=.-.-.-.-.a.a.a.a.a.a.s.s.s.l.l.l.l.l.l.l.l.l.l.l.l.s.s.s.l.l.l.l.z.z.z.c.x.f.a.-.-.f.x.(._.^./././.`.`.z.l.l.l.l.s.s.l.b.^._._.b.z.^././.^.c.g.+.T T O.+.a.b.]. X`._.z.l.l.z.^._.^.`././.^././././././././././././.[.[././././././.[.[.[.[.[.[.[.[././.[././.^.z.f.=.+.;.j.a.l./.{.{.{.[./.^.^.`.[.{.2X3X3X3X2X{.{.6X[.s.-.j.H.+.Y Y O.g.b.).[.{.2X2X{.).z.s.l._. X[.{.[.[.[.[.{.{.{.{.2X2X6X6X6X2X2X2X{.2X{.{.2X2X{.{.{.{.{.{.{.{.{.{.[.[.{.{.[.[.[.|.{.{.[.`.-Xa.a.a.b.`.{.{.{.{.|.).^.s.-.-.j.M.a.s.z.^././././././.[.[.[.^.l.a.a.a.l.z.b.c.s.a.=.+.=.=.a.x.c.z.^.^.^.^.^.^.^.z.z.z._._.^.z.z.z.z.z.z.z.z.z.z.l.l.l.l.l.l.l.s.s.s.s.a.a.s.s.f.f.-.+.O.+.;.-.-.g.=.O.3.H H H Y *.-.a.f.s.s.s.a.a.a.-.-.=.=.=.=.=.=.-.h.k.h.a.=.=.-.=.+.O.T T +.+.O.O.O.O.O.O.O.T T T Y Y Y H H H H H H H H H H G k k k k k j j j j j j j j j j j p f a 4 : ; ; , 0 : ; + .                             @ ; : 5 i j k K H Y Y Y Y ",
"s.a.f.f.d.-.-.-.g.a.-.-.=.+.+.O.T T T T T Y Y Y T +.=.a.j.;.O.Y k G Y Q +.=.=.-.-.-.-.a.a.a.a.a.a.a.s.s.l.l.l.l.s.s.l.l.s.s.s.s.s.s.l.l.l.l.l.z.z.z.c.x.f.a.-.-.f.x.(.(.^.^././.`.^.z.l.l.l.l.s.l.l.b._._.(.b.z.^././.^.c.g.O.T T O.+.a.b.]. X`._.z.l.l.z.(.^.^.`././.^././././././././././././././././././././.[.[.[.[.[.[.[.[./.[.[././.^.z.f.-.+.=.g.a.z.`.{.{.[./.^.^.^./.[.{.2X3X3X3X2X{.{..X}.f.-.j.H.+.Y Y O.a.b.).[.{.2X{.{.).z.s.l._.XX[.[.[.[.[.[.[.{.{.{.2X2X2X2X2X2X6X2X2X{.{.{.2X{.{.{.{.{.{.{.{.{.{.{.[.[.[.{.[.[.[.|.{.{.[.`.;Xa.-.a.b.`.{.{.{.{.[.}.z.s.a.-.j.k.a.s.z.^./././././.[.[.[. X^.l.a.a.a.l.z.b.c.s.a.=.+.=.=.a.x.c.b._.^.^.^.^.(.^.^.z.z.z.z.z.z.z.z.z.z.z.z.z.z.l.l.l.l.l.l.l.l.l.s.s.a.a.a.s.s.f.f.=.+.O.+.;.:.g.j.;.O.~ H H H Y *.-.a.f.s.s.a.a.f.a.-.=.=.=.=.-.=.=.-.h.h.h.a.-.=.-.=.+.O.T O.+.+.O.T T T O.T T T T Y Y Y Y H H H H H H H H H G G k k k j j p j j j j j j j j j j p h h 7 : ; ; 0 0 : ; + .                           . @ ; 4 5 i j k K H H H Y Y ",
"a.a.a.a.g.-.-.-.a.g.g.-.;.=.+.O.T T T T T Y Y Y O.+.=.a.j.1.O.Y G G H T O.;.,.-.a.a.a.a.a.a.a.a.s.s.s.l.s.s.l.l.l.l.l.l.l.l.l.l.a.s.l.x.l.l.l.z.b.z.z.x.f.a.-.-.f.l.c._.^./././.`.^.z.l.l.l.l.s.s.l.b.(._.z.z.z.^.^.^._.'.g.O.T Q O.=.a.b.`.`.`.^.z.l.l.z.z.^.^.^.^.^./././././././././././././././././.[./.[./.[.[.[.[.[.[.[.[.[././././.`.c.x.=.+.-.j.s.z.`.[.{.[./.^.z.^./.[.{.2X3X3X2X2X{..X{.`.a.=.j.1.+.Y Y O.g.b.`.[.{.2X2X|.).z.s.l.(.`. X[.[.[.[.[.[.{.{.{.{.{.{.{.{.{.6X{.{.{.{.{.{.{.{.{.{.{.|.{.{.{.[.[.{.[.[.[.[.[.[.[.{.|..X`.c.a.-.s.(.`.{.{.{.{.[./.z.s.a.-.j.M.a.s.z.^./././././.[.[.[. X^.l.a.a.a.l.l.b.c.s.a.;.+.+.=.a.n.c.z.^.^.^.^.^.^.^.^.z.z._._._.z.z.z.z.z.z.z.z.z.z.z.l.l.l.l.l.l.l.s.s.s.s.x.x.s.a.a.=.O.O.+.;.1.,.,.=.O.3.H H G Y O.-.a.a.a.s.s.a.a.a.-.=.+.=.;.-.=.=.-.s.s.s.-.-.=.-.,.>.O.T O.+.+.O.O.T O.T T T T T Y Y Y Y H H K H H H H H H G k k k j j p p p p p p p j j p p j p a a 4 : ; ; : 8 : ; # .                           . @ ; 4 5 p j G G H H H Y H ",
"a.a.a.a.-.-.-.-.-.-.-.-.=.+.O.O.T T T T T Y H Y T +.-.a.j.1.O.Y G G Y E O.=.-.-.a.a.a.a.a.a.a.a.s.s.s.s.s.s.l.l.l.l.l.l.l.l.l.l.s.l.x.x.x.l.l.z.z.z.l.x.f.a.-.-.f.l.b.(.^./././.`._.z.l.l.x.x.s.l.l.b.(._.z.z.z.^.^./.^.'.g.O.T Q O.+.a.b.`. X`.^.z.l.l.z.^.^.^.^.^.^././././././././././././././././././././././././.[.[.[.[././././.[./.`.z.f.=.+.-.j.a.z.`.[.[.[./.^.^.^.`. X{.2X3X3X2X{.{.|.{.`.f.=.j.1.+.Y Y O.a.b.`.[.{.2X2XoX).z.l.c.(.`..X[.[.[.[.[.{.{.{.{.{.{.{.{.{.{.{.{.{.{.{.{.{.{.{.{.{.{.{.{.{.[.[.[.[.[.[.[.[.[.}.[.{.|. X].c.s.-.s.(.`.{.{.{.{.{./.z.s.-.-.j.M.a.s.z.^./././././.[.[.[. X^.l.a.a.a.l.l.b.c.s.a.;.+.+.=.a.x.c.(.^.^.^.^.^.^.^.z.z.z.z._._._.z.z.z.z.z.z.z.z.z.z.l.l.l.l.l.l.l.s.l.s.a.f.x.s.a.f.=.+.O.+.;.1.-.-.=.O.&.H H G Y +.-.a.a.a.s.a.a.a.-.-.=.+.=.;.-.=.=.-.s.s.s.-.-.=.-.,.>.O.T O.+.+.O.T T O.T T T T T Y Y Y Y H H H H G G G G G k k k j j p p p p p j p p j j p p j s f d 4 : ; ; : 8 4 : # @ .                       . . # : 8 a f k k G H H Y Y Y ",
"a.a.a.-.-.-.-.-.-.-.-.-.=.+.O.T Y T T T Q W Y Y T O.-.g.j.;.O.Y G G W &.O.+.-.-.-.a.a.a.a.a.a.a.s.s.s.s.s.s.l.l.l.l.l.l.l.l.l.l.s.l.x.v.x.l.l.z.z.l.l.x.f.a.-.-.a.l.c.^.^.^././.`._.z.l.v.x.v.x.l.l.(.^._.^.z.z.^.^./.^.m.g.O.T Q O.=.a.b.`.[./.^.z.l.l.l.^.^.^./.^././././././././././././././././././././././././././.[.[.[./././.[.[.}.`.z.f.=.+.-.j.a.z.`.[.[.}./.^.z.^.`. X{.{.3X3X2X{.{.{.{.[.f.=.j.H.+.Y Y O.g.b.].[.{.2X6X7X].z.l.c.]. X.X[.[.[.[.[.{.{.[.{.{.{.{.{.{.{.{.{.{.{.{.{.{.[.{.{.[.{.{.{.{.[.[.[.[.[.{.[.{.[.[.[.[.{..X`.c.a.-.s.(.`.{.{.{.{.{./.z.s.-.-.j.k.a.s.z.^./.}./.[./.[.[.[. X/.l.a.a.a.c.z.b.'.l.a.=.+.=.-.a.l.b.(.^.^.^.^.^.^.^.z.z.z.z.z.z.z.b.z.z.z.z.z.z.z.z.z.l.l.l.l.l.l.l.s.l.s.a.s.f.s.a.f.=.+.O.+.;.1.-.-.=.O.&.H H G Y *.-.f.f.a.s.a.a.a.-.-.=.+.=.;.-.=.=.-.s.f.f.a.-.=.-.-.;.O.T T +.;.O.T T O.T T T T Y Y Y Y Y H H H G G G G G G k k k j j p p p f p l p p p j j j j f h d 5 : ; ; : 8 8 : # @ . .                   . . + # : 7 a j j k G H H Y Y Y ",
"f.a.a.a.-.-.-.-.-.-.-.=.=.+.O.O.Y Y T T Q W Y Y T +.-.g.j.1.O.Y G G W &.+.=.-.-.-.-.a.a.a.a.a.s.l.l.l.l.s.s.l.s.l.s.l.l.l.l.l.l.s.l.x.x.l.l.l.l.z.l.l.x.v.a.-.-.a.l.l.b.^.^././._.z.z.l.l.x.v.x.l.l.(.^._.^.z.z.^.^./.^.m.g.O.T T O.=.a.b.`.[./.^.z.l.l.z.z.^.^.^.^././././././././././././././././././././././././././.[.[.[./././.[.[.}./.z.f.-.+.;.j.a.z.`..X[.[./.^.z.z./.[.{.{.3X3X3X{.{.{.{.[.f.-.j.j.+.T Y O.g.b.].[.{.2X6X7XXXz.l.c.]. X X X/./.`.[.[.[.[.{.{.{.{.{.{.{.[.[.[.{.{.{.{.[.{.{.{.[.{.{.{.{.[.[.[.[.{.{.{.{.[.[.[.{. X`.c.a.-.a.b.`.{.{.{.{.{./.z.a.-.-.d.k.a.l.z././.[. X X X[.[.[.[./.z.s.a.s.c.z._.'.l.a.=.=.=.=.a.l.c.^.^.^.^.^.^.^.^.z.z.z.z.z.z.z.z.z.z.z.z.z.z.z.z.z.l.l.l.l.l.x.x.l.s.s.a.s.s.a.a.f.-.+.O.+.;.1.-.-.=.O.&.H H G Y *.d.f.f.s.s.a.a.a.-.-.=.+.=.;.-.=.+.-.s.l.s.-.-.=.-.-.;.+.T T +.<.O.T T O.T T Y Y Y Y Y Y H H H H H G G G G G k k k j j j j j l j l p p p j j j j l h d 5 : ; : 8 7 4 : ; + .   .                 . @ + ; : 5 s j k G G H H Y Y Y ",
"f.a.-.-.-.-.=.-.-.-.-.=.=.+.O.T Y Y T T Q W Y Y O.+.-.g.j.1.O.Y G G Y &.%.;.-.=.-.-.a.a.a.a.a.a.l.l.l.l.l.l.l.l.l.l.l.l.l.l.l.l.s.l.l.l.l.l.l.l.l.l.l.x.v.a.-.-.a.s.l.z.^.^././.^.z.l.l.l.x.x.x.l.l.z.^._.^.z.^.^././._.m.g.O.T T O.=.a.b.`.`./.^.z.l.l.z.(.^.^./.^././././././././././././././././././././././././././.[.[.[.[././.[.[./.`.z.f.-.+.;.j.a.z.`..X[.[./.^.z.z.^.[.{.{.3X3X2X{.{.{.{.[.s.-.j.Z.+.T Y O.g.b.].{.{.2X3X7XXX^.l.c.]. X[.[././.`.[.[.[.[.[.{.{.{.{.[.[.[.[.[.[.{.{.{.[.{.[.[.[.[.[.{.[.[.[.[.[.[.{.{.[.[.[.{.{. X].'.a.-.a.b.`.{.{.{.{..X`.z.a.-.-.j.k.a.l.^./.[.[..X[. X[.[.[.[./.z.l.a.s.b.z._.'.l.a.,.=.=.-.a.x.b.z.^.^./.^.^.^.^.^.z.z.z.z.z.z.z.z.z.z.z.z.z.z.z.z.l.l.l.l.l.x.x.s.l.s.a.s.s.s.a.f.-.+.O.+.;.1.a.-.=.O.&.H H G Y *.d.f.f.s.s.a.a.a.-.=.=.+.=.=.-.=.+.-.a.l.s.a.-.=.-.-.;.+.T T +.<.O.O.T O.O.T Y Y Y Y Y Y H H H H H H H H H H G G k k j j j j l l l p p p j j j j l f a 5 : : : 8 7 5 4 ; # @ . .                 . + # ; 4 5 p j z G H H H Y Y Y ",
"f.a.-.-.=.=.=.-.=.=.=.=.+.O.O.T Y Y T T Q W H Y @.+.=.g.A.1.O.Y G G Y @.%.>.,.=.-.-.a.a.a.a.a.a.s.l.l.l.l.l.l.l.l.l.l.l.l.l.l.l.l.l.l.l.l.l.l.l.z.l.z.x.n.a.-.-.a.l.l.z.^.^././.^.z.l.l.l.l.s.s.s.l.z.^._.^.^.^.^././.^.m.a.O.T T O.=.a.b.`.[./.^.z.l.l.z.(.^././.^./././././././././././././././././././././././././.[.[.[.[.[././.[.[.[./.z.f.-.+.=.d.a.l.`..X[.[.`.^.z.z./.[.[.{.3X3X2X{.{.{.{.[.s.-.j.j.+.T Y O.g._.`.{.{.2X3X6X X^.l.b.`. X.X[. X/.[. X[.[.[.[.{.{.{.{.[.{.[.[.[.[.{.{.{.[.[.[.[.[.[.[.[.[.[.[.[.[.[.[.[.[.|.[.{.{..X&X$Xf.-.a.b.`.{.{.{.{..X`.z.a.-.-.:.k.a.l.^.`.[.[..X[.[.[.{.[.[./.z.l.s.s._._._.'.l.a.j.=.=.-.f.m.'.^.^././././.^.^.^.z.z.z.z.z.z.z.z.z.z.z.z.z.z.z.l.l.l.l.s.s.l.l.s.x.s.s.x.x.s.s.f.-.+.+.+.;.1.-.-.=.O.&.H H H Y %.g.f.f.s.s.a.a.a.-.=.=.+.=.;.-.=.=.-.a.l.s.a.-.-.-.-.;.+.T T +.;.+.O.T T O.T T Y W Y Y Y H H H H H H H H H H G G G k k k k k z k j p p j j j j j p f a 5 4 : : 8 7 5 4 ; # + . .               . @ # # ; 4 a p j k G H H Y Y Y Y ",
"g.-.-.=.=.=.=.-.=.=.=.=.+.O.O.T Y Y T T W Y H H T +.-.g.j.1.O.Y G G R @.+.;.,.-.-.a.a.a.a.a.a.a.s.s.s.l.l.l.l.l.l.l.l.l.l.l.l.l.v.l.l.l.l.l.l.l.z.z.z.x.n.a.-.=.f.l.l.z.^.^././.`.z.z.l.l.l.s.s.s.l.z.^._.^.(.(./././.^.m.a.O.T T O.=.a.b.`. X/.^.z.l.l.z.(.^././.^.^./././././././././././././././././././././././././.[.[.[./. X/.[.[./.`.b.f.-.=.=.d.a.z.`..X[.[./.^.z.z.`. X[.{.2X2X2X{.{.{.{.[.s.-.g.1.+.T Y O.s._.XX{.2X2X3X6X}.^.z.b.`. X.X[. X/.[.XX[.[.[.[.[.[.[.[.{.{.{.{.[.[.{.{.[.[.[.[.[.[.{.{.[.[.[.[.[.[.[.[.[.[.}.[.{.{. X].$Xa.-.a.z.XX.X{.{.{.}.).z.a.-.-.:.k.a.l.^.`.[.[..X[.[.[.{.[.[./.z.l.s.s._.^._.'.l.a.,.=.=.-.f.m._._./././././.^.^.^.z.z.z.z.z.z.z.z.z.z.z.z.z.z.l.l.l.l.l.s.s.l.s.s.l.s.a.f.x.s.s.f.-.+.+.+.1.,.g.-.=.O.&.Y Y H Y +.-.a.f.s.s.f.f.a.-.=.=.+.=.=.-.=.=.-.a.l.s.a.-.-.-.-.;.O.T O.+.+.+.O.T T O.T T Y T Y Y Y H H H H H H H H H H H G G G k k k k c z j p j j j j j j j f f 5 4 : : 4 7 5 4 : # + % . . . .         . + # ; : 4 a p j k G H H Y Y Y Y ",
"d.-.-.-.=.=.-.-.-.-.;.;.;.+.O.T Y Y T T W Y H Y T +.-.g.j.1.O.Y G G W &.O.+.,.-.-.a.a.a.a.a.a.a.a.s.s.s.s.s.l.l.l.l.l.l.l.l.l.l.l.l.l.l.l.l.l.l.z.z.b.c.n.a.-.-.f.l.c.z.^.^././.`.^.z.l.l.x.l.s.s.l.z.^._._.(.(./././.^.c.a.O.T T O.=.a.b.`.`./.^.z.l.l.z.(._././.^.^.^./././././././././././././././././././././././.[.[.[.[./. X/./././.`.c.x.-.=.=.g.a.z.`..X[././.^.z.^.`. X{.{.2X2X2X{.{.{.[.[.l.-.g.,.+.T Y +.s._. X{.2X2X2X6X X^.z.(.]. X[.[.[.[.[.[.[.[.[.[.[.[.[.[.{.{.|.{.{.[.{.{.{.[.[.[.[.{.|.|.{.{.{.[.[.[.[.[.[.[.[.[.{.[./.`.m.a.-.a.z.XX.X{.{.{..X).z.a.-.-.d.k.a.l._./.[.[.[.[.[.[.[.[. X/.z.l.s.l._.^.`.`.l.a.-.=.=.-.a.l.b._./././././.^.^.^.^.z.z.z.z.z.z.z.z.z.z.z.z.l.l.l.l.l.l.s.l.l.l.s.s.a.a.s.f.a.a.a.-.+.+.+.1.:.g.-.=.O.&.Y K H T %.-.a.s.s.f.f.f.a.-.-.=.+.=.-.-.=.=.-.a.f.f.a.-.-.-.g.;.O.T O.=.+.*.O.T T O.Q T T T Y Y R Y H H H Y Y Y Y Y K H H G G G k k k G z j p j j k j j j l x h 5 4 : : : 9 9 4 : ; # # % . . .     . . . + # ; : 5 i p j k G H Y W T W W ",
"-.-.:.-.-.-.-.-.-.-.=.=.+.O.O.T Y Y T Q Q W Y Y T +.-.k.A.1.O.Y G G Y E +.=.-.-.-.-.-.-.a.a.a.a.a.a.a.a.s.s.l.l.l.l.l.l.l.l.l.l.l.l.l.l.l.l.z.z.z.z.b.b.x.s.a.a.s.l.b.^.^././.`.].^.l.l.l.x.l.s.l.l.z.^././.^.^./././.^.m.-.T Y T O.=.a.b.].)./.^.z.l.l.l.z.^.^.^.^.^.^./././././././././././././././././././.[.[././.[. X X[.[././.[.[. X].(.x.-.+.=.j.f.l.`..X[././.^.^././.[.{.{.{.{.{.{.{.[.{. Xl.a.f.Z.@.Y Y +.s.`. X{.6X6X{.{.}./.^./.[.[.[.[.{.{.{.{.{.[.[.[.[.[.[.[.[.[.[.[.[.[.[.[.[.[.[.[.[.[.{.{.[.[.[.[.[.[.[.[.[.[.[.[.{.[. X].c.s.-.a.b.`.[.{.{.[.}.].l.a.-.-.j.k.a.l.^./.[.[. X X X X[.{.[./.z.l.l.l.^.^.^.'.l.a.-.=.=.-.s.c.b.^.^./././.^.^.^.^.^.^.^.z.z.z.z.z.z.z.l.l.l.l.l.l.x.x.s.s.s.s.l.l.s.s.s.s.f.f.a.a.=.+.+.+.=.:.-.-.+.T ~ G K H Y ;.g.a.a.a.s.a.a.a.a.a.-.=.=.-.,.=.=.-.g.h.s.a.-.-.-.=.=.+.O.+.+.+.O.O.O.T T T T Q T Y Y Y H H H H H Y Y Y K K G G G G k k k k G k k j k k k k k z b x f 5 4 : : 8 4 4 : : > ; ; ; # @ .     . @ # # # ; : 9 i p j G G H Y Y Y Y Y ",
":.;.-.-.-.-.-.-.-.-.=.=.+.+.O.O.Y Y T T Q Y Y Y T O.-.g.Z.1.$.H G G Y E +.=.-.-.-.-.-.-.a.a.a.a.a.a.a.a.s.s.l.l.l.l.s.l.l.l.l.l.l.l.l.l.l.l.z.z.z.z._.b.c.s.a.a.s.l.z.^.^././.`.`.^.z.l.l.x.l.s.l.l.z.^./././.^./././.^.m.-.T Y T O.=.a.b.).).^.z.l.s.s.l.z.^.^.^.^.^.^./././././././././././././././.[.[.[.[.[.[.[.[.[. X[.[.[././.[.[./.].(.x.-.=.;.j.s.l.`.oX[.[./.^.^./.}.}.{.{.{.{.{.{.{.[.[.].l.a.k.Z.@.Y Y +.l.`. X[.2X2X|.{.[./././.}.}.[.[.{.{.{.{.{.[.[.[.[.[.[.[.[.[.[.[.{.[.[.[.[.[.[.[.[.[.{.{.[.[.[.[.[.[.[.[.[.[.[.[.[.[..X].m.f.-.s.(.`. X|.{.[.[.].l.a.-.-.j.h.a.l.^./.[.[. X X/./. X[.[.^.z.l.l.l.^.^.^.'.s.a.-.=.=.-.s.c.b._./././.^.^.^.^._.^.^.^.^.^.z.z.z.z.z.l.l.l.l.l.s.l.s.s.s.x.s.l.l.s.s.a.a.a.a.a.a.=.+.+.+.;.:.-.-.+.T _ G K H T ;.f.s.s.s.l.s.s.s.a.f.a.-.-.-.,.-.=.-.g.g.s.a.a.-.-.=.=.+.+.+.+.+.O.O.O.T T T T Q T Y Y Y H H H H H H H H K H G G G G k k k k G J k k k k k k k k c x s 5 4 : : 8 8 4 : : ; ; : : # @ .     . + # ; ; ; 4 9 i p z G G H Y Y Y Y Y ",
":.:.-.-.-.a.-.-.-.-.=.=.+.+.O.T Y Y T T Q Y Y Y T O.=.g.Z.>.T H G G H E O.=.=.-.-.-.-.-.a.a.a.a.a.a.a.a.s.s.l.l.s.s.s.s.l.l.l.l.l.l.l.l.l.z.z.z.z.z._.b.c.s.a.a.s.l.z.^.^././. X`.^.z.l.l.x.x.s.l.l.z.^././.^.^./././.^.m.-.T Y T O.=.a.b.).).^.z.l.s.s.l.z.^.^.^.^.^.^.^././././.^././.`.`.`.`././././././././.[.[.[. X X[. X[././.[.[./.`.'.x.-.=.-.j.s.l.`. X[.[./.^.^./.}.}.{.{.{.{.{.{.{.[.[.].l.a.k.j.@.Y Y +.l.`. X[.{.2X|..X[./././.}.}.[.{.{.{.{.[.{.[.[.[.[.[.[.[.[.[.[.[.{.{.[.[.{.{.[.[.[.[.[.{.[.[.[.[.[.[.[.[.[.[.[.[.[.[. X].c.a.a.s.'.]..X|.|.{.[.].l.a.-.-.j.f.a.l.^./.[.[.[.[././.[. X/.^.z.l.l.z.^.^._.'.s.a.-.=.=.-.s.x.b.(.`./.^.^.^.^._.(.^.^.^.^.^.z.z.z.z.z.l.l.l.l.l.s.s.s.l.x.x.l.s.s.s.s.s.s.s.a.a.-.=.+.+.+.;.:.g.-.+.T } G R H T ;.g.f.s.s.l.s.x.f.a.a.a.-.=.-.,.=.=.-.g.g.h.g.a.-.-.=.=.+.+.+.=.=.O.O.O.T T T T T T Y Y Y Y H H H H H H H H H G G G G G k G G G G z k k k k k k k l f s 5 4 : : 8 8 4 : ; ; ; : : ; @ .     . + # ; ; : 4 9 i p j G G H Y Y Y Y Y ",
"d.:.-.-.a.g.a.-.-.-.=.=.+.+.O.T E Y T T Q Y Y Y T O.=.g.j.>.T H k G H E O.=.=.-.-.-.-.-.a.a.a.a.a.a.a.f.a.s.s.s.s.s.s.s.s.s.l.l.l.l.l.l.l.z.l.l.z.z.b.b.x.s.a.a.a.l.z.^.^././. X`.^.z.l.l.x.s.a.l.l.z.^.^.^.^.^.^././.^.m.-.T Y T O.=.a.c.).).^.z.l.s.s.l.z.^.^.^.^.^.^.^./././.^.^.^././.`./.`.`.`././././././././.[.[.[.[. X X/./.[.[./.`.'.f.-.=.=.g.a.l./. X[.[./.^.^././.}.{.{.{.{.{.{.{.[.[.`.l.a.f.j.@.Y Y +.l.`.`.[.{.2X6X.X[./././.}.}.[.{.{.{.{.[.[.[.[.[.[.[.[.[.[.[.[.[.{.{.[.{.{.{.[.[.[.[.[.[.[.[.[.[.[.[.[.[.[.[.[.[.[.[. X`.c.a.a.s.'.]. X|.|.{./.].l.a.-.-.j.f.a.l.^./.}.[.[.[././. X X`.^.z.l.l.z._.^.^.'.s.a.-.=.=.-.a.x.b._.^./.^.^.^.^.^.(.^.^.^.^.^.^.z.z.z.z.z.l.l.l.l.s.s.s.l.x.x.x.s.s.l.l.l.f.f.f.a.a.=.+.+.+.;.:.g.-.+.T } G ! H T 1.g.s.s.s.s.f.f.f.a.a.-.=.=.=.>.=.=.-.g.g.h.g.a.-.-.=.=.+.+.+.=.;.O.O.O.T T T T T T T Y Y Y H H H H H H H H H H G G G G k k k k k J k k k k k k k j p a 5 4 : : 0 9 4 ; ; ; ; : : ; + .     . + ; ; ; ; 4 9 i p j G G H H Y Y Y Y ",
"d.a.-.a.a.g.a.-.-.-.=.=.+.+.O.T T Y T Q Q Y Y Y O.+.=.g.j.>.T H k G H E +.=.=.-.-.-.-.-.a.a.a.a.a.a.a.f.a.s.s.s.s.s.s.s.s.l.l.l.l.l.l.l.l.z.l.l.z.z.b.c.v.f.a.-.a.l.z.z.^././.`.`.^.l.l.l.x.l.a.s.l.z.^.^.^.^.^.^././.^.b.-.O.T Q O.=.a.b.).`./.z.l.s.s.l.z.^.^./.^.^.^.^.^.`.`.^.^.^.^././././.`./././././././././././.[.[. X X[./. X[./.`.'.f.-.=.=.g.a.l.`.[.[././.^.^././.[.{.{.{.{.{.{.[.[.}.].l.a.k.j.O.Y Y +.v.`.[.[.{.2X6X.X[./././.}.}.[.{.{.{.{.{.{.[.[.[.[.[.[.[.[.[.[.{.{.{.[.[.{.{.[.[.[.[.[.[.[.[.[.[.[.[.[.[.[.[.[.[.[.[..X].b.a.-.s.b.`.[.{.{.[./.).l.a.-.-.j.j.a.l.^./.}.[.[.[././.[.[.[.^.l.l.l.z._.^._._.s.a.g.=.=.-.a.x.b.(.^.^.^.^.^.^.^.^.^.^.^.^.^.^.z.z.z.z.z.l.z.l.l.s.s.s.l.l.l.l.l.l.v.l.x.f.f.f.s.a.=.=.+.+.;.:.-.-.+.T } G ! H T <.d.f.s.f.a.a.a.a.-.-.-.=.=.=.>.=.=.-.g.g.h.g.a.-.-.=.=.+.+.=.;.;.O.O.O.T T T T T T T T Y Y H H H H H H H H H H G G G G G k G k k J k k k k k k k j p i 9 4 ; : 0 q 8 : ; ; > , , ; + .     . # < ; ; : 4 5 i p j k G H H Y Y Y Y ",
"a.a.a.a.a.a.a.a.-.-.=.=.+.+.O.T T Y T T Q Y Y Y T O.=.a.j.>.T H k G Y Q %.=.=.-.-.-.-.-.a.a.a.a.a.a.a.f.f.s.s.s.s.s.s.s.s.l.s.l.l.l.l.l.l.l.l.l.z.z.b.v.x.f.a.-.a.l.l.z.^././.`.`.^.l.l.l.l.l.a.s.l.z.z.^.^.^.^.^././.^.b.-.O.T O.O.=.a.b.).`./.z.l.l.l.l.z.^.^./.^.^.^.^.^././.^.^.^.^././././././././././././././././.`.[././.`./.[.[./.`.'.f.-.=.-.g.a.z.]. X[././.^.^.^./.[.[.[.[.{.{.{.[.[./.].l.a.f.j.O.Y Y +.v.`.[.[.{.2X6X.X[./././.}.}.[.{.{.{.{.{.{.[.[.[.[.[.[.[.[.[.[.[.{.{.{.[.[.[.{.[.[.[.[.[.[.[.[.[.[.[.[.[.[.[.[.[.{.[..X].b.a.-.a.b.`. X{.{.[./.).l.a.-.=.j.d.a.l.^./.}.[.[.[././.[.[.`._.l.l.l.l.^.^.^._.s.a.g.=.-.-.a.c.b.(.^.^.^.^.^.^.^.z.^.^.^.^.^.^.z.z.z.z.z.z.z.l.l.l.l.s.s.s.l.l.l.l.l.l.s.s.s.f.s.g.-.=.+.+.=.:.-.-.+.T ~ G ! H T <.k.f.f.f.a.a.a.a.-.-.-.=.=.;.>.=.=.-.g.g.h.g.-.-.=.=.=.+.+.+.=.;.+.O.O.T T T T T Y Y W Y Y H H H H H H H H H G G H G G G G G k k J k k k k k k k j p i 5 : ; , 0 q 8 : ; > , 1 : > + .     . # > , : : 4 5 i p j k G H H Y Y Y Y ",
"a.a.a.a.a.a.a.a.-.-.=.=.+.+.O.O.T T T T Q W Y W T O.=.g.j.>.T H k G Y Q %.=.=.-.-.-.a.a.a.a.a.a.a.a.a.f.f.s.s.s.s.s.s.s.s.s.s.l.l.l.l.l.l.l.l.z.z.z.z.l.x.f.a.-.f.l.l.z.^././.`.`.^.l.l.l.l.s.a.a.l.z.z._.^.^.^.^././.^.b.-.O.Q O.O.=.a.c.).`./.^.z.l.l.z.z.^.^././.^.^.^.^./.^.^.^.^././././././.^./././././././././././.`././.`././././.`.'.s.-.=.-.g.a.b.XXoX[././.^.^././.[.[.[.[.[.[.[.[././.].l.a.s.,.O.Y Y =.v.`. X[.{.6X6X.X[./././.}.[.[.{.{.{.{.{.{.[.[.[.[.[.[.[.[.[.[.[.[.[.[.[.[.[.{.[.[.[.[.[.[.[.[.[.[.[.[.[.[.[.[.[.[.[. X`.c.a.-.a.b./.[.{.{.[./.).l.a.-.=.j.d.a.l.^./.}.[.[.[././.[.[./.^.l.s.l.l._.^.^.'.s.a.-.=.-.-.s.c.b.^.^.^.^.^.^.^.^.^.^.^.^.^.z.^.z.z.z.z.z.z.z.z.l.l.l.s.l.l.l.l.l.l.l.l.s.s.s.f.f.h.-.=.+.+.=.-.-.-.O.T ~ G K H T <.d.f.f.f.a.a.a.a.-.-.=.=.=.=.>.+.=.-.g.g.h.g.-.-.=.=.=.+.+.+.=.;.+.O.O.T T T T T Y Y T W Y H Y H Y Y H H H H H G H H G G G G k k J G k k k k k j j p i 5 : ; , 0 q 8 : ; , , : : > + .     . + ; : : : 4 i i p j k G H H Y Y Y Y ",
"a.a.a.a.a.a.a.a.-.-.=.=.+.O.O.O.T T T T Q W R W O.O.=.j.Z.>.T H k G Y E %.;.=.-.-.-.a.a.a.a.a.a.a.a.a.f.f.s.s.s.s.l.s.s.s.s.s.s.l.l.l.l.l.l.l.z.z.l.l.l.l.f.a.-.f.s.l.z.^.^././.`.^.l.l.l.l.s.a.a.s.l.z._._.(.^.^.^./.^.b.-.O.O.O.O.=.a.b.).`./.^.z.l.l.z.z.^.^./.^.^.^./.^.^.^././././././././.^.^.^.^.^./././././././././././.`./././././.c.s.-.=.-.-.a.b.XX X[././.^.^./.).}.[.[.[.[.[.[.[././.(.l.a.f.,.O.Y Y =.v.`. X[.6X8X6X.X[./././.}.}.[.{.{.{.{.{.{.{.[.[.{.[.[.[.[.[.[.[.[.[.[.[.[.[.[.[.[.[.[.[.[.[.[.[.[.[.[.[.[./.[.[.[.[. X`.x.a.-.s.b./. X{.{.[./.).l.a.-.=.j.d.a.l.^./.}.[.[.[././.[.[./.^.l.s.s.l.(.^._.'.s.a.-.=.-.a.s.c.b.^.^.^.^.^.^.^.^.^.^.z.z.z.z.z.z.z.z.z.z.z.z.z.l.l.s.s.s.l.l.l.l.l.b.v.l.s.l.x.v.k.-.=.+.+.=.-.-.=.O.T ~ G K H T ;.g.a.a.a.a.a.a.a.-.-.=.+.+.+.+.+.=.-.g.g.g.a.-.-.=.=.+.+.+.+.+.+.+.O.O.T T T T T Y Y T W Y Y H H R R R Y H H H H H H G G G G k k G G k k k k k j l p i 4 : ; ; 0 q 8 : ; ; : : ; ; # . . . . # : : : 4 5 i i p j k G H H Y Y Y Y ",
"l.a.a.a.a.a.a.a.-.-.=.=.+.+.O.O.T T T T W Y H H T O.=.,.1.;.T H k G Y @.*.=.=.-.-.-.a.a.a.a.a.a.a.a.a.a.a.f.s.a.s.s.s.s.l.l.s.s.l.v.x.l.l.l.l.l.l.l.l.l.s.a.-.-.f.s.l.z.^.`./.`._.^.z.l.l.l.l.a.s.l.z.z.z.^.z.^.z.^./.^.m.-.O.T O.+.=.a.'.)./.^.^.z.s.l.z.(.^.^./.^.^.^.^.^./.^.^.^.^.^././././.^.^.^.^.^.^.^.^.^.^.^.^././././.^.^./././.`.b.s.-.=.-.-.a.l.^.[.[.`./.^.^./.`.}.[.{.[.{.[.[.[././.(.l.a.k.j.@.Y T ;.b.`./.[.{.2X{.{.[./././.}.}.[.{.{.{.{.{.{.[.{.{.[.[.[.[.[.[.[.[.[.[.[.[.[.[.[./.[.[.[./.[.[.[.[.[.[.[.[.[./.[.[.[.[. X].m.a.a.s.b.`.[.[.[.[./.(.l.a.=.-.:.a.a.l.^././.[./.[././.[./.^.z.l.a.a.l.z._._.b.l.a.-.:.-.-.f.c.b._.^.^.^.^.^.^.^.^.^.^.^.^.z.z.z.z.z.z.z.z.z.z.l.l.l.l.l.l.l.l.l.l.v.l.l.l.x.x.f.f.-.+.+.+.=.-.-.=.O.Y R G K H O.;.-.a.a.a.a.a.a.a.g.-.=.=.+.+.O.+.+.-.j.j.g.a.a.-.-.=.+.+.+.+.+.+.+.O.O.O.T T T T Y T ~ W Y Y Y Y H R R R Y Y H H H H G G G G k k k k k k k k k j l f a 5 : ; ; 3 q 4 : ; ; ; : : ; # .   . + # ; : : 4 4 5 i p j k G G H Y W Y Y ",
"s.a.a.a.a.a.a.a.-.-.;.=.+.+.O.O.T T T T W Y H H T O.=.,.1.;.T H k G Y @.*.=.=.-.-.-.a.a.a.a.a.a.a.a.a.a.a.x.l.s.s.s.s.s.l.l.s.a.v.b.c.l.l.l.l.l.l.l.l.l.s.a.-.-.f.s.l.z.^.^./.`._.^.z.l.l.l.s.a.s.l.z.z.z.z.z.z.^.^.`.^.m.-.O.T O.+.=.a.'.)./.^.^.z.s.s.z.^.^.^.^.^.^.^.^.^./.^.^.^.^.^././././.^.^.^.^.^./.^.^.^.^.^.^././././.^.^./././.`.b.s.=.=.-.-.a.l./.[.[.`./.^.^.^./.}.[.[.[.[.{.[.[././.(.l.a.f.1.T H Y =.v.`.[.[.2X2X|.|.[./././.}.}.[.{.{.{.{.{.{.[.[.[.[.[.[.[.[.[.[.[.[.[.[.[.[.[.[.[.[.[.[.[.[.[.[.[.[.[.[.[.[.[.[.[.[.[. X].m.a.a.s.(.`.[.[.{.[./.(.l.a.-.-.d.a.a.l.^././.[./././././././.z.l.a.a.l.z._._.z.l.a.-.:.-.-.f.m.b._.^.^.^.^.^.^.^.^.^.^.^.^.z.z.z.z.^.z.z.z.z.z.z.l.l.l.l.l.l.l.l.l.l.l.l.l.l.x.x.f.-.+.+.+.=.=.-.=.O.T R G K H O.;.-.a.a.a.a.a.a.a.-.-.=.+.+.+.+.+.+.-.j.j.g.a.-.-.=.=.+.+.+.+.+.+.O.O.O.O.T T T T Y T T Y Y Y Y H Y Y R R Y Y Y Y H H H G G G k k k G k k k k k j l s i 5 : ; > 0 q 4 : ; : ; : : ; # . . . + ; : : 4 4 5 i i p j k G G H Y W Y Y ",
"s.s.a.a.a.a.-.-.d.-.;.=.+.+.O.O.T T T T W Y H H Y O.=.-.1.;.T H k G H ~ *.=.=.-.-.-.a.a.a.a.a.a.a.a.a.a.a.x.x.s.s.s.s.s.l.l.s.s.v.b.b.l.l.l.l.l.l.l.l.s.a.a.-.-.a.s.l.z.z.^.^.`._.^.z.l.l.v.l.a.s.l.z.z.z.z.z.z.^.^.`.^.m.-.O.T O.+.=.a.'.]././.^.l.s.l.z.(.^.^.^.^.^.^.^.^././.^.^.^.^././././.^.^.^.^.^./.^.^./.^.^.^././././.^.^./././._.c.a.-.-.:.g.s.z./. X X/./.^.^.^./.[.[.[.[.[.{.[.[.}.`.].l.a.k.1.T H Y =.v.`.[.[.2X2X6X.X[./././.}.}.[.[.{.{.{.[.[.[.[.[.[.[.[.[.[.[.[.[.[.[.[.[.[.[.[.[.[.[.[.[.[.[.[.[.[.[.[.[.[.[.[.[.[.[. X].m.f.a.s.b.`.[.[.{.[.).(.l.a.-.-.j.g.a.l.^./.}.[.[./././././.`.(.l.a.f.x.b.b._.z.l.-.-.:.-.-.s.m.b._.^.^.^.^.^.^.^.^.^.^.z.z.z.z.z.z.(.^.z.z.z.z.z.z.z.l.z.c.c.z.z.l.l.l.l.l.l.l.s.f.-.+.+.=.=.=.-.=.O.T R G K H O.;.a.a.a.a.a.a.a.-.-.-.=.+.+.+.%.+.+.-.j.j.a.a.-.-.=.=.+.+.+.+.+.+.O.O.O.O.T T T T Y Y Y Y Y R Y H H H Y Y Y Y Y Y H H H H G G G k k k k k k k k j j p 5 4 : ; > 0 q 5 : : : : 4 4 : # @ . @ # ; : 4 4 5 5 i i p j k G G H Y W Y Y ",
"s.a.a.a.a.a.-.-.-.-.=.+.+.+.+.O.T T T T T W K Y Y O.=.-.1.;.T H k G H ~ %.=.=.-.-.-.-.a.a.a.a.a.a.a.a.a.a.x.l.l.l.l.l.l.l.l.l.l.l.v.v.l.s.l.l.s.l.l.l.s.s.a.-.-.a.s.x.z.z.^.^./._.^.z.l.l.v.l.a.s.l.z.z.z.z.z.z.^.^.`.z.m.-.O.T T +.=.a.'.]././.^.l.l.l.z.^.^.^.^.^.^.^./././.^./.^.^.^././././.^.^.^.^././.^.^./././.^././././.^.^./././._.z.a.-.-.,.j.f.b./. X X/./.^.^.^././.[.[.[.[.{.[.[.[.).'.l.a.k.1.T H Y +.v.`. X[.2X2X6X.X[./././.}.[.[.[.{.{.{.[.[.[.[.[.[.[.[.[.[.[.[.[.[.[.[.[.[.[.[.[.[.[.[.[.[.[.[.[.[.[.[.[.[.[.[.[.[.[. X`.m.f.a.s.b.`.[.[.{.[.}.(.l.a.-.-.,.d.a.l.^././.[.[./././././.`.b.s.a.f.x.b.z._.z.l.-.-.:.-.-.f.m.b.(.^.^.^.^.^.^.^.^.^.^.z.z.z.z.^.^.(.(.z.z.z.z.z.z.z.l.c.c.c.c.z.z.l.l.l.l.l.x.x.f.-.+.+.=.=.-.-.=.O.T W G K H O.;.g.a.a.a.a.a.a.a.-.-.=.+.+.+.%.+.+.-.j.j.a.a.-.-.=.=.+.+.+.+.+.+.O.O.O.O.T T T T T Y Y Y W W R H H H H H Y Y Y Y Y H H H G G G k k k k k k k k j p i 5 4 : ; : 0 9 5 4 : : : 4 4 : ; + . @ # : 4 4 5 5 5 i i p j k k G H Y Y Y Y ",
"s.a.a.f.f.a.-.-.-.=.=.+.+.+.+.+.O.T T T T W K H Y T +.-.1.;.T H G G Y ~ %.=.=.-.-.-.-.-.a.a.a.a.a.a.a.a.s.l.l.l.l.l.l.l.l.l.l.l.l.v.v.l.s.l.l.l.l.l.l.s.g.a.-.-.a.s.x.z.z.^.^.^.`.^.z.l.l.x.l.s.s.l.z.^.^.z.z.z.^.^.`.z.m.=.O.T T +.=.a.(.]././.^.z.l.l.z.^.^.^.^.^.^.^./././.^././././././././.^.^.^.^././././.^.^././././././.^.^./././._.z.a.-.-.,.j.f.b./.[. X/.^.^.^.^././.[.[.[.[.{.[.[.[.).'.l.a.k.1.T H Y +.v.`. X{.2X2X6X.X[./././.}.}.[.[.{.{.{.[.[.[.{.[.[.[.[.[.[.[.[.[.[.[.[.[.[.[.[.[.[.[.[.[.[.[.[.[.[.[.[.[.[.[.[.[.[.[. X`.m.f.a.a.b.`.[.{.{.[.XX(.l.a.-.-.:.d.a.l.z././.[././././././.^.z.a.a.a.f.b.z.(.z.s.-.-.-.-.-.f.c.b.(.^.^.^.^.^.^.^.^.z.z.z.z.z.z.z.^.(.^.^.z.z.z.z.b.l.l.z.z.z.z.z.l.z.l.l.l.l.l.l.f.-.+.+.=.=.-.-.=.+.T R G K H O.;.g.a.a.a.a.a.a.a.-.-.=.+.+.+.%.O.+.-.j.g.a.a.-.=.=.=.+.+.+.+.+.+.O.O.O.O.T T T T T Y Y Y W R Y H H H H H Y Y Y Y Y Y H H G G G k k j j k k k k j p p i 4 : ; : 0 7 5 4 : 4 4 4 9 4 ; # @ + ; : 4 9 5 5 5 i p j j k G G H R W Y Y ",
"f.a.a.f.g.a.-.-.=.=.=.+.+.+.+.O.O.O.T T T Y H H Y T +.-.1.;.T H G G Y ~ %.=.=.-.-.-.-.a.a.a.a.a.a.a.s.s.l.v.l.l.l.l.l.l.l.l.l.l.l.v.c.l.l.l.l.l.l.l.l.s.s.-.=.=.d.f.x.z.z.^.^.`._.^.z.l.l.x.v.s.l.l.z.^.^.^.z.z.^.^.`.z.m.-.O.T T +.=.a.(.]././.^.z.l.l.z.^.^.^.^.^.^.^.^.^./.^./././././././././.^.^.^././././.^.^././././././.^.^././.^.(.z.a.-.-.,.j.f.b.`. X X/./.^.^.^./.`.[.[.[.[.[.[.[.[.).'.l.a.k.1.E H Y +.b.`. X{.2X2X6X.X[./././.}.}.[.[.{.{.{.{.{.[.{.{.[.[.[.[.[.[.[.[.[.[.[.[.[.[.[.[.[./.[.[.[.[.[.[.[././.[.[.[./.[.[.[. X`.'.f.a.a.z.`.[.{.{.[.XX(.l.a.-.-.-.d.a.l.z././.[././././.}./.^.z.a.a.a.f.b.b.(.b.l.a.-.,.-.-.x.c.b._.^.^.^.^.^.^.^.^.z.z.z.z.z.z.z.z.^.^.^.^.z.z.z.z.l.l.l.z.z.l.l.l.l.l.l.l.l.l.s.a.-.+.+.+.=.-.g.-.+.T R G ! H O.;.g.s.a.a.a.a.a.a.-.-.;.+.+.+.%.O.+.-.j.g.g.a.-.=.=.=.+.+.+.+.+.+.O.O.O.O.T T T T Y Y Y Y Y H H H H H H Y Y Y Y Y Y Y H H G G k k k j j k k k j j j p i 5 : ; : 0 a 5 4 4 4 4 5 9 4 : # + # ; : 4 5 5 5 5 i p j j J G H K W W T W ",
"f.a.a.f.g.-.-.-.=.=.=.+.+.+.+.O.O.T T T W Y H H Y T +.-.1.;.Q H G G Y &.%.=.=.-.-.-.a.a.a.a.a.a.a.s.f.s.l.l.l.l.l.l.l.l.l.l.l.l.l.v.v.l.l.l.v.l.l.l.l.f.s.-.=.=.d.f.x.z.z.^.^.`._.^.z.l.l.x.l.s.l.l.^._.^.(.z.z.z.^.`.z.n.-.O.T T +.=.a.'.)././._.z.l.l.z.z.^./.^.^.^.^.^.^.^.^.^./././././././././.^.^././././.^.^././././././.^.^.^./.^.^.l.a.-.=.1.g.f.b.`. X X/./.^.^.^.`.[. X[.[.[.[.[.[.[.].(.s.a.d.H.E H Y +.b.`. X[.2X{.|..X[./././.}.}.[.{.{.{.{.{.{.{.{.{.{.[.[.[.[.[.[.[.[.[.[.[.[.[.[.[././.[.[.[./.[./././.[./.[.[./.[.[.{. X`.m.f.a.a.z.`.[.{.{.[.XX(.l.a.=.=.-.d.a.l.z./././././.}.}.}.}._.b.s.a.a.s.b.b.(.c.l.a.-.-.-.-.f.c.b._.^.^.^.^.^.^.^.^.^.^.z.z.z.z.z.z.z.^.^.^._.b.z.z.l.l.l.l.l.l.l.l.l.l.l.l.l.l.s.a.-.+.+.+.=.:.j.,.+.T R K ! H O.;.h.s.a.a.a.a.g.a.-.-.-.+.+.%.%.O.+.-.j.g.g.a.-.=.=.+.+.+.+.+.+.+.O.O.O.O.T T T T Y Y Y Y Y H H H H H Y W Y W T Y Y Y H H G G k k k j j k z k j j l f a 5 : ; : 0 d i 5 8 4 4 5 9 8 : ; # # ; 4 4 4 5 5 i i p j j J G H K W W T W ",
"a.a.a.f.a.a.-.-.=.=.=.=.+.+.+.O.O.T T T Y H H H Y T +.-.,.;.T H G G Y &.%.=.=.-.-.-.a.a.a.a.a.a.a.a.x.s.s.l.l.l.l.l.l.l.l.l.l.c.l.v.v.l.l.l.l.l.l.x.x.x.f.-.=.=.d.f.l.z.^._.`.`.).^.z.l.l.x.x.s.l.z.^._._.^.^.^.z.z._.z.n.=.O.E O.+.=.a.'.]././._.z.z.l.z.z.^././.^.^.^.^.^.^.^.^././././.^./.^.`./././././././.^.^././././././.^.^./.^.^.(.l.f.=.=.-.g.s.b.`.oX/./.^.^._._.`.[. X[.[. X[.[.[.[.).(.s.a.d.5.~ H Y =.b.`. X{.{.{.|.{.[./././.[.}.{.{.{.{.{.{.{.{.{.{.{.[.[.[.[.[.[.[.[.[.[.[.[.[.[./././.[.[.[./.[./.[./.[./.[././.[.[.{.[.`.m.s.a.a.z.`.[.{.{.[. X^.s.-.=.=.-.d.a.s.z././.[././././././.^.z.a.-.a.a.b.b.(.c.x.a.-.-.-.-.f.c.b.^.^./././.^.^.^.^.^.^.^.^.^.^.z.z.z.z.^.(.(.b.z.z.l.l.l.l.l.l.l.l.l.l.l.l.l.l.l.f.-.+.+.+.=.:.k.j.+.T R H ! H O.;.k.s.a.a.a.a.g.g.-.-.=.+.+.>.%.+.+.-.j.j.g.-.-.=.=.=.+.+.+.+.+.+.O.O.O.O.T T T T T Y W T Y H H Y H H Y Y Y Y Y Y Y H H H G G k k k j j k z k k k v h a 5 : ; : 8 d i 5 5 4 4 5 9 9 8 ; # # ; : 4 4 4 5 5 i p j j k G G H R W W Y ",
"a.a.f.a.a.-.a.g.-.=.=.=.+.+.+.+.O.T T T W Y H Y T O.-.g.1.%.Y G k G R &.%.=.=.-.-.-.-.-.a.a.a.a.a.a.a.s.l.l.l.l.l.l.l.l.l.l.l.l.l.z.l.l.l.l.l.l.z.b.l.x.f.g.=.-.a.f.l.l.^.^.^.`.`.^.z.l.l.x.v.l.l.l.z.^./.^.^.^.^._.^.b.n.-.O.E T O.=.a.'.]././.].^.l.v.c.b.^./._.^.^.^.^.^.^.^.^.^.^.^.^.^././././././././.`.[./././././././././.^././.^.(.x.a.-.=.-.j.s.z.`. X X X_.z.z.^.`.[.{.[.[./.[.[.{.[./.^.s.a.k.<.Y H Y =.b. X.X{.{.{.{..X[./.^././.[.[.{.{.|.{.{.[.[.{.{.{.{.{.[.{.[.{.[.[.[.[.[.[.[./././././././././././././././././.}.[.{. X`.-Xa.a.a.b.`.[.[.[.[. X).s.-.-.-.j.g.a.f.z./.[.[.[./././././.^.z.s.a.a.a.b.b.b.m.s.a.-.=.=.-.f.b.(.^.[./././././._.^.^.^.(.z.z.z.z.z.l.z.z.z.z.z.z.l.l.l.l.s.l.l.l.l.b.c.x.l.l.x.l.a.-.=.+.=.-.g.g.g.+.$.~ H ! Y +.,.g.a.f.a.a.a.a.a.-.-.=.=.=.>.;.+.=.-.h.k.g.-.=.=.-.-.=.+.O.O.+.+.O.O.T T T T Y Y T T Y Y Y Y Y H H Y Y Y H H H Y H H H G G G G k k k k k k k k J v f a 5 : ; : q g a a 5 5 5 5 4 4 4 : ; ; : 1 4 4 4 5 5 i i p j k G G H H Y Y H ",
"a.a.f.a.a.a.a.g.-.-.=.=.=.+.O.+.T E T T Y Y H Y T +.-.g.,.%.Y G k G W O.+.=.=.-.-.-.-.-.-.a.a.a.a.a.a.s.l.l.s.s.l.l.l.l.l.l.z.z.z.z.z.z.z.z.z.z.z.z.l.x.f.g.=.=.g.n.l.l.z.^.^.`.`.(.z.l.l.x.v.l.s.l.z.^././.^.^.^.^._.b.v.-.O.T Y O.=.a.(.`././.`.b.z.v.c.b.^._.^.^.^.^.^.^.^.^.^.^.^.^.^.^.^././././././././././././././././././.^././.^.(.x.a.-.=.-.j.s.z.`. X X X^.z.l.^.`.[.{.[.[./.[.[.{.[./.^.s.a.j.1.R G Y =.b. X.X{.2X{..X X X/.^././.[.[.[.{.{.{.{.[.[.{.{.{.[.{.{.[.[.{.[.[.[.[.[.[.[.[./././././.[.[./././././././././.}.[.[. X/.$Xa.a.a.b.`.[.[.[.[..X`.s.-.-.-.g.g.-.a.z./.[.[. X/././././._.z.s.a.a.a.b.b.b.b.a.a.-.=.=.-.f.b._./.[./././././.^.^.^.^.^.z.z.z.z.l.l.l.z.z.z.z.z.l.l.l.l.l.l.l.l.l.l.l.l.l.l.x.l.a.-.=.+.=.-.g.f.g.+.$.~ G ! Y +.-.a.f.f.a.a.a.a.a.-.-.=.=.=.;.;.+.=.-.h.k.g.-.=.=.-.-.=.+.O.O.+.+.O.T T T T T T T T T Y Y Y Y Y Y Y Y Y Y H H Y Y H H H H G G G k k k k G G G G J v f a 4 : ; : q d i i i i 5 5 5 4 4 : : : : 1 : 4 4 5 5 i i p k k G G H H Y Y Y ",
"a.a.a.a.a.a.a.-.-.=.=.=.+.+.O.O.T E T T W H H Y T +.-.a.,.%.Y G k G W Q +.+.=.-.g.-.-.-.a.a.a.a.a.s.a.s.l.l.l.l.l.l.l.l.l.z.c.b.z.z.z.z.z.z.z.z.z.z.v.x.f.a.=.-.g.n.x.l.z.^.^./.`.(.z.l.l.v.v.s.s.l.z.^././.^.^.^.^._.b.v.-.O.T T O.=.a.'.]./.`.`.z.l.v.b.b.^.`.^.^.^.^.^.^.^.^.^.^.^.^.^.^.^.^./././././././././././././././././.^././.^.(.x.a.-.=.-.j.s.z.`. X X X(.z.l.z./. X{.[./././.[.[.[./._.l.-.g.1.E H T =.b. X.X{.2X2X.X X[./.^././.[.[.[.{.{.{.{.[.[.[.{.{.[.{.{.[.[.[.[.[.[.[.[.[.[.[./.[.[./.[.[.[.[./././././././././.[.[. X/.$Xa.a.a.z.^.[.[.[.[..X`.l.-.=.-.g.j.-.a.z./.[.[. X/././././.`.z.s.a.a.a.b.b.b.b.a.-.;.=.=.-.s.b._./././././.^.^.^._.^.^.^.z.z.z.z.z.z.z.z.z.z.z.z.z.l.l.l.l.l.l.l.l.l.l.l.l.l.x.x.f.-.=.+.=.-.g.g.j.+.T R G ! Y O.-.a.a.a.a.a.a.a.a.-.-.=.=.=.;.;.+.=.-.h.k.g.-.=.=.-.-.=.+.O.@.+.+.O.T T T T T T T T T Y Y Y Y Y Y Y Y Y Y Y H H H H H H H G G G G k k G G G G J J v f 5 4 : ; 1 r a i 5 5 5 5 5 4 4 4 : ; ; : : : 4 4 5 5 i i p k k G G H H Y Y Y ",
"f.a.a.a.a.a.a.-.-.=.=.=.+.+.+.O.T E T T Y H H Y T +.-.a.,.%.Y G k G W O.+.=.-.-.g.-.-.-.a.a.a.a.s.s.s.s.l.l.l.s.s.l.x.x.l.l.c.c.z.z.z.z.z.z.z.z.z.z.v.l.n.a.=.-.a.n.x.l._.^.^./.`.(.z.l.l.l.v.s.s.l.z.^././.^.^.^._.^.b.n.-.O.E T +.=.a.(.XX/.`.^.z.l.v.b.b.^.`.^.^.^.^.^.^.^.^.^.^./.`.`.^.^.^./././././././././././././././././.^././.^.(.x.a.-.=.-.g.a.l.`.[. X`.^.l.l.z.`. X[.[.[./././.[.[./.].l.-.-.5.E G E =.b. X.X|.3X2X{. X[.^.^././.[.[.[.{.{.[.[.[.[.{.{.{.{.{.{.{.[.{.[.[.[.[.[.[.[.[.}.}.}.}.}.}.}.[././././././././.}.[.{. X`.$Xa.a.a.z.^./.[.[.[.[.`.l.-.=.-.g.j.-.a.z./.[.[./././././.`.`.z.s.a.a.a.b.b.b.b.a.-.=.=.=.-.s.c._./././././.^.^.^._.^.^.^.z.z.z.z.z.z.l.z.z.z.z.z.z.l.l.l.l.l.l.l.l.l.l.l.l.v.x.v.f.-.+.+.=.-.g.g.j.+.T R G ! Y O.-.a.a.a.a.a.a.a.a.-.-.=.=.=.;.;.+.=.-.h.h.g.-.=.=.-.-.=.+.O.@.+.+.O.T T T T T T T T T T Y Y Y Y Y Y Y Y Y H H H H H H H H G G G G k k G G G G J z l s 5 4 : ; : q a i 5 5 5 5 5 5 4 : : ; ; : ; : 8 4 5 5 i p j k k G G H H Y Y Y ",
"f.a.a.a.a.a.a.-.-.=.=.+.+.+.+.O.T T T T W H H H T +.-.a.,.%.Y G k H W @.+.=.-.-.g.a.-.-.-.a.a.a.a.a.a.s.l.l.l.l.l.l.l.l.l.l.l.b.z.z.z.z.z.z.z.^.z.z.b.l.v.a.=.-.a.f.l.l._.^.^.`._.^.l.s.l.x.l.s.s.l.z.^././.^.^.^._.^.b.n.-.O.E T +.=.a.(.].`.`.^.z.l.l.b.b.^.`.^.^.^.^.^.^.^.^.^.^.^././.^.^.^././././././././.^.^./././././././.^././.^.(.x.a.-.=.-.g.a.l.`.[. X`.z.l.l.z.`. X[.[././././.[.[. X].x.-.-.5.E G T =.b. X.X|.3X3X{.[.`.^.^././.[.[.[.{.{.{.{.[.[.{.{.{.{.{.[.[.[.{.{.[.[.[.[.[.[.[.[.[.[.[.[././.}././././././././.}.[.{. X`.$Xa.a.a.z.^./.[.[.[.[.).s.-.=.-.g.k.-.a.z./.[.[./././././.`.`.b.s.a.a.a.b.b.b.b.a.-.=.+.=.-.s.m.(.^././././.^.^.^._.^.^.^.^.z.z.z.z.z.z.z.z.z.z.z.z.z.l.l.l.z.l.l.l.l.v.v.l.l.x.x.s.=.+.+.=.-.g.g.j.+.T ! G ! H O.-.a.a.a.a.a.a.a.a.-.-.=.=.=.;.;.+.=.-.g.h.a.-.=.=.-.-.=.+.O.O.+.+.T T T T T T T T T T W W Y Y Y Y Y Y Y Y H H H H H H H H G G G G k k G G G G G z j p 5 4 : ; : q a i i i i i 7 7 4 : : ; : : ; : 8 5 5 i i p j k k G G H H Y Y H ",
"f.a.a.a.a.a.a.-.-.=.=.+.+.+.+.O.T T T T Y R H H T +.-.g.1.%.Y G k G W O.+.=.=.-.-.-.-.-.a.a.a.a.a.a.s.s.x.l.l.l.l.l.l.l.l.l.l.z.z.z.z.z.z.z.z.z.z.b.b.v.v.a.=.-.-.f.s.l._.^.^.`._.z.l.s.s.l.l.s.s.l.z.^././.^.^.^.^._.b.v.-.O.T T +.=.a._.`././.^.z.l.l.l.z.^._.z.^.^.^.^.^.^.^.^.^.^.^.^.^.^.^.^./././././.^.^././././././././././././.^.(.x.a.-.=.-.j.s.l.`. X X`.z.s.s.z./.[.[. X/./././.[.[. X].x.-.g.1.E G T =.b. X.X{.2X2X{. X`.^.^.`.).}.[.[.{.{.{.{.[.[.[.[.{.[.[.[.[.[.{.{.[.[.[.{.[.[././././././././.[././././././././.}.[.[./.`.'.a.a.a.c.`. X[.[.[.[._.s.-.=.-.j.k.-.a.z./.[.[.[./././././.`.z.s.a.a.a.b.b.b.b.a.-.;.+.=.-.f.m.(.^./././././.^.^.^._.^.^.^.^.z.z.z.z.z.z.z.z.z.z.z.z.l.l.z.l.z.z.z.z.z.l.l.l.l.l.a.=.+.+.=.-.g.g.,.+.T K G K H O.;.g.a.a.a.a.a.a.a.-.-.=.=.=.;.;.+.=.-.g.h.-.=.=.=.-.-.=.+.O.O.+.+.O.T T T T T T T T T T Y Y Y Y Y Y Y Y Y Y H H H H H H G G G G G k k G G G G G k p i 7 4 : ; : 9 i i i i 5 5 5 5 4 : : : : : : : 7 5 5 i p p j k k G G H H Y Y H ",
"a.a.a.a.a.a.-.-.-.=.=.+.=.;.+.O.T Y T T W R H H T +.-.g.1.*.Y G k G W @.%.=.=.-.-.-.-.-.a.a.a.a.a.a.s.s.x.x.l.l.v.l.l.l.l.l.l.z.z.z.z.z.z.z.z.z.^._.b.v.v.a.=.=.a.f.l.l.(.^.^.`._.z.l.s.s.x.l.s.s.l.z.^././.^.^.^.^.^.b.v.-.O.T T +.=.a.(.`././.^.l.l.l.l.z._._.z.^.^.^.^.^.^.^.^.^.^.^.^.^.^.^././././././.^.^./././././././././.^././.^.(.x.a.-.=.-.g.s.l.`. X`.`.z.s.s.z.`.[.[. X/./././.[.[. X_.s.a.g.<.Y H T =.b. X X{.2X{..XXX`.^./.).)./.[.[.{.{.{.[.[.[.[.[.[.[.[.[.[.[.[.{.[.[.[.[.[.[././././././././.[././././.[./././.}.[.[./._.m.a.a.a.b.`.[.[.[.[.[._.x.-.=.-.j.k.-.a.z./.{.{. X}././././._.z.a.a.a.a.v.b.b.b.a.-.;.+.=.-.a.x.(.^./././././._.^.^.^.^.z.^.^.z.z.z.z.z.z.z.z.z.z.z.z.z.z.z.l.z.z.z.l.z.l.l.l.l.l.a.=.=.+.=.-.a.a.-.+.T K k K H T ;.d.a.a.a.a.a.a.-.-.-.=.=.;.<.;.+.=.-.g.g.-.=.=.=.-.-.=.+.O.O.+.O.O.T T T T T T T T T T T Y Y Y Y W Y Y Y Y H H H G G G G G G G G k k k G G G G k j p 5 4 : ; : 8 i i i i i 5 5 5 4 4 : : : : : : 5 5 5 i f p j k G G G H H Y H H ",
"a.a.a.a.-.-.-.-.=.=.=.+.=.;.+.O.Y Y T Y W R H H T O.-.g.j.*.Y G G H E &.%.;.=.-.-.-.-.-.a.a.a.a.a.a.s.s.x.x.l.l.c.c.l.l.l.z.l.l.z.z.z.z.z.z.z.z.^._.b.v.v.a.=.=.g.n.x.c._.^._.`._.z.l.s.s.f.x.s.s.l.z.^././.^.^.^._.^.b.n.-.O.T T +.=.a.'.`././._.l.s.l.l.z.^.^.^.^._.^.^.^.^._.^.^.^.^.^.^.^.^./.`./.`././././././././././.^.^./.^././.^.(.x.a.=.=.-.j.a.z.`. X`._.z.s.s.z.`.XX[.[././././.[.[./.^.a.a.g.<.Y H Y =.b. X X{.{.{.[.[./.^.^.`././.[.[.{.{.{.[.[./.{.{.{.{.{.[.[.[.[.[.[.[.[.[.[.[././././././././.[./././.[.[./././.}.[.{. X`.V.a.-.f.b.`.[.{.[.[.[._.x.-.=.-.j.k.-.f.z./.{.{.[.}.}./././.^.z.a.-.a.a.v.v.b.v.a.-.;.+.=.-.a.x.(.^././././.`._.^.z.^.^.z.^.^.z.z.z.^.^.(.(.(.z.z.z.z.z.z.l.z.z.z.z.z.b.z.l.l.x.x.s.=.=.=.=.-.g.a.-.+.T K G P H T ,.d.a.a.a.a.a.a.-.-.-.=.=.=.<.;.+.=.-.g.g.-.=.=.=.-.-.=.+.O.O.O.O.O.O.T T T T T T T T T Y Y Y Y Y W Y H H H H H G G G G G G G G G k k k G G G k j l a 5 4 ; ; ; 9 f p p p s i i 5 4 4 4 : : 4 : 4 5 5 5 a f l j j G G G H H H H H ",
"a.a.-.-.a.a.a.-.=.=.=.=.+.+.O.O.T Y Y Y W R K Y T O.-.g.1.<.W G k G E O.0.;.;.=.-.-.-.a.a.a.a.a.a.a.s.x.x.x.l.l.l.l.l.l.l.l.l.l.z.z.z.z.z.z.^.^.z.z.l.v.k.a.-.=.g.a.s.v.b._.^._.(.b.l.a.a.f.f.a.s.l.z.^.^.^.^.^.^.^.`.b.F.-.O.T O.+.-.a.z.^./.^._.l.a.s.l.b._.^._.^.^.^.^._.`.].^.^.^.^.`./.^.^./././././././././././././.^.^.^./././.^.^.(.x.a.=.=.,.j.a.l./.[./.^.z.s.s.z./.[.[. X}./././.[.[./._.s.-.g.1.E H T =.b. X X{.{.{.[.XX`.^.^.^./. X[.{.{.{.{.{.{.[.{.[.[.[.[.[.{.{.[.[.[.[.[.[.[.[.[././././.[././././././././././././.[.[.[.].m.a.-.f.c.]. X[.{.{.[.(.s.-.=.-.g.j.-.a.z./.{.{.[.[././././.`.z.a.-.-.a.v.b.b.v.a.-.;.+.=.-.a.x.^.^./././././.^.^.^.^.z.z.z.^.z.z.z.z.z.z.z.z.z.z.z.z.z.z.z.z.z.z.z.z.z.b.v.l.l.l.f.=.=.=.=.-.a.a.-.+.Y ! G K H $.;.-.a.a.a.a.a.a.-.-.-.=.+.=.<.;.+.+.=.g.h.g.-.=.=.-.-.=.+.O.O.+.+.O.O.T T T O.Q Q Y T T Y Y Y Y Y Y Y Y Y Y H H H H H G G G G G G k k G G G G k k p a 7 4 ; ; ; 8 f j p i i f a 5 5 4 4 4 4 4 8 4 g 5 5 i p p j k G G H H Y Y Y Y ",
"f.a.a.a.a.a.-.-.-.=.=.+.+.+.+.O.T Y Y Y Y K K Y T O.=.g.1.<.Y G G G T T <.+.;.=.-.-.-.-.a.a.a.a.a.a.s.l.v.v.l.l.z.z.l.l.l.l.l.l.z.z.z.z.z.z.z.z.z.z.b.v.s.a.-.=.a.a.s.v.b._.^.^.(.b.l.a.a.f.a.a.s.l.z.^.^./.^.^.^.^.`.b.F.-.O.T O.+.-.a.z._.`.^._.l.a.s.l.b._.^.^.^.^.^.^.^.^.^.^.^.^.^././.^.^././././././././././././././././././.^.^.^.(.x.a.=.=.-.j.a.l.`.XX`.^.l.s.s.z./.[.[. X}./././.[.[.[._.s.a.g.1.E H T =.b. X[.[.{.{.[.`.^.^.^.^./.}.[.[.[.{.{.{.[.[.[.[.[.[.[.[.[.[.[.[.[.[.[.[.[./.[./././././././././././././././.}./.[.[.[.].m.a.-.f.c.]. X[.{.[.[.(.s.-.=.-.g.k.-.a.z./.{.{.[.}.[./././._.z.a.-.a.a.x.v.b.m.a.-.<.=.=.-.f.m.(.^././././.^.^.^.^.^.^.^.^.^.^.^.z.z.z.z.z.z.z.z.z.l.z.z.z.z.z.z.z.z.z.l.l.l.l.s.f.-.=.=.=.-.g.g.-.+.T ! G K G O.=.-.a.a.a.a.a.a.-.-.-.=.+.=.<.;.+.+.=.g.g.-.=.=.+.-.-.=.+.O.T O.+.O.O.T T T O.Q Q T T T Y Y Y Y Y Y Y Y Y Y H H H H H G G G G G G k k k G G G k j p a 7 4 ; # ; 8 s j p p s h a 5 5 4 4 4 4 4 4 4 9 5 5 i s p j j k G H H H Y Y Y ",
"a.a.a.a.a.-.-.-.-.=.=.+.+.+.+.O.E Y Y Y Y K K H T O.=.g.1.<.R G G G T T %.+.=.=.-.-.-.-.-.a.a.a.a.a.s.l.v.v.l.z.b.z.z.l.l.l.l.l.z.z.z.z.z.z.z.z.z.z.v.x.s.a.=.=.a.a.s.v.z.z.^._.'.b.l.a.a.f.s.a.s.l.z.^.^.^.^.^.^.^.`.b.F.-.O.T O.+.-.s.b.].`.^.(.l.a.s.l.z._.^.^.^.^.^.^.^.^.^.^.^.^.^.^.^.^.^././.^././.^.^.^.^.^.^.^././././.^.^.^.^.^.c.l.a.=.+.-.j.a.l.`.XX`._.l.s.s.z./.[.[.[././././.[.[.[.].l.a.g.1.E H T =.b.`. X[.{.{.[./.^.z.^.^./.}.[.[.[.{.{.{.[.[.[.[.[.[.[.[.[.[.[.[.[.[.[.[.[./.[.[./.[././././././././././././.}./.[.[.`.(.m.a.-.f.m.]. X[.[.[.[.(.f.=.=.=.g.k.-.a.z./.{.{.[.}.[./././.`.z.a.-.a.a.l.v.v.v.a.:.1.=.=.-.x.m.(.^./././././.^.^.z.^.z.^.^.^.^.^.^.^.z.z.z.z.z.z.z.l.z.z.z.z.z.z.z.z.l.l.l.l.s.s.a.-.=.+.=.d.j.g.-.+.T ! G K G T +.-.a.a.a.a.a.a.-.-.-.=.+.=.<.;.+.+.=.g.g.-.=.=.=.-.-.=.+.T T O.+.O.O.T T T O.O.T T T T Y Y T T Y Y Y Y Y Y H H H H H H G G G G G k k k G G G k j j s 7 4 ; # ; : i p f f f d 7 4 4 4 4 4 4 4 4 4 9 4 4 5 a p j j k G G H H H Y Y ",
"a.a.a.a.a.a.-.-.-.=.=.+.+.+.O.O.E Y Y Y Y H H H T O.=.g.1.*.Y G G H E T *.+.=.=.-.=.-.-.-.a.a.a.a.a.s.l.v.v.z.z.b.b.z.z.z.l.l.l.z.z.z.z.z.z.z.z.z.z.v.x.f.-.=.=.a.a.s.b.b.z.^._.(.c.s.a.a.f.f.a.s.l.z.^././.^.^.^.^.`.b.F.-.O.T O.+.=.a.(.].`.^.(.l.a.s.l.z._.^.^.^.^.^.^.^.^.^.^.^.^.^.^.^.^.^.^.^.^.^.^.^.^.^.^.^.^.^././././././.^.^.^.c.l.a.=.+.-.d.s.z.`.XX`._.z.s.s.z.`.[.[.[.[././.[.[.[.[.].l.a.g.1.T H T =.b.`. X[.{.[.}.^.^.z.^.`.`./.[.{.{.{.{.{.{.[.{.{.[.[.[.[.[.[.[.[.[.[.[.[.[././.}.}.[././././././././././././.}./.[.[./.(.v.a.-.f.c.]. X[.[.[.[.(.f.=.=.=.g.k.-.a.z./.{.{.[.[././.[./._.z.a.a.a.a.l.l.l.v.a.-.,.=.=.-.v.'.(.`.[.[././././.^.^.^.z.^.^.^.^.^.^.^.^.^.z.z.z.z.z.z.z.z.z.z.z.z.z.b.l.l.l.l.s.a.a.-.=.+.=.-.d.g.-.+.T ! G K G T =.-.a.a.a.a.a.-.-.-.-.=.+.=.<.;.+.=.-.g.h.-.=.=.=.-.-.=.+.O.T O.+.O.O.T T O.O.O.T T T Y Y Y T T Y Y Y Y Y Y H H H G G H G G G G G k k k k G G k j p a 7 : ; # ; : 5 p d d a 7 4 8 : : : : : : 4 4 8 4 4 5 a p p j c G H P Y Y Y Y ",
"a.a.a.a.a.a.-.-.=.=.=.+.+.+.O.T E Y Y Y Y H H H T O.=.g.1.*.Y G G H ~ @.<.+.=.=.-.-.-.-.-.a.a.a.a.a.s.l.l.v.l.z.b.b.z.l.z.l.l.l.z.z.z.z.z.z.l.l.b.z.v.x.f.-.=.=.a.a.l.b.b.z._.]._.c.s.a.a.f.f.a.s.l.z.^././.^.^.^.^.`.b.F.-.O.T O.+.=.a.'.].`.^.(.l.a.a.x.b.b.^.^.^.^._.^.^.^.^.^.^.^.^.^.^.^.^.^.^.^./././.^.^.^.^.^.^././././././.^.^.(.c.f.a.=.+.=.d.a.z.`.}.`._.z.s.s.z.`.[.[.[.[.[. X[.{.[./.`.l.a.k.H.@.Y T =.b. X X[.[.[.}./.^.z.^.).)./.[.[.{.{.{.{.{.[.[.[.[.[.[.[.[.[.[.[.[.[.[.[.[.[./.}.}./././././././././././././.}./.[.[./._.v.-.-.a.c.). X[.[.[.}.(.f.-.=.-.g.k.-.a.z./.{.{. X/././.[./._.z.a.-.g.a.l.l.l.f.-.-.-.=.=.a.x.'.`./.[.[.[./././.^.^.^.z.^.^.^.^.^.^.^.^.^.^.z.z.z.z.z.z.z.z.z.z.z.z.c.x.l.l.x.s.a.a.=.=.=.=.-.a.g.j.O.Y P G K G O.;.-.a.a.a.a.a.a.-.-.-.=.+.+.<.;.O.=.-.g.h.-.=.=.=.-.-.=.+.O.T O.+.O.O.T O.O.O.T T T T T Y T T T Y Y Y Y Y Y H H H H G H G G G G G k k k k G G k j p i 5 : ; ; ; : 7 5 9 4 4 : : : ; ; ; ; : : : : : : 4 7 a i p j k G G H H Y Y Y ",
"a.a.a.a.-.-.-.-.=.=.=.=.+.+.O.T E Y Y Y H H H H T O.=.g.1.<.Y G G H &.&.0.+.;.=.-.-.-.-.a.a.a.a.a.a.s.l.l.v.l.z.b.b.z.z.z.l.l.l.l.l.l.z.z.l.l.l.z.l.l.f.f.-.=.=.-.a.s.v.b.z._._.'.m.s.a.a.a.g.a.s.l.z.^././.^.^.^.^.`.b.F.-.O.T O.+.-.s.'.].).^.b.l.a.s.x.b.z.^.^.^.^.^.^.^.^.^.^.^.^.^.^.^.^.^.^.^.^.^.^.^.^.^.^.^././././././././.^.^.(.c.f.-.=.+.=.g.a.z.`.`.`.`.z.s.s.z.`.[.[.[.[.[. X[.{.[./._.l.a.k.H.@.Y T =.b. XXX}.[.[./.`.^.z.^.).)./.[.[.[.{.{.{.[.[.[.[.[.[.[.[.[.[.[.[.[.[.[.[.[.[././././././././././././././././.}./.[.[./._.v.-.-.a.l.(. X[.[.[.}.(.f.-.=.-.g.k.-.a.z./.{.{.[.[././.[./._.z.a.-.d.a.v.l.l.v.-.-.-.=.=.a.x.'.`./.[.[.[./././.^.^.^.^.^.^.^.^.^.^.^.^.^.^.^.z.z.z.l.l.l.l.z.l.l.l.x.x.l.x.x.s.a.a.=.+.=.=.-.-.g.j.O.Y P G K H O.;.:.a.a.a.a.a.a.g.-.-.=.+.+.;.#.O.+.-.g.g.-.=.+.=.-.-.=.+.T T O.O.O.O.O.O.O.O.T T T T T T T T T Y Y H H Y Y H H H H H H G G G G G k k k G G G k j p i 5 : ; # ; , 8 4 : : ; ; ; > # # # ; ; ; ; ; : : : 4 5 i p j k k G H H Y Y Y ",
"a.a.a.a.-.-.-.-.=.=.=.+.+.+.O.T T Y Y Y H K H H T O.=.,.1.*.Y G G H &.O.<.+.=.=.=.=.-.-.a.a.a.a.a.a.s.l.l.l.z.z._.b.z.z.z.l.l.l.l.l.l.l.l.l.l.l.z.l.l.s.f.-.=.=.-.a.s.v.b.z._._.'.c.s.a.a.a.g.a.s.l.z.^././.^.^.^._.`.b.F.-.O.T O.+.-.s.b.).`.^.b.l.a.a.x.c.b.^.^.^.^.^.^.^.^.^.^.^.^.^.^.^.^.^.^.^.^./././././.^.^././././.^.^././.^.^.^.c.s.-.=.+.=.g.a.l.`.`.`.`.z.l.l.z.`.[.{.{.[.[.[.{.{.{./._.l.a.k.j.T H T =.b. X[.}.[.[./.`.^.z.z.).)./.[.[.[.{.{.{.[.[.{.{.[.[.[.[.[.[.[.[.[.[.[.[.[.[./././././.[././././././././././././.[.[./._.n.-.=.a.l._. X[.{.[./.(.f.-.=.-.j.k.-.f.z./.{.{.[./././.[./._.z.a.-.g.a.x.v.l.n.a.-.,.=.=.a.l._.`./.[.[.[.[./././.^.^.z.^.^.^.^.^.^.^.^.^.^.^.z.z.z.z.l.l.l.l.l.l.l.l.l.l.s.f.s.a.-.=.+.+.=.-.d.j.j.O.Y U G K G O.;.-.a.a.a.a.a.-.-.-.-.=.+.+.;.#.O.+.=.a.g.-.=.+.+.-.-.=.+.T T O.O.O.O.O.O.O.O.T T T T Q T T T T Y Y H H Y Y H H H H H G G G G G G k k k G G G k j p i 5 : ; # ; > 8 : ; # # # # # + + # # # ; ; ; : ; : 4 5 5 i j j k G H H H Y Y ",
"-.a.a.a.a.a.a.g.-.=.=.+.+.+.O.T T Y Y Y Y R K H T O.=.,.1.*.Y G G H ~ Q *.+.;.-.=.=.-.-.a.a.a.a.a.a.s.s.l.l.z.z.b.b.z.z.l.l.l.l.l.l.l.l.l.l.l.l.z.l.l.s.g.-.=.=.a.s.f.v.z.z._.]._.v.a.-.-.a.f.a.l.l.z.^././.^.^.^.^.`.b.F.=.O.T O.+.-.a.z.^.^.^.b.l.a.a.x.c.z.^.^.^.^.^.^.^./.`.^.^.^.^.^././.^.^.^././././././././././.^.^.^.^./.^.^.^.z.z.f.-.=.+.=.g.a.z.`./.[.`.z.l.l.z.`.[..X{.[.[.[.[.{.[./._.s.a.g.1.T H T =.b. X[.[.[.[./.`.^.z.z.^././.[.{.[.{.{.{.{.{.[.[.[.[.[.[.[.[./././././././.[.[./././.[.}.[./././././././././././.[. X/._.n.a.=.a.l._.[.[.{.[./.(.f.-.=.-.j.k.a.f.z./.[.{.[./././././._.b.s.a.a.a.l.l.v.x.a.-.1.=.-.a.v._._./.[.[.[.[./././.^.^.z.^.^.^.^.^.^.^.^.^.^.z.z.z.z.z.z.l.l.l.l.l.l.l.s.s.s.f.s.a.-.=.+.+.=.d.j.j.,.O.Y U G K G Q +.-.a.a.a.-.-.a.-.-.-.=.+.+.;.#.O.+.=.g.g.g.-.=.=.-.-.=.+.O.O.O.+.O.O.O.O.O.O.T T Y T Q T T T T Y Y H H Y Y Y H H H H G G G G G G G k G G G G k j f a 4 : ; ; ; ; 3 ; # # # + @ + @ + + # # ; ; ; ; ; : : 4 5 i p k G H H H Y Y Y ",
"a.a.a.a.a.f.f.a.a.-.=.+.+.+.O.T T Y Y Y W Y Y Y Y T ;.,.j.>.Y G G G W &.*.=.=.-.-.-.-.-.a.a.a.s.a.l.l.l.x.l.l.z.z.z.z.l.l.l.l.c.l.l.l.c.c.l.l.l.l.l.l.f.g.-.=.=.s.s.s.s.l.z._.]._.c.a.-.-.g.f.s.z.z.^.^.^./././././.`.b.m.=.O.T O.+.-.s.(.]./.^.(.l.a.a.x.b.^.^.^.^.^.^.^.^.^././.^./.^.^.^././././././././././././././././././.^.^.^.z.z.x.f.-.+.+.;.g.a.b.].[././.^.z.z.^./.)./.[.[.[.[.[.[.[./.z.a.-.j.<.E H T -.b. X X[.{.|. X`.z.l.l.(.}..X{.{.[.[.[.[.[.{.{.{.[.[.[.[.[./.[././././.[././.[././.[.[.[. X/. X X/./. X[./././././.[.`.(.m.-.=.a.x._. X{.{.[.).(.f.=.=.-.g.g.-.f.z.`.[.{.[./././././.`.b.s.a.a.a.v.b.l.s.a.-.:.=.=.-.x.c.)././.[.[.[.[./.`.`._.^.^.z.^.^.^.^.^.^.^.(.^.z.z.z.l.l.l.l.l.l.l.l.l.l.l.s.s.s.s.a.+.O.+.-.a.g.-.;.T T R K G H Q ;.j.a.a.a.a.a.a.a.-.-.=.+.+.+.+.O.+.=.a.g.a.-.-.-.-.:.;.+.+.#.%.+.O.O.O.O.T T T O.T T T T T T T Y Y Y Y W R Y Y H G H H H H K K G G G G G H G G z p a 7 : ; ; ; > 3 ; # # + + @ @ @ @ # ; > ; ; ; : : : : : 4 i p z G H H Y Y Y T ",
"a.a.a.a.a.a.g.a.a.-.=.=.+.+.O.T T Y Y Y W T W Y Y T =.,.j.>.Y G G G W &.*.=.=.-.-.-.a.a.a.a.a.f.s.l.l.l.l.l.l.l.l.l.l.l.l.l.l.x.l.l.l.c.c.l.l.z.z.l.l.x.k.-.=.=.a.l.s.l.l.z.^.`._.c.a.-.-.d.f.s.z.^.^.^.^.^././.[./.`.b.n.=.O.T O.+.-.s.(.].`.^.'.l.a.a.l.z.^.^.^.^.^.^.^.^./././././././././././././././././././././././././././.^.^.z.z.x.f.-.+.+.;.-.a.z.XX}.[./.^.^.^.^./.)././.[.[.[.[.[.}.).z.a.-.Z.0.Y H T -.b. X}.[.{.7X X`.z.l.l.(.}.{.{.{.[.[.[.[.{.{.{.[.[.[.[./././././././././././. X/././.[.[. X/. X/././. X X/././././.[.`.(.V.a.-.a.c._. X{.{.[.`.z.f.=.=.-.g.g.-.f.z.`.[.[././././././.`.b.s.a.a.a.b.b.z.l.a.-.:.=.=.-.s.c.)./././.[././.`./._.^.^.z.z.^.^.^.^.^.^.^.(.^.z.z.z.l.l.l.l.l.l.l.l.l.l.s.a.a.a.a.-.O.O.+.-.a.g.-.;.T T R K H H T *.g.g.a.a.a.a.a.a.-.-.=.+.+.#.+.O.+.=.a.g.a.a.a.-.-.=.=.+.+.+.+.+.O.O.O.T T T T T T T T T T T T Y Y Y Y Y Y H H H H H H H H H H G G G G G H G G l p a 7 : ; ; ; 1 r , # # # + + + + + # 2 3 : : : : : : : : 4 i p z G H Y Y T T T ",
"a.a.a.a.a.a.a.a.-.-.=.=.+.O.O.T T Y Y Y W T T Y Y E =.,.j.>.Y G k G W &.%.=.=.-.-.-.a.a.a.a.a.f.s.l.l.l.c.l.l.l.l.l.l.l.l.s.l.l.l.l.l.l.l.l.l.l.z.l.l.x.k.-.=.=.a.s.x.x.x.z.^._._.b.a.-.-.d.f.s.z.^.^.^.^.^././.[./.`.b.D.=.O.T O.+.-.a.b.]._.z.'.l.a.a.l.z.z.^.^.^.^.^.^.^./.^./././././././././././././././././././././././././.^.^.^.b.c.f.-.+.+.;.-.a.z.`.}.[.`./.^.^.^./.)./.}.[.[.[.[.[.}.).z.a.-.j.<.Y H T -.b./. X[.{..X[.`.z.l.l.(.}..X{.{.[.[.[.[.{.{.[.[.[.[.[./././././.^.^././././. X/././.[.[. X/././././. X X X/./././.[.`.(.V.a.-.a.c._. X{.{.[./.z.a.=.=.-.g.g.-.a.z.`.[.[./.`././././.`.(.x.a.a.s.b.b.b.s.a.-.:.=.=.-.s.c._./././././././.^.^.^.z.z.z.z.^.^.^.^.^.^.^.z.z.z.l.l.l.l.l.l.l.l.l.s.s.s.a.a.s.a.-.O.O.+.-.a.g.-.;.O.T R H H Y Q #.-.a.a.a.a.a.a.a.a.-.=.+.+.;.+.O.+.=.a.g.a.a.a.-.=.=.+.+.+.+.+.O.O.T T T O.O.T T T T T T T E E W H H H H H H H H H H H G G H H G G k G G G G k l p a 5 : ; ; ; 1 r 1 ; # # # # # # # > 2 3 : : : : : : : 4 5 i p z G H Y Y T T E ",
"a.f.f.a.a.f.g.a.-.-.=.=.+.+.O.T T Y Y H W T T T Y E =.,.j.;.Y k k G W @.%.=.=.-.-.-.a.a.a.a.a.a.l.l.l.l.c.c.l.l.l.l.l.l.s.s.l.l.s.l.l.s.s.l.l.l.l.l.s.f.g.-.=.=.s.l.x.x.l.z.^.^._.b.a.-.-.d.f.l.z._.^.^.^.^././././.`.b.D.=.O.T O.O.=.a.b.(._.^.'.l.a.a.s.l.z.^.^.^.^.^.^.^.^.^.^.^.^.^.^.^./././././././././. X/./././././././././.^.^.b.c.a.-.+.+.;.a.a.z.XX}. X`./.^.^.^.^./.}.[.[.[.[.[.[.}.).z.a.-.j.<.Y H T -.b./..X{.{..X[.`.z.l.l.(.[.{.{.{.[.[.[.[.{.{.[.[.[.[.[./././.`./././././././. X/././././.[./././././. X X X/.^././.[.`.(.n.-.=.a.c._. X{.{.[./.z.a.=.=.-.g.g.-.a.z.`.[.[./.`././././.`.(.x.a.a.s.b.b.b.s.a.-.:.=.=.a.l.c.(./././././././.^.^.^.z.z.z.z.^.z.z.^.z.^.z.z.z.l.l.l.s.l.l.l.l.l.l.l.l.l.a.s.s.f.a.O.O.+.=.a.g.-.;.T W K H H Y O.+.-.a.a.a.a.a.a.a.g.-.=.+.;.<.%.O.+.=.g.g.a.a.-.-.=.=.=.+.+.+.%.+.O.T T O.O.O.O.T Y Y Y Y Y Y W W H H H H H H H H H K H G G G G k k k k G G G k l p a 5 : ; ; ; 1 r 1 ; # # # $ $ # # ; 3 1 1 : 4 : : : 4 4 5 i p z J H Y Y T E T ",
"f.f.a.a.a.a.a.-.-.-.=.=.+.+.O.T T Y Y H W T T T Y T ;.,.j.=.Y k k H W O.+.=.=.-.-.-.a.a.a.a.a.a.l.l.l.l.c.c.l.l.l.l.l.l.l.s.s.x.l.c.x.l.l.x.z.l.l.l.s.s.a.-.=.=.f.f.f.s.l.z.^.`._.b.a.-.-.f.x.l.b.b.z.z.^.^././././.`.b.I.=.O.T O.O.=.a.b.(._.b.b.s.a.a.s.l.z.z.^.^.^.^.^.^.^.^.^.^.^.^.^.^.^.^./././././././. X/./././././././././.^.^.z.c.a.-.=.=.,.g.s.z.XX}.[./.^.^.z.z.^.^./.}.[.[.[.[.[.}.).z.a.-.j.<.Y H T -.z./..X.X{..X[.`.z.l.l.(.}.{.{.{.{.[.[.[.{.{.[.[.[.[.[./././.`.`././././././././././././././././././.[.[./././.^././.`.b.n.-.-.a.c.^. X[.{.[./.z.a.=.=.-.g.g.-.a.z.`.[.[.`.`././././.`.(.x.a.a.s.b.b.b.l.a.-.:.=.=.a.l.c.(.^././././.^.^.^.z.z.z.z.z.z.z.z.z.z.z.b.z.z.l.l.l.l.s.l.l.l.l.l.l.l.l.l.s.s.f.f.a.+.O.+.=.-.g.-.;.T Y H G H Y O.#.-.a.a.a.a.a.a.a.g.-.=.+.;.<.%.O.+.=.a.g.g.a.a.-.=.=.=.+.+.+.%.O.T T O.O.T T T T Y Y Y Y Y Y W Y H H H H H H H H H K K G G G G k k k k k G G k j p a 5 : ; ; : 1 0 : ; ; ; > > > # # ; , 1 : 4 4 : : : 4 8 7 s f z J H Y Y Y E E ",
"a.a.a.a.a.a.a.-.-.-.=.=.+.+.O.T T Y Y Y W T T Y Y E =.,.,.+.Y k k H W Q +.=.=.-.-.-.a.a.a.a.a.s.l.l.l.l.c.l.l.l.l.l.l.l.s.s.s.x.s.l.l.l.l.l.l.l.l.l.s.a.a.-.=.=.f.f.f.f.s.l.^.`._.b.a.-.a.f.x.l.z.z.z.z.z.z.^.^./.^._.v.I.=.O.T O.O.=.a.b.'._.b.b.a.a.a.s.l.z.z.z.^.^.^.^.^.^.^.^.^.^.^.^.^.^./././././././. X X/./././././././././.^.^.z.c.a.-.=.=.,.g.s.^. X[.[./.^.^.z.z.^.^./.[.[.[.[.[.[./.`.z.a.-.Z.<.Y H T =.b./. X.X{..X X`.z.l.l.^.[.{.{.{.{.{.[.{.{.{.[.[.[.[.[./././.`./././././././././././././././././././.[. X/./.).)./.[.`.(.V.-.-.a.c.^. X[.{.[./.z.a.=.=.-.g.g.-.a.z./. X[./.`././././.`.b.x.a.a.s.v.b.b.l.a.-.,.=.=.a.l.c._.^././././.^.^.z.z.z.z.z.z.z.z.z.z.z.z.z.z.l.l.l.s.l.l.l.l.l.l.l.l.l.l.s.a.a.f.f.a.O.O.+.=.-.g.-.;.T Y H G H Y O.;.-.a.a.a.a.a.a.a.a.-.=.+.;.;.%.O.+.=.g.g.g.a.a.-.=.=.+.+.O.O.O.O.T Q Q Q Y Y Y Y Y Y Y Y Y Y Y Y H H H G G G G G G G G G G G G k k j k k k k k j p a 5 : ; ; : 8 8 : ; ; ; , 3 > # # ; : 4 : 4 4 4 4 4 4 5 7 s j c J H H Y Y Y Y ",
"a.a.a.a.a.a.a.-.-.-.=.=.+.+.O.O.T Y Y Y W T W Y Y T +.-.,.+.Y k k H W T O.=.=.-.-.a.a.a.a.a.a.s.l.c.z.l.c.l.l.l.l.l.l.l.s.f.s.f.s.s.s.l.l.s.s.s.v.l.s.a.a.-.=.=.a.a.f.f.s.l.^._._.b.a.-.a.f.v.l.b.z.z.z.z.z.z.^.^.^._.l.I.=.O.T Q O.=.a.x.'._.b.l.a.a.a.f.l.l.z.z.z.^.^.^.^.z.z.^.^.^.^.^.^.^.^././././././././././././././././././.^.^.^.c.f.-.=.=.,.g.s.^.XX[. X/.^.^.z.z.^.^./.[.[.[.[.[.[.}.`.z.a.-.q.0.Y H T =.l./. X.X{.{. X`.z.l.z.^.[.{.{.{.{.{.[.{.{.{.[.[.[.[././././././././././././././././././././././././.[.[././.).)./.[./.(.V.-.-.a.c._. X[.[.[.`.z.a.=.=.-.g.g.-.a.z./.[.[././././././.`.b.s.a.a.a.v.b.b.l.a.-.,.=.=.a.l.c._.^.^./././.^.^.z.z.z.l.l.l.z.z.z.z.z.l.l.l.l.l.l.s.l.s.l.l.l.l.l.s.l.l.s.a.a.f.f.-.O.O.+.=.-.-.:.;.T Y K G G H O.<.-.a.a.a.a.a.a.a.-.-.=.=.;.;.*.+.+.=.-.g.g.a.a.-.=.=.+.O.O.O.O.T T T T Y Y Y Y H Y Y Y H H H H H H H H G G G G G G G G G G k k k j j k k k k k j s a 5 : ; ; : 8 8 4 : ; : 3 , ; ; ; ; : 4 4 4 4 4 : : : 4 7 p p z G H H Y Y Y Y ",
"a.a.a.a.a.a.a.-.-.-.=.+.+.O.O.O.T Y Y Y T T Y Y Y T +.-.,.+.Y k k H W Q O.=.=.-.-.-.a.a.a.a.a.a.l.c.c.l.z.l.l.l.s.s.l.s.s.a.f.s.l.s.s.x.x.s.s.l.b.l.s.s.g.-.=.=.a.a.f.f.s.l.^.^._.b.a.-.a.f.v.l.b.b.z.l.l.z.z.^.^.^._.l.I.=.O.T Q O.=.a.v.'._.b.l.a.a.g.f.l.l.z.z.z.^.^.^.^.z.z.^.^.^.^.^.^.^.^././././././././././././././././././.^.^.^.c.f.a.=.=.-.g.s.^. X[.[././.^.^.^.^.`./.[.[.[.[.[.[.[.^.z.a.-.q.0.W H T =.l./. X.X{.{.[.`.z.l.z.^.[.{.{.{.{.{.{.{.{.{.[.[.[./././././.`./././././././././.[.}././././././././.[././.^.)./././.^.b.n.-.-.a.c._. X[.[.[.`.c.a.=.=.-.g.g.-.a.z._.[.[././.`./././.`.b.s.a.a.a.v.b.b.l.a.-.,.=.=.a.l.b._.^.^.^././.^.^.z.z.z.z.l.l.z.z.z.l.l.l.l.l.l.l.s.s.s.s.s.l.l.l.s.s.s.l.s.a.a.f.f.-.O.O.+.=.-.-.:.#.Y Y P G G H O.<.-.a.a.a.a.a.a.a.-.-.=.=.+.#.%.+.+.=.d.g.g.a.-.-.=.;.+.O.O.O.O.T T Y Y Y Y W W Y Y H H H H H H H H H H G G G G G G G G k k k k k j j j k k k j j s a 5 : : : 1 8 8 8 4 : : 0 : : ; ; ; : 4 4 4 4 4 4 : : 4 5 i p z G H H H H H Y ",
"f.f.a.a.a.a.-.-.=.=.=.+.+.+.O.O.T Y Y Y W T Y Y Y T =.,.j.>.Y k k G Y O.%.+.=.-.-.-.a.a.a.a.a.x.l.l.l.l.l.l.l.l.l.s.s.l.l.s.a.f.a.s.s.s.a.s.l.l.l.l.l.s.h.-.=.=.a.a.f.f.s.l.^.`._.b.a.-.a.f.x.l.b.z.l.l.l.z.z.z.^.^.z.v.k.=.T T Q O.=.-.x.'.b.l.l.a.a.a.v.v.l.z.z.z.z.z.^.^.^.z.z.z.z.^.^.^.^.^./././././././././././././././././././.^._.c.f.-.=.=.-.g.s.z. X.X[.^./.^.^.^.z.).`. X[.[.[.[.[./.^.c.a.=.Z.0.Y H Y =.b. XoX X{.{. X`.z.l.l.(. X{.{.{.[.[.[.[.{.{.[.[.[.[.[./././././.^././././.^./././././././.^././././././././.).^././.^.b.n.-.=.a.c._./.[.[.[.XX(.a.=.+.=.A.a.=.a.l.^.[././.^././././.^.b.f.a.a.f.l.l.b.l.a.a.-.=.=.-.a.c.(.^././.^.^.^.z.z.z.z.l.z.z.z.z.l.l.l.l.l.l.l.s.s.s.s.s.s.s.l.l.s.s.l.l.s.a.a.s.a.-.O.O.+.=.-.-.=.+.Y H K G G H T *.,.a.-.a.a.a.a.a.a.-.=.=.+.+.+.+.+.=.d.j.g.a.-.-.;.=.+.O.O.T T T T Y Y W T W Y H Y H H H H W W K H G G G G G G G G k k k k k k k j j k k k k j p i i 5 : ; : 1 0 9 4 : : : 8 : : ; ; : : : : 4 4 4 4 4 4 4 5 i p z G G H H Y Y Y ",
"f.f.a.a.a.a.-.-.=.=.=.+.+.+.O.O.T Y Y Y W T Y Y Y T =.-.j.>.Y k k G Y O.%.=.=.-.-.-.a.a.a.a.a.x.l.l.l.l.l.l.l.l.l.s.l.l.l.f.f.f.a.s.s.s.s.s.l.l.l.l.l.v.h.-.=.=.a.a.f.f.s.l.^.`._.b.a.-.a.f.x.l.b.z.l.l.l.l.z.z.^._.z.v.k.=.O.T T O.+.-.x.'.b.l.l.a.a.a.v.x.l.z.z.z.z.z.^.^.^.z.z.z.^.^.^.^.^.^.^././././././././././././././././././.^._.b.f.-.=.=.,.j.s.z. X.X X/./.^.^.^.^.). X[.[.[.[.[.[.[._.c.a.=.Z.0.Y G Y =.b.XXXXoX.X{.[.`.z.l.l.(. X{.{.{.{.[.[.[.{.{.[.[.[.[.[./././././.^././././.^././././././././././././././././.^.^././.^.'.n.-.=.a.m._./.[.[./.XX(.a.=.+.=.Z.a.-.a.l.^. X X/.^././././.^.c.f.a.a.f.v.b.b.x.a.:.-.=.=.-.a.c.(.^./././.^.^.(.b.z.z.l.z.z.z.z.z.l.l.l.l.l.s.s.a.a.s.s.s.s.l.l.s.s.s.l.s.a.a.f.f.-.O.O.+.=.=.=.=.O.Y H J G G H T *.-.-.-.-.a.a.a.-.a.-.=.=.+.+.+.+.+.=.d.j.g.a.-.-.=.+.O.O.T T T T T Y Y W W W Y Y H H H H H H H H G G G G G G G G G G k k k k k k j j k k k k j p p a 5 4 ; ; 1 0 q 9 4 : 4 4 : : ; ; : : 4 : 4 4 4 4 4 4 4 5 i p z G G H H Y Y Y ",
"f.f.a.a.a.a.-.-.=.=.=.+.+.O.O.O.T Y Y H W Y T Y Y T +.-.,.;.Y k k G Y @.%.=.=.-.-.-.a.a.a.a.a.f.s.l.l.l.l.l.l.l.l.l.l.s.s.s.f.s.s.s.s.s.s.s.l.l.v.l.l.v.k.-.=.=.g.s.f.f.s.l.^.`._.b.a.-.a.f.x.l.b.z.l.l.l.l.z.z.^.^.b.v.k.=.O.O.T O.+.a.x.'.b.l.s.a.a.a.v.c.z.z.z.z.z.z.^.^.^.^.^.^.^.^.^.^.^.^.^.^././././.^.^.^.^./.^./.^./././././.^.(.c.f.-.=.=.,.j.s.z.XX.X X/./.^.^.(.^.`.[.[.[..X{. X[.[._.c.a.=.Z.0.Y H Y =.v.`. X[.{.[. X`.z.l.l.(.}.{.{.{.{.[.[.[.{.{.[.[.[.[././././././.^.^././././././././././././././././././././.^.^.^./.^.'.n.-.=.a.x.(./.[.[.[.XXc.a.=.+.=.Z.-.-.a.l.^. X[./.^././././.^.z.s.a.a.x.x.b.m.x.a.-.;.=.=.-.a.m.(.^./././.^.^.(.b.z.z.z.z.z.z.z.z.z.z.l.l.l.s.a.a.a.s.s.s.s.l.l.s.s.s.s.a.a.a.f.f.-.+.O.+.+.=.=.+.O.Y H G k G H T *.-.-.-.-.a.a.a.a.-.-.=.+.+.+.+.+.+.-.g.j.g.a.-.=.=.+.O.O.T T T T T Y Y Y Y Y W Y Y Y H H H H H H G G G G G G G J J J k k k k k k j j k k k z z p p a 5 : ; ; 1 8 q 9 4 4 4 8 4 : : : : : 4 4 4 7 4 4 4 4 4 5 i p k k G H H Y Y H ",
"f.f.a.a.a.a.-.-.=.=.=.+.+.O.O.O.O.Y Y H Y Y T Y Y T +.-.,.+.Y G k G W @.%.=.=.-.-.-.a.a.a.a.a.s.s.s.s.l.l.l.l.l.l.l.l.l.s.f.s.s.a.s.a.a.a.a.s.s.v.l.l.v.k.-.=.=.g.s.f.s.l.l.^.^._.b.a.-.-.g.f.l.b.b.l.l.l.l.z.z.^.^.b.v.k.=.O.O.T T +.a.l.'.b.l.l.s.a.a.v.c.z.z.z.z.z.z.^.^.^.^.^.^.^.^.^.^.^.^.^.^./././.^.^.^.^.^.^.^.^.^.^.^./././.^.b.c.a.-.=.+.,.g.s.z.`.[. X/.`.^.^._.^.`././. X[.[.[.[.[._.c.a.=.Z.0.Y H Y +.l./.[. X[.[.[.`.z.s.l.(. X{.{.{.[.[.[.[.[.[.[.[.[././././././.^.^.^././././././././././././././././././././.^.^.^./.^.'.n.-.-.a.x.(./.[.[. X].c.a.=.+.=.Z.g.-.a.l._. X X`.^././././.^.z.a.a.a.f.v.c.c.x.-.-.;.+.=.-.a.b.b.^.^.^.^.^.^.b.b.z.z.z.z.z.z.z.b.z.z.l.l.s.s.s.a.s.s.s.s.s.l.l.s.s.a.a.a.a.a.f.f.-.+.O.+.+.=.=.+.O.Y H G k G H T %.;.-.-.-.-.a.a.a.-.-.=.+.+.+.+.O.+.-.g.j.g.a.-.=.=.+.O.O.O.T T T T T W Y W W W W Y Y Y Y H H H H G G G G G G G G J J J k k k k k j j k k k z k j p a 5 : ; ; : 8 9 9 4 4 4 8 8 4 : : : 4 4 4 4 4 5 4 4 4 5 5 i p j k G H H H H H ",
"f.f.a.a.a.-.-.-.=.=.+.+.+.O.O.O.O.Y Y H Y T W Y Y T +.-.,.;.Y G k H W @.%.;.-.-.-.-.a.a.a.a.a.a.a.s.s.l.l.l.l.l.l.l.l.s.s.s.s.f.a.a.a.a.a.s.s.s.l.s.l.v.k.-.=.=.s.l.s.s.l.l.^.^._.b.a.-.-.a.s.s.b.b.l.l.l.l.z.z.^._.b.v.A.=.O.O.T O.+.-.x.(.(.z.l.s.a.a.m.c.z.^.^.^.^.^.^.^.^.^.^.^.^.^.^.^.^.^.^._.`.`.`.^.^.^.^.^.^.^.^.^.^.^././.^.^.z.x.a.=.+.+.,.j.s.z.`.[. X/./.^.z._.^.`././.[.[.[.[.[.`._.c.a.-.q.0.H G Y =.v.`. X X.X.X/._.l.s.l.(.XX{.{.{.[././.[.[.[.[.[.[././././././.^.^.^./././.^./././././.^././.^.^.^.^.^.^./.^.^.^./.`.^.'.n.-.-.a.x.(././.[. X].c.a.=.+.=.Z.-.=.a.c.`. X X/.].`./././._.b.a.a.a.f.v.b.c.x.-.-.;.+.+.=.a.x.b.^.^.^.^.^.^._.b.z.z.z.z.z.b.b.b.c.l.l.l.s.s.s.f.f.s.s.s.s.l.l.s.s.a.a.a.a.a.f.f.-.+.O.+.+.=.=.+.O.Y H G k G H T +.;.-.-.-.-.-.-.a.-.-.=.+.+.+.+.O.+.=.g.j.g.a.-.=.+.+.O.O.Q T Q Q T T T Y Y Y W W Y Y Y Y R R H H H H G G G G G G J J G G k k k k j j k k k z z j i a 4 : ; ; ; 1 7 4 4 4 8 7 6 8 : : : 4 4 4 4 4 5 4 4 4 5 5 i p j k G H H H H H ",
"f.f.a.a.a.-.-.-.=.=.+.+.+.O.O.O.T Y Y H Y Y W Y Y T +.-.,.;.Y G k H E @.%.=.=.-.-.-.-.a.a.a.a.a.a.s.l.l.l.l.l.l.l.l.l.s.s.s.s.a.s.a.a.f.s.s.l.l.l.s.s.k.h.-.=.=.s.l.s.s.l.z.^./._.b.a.-.-.a.f.s.b.b.l.l.l.l.z.z.^._.b.b.A.-.O.O.T O.+.-.l.(.(.z.l.l.a.s.m.b.z.^.^.^.^.^.^.^.^.^.^.^.^.^.^.^.^.^.^.^._._._.^.^.^.^.^.^.^.^.^.^.^.^.^.^.^.z.x.a.=.+.+.1.j.s.z.).[. X/./.z.z._.^./././.[.[.[.[.[.`._.c.a.=.q.0.H G Y =.l./. X X{..X/.^.l.a.l.(.XX{.{.{.[././.}.[.[.[.[././././././.^.^.^.^./././.^././././.^.^./.^././././.^.^./.^._.^././.^.c.f.-.-.a.x._././.[. X].c.-.=.+.=.Z.-.=.a.c.].[././.]./././.`.`.b.s.a.a.f.v.b.c.x.a.:.;.+.+.=.a.x.b.^.^.^.^.^.^.(._.b.z.z.z.z.b.b.b.z.l.l.l.l.x.x.x.x.s.s.s.s.l.l.s.s.a.a.s.a.f.f.a.-.O.O.+.=.=.;.+.&.Y K G k G H Q %.;.-.-.-.-.-.-.-.-.-.=.+.+.+.+.O.+.=.g.j.g.-.-.=.+.O.O.T T T T T T T T T Y Y W W Y Y Y Y Y R K H H H G G G G G G G G G G k k k k j k k k k k j p i a 5 : ; ; ; 1 4 4 4 4 7 q 7 6 4 : 4 4 4 4 4 4 5 5 4 4 5 5 p p k G G H H H H H ",
"f.f.a.a.a.-.-.-.=.=.+.+.+.O.O.O.T Y Y Y W T Y Y Y E =.,.j.>.Y k k H E O.+.=.=.-.-.-.-.a.a.f.f.a.a.f.s.l.l.l.l.l.s.l.l.s.s.l.l.a.s.a.a.f.f.f.l.l.l.l.l.k.h.-.=.=.s.l.s.s.l.z.^./._.v.a.-.-.a.a.s.b.b.l.l.l.l.z.z.^._.b.b.D.-.+.O.@.O.=.-.l.(.(.z.l.l.a.s.m.c.^.^.^.^.^.^.^.^.^.^.^.^.^.^.^.^.^.^.^.^.^.^.^.^.^.^.^.^.^.^.^.^.^._.^.^.^.^.z.x.a.=.+.+.1.j.s.z.].[./././.z.z.(.^.^.`. X[.[.[.[.[.[.(.m.a.=.q.0.H G Y +.l.`./. X{.[./._.l.a.l.(.}.[.{.[.[././.}.[.[.[.[././././././.^.^.^.^.^./.^.^././././.^.^././././././.^.^.^.^.^.^././._.b.f.-.=.-.v._./././. X].c.-.=.+.=.Z.-.=.a.c._.[././.`.^./././.`.b.s.a.a.f.v.v.b.x.a.:.+.+.+.=.a.x.c.z.^.^.^.^.^.^._.b.z.z.z.z.z.z.z.z.l.l.l.l.x.f.f.s.s.s.s.s.l.l.l.s.a.s.s.a.f.f.g.-.+.O.+.=.=.:.;.*.R K J k G H Q +.;.-.-.-.-.-.-.-.-.-.=.+.+.+.+.O.+.=.,.j.g.-.-.=.+.+.O.T T T T T Y T E E Y Y Y Y Y Y Y H H H H H H H H G G G G G G G G k k k k k j j k k k k j p i a 7 : ; ; ; 1 4 4 4 4 7 q 7 4 : : 4 4 4 : : 4 5 5 5 4 5 5 i p c G G H H H H H ",
"f.f.a.a.a.-.-.=.=.=.+.+.+.O.O.O.T Y Y Y W W Y Y Y E +.,.j.>.Y k k H R Q +.;.=.=.-.-.-.a.a.f.f.s.a.a.s.s.l.l.l.l.s.l.x.l.l.l.l.s.a.a.a.a.f.s.s.s.v.l.s.k.h.-.=.-.s.l.f.s.l.z.^._.b.v.a.-.-.a.a.a.c.b.l.l.l.l.z.z.^._.b.b.D.-.+.O.@.#.=.a.l.(.(.^.z.l.a.s.m.c.z._.^.^.^.^.^.^.^.^.^.^.^.^.^././.^.^.^.^.^.^.^.^.^.z.^.^.^.^.^.^.^.^.^.^.^.b.x.a.=.+.+.;.j.a.z.`.[./.^._.z.l.(.^./.[. X[.[./.[.[.[.).c.a.=.Z.0.H G T =.b.`. X X.X.X X(.l.a.s.c.`.[.[.[././././.[./.[././././././.`.^.^.^.^.^./.^.^./././././././././././././././.^.^.z.^.^.^.b.k.-.=.-.x.(. X/./.[.].c.-.=.+.=.Z.-.-.a.l.^. X X/._.^.^././._.c.a.a.a.a.s.s.x.f.-.-.+.O.O.+.a.x.z.z.^.^.^.^.^._.b.b.z.z.z.z.z.z.z.z.l.l.l.v.x.x.s.s.s.s.s.s.l.l.s.s.a.s.s.a.f.f.g.=.+.O.+.=.-.:.<.*.W K J k G H Q *.;.-.-.-.-.-.-.-.-.-.=.+.+.+.+.O.+.=.,.j.g.-.=.=.=.+.O.T T T Q Q Y T E E Y Y Y Y Y Y Y H H H H H H H H G G G G G G G G k k k k k j k k k k k j p i a 7 8 ; ; , 0 8 4 4 4 5 7 7 4 : : : 4 4 : 4 8 5 5 4 4 5 i p j z J G H H H H H ",
"f.f.a.a.a.-.-.-.=.=.+.+.O.O.T T T Y W Y Y Y Y Y Y T +.,.1.%.H k k G R Q $.+.=.=.-.-.-.-.a.a.a.f.s.s.s.s.s.s.s.s.l.s.l.s.s.s.s.s.s.a.a.a.a.s.s.s.l.s.s.a.a.-.-.=.g.s.x.x.l.l.c.c.c.l.s.a.a.a.a.a.l.v.x.l.l.l.l.z.z.^.b.b.n.-.O.+.O.+.=.a.c.(._.(.b.v.l.v.c.z.z.^.^.^.^.^.^.^.^._.^.^.^.^././././.^.^.^.^.^.^.^.^.^.z.z.^.^.^.^.^././.^.^.b.v.a.=.O.O.=.-.a.z.XX.X/.^.l.s.l.z._././.[.[././.[.{.[./.z.a.-.Z.>.Y G Y =.b././. X[. X`.(.s.a.s.'.XX[./././././.[./././././././.^.^.^.`.`./.^././././.^.^.^././././.^./././././././.^.).^./.^._.x.k.=.=.a.x.(././././.].l.a.=.=.=.j.,.=.a.l.^./. X/.^././.`.^.b.b.x.a.a.a.s.s.f.a.-.=.+.$.O.+.g.n.x.z.^.^.^.^.^.z.z.l.z.z.z.z.l.l.l.l.l.l.l.l.l.l.l.s.a.a.s.v.v.x.a.a.f.f.f.g.a.-.-.=.+.O.=.-.-.j.1.#.E R K G G Y $.<.;.-.-.-.-.-.=.=.=.=.+.+.O.O.O.T +.=.-.-.-.-.=.=.=.+.O.O.T Y Y T Y Y Y Y W W R R H H H H H H H H G H H G G J G G k k k k k k k k k k z k k k j p s a 7 4 ; ; ; : 7 5 4 4 5 7 5 4 : : : : 4 4 4 4 4 4 4 4 5 i p j k k G H Y Y Y Y ",
"f.a.a.a.a.-.-.-.=.;.+.+.O.T T T T Y Y Y Y Y Y Y Y Y +.1.1.%.H j k G R Q $.+.=.=.-.=.-.-.-.a.a.f.s.s.s.l.l.s.l.s.l.l.l.l.s.s.s.s.s.s.s.s.s.s.l.s.l.s.a.a.a.-.=.=.g.f.s.s.l.l.x.m.x.l.s.a.s.s.s.a.l.v.x.l.l.l.l.z.z.^.z.b.n.-.+.+.O.+.=.a.c.'._._.b.b.v.x.b.z.z.z.^.^.^.^.z.^.^.^.^.^.^.^.^./././.^.^.^.^.^.^.^.z.^.^.^.^.^.^.^.^././.^.z.b.v.a.=.O.O.=.-.a.z. X X/._.l.s.s.z._./.[.[./././.[.{.[./.b.a.-.j.>.Y G Y =.v././. X[.[. X(.s.a.s.'. X X/./././.[.[./././././././.^.^.^./.^.^.^./././.^.^.^.^.^./././.^.^.^./.^.^.^.^.^./.^./.^._.x.k.=.=.a.x.(./././.^.].l.a.=.+.=.,.-.=.a.x.^./. X/././././.z.b.x.s.a.a.a.f.f.f.g.-.=.%.$.O.+.-.f.x.z.^.^.^.^.^.z.z.l.l.l.l.l.l.l.l.l.s.l.l.l.l.l.l.s.a.a.a.x.x.s.a.a.f.f.g.g.a.-.-.=.+.O.=.-.-.j.j.+.T Y K G G H Q *.1.-.-.-.-.-.=.=.=.+.+.O.O.#.O.T +.=.-.-.-.=.=.=.=.+.+.O.T Y W T Y Y Y Y Y Y Y K H H H H H H H H G H G G G G G k k k k k k k k j k k k k k k j p p a 7 : ; ; ; : 7 5 5 5 5 5 5 4 : : : : 4 4 4 4 4 4 4 4 5 i p j k k G H Y T T T ",
"f.a.a.a.a.-.-.-.=.=.+.+.O.T T T T Y Y H Y W Y Y Y Y +.;.,.+.H j k G R Q $.+.=.=.=.=.=.-.-.-.a.a.a.s.s.s.s.s.s.s.s.s.s.l.l.l.l.l.l.s.s.s.s.s.s.s.l.s.s.a.a.-.=.=.g.f.s.s.s.l.x.c.c.l.s.a.s.s.s.a.l.v.x.l.l.l.l.z.z.^.z.b.n.-.+.+.O.+.=.a.c.'._.(.z.l.l.x.b.z.z.z.^.^.^.^.^.z.z.z.z.^.^.^.^.^././.^.^.^.^.^.^.^.z.^.^.^.^.^._.^.^.^.^.^.z.b.v.a.=.+.+.=.-.s.z. X X/._.l.a.s.z.`./.[.[./././.[.[.[./.z.a.-.j.<.Y G Y =.v./.`. X X X X(.s.a.s.(. X X/./././.[.[./././.^././././.^.^.^.^.^.^.^.^.^.^.^.^.^.^.^.^.^.^././.^.^.^.^./.^./.^.`.^.'.x.k.=.=.a.v.(././././.].l.a.=.+.=.j.-.-.a.c.^./. X/./././.^.z.l.x.s.a.a.a.f.f.f.g.-.>.%.*.O.+.-.f.x.z.^.^.^.^.^.z.z.z.l.l.l.l.l.l.l.l.s.s.s.l.l.l.s.s.a.a.a.s.f.a.a.a.a.f.f.g.a.-.-.=.+.O.=.-.-.g.,.+.Y H G G G H T *.1.-.-.-.=.-.=.=.=.+.+.O.+.#.O.O.+.=.-.-.-.=.=.=.=.+.O.O.T T T T Y Y Y Y H H Y K H H H H H H H H G G G G G G G k k k k k k k k j j j k k k k j p i a 8 : ; ; : 6 7 5 5 5 5 5 5 4 : : : : : 4 4 4 4 4 4 4 5 i p j k k G H Y T T T ",
"a.a.a.a.a.-.-.=.=.=.+.+.$.T T Y Y Y H H W T W Y Y Y O.;.,.+.H k k G ! Q $.+.=.=.=.=.=.-.-.-.-.a.a.a.a.a.s.s.s.s.s.s.s.s.s.s.l.l.l.s.s.s.f.f.f.a.s.s.a.a.g.-.=.=.k.s.a.a.s.l.l.c.c.x.l.s.a.a.a.a.l.v.l.l.s.l.l.z.z.^.z.b.k.-.+.+.O.+.=.a.c.(.(.(.l.l.l.x.v.l.z.z.z.z.^.^.z.z.z.z.z.z.^.^.^.^././.^.^.^.^.^.^.^.^.^.^.^.^.^.^.^.^.^.^.^.z.b.v.a.=.+.+.;.d.s.(.oX[./._.l.a.s.c.`./.[.[./././.[.[.[./.z.a.-.j.<.Y G Y =.v./. XXX X/./.(.f.-.s.(. X X/./././.[.[./././.^././././.^.^.^.^.^.^.^.^.^.^.^.^.^.^.^.^.^.^././.^.^.^.^././.^.^.`.^.(.x.k.=.=.a.v.(././././.].z.a.=.=.>.j.,.-.a.c.^./. X/./././.^._.c.x.a.a.a.a.f.f.f.g.-.>.%.*.O.+.-.f.v.z.z.^.^.^.^.z.z.z.l.l.l.l.l.l.l.l.s.s.l.l.l.l.s.s.a.a.a.a.s.a.a.a.a.a.g.a.a.-.-.=.+.+.=.-.-.g.,.+.Y H G G G H T +.1.-.-.=.=.=.=.=.=.=.+.O.+.#.O.O.+.=.-.-.-.-.=.=.=.+.O.O.T T T W Y H H H H H H K H G G G H H H H G G G G G G G G G k k k k k k k j j k k k k j j p a 7 : ; ; ; 6 7 5 5 5 5 5 4 4 : : : : : 4 4 4 4 4 4 4 5 i p p k k G H Y T T T ",
"a.a.a.a.a.-.-.=.=.+.+.O.O.T T Y Y Y H H Y W W Y Y Y O.;.1.+.H k k G W ~ O.+.=.=.=.=.=.-.-.a.a.a.a.a.a.s.s.s.s.a.a.a.s.s.s.s.s.s.l.s.a.a.f.f.s.a.s.s.a.a.g.-.=.=.h.s.a.a.a.l.l.l.c.x.l.s.s.a.a.a.s.l.l.s.s.l.l.z.z.z.z.b.k.-.O.+.O.+.=.a.x._.(.z.z.l.s.l.x.l.l.z.z.z.z.z.z.z.z.z.z.z.^.^.^.^.^.^.^.^.^.^.^.^.^.^.^.^.^.^.^.^.^.^.^.^.^.^.b.v.g.=.+.+.:.d.s.(.XX X`._.l.s.s.c.`./.[.[./././.[.[.[./.z.a.-.j.<.Y G Y =.v./.].XX X/./.(.f.-.a.(. X X/./././.[.[././././.^.^./.^.^.^.^.^.^.^._._.^.^.^.^.^.^.^.^.^.^./.^.^.^.^.^././.^.^.`.^.(.x.k.=.=.a.v.(././././.].z.a.=.=.,.Z.,.-.a.c.^./. X/.^.}././._.c.x.s.a.a.f.f.f.d.g.-.>.%.%.O.+.-.f.l.z.z.^.^.^.^.z.z.z.l.l.l.l.l.l.s.s.l.l.l.l.l.l.s.s.s.a.a.a.s.s.s.a.a.a.g.a.a.-.-.=.+.O.=.-.-.g.1.+.T Y G G G H T *.1.-.=.=.=.=.=.=.=.=.+.+.+.*.$.O.+.=.:.:.-.-.=.=.=.+.O.O.T T W Y Y H H H H H H K G G G G G H H H G G G G G G G G G G G k k k k k k k k k k k j j s a 7 : ; ; ; : 7 5 5 i 5 5 5 4 : : : : : : 4 4 4 4 4 4 5 i p p k k G H Y T T T ",
"a.a.a.a.a.-.-.=.=.+.+.O.O.T T Y Y Y H H Y W Q Y Y Y O.;.1.+.H k k G W ~ O.+.=.=.-.=.=.-.-.-.a.a.f.f.s.f.f.s.s.s.a.a.a.a.s.s.s.s.x.s.s.f.s.s.s.s.a.a.a.a.g.-.=.=.g.a.a.a.a.l.l.l.c.l.s.s.s.f.f.a.s.l.l.l.s.l.l.z.z.z.z.b.k.-.O.+.O.+.=.a.x.b.^.z.z.l.s.s.x.l.l.z.l.z.z.z.z.z.z.z.z.z.^.^.^.^.^.^.^.^.^.^.^.^.^._.^.^.^.^.^.^.^.^.^.^.^.^.b.n.g.=.+.+.=.a.s.z. X X`.(.l.a.s.z.`./.[.[.[././.[.[.[./.z.a.-.1.<.Y G Y =.v./.`. X X X/.(.f.-.a.(. X X/././././.[././././.^.^./.^.^.^.^.^.^.^._.(.^.^.^.^.^.^.^.^.^.^.^.^.^.^.^.^.^.^.^.^.`./.(.x.k.=.=.a.v.(././././.].z.a.=.+.>.j.-.-.a.c.^./././.^.[././._.c.x.s.a.a.s.f.f.d.-.-.=.%.%.O.+.-.f.x.z.z.^.^.^.z.z.z.l.l.l.l.l.l.l.s.s.s.l.l.l.l.l.s.s.s.f.s.a.a.f.f.a.a.a.a.a.a.-.-.=.+.+.=.-.a.g.1.+.T Y K G G H T *.<.-.=.=.=.-.-.=.=.=.+.+.+.*.$.O.+.-.-.:.-.-.=.=.=.+.O.O.T Q T Y H H H H H G G G G G G G G G H H H G G H G G G G G G G G k k k k k k k k k k j j f d 7 : ; ; ; : 7 i i i 5 5 5 4 : : : : : : 4 4 8 4 4 5 i i p j k G G H Y Y T Y ",
"f.a.a.a.a.-.-.=.=.+.+.O.O.T T Y Y Y Y Y Y W W W Y Y +.;.1.+.G j k H R &.O.+.=.=.-.=.=.-.-.-.-.g.a.a.s.s.s.f.a.s.a.a.a.a.s.s.s.s.l.s.a.f.f.f.f.a.a.a.a.a.g.-.=.+.a.a.a.a.a.s.l.c.b.l.s.s.s.f.f.a.s.s.l.l.l.l.l.z.z.z.z.b.f.-.O.+.+.+.=.a.v.b.z.z.b.l.a.s.s.s.l.l.l.l.l.z.z.z.z.z.z.z.z.^.z.^.^.^.^.^.^.^.^.^._._.^.^.^.^.^.^.^.^.^.^.^.(.'.m.g.=.+.+.=.a.a.z. X/.`.(.l.a.s.z._./.[.[.[././.[.[.[./.z.a.-.j.<.Y G Y =.v././. X[.[./.^.a.-.a.c. X X/././././.[././././.^./.^.^.^.^.^.^.^.^.^.^.z.z.z.z.^.^.^.^.^.^.^.^.^.^.^.^.^.^.^.^.XX/.(.x.k.-.-.a.v.(././././.`.z.a.=.+.>.j.-.-.a.c.^./././.^.}././._.c.x.a.a.a.s.f.f.d.-.-.=.%.$.O.+.-.f.x.z.z.z.^.^.z.z.z.l.z.l.l.l.l.l.s.s.s.l.s.l.l.s.s.s.a.a.a.a.a.f.s.a.a.a.a.a.a.-.-.=.+.+.=.-.-.g.,.+.T H J G G H T @.;.-.-.-.-.-.-.=.=.=.+.+.+.*.$.O.+.=.-.:.-.=.=.=.=.+.O.O.T ~ T Y Y H H H H G G G G G G G G G G G H H G H G G G G J G G G G G G k k k k k k k j j p a 7 : ; ; ; : 7 i i i 5 5 5 4 4 : : : : : 4 4 8 8 5 5 i i p j k G G H Y Y Y Y ",
"f.a.a.a.a.-.-.=.=.+.+.O.$.T T T Y Y Y R Y W W E R E +.;.1.+.G j k H R &.O.+.=.=.-.=.=.=.-.-.-.g.a.a.a.a.a.a.a.a.s.s.s.s.s.s.s.s.a.a.a.a.a.f.a.a.a.a.a.a.g.-.=.+.-.a.a.a.a.s.l.c.c.z.l.s.s.f.s.a.a.s.l.l.l.l.l.z.z.z.z.b.f.-.O.+.+.+.=.a.v.b.z.z.b.l.a.a.s.s.l.l.l.l.l.l.z.z.z.z.z.z.z.z.z.z.^.^.^.^.^.^.^.^._.^.z.z.z.z.^.^.z.z.^.^.^.(.'.m.g.=.+.+.=.a.s.b.XX X`._.l.a.s.z._./.[.[.[./././.[.[.^.z.a.-.1.<.Y G Y =.v./././.[. X/.z.a.-.a.c.`. X/././././.[././././././.^.^.^.^.^.^.^.^.z.z.z.z.z.z.^.^.^.^.^.^.^.^.^.^.^.^.^.^.^.^.XX/.(.x.k.-.-.a.x.^././././.`.z.a.=.+.,.j.-.-.a.c.^./././.^././.^._.b.l.a.a.a.s.f.f.d.-.-.>.$.$.O.O.-.k.x.z.z.^.^.^.z.z.l.l.z.l.l.l.l.l.l.s.s.s.s.s.s.s.s.s.a.a.a.a.a.s.s.a.a.a.a.a.a.-.-.=.+.O.=.-.-.g.1.+.T H G k G H T @.=.=.=.=.-.=.=.=.=.=.+.+.+.*.$.O.+.=.-.-.-.=.=.+.=.+.O.O.T Q T H H H H H G G k k k k k J G G G G H G G H H G G G J J G G G G G k k k k k k k j p i a 7 : ; ; : 6 7 i i i 5 5 5 5 : : : : : : 4 4 8 4 4 5 i i p j k G G H Y Y Y Y ",
"a.a.a.a.a.-.-.-.=.+.+.+.O.T T T Y Y H H Y W W Y Y Y O.;.1.%.H k k H Y Q O.+.=.=.=.=.=.=.-.-.-.-.a.a.a.a.a.a.a.f.a.a.a.a.s.s.s.s.a.a.a.f.f.a.a.f.a.s.f.f.-.=.=.=.-.a.a.a.s.l.c.c.'.c.l.s.s.f.g.a.l.l.l.s.l.l.l.z.z.z.b.x.I.-.+.O.*.+.=.a.l.b.z.z.l.s.a.a.s.l.l.l.l.l.l.l.l.l.z.z.l.l.z.z.z.z.^.(.(.^.^.^.^.^.^.^.^.^.^.^.^.^.^.^.^.^.^.^.'.m.g.=.=.=.:.d.a.z.XX[.`.z.l.s.l.z._. X[.[.[././.}.[.}.).c.a.-.Z.<.H G Y =.l.^.`.`.[.[./.(.a.-.s.'.`.[././././././././.`./.^.^././.^.^.^.^.^.^.^.^.^.z.z.^.^.^.^.^.^.^.^.^.^.^.^./././.`.^././._.c.k.-.-.a.b.^././././.).z.a.=.+.>.j.-.-.a.l.^./. X/./././.^._.c.l.s.a.a.a.f.f.g.-.-.=.$.$.O.+.-.f.l.b.z.z.z.z.z.z.z.z.l.l.l.l.s.s.s.s.l.s.s.s.l.l.s.a.s.a.a.a.a.a.a.a.a.a.f.g.a.-.-.=.O.+.=.-.a.j.,.;.Y R G G G H ~ #.1.-.=.=.=.-.-.=.=.=.+.+.+.%.$.O.+.=.-.-.-.=.=.=.=.+.O.O.T Y W W H Y H H G J J k k k G J K K G G G G G H G G G J J J G G G G J J J z k k k k k x f i 4 : ; ; ; 6 5 i i i i 5 5 4 : : : : : : 4 4 4 4 4 5 i i p j k G G H H Y Y Y ",
"a.a.a.a.a.-.-.=.=.+.+.O.$.T T T Y Y H H Y Y W Y Y Y O.;.1.+.H k G H E &.+.+.=.=.=.=.=.=.-.-.-.-.a.a.a.a.a.a.a.f.a.a.a.a.s.s.s.s.a.a.a.a.a.a.a.f.a.a.s.g.-.=.+.=.-.a.a.a.s.l.c.'.c.l.l.s.s.f.g.a.l.l.l.l.l.l.l.z.^.z.b.v.I.=.+.O.*.+.=.a.x.c.b.z.l.s.a.a.s.l.l.l.l.l.l.l.c.c.z.z.l.z.z.z.z.z.z.^.^.^.^.^.^.^.^.^.z.^.^.^.^.^.^.^.^.^.^.^.b.v.g.=.=.+.=.a.a.z.XX/.`.z.l.s.s.z._. X{.[.[./././.[.}./.c.a.-.Z.<.H G Y =.l.^.`.`./.[./.z.a.-.s.'.`.[././.^./././././.`./.^.^././.^.^.^.^.^.^.^.^.^.^.z.^.^.^.^.^.^.^.^.^.^.^./././././.^././._.c.k.-.-.a.b.^././././.).z.a.=.+.>.j.-.-.a.l.^./. X/././././._.c.x.s.a.a.a.f.f.g.g.-.>.O.$.O.+.-.f.x.b.z.z.z.z.z.z.z.l.l.l.l.l.s.s.s.l.l.s.s.l.l.l.s.a.s.a.a.a.a.a.a.a.f.f.k.k.d.g.-.=.O.+.=.-.-.j.1.;.Y R G G G H ~ @.;.-.=.=.=.-.=.=.=.=.+.+.+.%.$.O.+.=.-.:.-.=.=.=.+.+.O.T Y Y W Y Y Y H H J J J k k k k J J G G G G G G G G G G G G G G k k G G k k k k k k k j l h a 4 : ; ; ; 8 5 i i i i 5 5 4 4 : : ; : : 4 4 4 4 4 5 i i j j k G G H H H Y Y ",
"a.a.a.a.a.-.-.=.=.=.+.O.O.T T T Y Y H H Y Y W Y Y Y O.;.1.+.H k G H E &.%.+.=.=.-.=.=.=.-.-.-.-.-.-.a.a.a.a.g.f.a.a.a.a.s.s.s.a.a.a.a.a.a.a.a.f.a.a.a.a.-.=.+.+.-.g.f.s.l.l.b.'.b.l.s.a.a.f.a.a.l.l.l.l.l.l.z.z.^.z.b.l.I.=.+.O.%.+.=.a.x.'.z.z.l.s.a.a.a.s.l.l.l.l.l.l.c.c.b.z.z.z.z.z.z.z.z.^.z.^.^.^.^.^.^.^.z.z.^.^.^.^.^.^.^.^.^.^.b.v.g.-.=.+.=.-.a.b.XX/._.z.s.a.s.c.`. X[.[.[./././.[./.^.c.a.-.j.*.H G Y =.l.^.`.`./.[./.b.a.=.f.c./././.^.^./././././.`./.^.^././.^.^.^.^.^.^.^.^.^.^.^.^.^.^.^.^.^.^./.^./././././././.^././.(.c.k.-.-.a.b.^././././.`.l.a.=.+.,.j.-.=.a.l.^./././././././.(.b.x.s.a.a.a.f.f.d.g.,.>.$.$.O.+.,.k.v.b.z.z.z.z.z.z.l.l.l.l.l.l.l.l.l.x.s.s.s.s.l.x.s.s.s.a.a.a.a.a.a.a.s.a.a.g.g.g.-.=.+.+.=.=.-.d.1.#.Y ! G G G G ~ @.;.=.=.=.=.-.-.-.=.=.+.+.+.*.$.O.=.=.:.:.-.=.=.=.+.+.O.T Y Y Y Y Y R R H G G k k k k k k G G G G G G G k G G G k k k k k k k k k j j j j k k j j h a 4 : ; ; ; : 5 i a i i 5 5 4 4 : : ; : : 4 4 4 4 4 5 i p j k k G G H H H H H ",
"f.a.a.a.a.-.-.=.=.=.+.O.O.T T T Y Y H H Y Y Y Y H Y O.;.1.+.H k G H Y @.+.+.=.=.-.-.=.=.-.-.-.-.-.-.-.-.-.a.g.g.a.a.a.a.s.s.s.a.a.a.a.a.a.a.a.f.f.a.a.a.-.;.;.=.g.g.f.s.l.l.b.'.b.l.s.s.s.f.g.a.l.l.l.l.l.l.z.z.^.z.b.l.D.=.+.+.+.+.=.a.x.'.z.l.s.a.a.a.a.a.s.l.l.l.l.l.z.z.z.z.z.z.z.z.z.z.z.^.z.^.^.^.^.^.^.z.z.z.^.^.^.^.^.^.^.^.^.^.b.v.g.-.=.+.=.a.s.b.]./.^.z.s.a.s.z._./.[.[.[./././.}.}.^.c.a.=.1.*.H G Y =.l.^.`.`./.[./.b.a.=.f.'.`././.^.^./././././.`./.^.^././.^.^././././././././.^.^.^././././././././././././././.^././.(.c.f.-.-.a.b.^././././._.l.a.=.+.,.j.-.=.a.l.^./././././././.(.c.x.s.a.a.f.f.f.g.g.,.1.$.$.O.O.,.k.v.b.b.z.^.z.z.l.l.l.l.s.s.s.s.l.l.l.s.s.s.s.s.x.l.s.s.a.a.a.s.s.a.a.a.a.a.a.a.-.-.=.+.+.=.=.-.-.;.+.Y R G G G G ~ O.;.=.=.=.=.-.=.=.=.=.+.+.+.*.%.O.=.=.:.:.-.=.=.=.+.+.O.T T Y Y Y Y R R H G k k k k k z k G G H K G G k k G G G k G G G G G G G k j j j j k k j j h a 4 : ; ; ; 4 5 i s i i 5 5 5 4 : : ; : : 4 8 4 4 4 5 i p l k G G G H H H H H ",
"f.a.a.a.a.-.-.=.=.=.+.O.O.T T T T Y H H Y Y Y H H Y O.;.>.O.G k G H Y T O.+.=.-.-.-.-.-.-.-.-.-.-.-.-.-.-.-.-.a.a.a.a.a.s.s.s.a.a.a.a.a.a.a.a.f.f.a.a.a.-.;.;.+.-.g.f.s.l.l.b._.b.z.l.s.f.f.g.a.l.l.l.l.l.l.z.z.^.z.(.v.n.=.+.+.O.+.=.a.x.'.z.l.s.a.a.a.a.a.s.l.l.l.l.l.z.z.z.z.z.z.z.z.z.z.z.z.z.z.^.^.^.^.^.z.^.^.^.^.^.^.^.^.^.^.^.(.b.v.g.-.=.=.-.a.s.b.XX/.z.z.s.a.a.z././.[.[././././.}./.^.c.a.=.1.*.H G Y =.l._.`.`./.[./.(.a.-.f.'.`././.^.^./././././.`.^.^.^././././././././././././././././././././././././.^.^.^.^./.^././.(.c.f.-.-.f.b.^./.[././.`.z.a.=.+.,.j.-.=.a.l.^./././././././._.c.l.a.a.a.a.f.f.a.a.-.>.$.$.T O.,.k.v.b.b.z.z.z.z.l.l.l.l.l.s.s.s.l.l.l.s.s.s.s.s.f.s.s.s.f.a.a.a.a.a.a.a.a.g.g.a.-.-.-.+.+.=.=.-.-.;.+.Y ! G k G G E O.;.;.=.=.=.=.=.=.=.=.+.+.+.*.%.O.+.=.:.:.-.=.=.+.+.+.O.T T Y Y Y Y W W H G k k k k z z G G G H K J k k k k k k k G k k k k k k k j j j k k k x x h a 4 : ; ; ; 4 5 i s i i i 5 5 4 : : : : : 4 8 4 4 4 5 i p j z G G G H H H H H ",
"a.a.a.a.a.-.-.=.=.=.+.O.O.T T T T Y H H Y Y Y H H Y O.;.>.O.G k G H E O.+.=.;.,.-.-.=.-.-.-.-.-.-.-.-.-.-.-.-.-.a.a.a.a.s.s.s.a.a.a.a.a.a.-.a.a.a.a.a.-.-.;.+.+.-.a.a.s.l.l.b._.b.z.l.s.f.f.g.a.l.l.l.s.l.l.l.z.z.z.(.v.n.=.+.+.+.+.=.a.m.'.c.l.s.a.a.a.a.a.a.s.l.l.l.b.c.b.b.z.z.^.^.z.z.z.z.z.z.z.^.^.^.^.^.^.^.^.^.^.^.^.^.^.^.^.^.(.b.v.s.-.=.=.-.d.s.z.].`.z.l.a.a.a.z.`./.[.[././././.[./.^.c.a.=.1.*.H G Y =.l.^.`.`./.[.`.(.a.-.f.'.`. X/.^.^.^././././.^.^.^.^.`.`./././././././. X X[.[.[.[./././././././././.^.^.^.^./.^././._.m.f.-.-.f.b.^./.[././.`.z.a.=.+.,.j.-.-.a.z.^./. X/././././._.b.l.a.a.a.a.f.f.a.-.-.>.$.$.T O.,.k.v.c.b.b.z.z.z.l.l.l.l.l.s.s.l.l.s.s.s.s.s.s.s.f.s.a.s.f.a.a.a.a.a.a.a.a.f.g.a.-.-.:.+.+.=.=.-.-.=.+.Y R G k G G T O.;.;.=.=.=.=.=.=.=.=.=.+.+.*.%.O.+.=.:.:.=.=.=.+.+.+.O.T Y Y Y Y Y Y R H G G k j k z k G G G H G G k k k k k k k k k k k k k k k j j k k k k x x f i 4 : ; ; ; 4 5 i s i i i 5 5 4 : : : : : 4 8 4 4 4 5 i p j k G G H H H H H H ",
"a.a.a.a.a.-.-.=.=.=.+.+.O.T T Y T Y H H H Y Y H H Y O.;.>.O.G k G H E @.%.;.=.-.=.=.=.-.-.-.-.-.d.:.g.-.-.-.-.-.a.a.a.g.s.s.s.s.a.a.a.a.a.a.a.a.a.a.g.-.-.;.+.+.-.a.a.a.s.l.b.'.z.z.l.s.f.f.a.-.x.l.s.s.s.s.l.l.z.z.'.x.D.=.+.+.+.+.=.a.v.'.b.l.l.a.a.a.a.f.s.s.l.l.l.b.b.b.b.z.^.^.^.^.z.z.z.z.z.^.^.^.^.^.^.^.^.^.^.^.^.^.^.^.^.z.z.^.'.v.s.-.=.=.,.d.s.z.`.`.z.l.s.a.a.c.`. X[.[././././.[./.^.c.a.-.q.<.H G Y =.l._.`.`./.[./.(.a.-.f.'.`././.^.^.^././././.^.^.^.^.`.`./././././. X X X[.[.[.[.[.[.[./././././././.^.^.^.^./.^././._.c.f.-.-.a.b.^./.[././.].z.a.=.+.>.j.-.-.a.c.^./. X`.`.}././.(.c.l.a.a.a.a.f.f.a.a.-.=.$.$.T O.,.k.x.c.b.z.z.z.z.z.l.l.l.l.s.l.x.x.l.s.l.s.s.s.s.s.s.a.f.f.s.a.s.s.a.a.a.a.a.a.-.-.-.=.O.O.=.=.-.-.=.+.Y R G G G G T T =.=.=.=.=.=.=.=.=.=.=.+.+.%.%.O.+.=.-.-.=.=.+.+.+.+.O.T T Y W W Y Y H H G J k k c z k G G G H G k k k k k k k k k k k k k k k k j j k k k k j j f 5 4 : ; ; ; 8 5 i p i i i 5 5 4 : : : : 4 4 4 8 4 4 5 5 p j k k G H H H H H H ",
"a.a.a.a.a.-.-.-.=.=.+.+.O.T T Y E Y Y H H Y H H H Y O.>.>.O.G k G H E &.*.=.=.=.=.=.=.-.-.-.-.-.-.-.g.a.-.a.a.g.a.a.g.g.f.h.s.s.f.a.a.f.a.a.a.a.a.a.g.g.,.;.+.+.-.a.a.a.s.l.b.'.z.l.s.a.a.a.-.-.f.l.s.a.a.s.l.l.z.z.'.c.D.=.+.+.+.O.=.a.x.c.b.z.l.a.a.a.a.s.l.s.l.l.l.l.b.b.z.z.z.z.^.z.z.z.z.z.z.z.^.z.^.^._._.^.^.^.^.^.^.^.^.^.z.z.z.b.v.g.=.=.=.:.d.a.l.`.`.z.c.s.a.a.c.]. X[.[././././.[./.).c.a.-.Z.0.H G Y =.l._.`.`./.[.`.b.a.-.f.'.`././.^.^.^./././.^./.^.^.^./.`.`.`. X X[.[.[..X.X{.{.{.{.{.{.[.[.[./././././././././.^././._.c.f.-.-.a.c.^././././.].z.a.=.+.>.j.-.-.f.c.^./. X`.`.[.}.`._.b.l.a.a.a.a.f.f.f.a.-.=.$.$.T O.-.f.x.b.z.z.z.z.z.z.v.x.l.l.s.l.x.x.l.s.l.s.s.s.s.s.s.a.f.f.a.a.a.a.a.a.f.a.a.-.-.-.-.=.O.O.+.=.-.-.=.+.Y R G G k G T O.+.=.=.=.=.=.=.-.=.=.+.+.+.%.+.O.+.=.=.-.=.=.+.+.=.+.O.T T W W R Y Y H H H P G k L L J J K P H G k k k k k k k k k k k k k k k k j j k k k k j j f 5 4 : ; ; ; : 7 i i i i a 5 4 4 : : : : : 4 4 8 4 4 4 5 i j j k G G H H H H H ",
"f.a.a.a.a.-.-.-.=.=.+.+.O.O.T Y Y Y Y Y W Y H H Y T O.>.<.O.H k G H E *.;.=.=.=.=.-.-.-.-.-.-.-.g.-.-.-.-.a.a.g.-.a.g.a.a.f.f.a.a.s.s.a.s.s.a.f.a.s.s.g.-.=.=.=.-.a.a.s.l.z.b.b.c.s.a.a.g.j.-.-.a.s.s.s.a.s.l.l.^.^.(.v.I.=.+.O.+.O.=.-.V.b.b.z.l.s.a.a.f.n.c.l.l.l.z.z.z.z.z.z.z.z.z.z.z.z.z.z.^.^.^.z.^.^.^.^.z.z.z.^.^.^.^.^.z.z.z.z.c.n.g.=.=.=.:.d.a.l.(._.z.l.x.a.a.c.^./.[.[././././.}.}.^.m.-.=.Z.>.G G T =.l.^././././.^.c.a.=.f.m._./.^.^.z.^.`./.^.^././././.`.^./.*XpXqX|.[.[.|.7XoX[..X7X{.{.{.{.[.[./././././././././.}./.`.c.n.-.-.a.l.`.`././.).(.c.a.=.+.;.,.-.a.s.z._./././././.^./.^._.l.a.-.-.g.s.s.k.g.=.+.O.O.T T -.f.b.z.c.z.z.z.z.b.l.s.s.s.s.s.l.l.x.x.x.f.f.f.s.a.s.a.a.a.a.a.a.a.a.a.a.a.a.g.-.-.-.=.+.O.+.;.a.a.=.#.Y R H H k k Q *.=.=.=.=.=.=.=.=.;.;.;.%.+.+.O.O.+.=.-.-.-.=.+.+.+.+.O.T T Y W R Y H H H R ! K H K K K P P P H G k k k k k k k k k k k k k j j j j j j k k k j p i i 4 : ; # < 3 q a a a a 5 5 4 4 4 : : : : 4 4 : 4 4 5 i p p j k G J K K K H H ",
"f.a.a.a.a.-.-.-.=.=.+.+.O.T T Y Y Y Y Y W Y H H Y T +.;.<.$.H G G H T *.<.=.-.-.-.-.-.-.-.-.-.-.g.a.a.a.a.a.a.a.-.a.a.a.a.g.g.a.a.a.a.a.a.a.a.s.a.a.s.g.-.=.=.+.-.a.a.s.l.z.b.b.c.s.a.-.g.d.-.-.a.s.s.a.a.s.l.l.^.^.(.v.D.=.O.O.O.O.=.-.m.z.z.c.l.s.a.a.f.v.x.l.l.l.l.l.z.l.z.z.z.z.z.z.z.z.z.z.^.z.z.z.^.^.^.z.z.z.z.^.^.^.^.^.z.z.z.l.x.x.a.=.=.=.:.d.a.s.b.(.z.l.x.a.a.m.^./. X[././././.}./.^.c.-.=.Z.>.G k T =.l._.`.[././.^.c.-.=.g.m._././.^.^.^.`.`.^._.^./.^.^._._.^.).).}.}.oXoX|.[./.@X@XoX[.oX[.[.[.[././.[. X X[.[././.}./.).c.n.-.-.a.l._.`././.`.(.c.a.=.=.<.1.-.a.l.z._./././././.^././.(.l.a.-.-.g.s.s.k.a.=.+.O.O.Y T -.f.z.z.z.l.l.z.z.b.l.a.x.l.l.l.x.x.x.x.s.s.a.a.a.a.a.a.a.a.a.a.a.a.a.a.a.a.a.-.-.-.-.=.O.O.+.;.a.a.=.+.Y R H H k k Q %.;.=.=.=.=.=.=.=.>.+.+.+.%.%.+.O.=.=.,.,.-.=.=.=.+.+.O.T Y Y W R H H H H K R H H H H H H H H G G k k k k k k k k k k k k j j j j j j j k k k j p s a 7 : ; # < 3 7 5 5 a 9 7 7 4 4 4 4 : : : : : : 4 4 5 i i p j k k G K K K H H ",
"a.a.a.a.a.-.-.-.=.=.+.O.O.T T Y Y Y Y Y Y Y H H Y T +.;.;.$.H k G H T @.;.=.-.-.-.-.-.-.-.-.-.-.-.-.a.a.a.a.-.a.a.a.a.a.a.a.a.a.a.a.a.a.a.a.a.a.a.a.s.a.-.=.=.=.-.a.a.s.l.b.(._.c.s.a.a.g.g.-.-.a.s.s.s.s.l.z.z.z.^._.c.I.=.O.$.O.+.-.-.m.l.z.c.l.s.a.a.a.x.l.l.l.l.l.l.l.l.z.z.z.z.b.b.(._.z.z.^.z.z.z.z.z.z.z.z.z.^.^.^.^.^.^.z.z.z.l.v.n.a.=.=.=.-.d.a.s.c.b.z.l.x.a.a.m.^././././.^././././.^.c.-.=.Z.>.H G T =.x._.`./././.^.c.-.=.a.m._./././.^.^.`.`.^.`.`.].(.(.m.x.x.C.OXc.z.(.^.^.(.).z.(.).^.).z.z.^./././.[.[. X X[././.[./.`.c.B.-.-.a.l._./././.^.(.x.a.=.=.<.1.-.a.l.z._./././././.^././.(.l.a.-.-.g.s.s.k.a.=.+.O.T Y T -.f.l.z.l.l.l.z.z.b.l.a.s.s.s.l.s.l.l.s.a.a.a.a.a.a.a.a.a.a.a.a.a.a.a.a.a.a.a.-.-.-.-.=.O.O.O.=.a.a.=.+.Y R H H k k ~ *.;.=.=.=.=.=.=.=.>.+.+.+.>.;.%.O.=.-.-.,.-.=.=.=.+.+.O.T Y Y W R H H H H K K H H H H H H H G G G k k k k J J z k k k k k j j j j j j j j k k j p s a 7 : ; # # > 4 5 5 5 9 7 7 4 4 4 : : : : : : : 4 4 5 i i p j k k G K K H H H ",
"a.a.a.a.-.-.-.=.=.=.+.O.O.T T Y Y Y Y Y W Y H H Y T O.;.*.Q G k G H T @.;.=.-.-.-.-.-.-.-.-.-.-.-.-.a.a.a.a.-.-.a.a.a.a.a.a.a.a.a.a.a.a.a.a.a.a.a.a.s.a.-.=.=.=.-.a.a.s.l.b.b.(.c.s.a.a.a.g.-.-.s.l.l.l.l.x.b.z.z.^.(.c.I.=.O.*.O.+.-.-.m.l.l.c.l.s.a.a.s.x.l.l.l.l.l.l.l.l.z.z.z.z.b.b.b.b.b.b.^.z.z.z.z.z.z.z.z.z.^.^.^.^.^.^.z.z.z.l.x.f.a.=.=.=.-.d.a.s.c.b.z.l.x.a.a.m.^./././././././.[./.^.c.-.=.Z.w.H G T -.l.(.`./././._.c.-.+.a.n._.`.^.^.^.^./.`.^._.z.x.x.f.-.=.N.VXVXkXkXkXkXOXOXOXOXC.C.hXx.x.c.(.^.^./. X[.[.}.}././.[./.`.c.B.-.-.a.b._./././.^.z.l.a.=.+.>.1.-.a.l.z._././././.^.^.^./.(.l.a.-.-.j.h.s.k.g.=.;.O.T Y T -.f.l.z.l.l.l.l.z.z.s.a.s.s.s.s.s.s.s.a.a.a.a.a.a.a.a.a.a.a.a.a.a.a.a.a.f.g.a.-.-.-.-.;.O.O.O.=.a.a.;.+.Y R H H k G ~ *.<.;.=.=.=.=.=.=.;.+.+.+.%.*.O.O.+.=.-.-.=.=.=.=.+.+.O.T Y Y Y R H H H H H H H H H H H H G G G G k k j k k J k k k k k k j j j j j j j j k k j p i 7 4 : # # # ; 4 5 5 5 7 7 7 4 4 : : : : : : : 4 4 4 5 i i p j k k G G H H H H ",
"f.a.a.a.a.-.-.=.=.=.+.+.O.T T T Y Y Y Y Y Y K H Y T O.;.*.Q H k G H E #.<.:.-.-.-.-.-.-.-.-.-.-.-.-.-.a.a.a.-.-.a.a.a.a.a.a.a.a.s.s.s.a.a.a.a.a.a.a.a.a.-.=.=.=.-.a.a.s.l.b.b.(.b.l.a.a.a.g.a.-.l.z.z.l.l.c.b.^.^.^.].c.I.=.+.*.%.+.-.a.m.l.z.z.l.a.a.g.s.f.x.x.l.l.l.l.l.l.l.v.z.b.b.b.z.b.b.(.z.z.z.z.z.z.z.z.z.z.z.^.^.^.^.^.z.z.z.v.x.f.a.=.;.=.-.d.a.s.b.b.b.l.x.a.a.m.^././.[././././.[.[.^.c.-.=.Z.0.H G T =.s.(././././.).c.-.+.a.n.'.`.^./.^.^./. X`.'.x.d.:.;.O.T R.PXPXPXPXHXHXJXJXkXHXVXVXLX=.N.N.f.c.(.`.[.[.[.}./././.[./.`.c.B.-.-.a.b.^./././.^.z.l.a.=.+.>.1.-.a.s.z._.`./././.^.^.^.`._.l.a.-.g.k.k.h.k.g.=.;.@.T Y T :.f.v.z.l.l.l.z.z.z.s.a.l.l.l.l.x.x.x.s.a.a.a.a.a.a.a.a.a.a.a.a.a.a.a.a.f.g.a.-.-.-.-.;.O.O.O.=.g.g.;.@.Y ! H H k k Q %.<.;.=.=.=.=.=.=.=.+.+.+.+.O.O.O.+.=.=.-.=.=.=.=.+.+.O.T Y Y Y R H H H H H H H H K H H H H H G G k k k k k G J G k k k k k j j j j j j k k k j j i 5 4 : # # # ; 4 5 5 5 5 7 4 4 4 4 : : : : : : 4 4 4 5 i i p j k k G G H H H H ",
"f.f.d.a.g.-.-.=.=.=.+.+.O.T T T Y Y Y Y Y H H H Y T O.;.*.~ H k G H Q @.;.;.-.-.-.-.-.-.-.-.-.-.-.-.a.a.a.a.-.-.a.a.a.a.a.a.a.a.s.s.s.a.a.a.a.a.a.a.a.a.-.=.+.=.-.a.a.s.l.b.(.(.b.l.a.a.s.s.g.a.l.z.z.l.l.z.^.^.^.^.(.c.I.=.+.*.%.+.-.a.m.z.z.v.l.a.a.g.g.f.x.x.l.l.l.l.l.l.l.l.l.z.b.b.z.z.b.(.b.z.z.z.z.z.z.z.z.z.z.^.^.^.^.^.z.z.z.x.v.k.-.=.;.=.:.d.a.x.b.b.b.l.f.a.a.m.(./.[.[././././.[.[.^.c.-.=.Z.0.H G T =.s.(.`./././.].c.-.+.:.n.'./.^.)./.^.`.XX_.n.P.4.@.E G G FXPXPXPXPXJXJXJXJXJXJXLXPXPX@.T +.:.I.$X&X X[.}.}./.}./.{./.`.'.V.-.-.a.b.^./././.^.(.x.a.=.=.<.1.-.a.s.z._.`./././.^.^.^./._.l.a.-.g.k.k.s.v.g.=.;.@.Q Y T :.f.v.b.l.l.z.z.z.z.s.a.s.s.s.s.l.l.s.s.s.a.a.a.a.a.a.f.a.a.f.a.a.a.a.g.g.a.-.-.-.-.-.=.O.O.O.+.g.g.;.@.Y R H H k k Q %.<.=.=.=.=.=.=.+.=.+.+.+.O.O.T O.+.=.-.-.-.=.=.=.+.+.O.T Y Y H R H H H H H H H H H H H H H H H G k k k k G G J J k k k k k j j j j j j j k k j p i 7 4 : # # ; 1 4 5 5 5 5 5 4 4 4 4 : : : : : 4 4 4 4 5 i i p j k k G G H H H H ",
"f.f.a.a.g.-.-.=.=.=.+.+.O.T T T Y Y Y Y Y H K H Y T O.>.*.Q G k k H E O.+.=.-.=.-.-.-.-.-.-.-.-.-.-.a.a.a.a.-.-.a.-.-.g.g.a.a.s.a.a.a.a.a.a.a.a.a.a.a.-.-.=.+.+.:.a.a.s.l.z._.b.b.l.s.a.s.f.g.a.l.z.z.z.z.b.^.^.^.^.(.l.B.=.O.$.+.+.-.a.m.l.z.c.l.a.a.g.g.a.s.x.x.x.l.l.l.s.l.l.l.l.b.b.z.l.b.b.z.z.z.z.z.z.z.z.z.z.z.z.z.z.z.^.z.z.z.x.v.f.g.=.;.=.=.-.a.f.c.b.b.l.f.-.a.C.(.`./. X`./././.[.[._.c.-.=.Z.0.G k T =.l.(.`././.`._.m.=.+.-.n.b.^.^.].`.^.].%XF.A.*.K k p i 5 m FXFXFXJXJXJXJXkXR.FXLXPXPX/ G Y *.Z.D.%X`./.}.}./.[./.{./.`.'.V.-.-.f.b.^./././.^.(.x.a.=.=.<.1.-.a.s.b._.`./././._.^.^.`._.l.a.-.g.k.s.s.h.g.=.#.@.E H T :.f.l.b.l.l.z.z._.z.s.a.s.s.a.a.s.s.a.a.a.a.a.a.a.a.a.f.a.a.a.a.a.a.a.g.a.a.-.-.-.-.=.+.O.T O.+.a.g.;.O.Y ! H H k k Q $.;.=.=.=.=.=.+.+.=.+.+.O.+.O.O.T +.=.:.,.-.=.=.=.+.O.O.T T H H R H H H H H H H H H H H H K P H G k k k k G G J J G k k k k j j j j j j j k k j p a 7 4 : # # ; 1 8 5 5 5 5 5 4 4 4 4 4 : : 4 4 4 8 8 4 5 i i p j z k G G H H H H ",
"a.a.a.a.a.-.-.=.=.+.+.+.O.T T Y Y Y Y Y Y H K H H Y O.+.*.T G k G H Q O.+.=.-.=.-.-.-.-.-.-.-.-.-.-.a.a.a.a.a.-.a.-.-.g.g.a.a.f.a.a.a.a.a.a.a.a.a.a.a.-.-.=.+.=.:.a.a.s.l.z.z.b.z.l.s.a.s.f.h.a.z.^.b.z.c.b.(.^./.^.^.l.k.+.O.O.O.+.-.a.v.l.l.m.f.g.-.a.a.a.a.l.x.x.l.l.s.s.s.l.s.l.b.c.z.l.l.b.z.l.l.z.z.z.z.l.z.z.z.z.z.z.z.z.z.z.z.v.v.f.a.=.=.+.=.-.a.f.b.b.c.l.f.-.a.V.(././. X`./.^./.[.[._.m.-.=.Z.0.G k T =.x.(.`././.`.^.v.=.O.=.k.b.^.^.).(.^.'.-XD.w.G p i 5 7 4 4 a  .T.FXFXFXT.T.T.T.T.T.^ z z J Y %.g.G._./.}.}.}.[.[.{./. X'.V.-.-.f.b._./. X/./.c.x.a.=.+.<.1.-.a.s.z._.`./././.`.^.^.`._.l.a.-.-.d.s.a.h.g.=.#.@.Y H T ;.f.l.b.l.l.z.z._.z.s.a.s.s.s.s.s.s.s.a.a.a.a.a.a.a.a.a.a.a.a.a.a.a.a.a.a.a.-.-.g.-.=.+.O.T O.+.-.g.=.O.Y ! H G k k W $.;.=.=.=.=.=.=.+.+.+.O.O.+.+.O.T +.=.-.,.-.=.+.+.+.O.O.T Y H H R H H H H H H H H H G H H P P H G k k k k k k k J G G k k k k j j j j j j k j j p a 7 4 ; # # # 1 0 5 5 5 5 5 4 4 4 4 4 4 4 4 4 8 8 8 4 5 i i p j z G J G H K H H ",
"a.a.-.-.-.-.-.=.=.+.+.O.O.T T T Y Y Y Y Y H H K H Y O.*.*.T G k G H Y @.;.=.-.-.-.-.-.-.-.-.-.-.-.-.a.a.-.-.-.-.a.a.a.a.a.a.g.g.s.a.a.-.a.a.a.a.a.a.g.d.-.+.+.+.=.a.f.x.l.z.z.b.b.l.a.a.k.h.g.f.z.z.z.z.l.z.z.^.z.^.(.s.k.+.O.T O.+.=.a.l.l.l.s.f.g.-.-.-.a.a.a.v.l.s.x.x.l.s.s.s.l.l.l.v.v.b.b.z.z.z.l.z.z.z.z.l.l.z.z.b.b.z.z.z.z.z.x.n.h.-.=.+.=.=.-.a.f.c.'.c.x.f.a.a.x.(.^.[. X`.`././.[.}._.x.-.=.Z.>.G G T =.x._.`.`.].]._.v.=.O.:.M.b.^.].(.z.c.F.A.<.Q i 4 : ; # # ; 6  .o.FXT.FXFXFXFXKXT.l s m s p G Y O.h.b.>X/.}.}.}.[.[. X/.'.n.-.-.f.b.^././.`.^.z.x.-.=.+.;.1.=.-.s.b._.^.^./.`._.^.^._.(.l.-.=.-.g.s.s.h.g.=.+.Q W H T >.k.l.l.l.l.z.z._.z.s.a.s.l.x.x.a.a.a.s.f.f.a.a.a.a.a.a.a.a.a.a.a.a.a.a.a.a.a.-.-.-.=.=.T T O.+.-.g.;.T H H H P j j Q T ;.=.=.=.=.=.+.+.+.;.+.O.+.#.T T +.=.=.;.;.=.=.+.;.+.O.T W Y Y H H H H H H H H H H G G H H H H G G k k k k G G G J J k k k k j j j j k k k j j p i 4 : ; # # ; 3 q 5 4 4 4 5 4 4 4 4 4 8 4 4 : 8 8 8 4 5 i i p j k k G G H H H H ",
"a.a.a.a.a.-.-.=.=.+.+.O.O.T T T Y Y Y Y Y H H H H Y O.%.%.W G k G H Y @.;.=.-.-.-.-.-.-.-.-.-.-.-.-.-.a.a.a.-.-.a.a.a.a.a.a.g.g.a.a.a.-.a.a.a.a.a.a.a.g.-.+.O.+.-.a.f.s.l.z.z.b.z.l.a.a.f.g.a.a.l.z.z.l.l.l.z.^.z.z.c.l.M.+.T O.O.+.-.a.s.l.l.a.a.a.-.-.-.a.a.a.x.s.s.x.x.l.s.s.l.l.l.l.l.l.v.l.l.l.l.l.l.z.z.z.z.z.z.z.b.b.z.z.z.l.l.x.n.h.-.+.+.+.=.=.a.f.b.b.x.l.a.-.a.x.b.^. X X/./././.[./._.x.-.=.Z.0.G G T =.v._.`.`.`.`._.x.=.O.:.k.b.^._.z.c.n.Z.<.W k 4 & & % @ . # , n X. .^ ^ ^ / T.KXT.n 4 6 n v j G Y >.h.-X_.)./.[.[.[. X/.'.n.-.-.f.b.^././.`.^.z.x.a.=.+.;.1.=.-.s.b._.^.^./.`.^.z.^._.b.l.-.=.-.d.s.s.s.g.=.;.Q W H Y >.k.l.l.x.l.z.z.z.z.s.a.s.l.x.l.a.a.a.s.f.a.a.a.a.a.a.a.a.a.a.a.a.a.g.g.a.a.-.-.-.-.=.=.O.T O.+.-.g.;.T H K H G j j W $.+.=.=.=.=.+.=.+.+.+.+.O.+.@.T T +.=.=.=.=.=.=.+.+.O.T T Y Y H H H H Y H H H H H H H G H H H H G G k k k G J J G J G k k k k j j j j k k k j p p 5 4 : ; # # ; 3 q 5 4 4 4 5 4 4 4 4 4 8 4 4 : 8 8 8 4 5 i i p j k k G G H H H H ",
"a.a.a.a.a.-.-.=.=.+.+.O.O.O.T T Y Y Y Y Y H H H H Y O.%.$.W k j G H T @.+.=.-.-.-.-.-.-.-.-.-.-.-.-.-.a.g.a.a.-.a.a.a.a.a.a.a.g.a.a.a.-.a.a.a.a.a.a.a.g.-.+.+.+.=.-.a.s.l.l.z.b.l.l.a.a.f.a.-.a.l.l.l.l.l.l.l.z.z.z.z.x.J.O.T &.+.+.-.a.s.l.s.a.a.-.=.=.=.-.a.a.f.a.a.s.s.s.s.s.s.s.s.l.l.v.b.c.l.l.l.l.l.l.l.l.z.z.z.b.b.b.z.z.z.l.l.x.n.h.-.+.+.+.=.=.a.f.v.v.v.f.a.-.a.s.b.^./. X/./././.[./._.x.-.=.Z.0.G k O.-.n._.`././._._.v.=.O.:.k.b._.z.b.n.j.*.Y j 4 & % O O O . . $ X.o.o.o. . .Q.KXo.m 4 4 7 7 7 i j k T =.D.m.].`.[.[.[.[./.'.n.-.-.f.c.^./././.^.z.x.a.=.+.;.q.-.a.s.z.(.^.^./.^.^.z.^.(.c.l.-.=.-.d.k.s.s.a.=.<.T W H Y >.k.l.l.l.l.l.z.z.z.s.a.s.s.s.s.a.a.a.a.a.a.a.a.a.a.a.a.a.a.a.a.a.a.a.a.a.a.-.-.-.-.=.=.O.T T +.-.g.;.O.H ! G k j j W $.+.=.=.=.=.=.=.=.+.+.+.O.*.*.T O.+.=.=.=.=.=.=.+.+.O.T T Y Y H H H H H H H H H H H H H H H H H G G k k G G G G G G G k k k k k j j j j j j j p p 5 4 : ; # # # 1 q 7 4 4 4 4 4 4 4 4 4 8 4 4 4 8 4 4 4 5 i i p j k k G G H H H H ",
"a.a.a.a.g.-.-.=.=.+.+.O.O.$.T T E Y Y W W W P H H Y O.+.$.Y k j G H E O.+.=.-.-.-.-.-.-.-.-.-.-.-.-.-.a.g.g.g.-.a.a.-.-.a.a.a.g.a.a.a.a.-.-.a.a.a.a.a.-.-.+.+.+.=.-.a.s.l.l.z.b.x.l.a.a.d.a.-.a.a.s.s.s.s.s.l.l.z.l.c.f.J.O.T ~ O.+.-.a.s.l.s.a.-.-.=.=.=.-.-.a.a.a.a.a.s.s.s.s.a.a.s.s.l.v.b.b.l.l.l.l.l.z.z.z.z.z.z.b.b.b.z.z.z.l.l.l.v.g.-.+.+.;.=.=.a.s.x.v.x.s.a.-.-.s.b.^./. X/./././.[./.(.x.-.=.Z.*.G k O.-.v._.^./.^._._.x.+.O.;.k.b._.b.m.A.<.W j 4 # @ O o o o o O . y w w n n n F o.KXX.6 : : ; : g i p G Y 1.f.F._.}.[.[.[./.'.n.-.-.a.c.(./././.^.z.x.-.=.+.;.1.-.a.s.z.(.^././.^.^.z.^.^.b.s.-.=.-.d.k.h.k.g.=.#.T W H Y >.h.l.v.l.l.l.z.z.z.l.a.s.s.s.s.a.a.a.a.a.a.a.a.a.a.a.a.a.a.a.a.a.a.a.a.a.-.-.-.-.-.=.=.O.T T O.-.-.;.O.H ! G k k j Y *.;.=.=.=.=.=.;.;.+.+.O.O.*.&.T O.+.=.=.=.=.=.=.+.+.O.T T Y Y Y H H H H H H H H H H G G G H H H G k k k k G G G G G k k k k k k k j j j j j j p p 5 4 : ; # # # 3 q 7 5 4 4 4 4 4 4 4 4 8 4 4 4 8 4 4 4 5 i i p j k k G G H H H G ",
"a.a.a.a.a.-.-.=.=.+.+.O.O.$.T T Y Y Y W W ! P K H Y O.%.&.W k k G H E O.+.=.-.-.-.-.-.-.-.-.-.-.-.-.-.a.g.g.g.-.a.-.-.-.a.a.a.g.a.a.a.a.-.-.a.a.a.a.a.-.-.+.O.+.-.-.a.s.s.l.z.c.l.s.a.a.d.-.=.-.a.a.s.f.a.a.s.l.l.l.m.a.j.O.Y Y O.+.-.a.f.f.f.a.-.=.+.+.=.=.-.-.a.a.a.a.a.s.s.s.x.l.l.s.s.s.s.s.v.l.l.l.l.l.l.l.b.z.z.b.b.b.z.z.z.l.l.l.k.g.-.+.+.;.<.-.-.a.x.b.x.f.a.-.-.f.b.^././././././. X/.(.x.=.=.Z.%.G k T ;.k._.^././._._.f.+.O.;.k.b._.b.F.H.$.k 4 +   . o   o o o   . = @ # ; # # ; y # # > # ; 3 3 , 8 4 i j Q >.D.'.`.[.[.[./.'.n.-.-.a.c.(.^././.^.z.x.-.=.+.+.1.=.a.a.z.^.^./.^.^.^.z.^.^.c.s.-.=.-.d.h.h.n.h.=.O.T W H Y ;.k.l.b.v.l.l.z._.b.l.s.s.s.s.s.a.a.a.a.a.a.a.a.a.a.a.a.a.a.a.a.a.a.a.a.a.-.-.-.-.-.=.=.O.T T O.=.-.;.O.H ! G k k j H 9.+.=.=.=.=.=.=.=.+.+.O.O.&.O.T T +.=.-.;.=.;.=.+.+.O.T T Y Y K H H H H H H H H H G G G G G G G G k k k k k k k k G k k k k z z z k j j j j j p p a 4 : ; # # ; 3 q 7 4 4 4 4 4 4 4 4 4 4 4 4 4 7 4 4 4 5 i i p j k k G G H H H H ",
"f.a.a.a.a.-.-.=.=.=.+.O.O.$.T T Y Y Y Y Y ! P K Y Y O.%.$.Y k j G H E O.+.=.-.-.-.-.-.-.-.-.-.-.-.-.-.a.g.g.a.-.a.-.-.-.a.a.a.g.a.a.a.-.-.-.a.a.a.a.-.-.=.+.O.+.-.a.a.s.s.l.z.c.l.a.a.-.g.-.=.-.f.f.f.f.f.f.s.x.l.l.m.a.1.O.Y Y O.+.-.d.f.f.f.a.-.=.+.+.+.=.=.-.a.a.f.a.a.s.s.s.l.s.l.s.s.s.l.l.l.l.l.l.l.l.l.l.z.z.l.z.b.b.z.z.z.l.l.s.f.g.=.+.+.;.1.:.-.a.x.m.x.f.a.-.-.f.'.^././././././. X X(.x.=.=.Z.%.G k T =.k.b.^././._._.f.+.O.;.k.b._.b.D.q.Y i ; .             o     . . . @ . . .   y * $ # # # < 2 ; > 4 5 G T A.F.`.[.[.[./.'.n.-.-.a.x.(.^./.^.^.z.x.-.+.+.+.1.=.-.a.l.^.^./.^.^.^.z.^.^.z.a.-.-.d.j.s.h.G.k.=.O.T Y G Y ;.k.l.b.l.l.z.z._.b.l.f.s.s.s.a.a.a.a.a.a.a.a.a.a.a.a.a.a.a.a.a.a.a.a.a.-.-.-.-.-.-.=.+.O.T T O.=.-.;.O.H P G k j j ! &.+.=.=.=.=.=.+.+.+.+.O.O.@.O.Y T +.;.1.;.=.;.=.+.+.O.T T Y Y H H H H H H H H H H G G G G G G G G k k k k G G G k G k k k k z z z z j j j j j p i 7 4 : ; # # ; 3 q 7 4 4 4 4 4 4 4 4 4 4 4 4 4 8 : 4 4 5 i i p j k k G G H H H H ",
"f.f.a.a.-.-.-.-.=.=.+.O.O.$.T T Y Y Y W Y H H H Y Y O.+.$.Y k j G H E O.+.;.-.-.-.-.-.-.-.-.-.-.-.-.a.a.a.a.a.-.a.a.-.-.a.a.g.g.a.a.a.-.-.-.a.a.a.a.-.-.=.+.O.O.-.a.a.s.s.l.z.c.l.a.-.-.d.-.=.=.d.f.f.g.g.g.s.x.l.l.v.a.5.T Y W O.+.-.d.f.f.f.-.=.+.+.+.+.=.-.-.a.f.f.f.a.f.s.a.a.a.a.s.l.l.x.x.l.l.l.l.l.l.l.l.z.z.l.z.b.b.b.b.z.l.l.s.s.g.=.+.+.#.<.-.-.a.l.x.x.f.a.-.-.f.c._././././././. X X_.x.=.=.Z.%.G k T =.k.b.^.^.^._.b.f.+.O.:.k.b._.'.D.0.G 4 @ X X   . .           O   . = . O O       . e e + . @ . + > : p H w.F.`.[.[.[./.'.n.-.-.a.x.b.^.^.^.z.l.x.-.=.+.+.1.=.-.a.l.^.^./.^.^.^.z.^.^.l.a.-.-.-.d.s.s.n.h.=.+.T Y G Y >.k.l.v.l.l.l.z.^.b.l.f.s.s.s.s.a.a.a.a.f.a.a.a.a.a.a.-.a.-.a.a.a.a.a.a.-.-.-.-.-.-.=.+.$.T T O.-.-.;.E H K G L j j ! $.;.=.=.=.=.=.=.+.+.+.O.O.&.O.Y T +.;.1.;.=.=.=.+.+.O.T T Y Y H H H H H H H H H H H G G G G H H G G k G G G G G G G G k k k k z k z j j j j j p i 7 4 : ; # # # 3 q 5 4 4 4 4 4 4 4 4 4 4 4 4 4 4 : 4 4 5 i p p j k k G G H K H H ",
"f.f.a.a.-.-.-.-.=.=.+.O.O.O.T T Y Y T W Y H G H H Y T O.O.Y k j k H E O.+.;.-.-.-.-.-.-.-.-.-.-.-.a.a.a.a.-.a.a.a.-.a.a.a.a.a.g.a.a.a.-.-.-.a.a.a.-.-.-.=.+.O.O.-.a.f.s.l.l.b.m.x.f.a.-.j.:.=.=.d.g.a.a.a.a.a.s.l.s.f.k.H.T Y ~ O.+.;.d.f.f.a.-.=.+.O.+.+.;.-.-.a.f.f.f.a.f.f.a.a.s.a.s.s.l.l.l.x.l.l.l.l.l.l.v.b.z.l.z.b.b.b.c.l.s.s.a.f.g.-.+.+.+.;.;.-.g.l.v.x.f.a.-.a.f.c._././././././. X X_.x.-.=.Z.%.G k T =.v._.^.^.^.^.b.f.+.O.:.n.b._.$XI.u.G : @ X X   . .           O   . O   X X   X O O % % * %     X = + 4 k 0.Y.`./.[. X/.'.n.-.=.a.x.b.^.^.^.^.z.x.-.+.+.+.1.=.-.a.l.z.^./.^.^.z.z.^.b.l.a.-.-.-.g.s.s.v.h.-.<.T Y G H >.k.v.v.l.s.l.z.z.z.l.a.f.s.a.a.a.a.a.a.f.a.a.a.-.-.-.-.-.-.-.-.-.-.-.-.-.-.-.-.-.-.=.=.$.Q O.+.-.g.;.O.H G H U j j _ $.<.-.-.;.;.=.=.=.+.+.O.O.*.O.T O.O.;.1.;.=.=.=.O.+.+.O.T Y Y R H H H H H H H G G H G G H H H H G G k G G G G G G G G G k k k k k z k j j j j p i a 4 : # # + # 1 q 5 4 4 4 4 4 4 4 4 4 4 4 : 4 4 : 4 4 5 a s j j k G G H K K Y H ",
"a.a.a.a.a.-.=.=.;.+.+.+.O.O.O.T Y Y T W Y H G G H E %.%.$.W k j G H E @.+.=.-.-.g.-.-.-.-.-.-.-.a.a.a.a.a.a.a.a.a.a.a.a.a.a.a.a.g.a.-.a.a.a.a.a.a.-.-.-.=.+.+.+.:.a.a.a.l.b.b.b.v.a.a.-.-.1.+.+.=.-.d.a.a.a.a.l.s.s.a.g.1.O.Y &.@.+.+.:.d.a.-.=.+.O.O.O.+.=.-.a.a.a.f.a.f.f.f.a.a.a.s.s.s.l.l.l.l.x.x.x.v.v.v.l.l.l.v.v.v.v.b.l.x.f.f.f.f.a.=.+.+.O.<.+.=.h.x.l.v.s.a.a.a.l.z.^.^./././././././.^.x.-.=.q.9.H G T =.v._._._.^.z.x.k.=.+.-.f.b._.b.k.*.k : @   o                                       X O O @ .     X   ; p p.F.]./. X/.^.'.n.-.=.-.s.b.^.^.^.(.b.n.-.+.+.+.1.-.-.a.l.^././.^.^.z.b.z.c.v.f.-.-.a.a.s.l.l.g.-.*.Q R G H >.k.x.x.f.a.l.z.l.l.s.a.s.a.s.f.f.a.a.g.a.a.g.-.-.-.-.-.-.a.a.-.-.a.a.-.-.-.-.-.,.,.,.=.+.T O.=.-.a.:.#.H R H G k k W $.+.=.;.;.=.+.+.;.+.+.O.O.*.#.T T +.=.:.:.-.-.=.+.+.O.T Y Y W T T Y H H H H H H G G G H G G G H G G G G G k k G k k k k k k k k k k k j j j l p s d 8 ; # @ + ; 0 7 5 4 4 4 8 4 : : : : 8 8 4 4 4 : 4 7 7 i p l z k G H H Y W Y Y ",
"a.a.a.a.-.-.=.=.=.+.+.+.O.O.O.T Y Y Y Y H G G G H T +.%.&.W k j G H R @.+.=.-.-.-.-.-.-.-.-.-.a.a.a.a.a.a.a.a.a.a.a.a.a.a.a.a.a.g.a.-.a.a.a.a.a.a.-.-.-.;.+.+.+.-.a.a.a.l.b.b.b.v.a.a.-.,.1.+.+.=.-.-.-.a.a.s.s.s.s.s.j.1.O.Y &.@.+.+.:.d.g.=.=.+.O.O.O.+.=.-.a.a.f.f.f.a.f.f.a.a.a.s.s.l.l.l.l.l.l.x.x.v.v.v.z.l.l.l.l.v.l.l.l.f.f.a.f.f.a.=.+.O.O.0.>.=.f.x.c.x.a.a.a.a.l.z.z.^.^./././././._._.b.-.=.w.8.H G T =.v._._.z.z.z.n.k.-.+.-.f.z.b.x.k.&.j : @ o o                                     X X X X . .     X   # p i.F.'./././.^.'.n.-.=.-.f.c.(.^.^._.b.n.=.+.+.=.1.-.-.a.l.^././.^.z.z.z.z.v.v.g.=.-.a.f.l.l.l.g.,.*.Q K k H -.v.l.x.f.a.l.l.l.s.a.a.a.a.a.f.f.a.a.g.-.-.-.-.-.-.-.-.-.a.a.-.-.-.-.-.=.=.=.=.,.,.,.=.O.T O.+.-.g.1.O.Y ! H H k j ! $.+.;.;.;.=.+.+.;.+.+.O.O.*.+.T O.=.-.:.-.-.-.=.=.+.O.O.T T E T Y Y H H H H H H G G G G G G G H G G k k k k k k k k k k k k k j k k k j j l f p p d 8 ; # @ @ ; 0 7 5 4 4 4 4 4 : : : : : 8 8 4 4 : 4 5 5 i i j j k G H H Y W Y Y ",
"f.a.a.a.-.-.=.=.=.+.+.O.O.O.O.T Y H Y Y H G G G H Y O.*.&.W k j k G R @.+.=.=.-.-.-.-.-.-.-.-.-.a.a.a.a.a.a.a.a.a.a.a.a.a.a.a.a.g.a.a.a.a.a.a.a.a.-.-.-.;.+.O.+.-.a.a.s.l.l.b.b.b.a.a.-.-.1.+.+.=.-.-.-.a.f.s.s.l.s.s.k.1.O.Y &.#.+.=.:.d.a.=.=.+.O.O.O.+.;.-.a.f.s.s.a.a.f.s.a.a.s.s.l.l.l.v.x.s.s.l.l.l.z.b.b.l.l.z.l.l.l.l.l.s.a.a.s.f.a.=.+.O.O.0.>.=.s.c.b.l.a.a.a.a.l.z.z.^././././././._.b.v.-.=.i.8.H G T ;.b._._._.^.z.n.k.=.+.-.f.l.c.x.j.&.j : @ o o                                     X X X . . .     X   > p i.F._./././.`.'.n.=.=.-.f.c.(.^./._.b.v.=.O.+.>.1.=.-.a.l.z././.^.z.z.z.z.b.v.g.=.=.a.f.l.v.x.h.-.*.Q R k H -.h.v.l.f.a.l.l.l.s.a.a.a.a.a.f.a.a.a.a.-.-.-.-.-.-.-.-.-.-.-.=.=.-.=.=.+.=.=.=.=.>.=.+.T T @.+.-.k.1.O.Y R P P k j P T +.=.;.;.=.+.+.;.+.+.O.O.+.O.T O.+.=.-.-.-.-.=.=.O.O.O.E E T T Y Y Y H H H H H G G G G G G G H G G k k k k G k k k k k k k k k k k k j j f p p p i 4 > + @ + ; 0 7 5 4 4 8 8 8 : : : : 8 8 8 4 4 : 4 4 5 i i p j J G H H Y Y Y Y ",
"a.a.a.a.-.-.=.=.=.+.+.O.O.O.O.T H H Y Y H G G G H Y $.*.&.Y k j k H W @.+.=.=.-.-.-.-.-.-.-.-.-.a.a.a.a.a.a.a.a.a.a.a.a.a.a.a.a.a.a.a.a.a.a.a.a.-.-.-.-.;.+.+.+.-.a.f.s.l.l.b.b.v.a.a.-.-.1.+.+.=.-.-.-.a.f.s.l.l.l.k.A.1.O.Y &.;.=.=.-.d.-.=.=.O.O.O.O.+.;.-.a.a.s.a.a.a.a.s.a.s.s.l.l.l.l.c.c.s.s.l.l.l.z.z.b.z.z.z.z.z.z.l.l.s.s.s.f.f.d.=.O.O.T 0.>.=.k.b.b.l.a.a.a.a.x.c.z._././././././._.z.v.-.=.i.9.H G T >.b._.(.(.^.z.n.k.=.+.-.f.x.c.f.Z.3.j ; . o o                                             . .     X   ; j i.v._./././._.'.n.=.=.-.f.c.(.^.`._.b.v.=.O.+.<.Z.-.=.a.l.z././.^.z.z.z.z.b.v.s.-.-.a.f.l.v.x.g.;.$.Q K k H =.h.v.v.f.a.l.l.l.a.a.a.a.a.a.a.a.a.a.a.a.-.-.-.-.-.-.-.=.=.=.=.=.=.=.=.+.+.=.+.=.;.+.O.T E @.+.-.j.1.O.Y ! H G j j P T +.=.=.+.+.+.+.+.+.O.O.T O.O.T O.+.=.-.-.-.-.=.=.+.O.O.T Y T Q T Y Y H H H H H G G G G H K H H G G G G G G J J J k k k k k k k k k k j p f p p i 5 4 ; # + + ; 0 5 5 5 4 8 8 8 : : : : : 8 8 4 4 : 4 4 5 5 i p j L G G H H Y Y Y ",
"a.a.a.a.-.-.-.=.=.+.+.O.O.T T Y H H H H H H J G H Y $.*.&.Y k j k G W @.+.=.=.-.-.-.-.-.-.-.-.-.a.a.a.a.a.a.a.a.a.a.a.a.a.a.a.a.a.a.a.a.a.a.a.a.-.-.-.=.=.+.+.+.=.a.f.x.l.l.b.b.v.a.a.-.-.1.+.+.-.-.-.a.f.s.l.l.l.v.v.A.1.O.Y O.;.=.-.g.d.g.=.+.O.T T $.+.;.-.a.a.s.s.a.a.a.s.a.s.s.l.l.l.l.z.z.l.l.l.l.l.z.z.z.z.z.z.z.z.z.l.l.l.l.l.x.f.d.=.O.O.T *.+.-.n.b.b.s.a.a.a.a.x.c.z._././././././._.z.x.-.=.w.9.G G Y ;.v._._.^.z.z.v.k.=.+.-.k.x.v.f.H.} p # . o o                                 .           . % o   X   : j p.G._.^././._.'.k.=.=.-.f.c._.^.^._.b.v.=.O.+.;.q.-.=.a.l.z././.z.z.z.z.z.b.v.g.-.-.a.f.l.l.f.g.;.O.Q H k G =.k.v.v.f.a.s.l.l.s.a.a.a.a.a.a.a.a.a.a.a.-.-.-.-.-.-.-.-.=.-.-.-.=.=.=.+.+.=.=.=.=.+.O.T Y T #.-.-.;.O.H K G G j j P T +.+.+.+.+.+.+.+.O.O.O.T O.O.T O.+.=.-.-.-.=.=.=.+.O.T Y Y T Q T Y Y H H H H G G G G H H K K H G G G G G J J J J k k k k k k k k k k j p p p p i 5 4 ; # + # : 9 7 5 5 4 8 8 8 : ; : : : 4 4 4 4 : : 4 5 5 i p j c G G H H H Y Y ",
"a.a.a.a.-.-.-.=.=.+.+.O.O.T T Y H H H H H G J G G H T *.&.H k j k H W @.+.+.=.-.-.-.-.-.-.-.a.a.a.a.a.a.a.a.a.a.a.a.a.a.a.a.a.a.a.a.a.a.a.a.a.a.a.-.-.=.=.+.+.+.-.a.f.s.l.v.b.b.v.a.a.-.-.,.+.+.-.-.a.a.f.s.l.l.l.x.n.A.j.O.Y O.;.-.-.d.j.d.=.+.T T T $.+.;.-.a.s.l.s.a.a.s.s.s.s.s.l.l.l.l.z.l.l.l.l.l.l.l.l.z.z.z.z.z.z.z.l.l.l.v.l.x.f.d.=.O.T T *.+.-.F._.z.a.g.a.a.a.x.c.z.^././././././._.b.v.-.+.0.7.G G Y =.v._.z.z.z.l.v.f.=.+.-.k.v.v.f.H.} i #   o o                                 .           . O o     . 4 j p.D.b.^././._.'.k.=.=.-.f.x.^.^.^.(.b.v.=.O.O.+.1.=.=.a.l.z././.z.z.z.z.z.b.v.a.=.=.a.f.s.l.f.g.=.O.W H j G =.h.h.v.a.a.a.l.s.a.a.a.a.a.a.a.a.a.a.a.a.-.-.-.-.-.-.-.-.-.-.-.-.-.=.=.=.=.=.=.=.=.+.O.T H Y O.=.-.+.@.H K G k j j P Q O.+.+.+.+.+.+.+.O.O.T T O.O.T T +.=.-.-.-.=.=.=.+.O.T Y Y Y Q T Y Y H H H H H G G G G H K G H G G G G G G G J J k k k k k k j j k j j p p p p i 5 4 ; # # # : 9 7 5 5 4 8 8 8 : ; ; : : : 4 4 : : : 4 4 5 i p p z k G H H H H H ",
"a.a.a.a.-.-.-.-.+.+.+.O.T T T Y H H H H H G k k G H T &.&.H k j k H W O.+.=.=.-.-.-.-.-.-.a.g.a.a.a.a.a.a.a.a.a.a.a.a.a.a.a.a.a.g.a.a.a.a.a.a.a.g.-.-.=.=.+.+.=.-.a.a.s.l.b.b.b.v.a.a.-.-.1.+.+.-.-.a.f.a.s.l.z.b.b.n.A.1.O.T O.=.=.-.j.k.j.=.+.T Y T T %.;.-.a.s.l.x.s.s.s.s.a.a.s.s.l.l.l.l.l.l.l.l.l.l.l.l.z.z.z.z.z.z.l.l.v.b.b.v.v.f.d.+.O.T Y *.+.-.n.b.z.a.g.a.-.a.x.c.z.^.^./././././._.b.v.-.+.0.7.G G Y ;.v._.z.z.z.z.x.f.=.+.-.k.n.v.f.H.} 5 +   o o                                             . . o     . 4 k K.D.b.^././._.m.k.=.+.=.f.l.z.^.^.^.b.n.=.O.O.+.1.=.=.-.l.z.^.^.z.z.z.z.z.l.v.g.=.=.d.a.s.s.a.-.+.Q ! G j G %.g.h.f.d.a.a.s.a.a.a.a.a.a.a.a.a.-.-.-.-.-.-.=.=.=.-.-.-.-.-.a.a.-.-.-.-.-.=.=.=.=.=.O.Y H Y T =.-.<.@.H U k k p j P Q O.+.+.+.+.+.+.+.O.O.T T *.$.T T +.=.-.-.=.=.=.+.O.O.E Y Y Y T T Y Y Y H H H H H G G G G G G G G G G G G G G k k k k k k k j j j k j p p p p p i i 4 ; # # # : 9 g 5 5 4 8 8 : : ; ; : : 4 4 4 : : : : 4 5 i p p j k G G H R H H ",
"a.a.a.a.-.-.-.-.+.+.+.O.T T T Y H H H H G G k k G H T &.&.K j j G H W O.+.+.=.-.-.-.-.-.-.g.g.a.a.a.a.a.a.a.a.a.a.a.a.a.a.a.a.a.g.g.a.f.a.a.a.f.f.a.-.=.=.+.+.;.-.-.a.a.l.b.b.b.v.a.a.-.-.,.+.+.-.a.a.f.a.s.l.z.b.m.n.A.j.O.Y O.+.=.-.j.M.j.;.+.T Y Y T %.;.-.a.s.l.x.s.s.s.s.a.s.s.s.l.l.l.v.l.l.s.l.l.l.l.z.z.l.l.z.z.b.l.x.l.b.b.b.x.f.d.+.O.T Y 2.%.=.f.c.x.a.g.g.-.a.n.c.z.^.^./././././.(.'.n.-.+.0.9.G G Y ;.v._._.^.^.z.x.a.=.+.-.k.n.n.k.H.} 5 +   o o                                         . o o   o     . 4 k K.D.c.z./.`._.$Xk.=.+.=.a.l.z.^.^._.b.n.=.O.O.+.1.=.=.a.l.z./.^.z.z.z.z.z.b.v.s.-.-.d.a.a.s.a.-.+.Q ! J j G %.g.g.a.a.-.a.a.f.a.a.a.g.-.-.d.d.-.-.-.-.-.=.=.=.=.;.=.-.-.-.g.g.-.-.-.-.-.-.=.=.=.=.O.Y H R T +.j.i.@.R U k j p j U Q *.+.+.+.+.+.+.+.O.O.T T &.&.T O.+.=.-.-.=.=.=.+.O.T E Y Y Y W T T Y Y H H H H H G G G G G G G G G G G G G G k k k k k k j j j j k j p p p p p i i 4 > # # # : 9 g 7 5 4 8 8 : : ; : : : 8 4 4 4 : : 4 4 5 i p p j k G G K K H H ",
"f.a.a.a.-.-.-.=.=.+.+.O.O.T Y Y H H H H G G k k G H Y O.~ K k j k H T T +.;.=.-.=.-.-.-.-.g.g.a.a.a.a.a.a.a.a.f.a.a.a.a.a.a.a.a.g.a.a.a.a.a.a.a.a.-.-.-.=.+.+.+.-.-.a.a.v.v.b.b.v.a.a.g.,.-.=.=.g.-.a.f.s.s.l.z.b.b.v.A.,.O.Y O.+.+.=.:.j.:.+.O.T Y Y O.+.=.-.a.s.s.s.l.l.s.a.a.a.a.s.a.s.l.v.s.s.l.l.l.v.l.v.l.b.z.b.z.v.c.b.b.z.b.z.x.x.d.=.O.Y Y &.O.=.k.m.l.a.-.-.-.a.n.l.b.^.^././././.^._.z.s.=.+.%.Q G G Y >.b._.z.z.z.z.s.g.=.+.-.k.n.k.h.i.H 5 ; .   o                                                     . + 4 U p.U.m.z.^.`._.F.k.+.+.=.a.s.b.^.z._.b.h.+.O.O.%.Z.=.=.-.s.z.^.^.z.l.z.z.z.b.v.s.-.=.a.a.a.s.f.-.+.T ! k j G +.j.g.-.-.-.a.a.a.-.-.-.-.-.-.;.=.=.=.=.=.=.+.=.;.;.+.+.-.=.-.-.-.-.-.-.-.-.=.=.+.=.+.T H Y Y @.=.=.i.E H U k z p p P ~ O.O.O.O.+.O.O.@.*.O.O.O.O.O.T T +.=.-.-.-.=.=.+.O.E Y Y Y Y Y T Y Y Y Y H H H H G G G G G G G G G G G G k k k k k k k k j z z k j p p i i p p p i 4 ; # + # : 9 g 5 4 4 4 8 : : : ; : : 8 8 4 : : : 4 4 5 5 i p z k G K K R Y H ",
"a.a.a.a.-.-.-.=.=.+.+.O.O.E Y H H H H H G G k k G H Y O.~ K k j k Y T T +.+.=.-.=.-.-.-.-.g.g.a.a.a.a.a.a.a.a.a.a.a.a.a.a.a.a.a.g.a.a.a.a.a.a.a.a.a.-.-.=.+.+.+.-.-.a.a.l.v.b.x.v.a.a.g.,.-.=.=.g.a.a.a.s.s.l.z.b.b.n.A.1.O.Y @.+.+.=.:.N.j.=.+.O.T O.+.;.-.f.x.s.l.l.l.l.l.s.s.s.x.v.l.v.c.b.v.a.s.s.s.l.l.l.l.z.z.z.l.l.l.b.z.z.z.z.z.l.a.=.O.Y Y &.@.+.j.n.s.-.=.-.=.-.n.x.z.^.^././././.^.^.z.a.=.+.%.Q G k Y ;.v._.b.z.z.z.x.k.=.+.-.J.n.v.h.H.! i ; @   o                                             X X     . # 5 P i.D.x.z._._.b.v.j.+.+.=.g.l.b.^.^._.b.h.+.O.O.%.q.=.=.-.s.z.^.^.z.z.z.z.b.b.v.s.-.=.d.a.s.x.f.g.+.T R J j G +.-.a.-.-.:.f.f.f.a.-.-.=.=.=.=.=.=.+.+.=.+.+.=.;.=.+.+.;.=.=.=.-.-.-.-.=.;.=.+.+.*.+.T H Y Y @.;.=.4.E G U k z i p J ~ &.O.O.O.+.O.O.O.O.O.T T O.&.O.T +.=.=.-.=.=.+.O.O.T Y Y Y Y W T T Y Y Y H H H H H G G G G G G G G G G G G G k k k k k j j k k j j j p i i p p p i 4 ; # # # 1 q g 5 4 4 4 8 : : : ; : : : 8 4 : : : 4 4 5 5 i p j k G G K R R Y ",
"a.a.a.-.-.-.-.=.=.+.+.O.$.T Y Y H H H H H G k k G H Y Q ~ P k j k R T T +.+.=.=.=.=.-.-.-.a.a.a.a.a.a.a.a.a.a.a.a.a.a.a.a.a.a.a.a.a.a.a.a.a.a.a.a.g.-.-.=.+.+.+.-.-.a.a.l.l.v.v.v.a.a.-.g.-.=.=.g.a.a.a.s.s.l.z.b.b.n.A.1.O.Y @.O.+.=.j.M.d.-.=.O.+.+.=.-.a.a.s.z.z.b.b.b.b.v.l.l.l.l.l.l.z.l.l.b.z.z.z.b.^._._._.^.z.z.z.z.z.z.z.z.z.z.l.a.=.O.Y Y &.&.+.j.n.a.-.=.;.=.-.f.l.l.^.^././././.^.^.c.f.=.+.0.&.G k W ;.v._.(.(.z.l.n.k.=.+.-.A.n.v.k.J.&.j : # .                                   X                   @ ; p Q q.n.l.z._._.b.x.g.+.+.=.a.s.b.z.z._.b.k.+.O.O.%.q.=.=.-.f.z.^.^.z.z.z.z.b.b.v.g.-.=.d.a.s.v.n.g.+.T R G k H +.g.k.f.-.-.a.a.a.a.-.-.-.-.=.=.=.=.=.=.=.=.=.=.=.=.=.+.;.=.=.=.=.:.;.;.;.+.+.+.#.*.@.E H H Y #.1.1.4.E G I k c i p J R $.O.O.O.O.O.O.O.$.T T T $.&.$.O.+.=.=.=.=.+.+.O.O.Y Y H Y Y T T T Y Y Y Y H H H H H G G H H G G G G G G G J J J k k k j j j j j j j p p p p p i 5 4 ; # # # 8 B g 5 4 : : : : ; ; ; ; : : : 4 : : : 4 4 5 i p j j k G G K K Y H ",
"-.-.-.-.-.-.-.=.=.=.+.O.$.T Y Y H G H H H L G k G H Y $.~ ! k j k R E T +.+.=.=.=.=.-.-.-.a.a.a.a.a.a.a.a.a.a.a.a.a.a.a.a.a.a.a.a.a.a.a.a.a.s.f.f.g.g.-.=.+.+.+.-.-.a.a.s.l.v.x.v.a.-.-.g.,.=.=.g.a.a.a.a.l.l.z.z.b.n.A.1.O.Y E #.+.;.j.k.f.a.-.-.j.A.h.s.l.z.^._.^._._._._.(.^._._._.^.^._.^._.^.^.^.^.^.^./././././././././.`./././.^.z.l.-.+.T T &.*.;.j.k.a.;.+.=.+.-.f.s.l.^.^././././.^.z.m.f.=.+.0.7.G k Y ;.v._.(.(.z.l.n.j.=.+.-.k.v.v.v.j.*.J 5 ; + .                                 X X               . # 4 k &.Z.n.x.z._._.b.n.j.+.+.=.a.s.b._.z._.m.k.+.O.O.%.q.=.=.-.f.z.^.^.b.l.l.z.b.b.l.a.=.=.-.a.s.v.n.a.+.T Y G k H =.k.v.x.a.a.s.l.s.a.a.a.a.a.-.-.-.-.-.-.-.-.-.-.-.-.-.=.-.=.=.=.-.-.-.-.=.=.+.+.#.*.@.T H H Y *.1.j.4.E G I k c i p k ! &.O.O.O.O.O.$.$.T T T T $.&.$.O.+.=.=.=.=.+.O.O.Q Y Y H Y Y T Q T T Y Y Y H H H H G G G G G G G G G k G k G J J k k k k j j k j j j p s p p p i i 4 , # # # 1 q g 5 4 : : : : ; ; ; ; ; : : : : : : 4 4 5 i p j k k G G H H H H ",
"-.-.-.-.-.-.-.=.=.=.+.O.O.T Y Y H H H H P L G G G H T $.Q P k j G R E T +.+.+.=.=.=.=.-.-.-.a.a.a.a.a.a.a.a.a.a.a.a.a.a.a.a.a.a.a.a.a.a.a.a.a.a.f.g.g.-.=.+.+.=.-.-.a.a.s.l.l.x.x.a.-.-.j.,.-.-.a.a.a.a.a.s.l.l.l.x.v.A.1.O.Y E @.+.;.d.f.s.a.a.a.v.F.m.'.].XX}..X[.[. X X X X}.XXXX X X.X X X}.oXoXoXoXoXoX7XqX{.{.{.|.|..X.X.XoX|.|.}.).(.x.d.O.O.O.+.=.j.k.a.=.+.=.+.=.d.a.l.z.^././././.^.z.m.f.+.+.0.7.J k Y ;.v._.b.z.z.c.f.g.+.+.-.k.l.v.x.a.#./ l : # @                                 X X               @ ; i R <.k.m.c.l.b._.b.n.j.+.O.;.g.s.b._.z.'.m.h.+.O.T %.q.=.=.-.s.l.^.^.b.l.l.z.b.b.f.-.=.=.-.a.l.m.n.g.+.T T H G Y -.l.l.s.a.s.l.l.l.l.s.s.a.a.a.a.s.a.a.a.a.a.a.a.a.a.a.a.a.-.-.a.a.a.a.a.a.-.-.=.=.;.+.T Y H Y @.,.j.<.E G I k c i i z P Q O.O.O.T T Q Q O.T T T Q $.T T +.=.-.;.=.+.O.O.Q Y H H H Y Q Q T T Y Y Y Y H H H H G G G G G G G G G k k k k k k k k k k j j k j j p p p p p i 5 8 , # + # 1 q g 5 4 : : : : ; ; ; ; ; : : : : : : 4 4 5 i p j z k G H H H H H ",
"-.-.-.-.-.-.-.-.=.=.+.O.O.T Y Y H H H H P L L G G H T $.Q W k j G R E T +.+.+.=.=.=.=.-.-.a.a.a.a.a.a.a.a.a.a.a.a.a.a.a.a.a.a.f.a.a.a.a.a.a.a.a.f.g.g.-.=.+.+.=.-.-.a.a.s.l.l.l.f.a.-.-.g.,.-.-.-.a.a.a.a.l.l.l.z.x.v.A.1.T Y E &.+.;.d.v.v.l.l.b.'.$X].`.}.|.2X4X4X4X4X7X4X7X|.|.|.|.|.4X{.|.4X{.{.{.{.{.2X2X2X2X3X6X4X5X4X4X4X4X4X4XoX|.).(.x.=.+.O.+.=.j.M.d.=.O.+.+.=.d.a.l.z.^././././.^.z.m.a.+.O.8.7.G k H +.v._.z.z.z.c.f.g.+.+.-.h.l.b.b.a.;.y.' 5 : # .                               X X             . # 4 z &.j.v.z.z.l.z.b.b.n.j.O.+.=.g.f.b._.z.'.v.h.+.O.T %.w.+.=.-.s.l.^.^.b.l.l.z.c.m.k.a.=.=.-.a.x.m.v.g.+.O.T Y Y O.h.b.b.z.l.l.^.^.z.z.z.z.z.z.z.z.z.z.z.z.l.l.l.l.l.l.z.z.l.l.l.l.l.l.l.l.l.l.s.a.a.a.-.+.O.H Y O.=.j.#.E G I k c i i z P T O.O.T T T T T T T Y T T O.T T +.;.1.-.=.+.O.O.Q Y H H H Y T Q T T Y Y Y Y H H H H G G K K G G G G k k k k k k k k k k j j j j k j p p p p p i 5 8 , # @ # 1 q g 7 4 : : : : : ; ; : : : : : : : : 4 4 5 i p j k k G H H Y Y H ",
"=.-.-.-.-.-.-.-.-.=.+.O.O.T T Y H H H H P L G G H H T $.Q W k j G R E T +.+.+.=.=.=.=.-.a.a.a.a.a.a.a.a.a.a.a.a.a.a.a.a.a.a.a.f.a.a.a.a.a.a.a.a.f.g.a.-.=.+.=.=.=.-.a.a.s.l.l.x.f.a.-.-.j.,.-.-.-.a.a.a.a.l.l.l.l.x.k.j.1.T H E O.+.=.g.v.b._._.<X<X<X<X7X4X3X5X8X5X5X5X5X5X5X4X0X5X5XtXtX5X5XtX5X5X5X5X5X5X8X9X3X3X3X5X5X5X5X5X4X4X4X4X|.}.).c.h.=.+.+.=.j.k.g.+.O.+.+.=.d.a.l.z.^./././.^.^.z.x.a.+.O.8.~ G j Y +.v._.b.z.z.l.f.-.+.+.-.h.l.b.b.a.1.r.I v g ; .                               X   o . . . . . @ : h { u.A.c.z.l.l.z.b.v.v.,.O.+.;.g.s.b._.z.'.v.g.+.T T %.w.+.=.-.s.l.^.^.b.l.l.l.c.b.s.-.=.=.-.a.l.m.n.g.=.O.T $.&.i.D.%X].].;X;XXXoX&XXXXXXX).).}.}.).).).)././.`.`.).).].].XX).}.[.[.[. X X/.).].(.(.(.c.f.i.Y T T =.,.+.@.G U k x 5 i z ! Y O.O.T T T T T T T Y T T Q T T +.;.1.-.=.+.O.O.E Y H H H Y T Q Q T Y Y Y Y H H H H G G K K G G G G G k k k k k J k k k k j j j k j p p p p p p 5 7 , # + # 1 q g 5 4 : : : : : ; ; : : : : : 4 : 4 4 4 5 i p j k G G H H Y H Y ",
"=.=.-.-.-.-.-.=.;.=.+.O.O.T T Y H H H H P L G G H H T $.Q H k j k R T T +.+.+.=.=.=.=.-.-.-.a.g.a.a.a.a.a.a.a.a.a.a.a.a.-.a.a.f.a.f.f.f.f.s.a.a.f.g.-.-.=.+.+.=.-.-.a.a.s.l.x.v.f.a.-.-.j.,.-.-.-.a.a.a.a.l.l.l.v.x.k.j.,.T H T O.+.-.f.v.b._.`.<X&XoX*X7X6X3X5X5X5X4X4X5X4X4X4X4X4X4X5X5X5X5X5X5X5X5X5X5X5X5X5X5X5X5X5X5X5X4X4X5X4X4X4X4X@XXX'.-Xk.-.=.-.j.k.-.+.O.+.+.=.d.s.l.z.^././.`.^.^.z.x.a.+.O.8.~ G k R +.s.b.b.c.z.l.k.-.+.+.-.g.s.v.v.f.j.*.K ' S : @                               X   o . . . @ + ; 7 ' y.L.D._.^.l.l.b.b.v.k.g.+.+.;.g.l.b._.z.'.l.a.+.O.T $.0.+.=.-.s.l.z.^.b.l.l.l.v.x.g.=.=.=.-.a.s.x.x.a.=.+.+.-.H.I.'./. XXXXXXX.X.X X X}.}.}.|.|.|.|.|.|.|.oXoXoXoXoX@XqXqXaXaXaXaXaXaXaXaX7XqXpXqX@X@X@X;XU.+.+.+.=.j.+.&.G ^ j x 5 i c U Y O.O.T T T Q T T Y Y Y Q Q T T +.;.1.:.=.+.O.O.E W H H H Y W Q Q T Y Y Y Y H H H H G G G H H G G G G k k k J J L z k z z k k k k j j p p p p a d q 3 # + # : 8 g 7 4 : : : : : ; : : : : : : 4 : 4 4 4 5 i p j J J K H Y Y H H ",
"-.-.=.=.=.=.=.=.=.+.O.O.T T T Y K H H H P L G k G Y T T Q H p p k H Y Q *.+.+.=.=.=.=.=.=.-.-.-.g.a.a.a.a.g.g.a.a.a.a.a.-.-.-.-.-.a.a.a.a.a.a.a.a.a.-.-.=.+.O.+.=.-.g.a.a.l.v.x.s.a.=.=.-.,.;.=.h.g.a.a.f.f.f.s.l.l.v.A.>.T H Y +.-.a.f.-XBXZXZXZXZXZXZXcXcXcXcXcXcXcXcXbXAXAXAXAXAXAXbXcXcXcXbXbXcXcXcXcXbXAXAXAXcXcXcXcXcXcXvXvXvXvXgXsX,X1X>X:XV.B.B.a.f.k.=.+.O.O.+.-.a.f.l.c.z.z.^.^.^.^.^.c.k.=.O.8.~ k k H +.s.l.c.x.l.v.g.-.O.O.-.j.f.f.a.-.=.O.Q ) L f : # + . .             X                 . # ; 4 p L &.<.k.x.b.z.l.l.z.b.b.n.g.+.+.-.f.x.b.(._.b.x.a.+.O.T O.u.O.=.-.a.l.b.z.l.b.l.b.v.k.k.-.=.-.a.a.l.b.v.a.a.a.l.z.c.z.^./.}.|.[.}.|.{.{.|.|.|.|.4X{.|.4X4X2X{.4X4X4X4X4X4X4X4X4X3X3X4X5XtX0X5X5X4X4X4X4X4X|.}.z.f.a.-.a.d.;.Q K ' p f 5 p c U E @.O.T T E T Q T Y Y W ~ E H Y +.=.;.+.+.+.+.O.T Y Y H Y T &.7.Y Y Y Y Y Y H H G G H H H H K K G G k k k k k z k k j k k k k k j j j j p p p a 5 4 ; # # # ; 8 q 7 4 : : , : : : : : 4 6 4 4 : 6 : 4 5 i p j k L K K H H H Y Y ",
"-.-.=.=.=.=.=.=.+.+.O.O.T T T Y K H H H P G G G G H T T Q G p p k H Y E *.+.+.=.=.=.=.=.=.=.-.-.g.a.a.a.-.-.-.-.-.a.-.-.-.-.-.-.-.-.a.a.a.a.a.a.g.a.-.-.;.+.O.+.;.:.g.a.a.x.v.v.a.a.-.=.-.1.;.=.g.a.-.a.d.f.f.s.s.l.v.k.>.T H W +.=.=.-.J.!.NXhX:X;X;X>X1X1X1X1X1X:XhXhXjXjXjXjXjXjXjXjXjXjXjXjXjXjXjXjXjXjXxXjXZXZXjXBXZXVXVXZXZXZXZXZXZXBXBXBXVXNXNXhXI.M.M.-.+.O.O.+.=.d.f.x.c.z.z.^.^.^.^.^.m.k.=.+.8.~ k k Y ;.k.v.x.l.s.a.g.,.O.O.:.k.f.j.-.;.;.+.$._ U l 4 ; # @ .                         X     @ # 4 p J E ;.j.f.v.z.l.l.s.l.b.b.n.g.=.+.-.f.l.z.^.^.z.x.a.+.O.T O.u.O.=.a.a.l.c.b.l.b.v.b.v.k.k.-.=.-.g.s.l.b.v.l.s.l.c.(.).).).).}.}.}.}.}.|.}.}.#X#X#X#X#X#X#X#X|.|.|.|.|.|.|.|.|.|.4X4X4X4X4XrXrXrX4X4X4X|.|.|.|.}.OX-Xm.s.a.d.4.3.J ' p f i p b U Y T T T T T T E Y Y Y W _ ! H Y O.=.<.;.;.+.O.T T Y Y H Y W Q &.Y Y Y H H H H H H H H H H H H H G k k k k k k z k j j j k k k k j j j j j p s a 5 : ; ; # # ; 0 q 4 : : : : ; ; : : 4 4 4 4 4 : : : 4 5 i i j k J H H H H H Y Y ",
"-.-.=.=.=.=.=.=.+.+.O.O.T T Y Y R K H H P H G G G H T T E J p p j H W T %.;.=.+.=.=.=.=.=.=.-.-.a.a.a.a.a.a.g.g.-.a.-.a.-.-.-.-.-.-.-.a.a.a.a.a.g.a.-.-.=.+.O.+.=.:.g.a.a.l.v.v.a.a.-.=.,.,.;.=.a.-.-.-.d.d.f.s.s.s.h.j.>.T H P R E E E O.#.#.+.+.+.=.;.;.;.+.+.+.+.+.+.+.+.;.=.;.;.;.:.:.:.:.6.:.:.:.:.:.:.:.:.6.6.6.6.N.N.N.H.N.N.N.N.N.N.5.5.R.P.R.R.i.<.<.*.&.O.T O.+.-.f.s.c.z.z.^.^.^.^.z.m.k.=.O.8.Q k k H #.s.l.c.l.s.f.g.;.O.O.;.j.k.j.;.#.+.O.$.Q L f 8 ; # @ .                           . . + ; a b ! &.;.-.f.x.z.l.s.s.l.b.b.n.j.=.+.-.f.l.z.z.z.z.f.a.=.O.T $.r.O.=.g.a.s.c.l.l.v.l.b.v.f.k.-.=.-.a.g.k.n.n.n.F.:XhXhXhXhXhXjXjXjXjXjXjXjXjXjXjXjXZXxXxXjXjXxXxXjXxXxXxXxXxXxXxXxXxXxXxXxXxXxXxXxXxXxXxXxXxXxXxXjXBXVXNXY.N.;.@.R k b p f i p b ! Y T T T T T Y T Y Y Y Y ~ W H Y O.=.<.;.;.+.O.T T Y Y H H Y W W W Y Y H H H H H H G G G G G H G G G G J k k j k j j j j k k k k j j j j j p s a 5 4 ; ; # # ; 0 9 5 : : : : : : : : 4 4 4 4 4 : : : 4 5 5 i j k G G H H H H H H ",
"-.-.=.=.=.=.=.=.+.+.O.O.T T Y Y K K H H P P J G G H Y T E J p p j R E T %.;.;.+.=.=.=.=.=.=.-.-.-.-.a.a.a.a.j.k.a.a.a.g.g.a.-.-.-.-.a.a.a.a.a.a.a.-.-.=.+.O.O.O.=.=.-.-.a.s.l.x.a.a.-.=.,.,.>.=.-.-.-.-.:.d.f.s.x.x.v.j.%.Y G U ] U J G G G G k G G G G G G k k H H H G H H H H H H H H H H H H Y Y Y Y Y Y Y Y H Y Y H H H Y Y Y Y Y Y Y H H H H G H R H H R R &.~ T T +.-.f.f.l.z.z.^.^.^.^.z.m.k.+.O.8.Q k k H +.h.v.c.l.s.f.-.;.O.T =.,.-.-.+.+.O.T T H k p q , ; + .                           . + ; 4 v I ! &.+.-.f.v.l.l.s.s.l.b.b.n.j.=.+.=.f.l.z.z.^.z.f.d.=.O.T O.r.O.=.j.f.s.l.l.l.l.l.b.x.f.d.=.+.=.-.a.g.A.J.U.W.NXCXCXCXVXCXVXVXVXVXVXVXVXVXVXVXVXVXVXVXVXVXVXVXVXNXNXNXhXNXhXNXhXhXhXNXhXhXhXhXNXVXVXVXVXVXVXVXCXCXCXCXCX~.p./ U j m i h i p z ! E O.O.O.T E T E Y Y H Y ~ W H Y O.=.;.=.+.+.+.O.Q Y H H H Y W W W Y H H H H G G G G G G G G G G G k G z k j j k j j j j k k j j p p j j p p i a 7 4 ; ; # # ; 0 q 5 4 : : : : : : 4 4 4 4 4 : : : : : 5 5 i p k k G H H H Y Y H ",
"-.-.=.=.=.=.=.=.+.+.O.O.T T Y Y K G H H P H G G G H Y T ~ H p p j R E E %.;.;.=.=.=.=.=.=.=.-.-.-.a.a.a.-.-.-.a.-.-.-.-.-.-.-.-.-.-.-.a.a.a.a.a.a.-.-.=.+.O.O.O.+.=.-.-.a.a.l.f.f.a.-.=.-.1.>.=.,.-.=.-.-.d.f.s.x.x.k.j.*.Y G I ' C b c c b l l z l j p p p p s p p p p p p p p p p j j j j j j j j j p p p p p p p p p p p p p p p i i i i i i p p i p j j k I { / ~ T +.-.k.x.l.z.^.^.^.^.^.z.v.k.+.O.9.Q k k Y <.v.b.b.l.a.a.-.;.T Y +.=.=.=.O.O.T T W G j i q 8 ; # @ .                 . . . . + ; 8 h b U E O.+.-.a.x.l.s.f.s.l.l.v.n.-.+.+.=.f.l.z.^.^.c.s.d.=.O.T T 8.O.=.j.f.s.l.l.l.l.l.l.l.f.d.=.+.+.;.>.1.1.1.<.i.P.p.4.4.6.5.5.5.:.;.;.;.;.;.6.6.6.#.#.#.#.;.<.;.;.5.4.4.<.<.;.1.4.5.4.4.4.4.4.4.4.#.#.#.#.4.4.4.2.e.e.t.t.3.R k j p S a h i p k K T O.O.@.T E T E Y Y H Y ! ! H Y +.=.-.=.=.+.+.O.T Y H H H Y W W R Y H H G G G G G G G G G G G G J k k z k j j j j j j j k j j j p p j j p p i i 7 4 ; ; # # ; 0 9 5 4 : : : : : 4 4 4 4 4 4 : : : : 4 5 5 i p k k G H H Y Y Y Y ",
"-.-.-.=.=.=.=.=.+.+.O.O.T T Y H K G G H H G G G G H T T ~ H p p j H R E O.+.+.=.=.=.=.=.=.=.-.-.a.a.a.a.a.a.a.g.-.-.-.-.-.-.-.-.-.-.-.-.a.a.a.a.a.-.-.=.+.O.O.O.+.=.-.-.a.a.v.v.k.a.=.=.;.,.=.+.1.;.=.=.-.a.a.s.l.l.k.Z.*.Y G I C v f f f p s f h d a 7 5 7 7 7 q g g g h N N N h N S S S S S S S Z S Z N N N N h h N Z N N N N n n n n n n g h h h i i s f x ' ( ! R T O.-.h.s.l.z.^.^.^.z.^.z.n.j.+.O.8.Q k k Y ;.k.b.v.l.a.a.-.;.T Y O.+.=.=.O.T T Y Y G j a 9 8 : # + @ .             . . @ @ + # : d v I ! Q O.+.=.a.f.a.a.f.f.s.l.v.k.-.+.+.=.f.x.b.(.(.c.s.d.=.O.T T 8.O.=.j.f.s.x.x.l.l.l.l.l.a.-.+.O.+.*.&.$.Q Y H H H R K H R R Y Y Y H H H H H H H H G G G G G H H H G G G G G G G G G G k G G G G k G G G G G G G k k j j k z l p i 5 M q g 5 i k K T O.O.O.T T T Y Y Y H H W R H Y +.-.j.j.,.;.+.O.O.Y H H H W W W Y H H G G G G k G k G G G G G G k k k k k j j j k k j j k k j j j p j j j p s a q : ; ; # # > 0 4 4 4 : : : : : 4 4 7 5 4 4 : : 4 : 4 5 5 i p j k G G K K Y Y H ",
"-.-.=.=.=.=.=.+.+.+.O.T T Y Y H H G G G G G k k G H T O.~ P p p j H W Q %.+.+.=.=.=.=.=.=.=.-.-.-.a.a.-.a.g.d.d.-.-.-.-.-.-.-.-.-.-.-.-.a.a.a.-.a.-.-.=.+.O.O.O.+.=.=.-.a.s.v.n.f.a.=.=.=.;.=.+.1.;.=.=.-.a.a.s.l.s.k.j.<.Y G k x f i i i 5 5 9 5 9 8 8 4 4 4 4 4 4 4 4 4 8 9 9 4 4 9 5 5 5 5 5 f f f i f d d d d i i d d d d 9 5 5 7 5 5 5 5 5 d N f i f f x C b U ! T O.,.g.s.l.z.^.^.z.z.z.z.f.j.+.$.8._ k k H +.s.l.x.x.s.f.=.#.T Y O.+.+.+.T Y Y Y H k p 5 7 8 : ; # + @ . . . . . . . @ + # # : 5 s b U W $.+.=.=.-.a.a.a.a.a.s.l.v.k.-.+.+.=.g.x.b.^.(.b.s.d.=.O.T T 8.O.+.j.f.a.x.m.l.l.l.l.s.a.-.+.O.3.} ! G G k j p p i 5 5 5 5 5 5 i 5 5 5 5 5 5 5 4 4 4 4 4 5 5 5 5 5 5 5 5 5 5 5 5 5 5 5 5 5 5 5 5 5 5 5 5 5 5 5 4 4 : : : 4 4 : : : t 0 q 4 i j K T O.O.O.T T Y Y Y Y H H W P G Y +.-.j.,.,.;.+.O.$.T H H H W W W H H H G G G k k k k k k k G G k k k k k k j j z k j j j j j j j j j j j j p s a q 4 ; # # # > 0 4 4 4 : : : : 4 4 4 7 7 4 4 4 4 : : : 4 5 i p j k k G H H H H H ",
"-.-.=.=.=.=.=.+.+.+.O.T T Y Y H G G G G G G k k G H T O.~ P p p k H W &.*.+.+.;.=.=.=.=.=.=.-.-.d.g.-.-.-.-.-.-.-.-.-.-.a.a.a.-.-.-.-.-.a.a.a.a.-.-.=.=.+.O.O.O.+.+.=.=.-.g.f.f.f.a.=.+.=.;.+.+.<.;.=.-.-.a.a.s.l.l.k.k.;.Y G j p i i f g d d d 7 9 q q q q 7 8 r r q q q q 9 9 9 g g N h g d i h h h f f f f h h h d h N N h d g g g g g g d d 4 N N i d d i p b ] ~ Q %.1.k.l.z.z.z.z.z.z.z.c.f.-.O.T 8.~ k j Y *.h.v.l.s.a.g.=.+.Y H T O.+.O.Y H H H G j i 5 4 : : ; # # + @ . . . . . @ + # ; : 4 i p z P Q $.+.=.=.-.g.g.a.a.a.s.l.v.k.,.+.+.=.j.x.b.z.^.z.s.d.=.O.T T 8.O.+.j.f.s.v.m.x.l.l.x.f.g.:.+.E e.{ b j p p a a a 7 6 6 q 7 6 6 w w 6 w w w w 6 , w 6 6 6 w w 6 6 6 6 6 6 6 6 6 0 6 7 q 7 6 6 6 6 6 6 6 0 0 0 0 3 > > ; : : : ; ; > t 3 q 4 5 j K T O.O.O.T T Y Y Y H G G ! P G Y +.-.-.-.=.=.+.O.&.T H H H Y Y Y H G G G G G k k k k k k k k k k k j j k j j j z j j j j j j j p p p j j p p i 5 q 8 ; # # # > 0 8 9 4 : : : 8 8 4 7 9 9 4 4 4 4 : : : 4 5 5 i j j k G G H H G H ",
"=.=.=.=.=.=.=.+.+.O.O.T T T Y H G G G G G G k k G H @.Q 7.G j p k H W E O.+.+.=.=.=.=.=.=.=.-.-.-.-.-.-.-.-.-.-.-.-.-.-.-.a.a.g.-.-.a.a.a.a.a.a.-.-.-.=.+.O.O.O.+.+.=.-.-.a.s.n.k.g.=.+.>.%.+.+.;.=.-.-.a.s.l.z.'.b.v.k.1.+.Y k i 5 5 5 5 4 4 4 4 4 4 4 4 4 4 5 4 4 4 4 4 4 4 4 5 5 5 5 i i i 5 5 4 4 4 4 4 4 4 4 4 4 4 4 4 4 : 4 : : : : : : : : 4 4 4 4 : : 4 i j G T ;.Z.A.v.b.z.z.z.z.z.z.x.k.-.O.T 7.W k k H O.g.l.s.a.a.a.1.O.Y Y E O.O.T Y H G G k j i 4 4 : : ; ; # + @ @ @ @ + + # # > : 4 5 i p k H Q O.+.+.=.-.-.-.-.a.f.x.l.k.k.1.+.O.;.j.n.b._.^.c.s.a.+.O.T T r.$.+.-.h.f.s.a.l.v.l.s.s.k.1.T Y ( z s 5 4 4 4 : : : : : : : : : : : : : : , : : , ; : : : : : : : : : : : : 4 4 : ; > > # ; ; ; # > > > # # # # # + + # # > > > > $ $ < 1 4 5 p ] Q O.O.O.O.Q T W R K G G H G G H +.-.,.-.=.=.+.O.Q Y H H H Y W R G G G G k k k k k k k k k k k z k k k j j j j j z j j j j j j j p j l p p p i 5 8 : ; ; # # ; : 8 4 4 : : : : 8 4 4 9 9 4 8 8 : : 4 4 4 5 i i p j k G G H H H H ",
"-.-.=.=.=.=.=.=.+.O.O.T T W W H G G G G G G k k G H O.Q e.G j p k H W E O.+.+.=.=.=.=.=.=.=.-.-.-.-.-.-.-.-.-.-.-.-.-.-.-.-.-.a.-.-.-.-.a.a.a.-.-.-.-.=.=.O.O.O.+.=.=.-.a.a.f.k.g.-.+.+.%.+.O.+.;.:.-.a.a.l.b.b._.b.v.k.j.;.O.Y j p p p p p p p p p p p p p p p p p p p p p p p p p p j j j j j p p p p p p p i i i i i i i i i i i 5 5 i i i 5 5 5 5 5 5 4 4 5 p k H O.1.j.h.s.z.z.z.z.z.z.c.x.j.;.O.T 7.! k k K *.h.v.s.a.s.g.<.O.Y H E @.O.T Y G G k k j 5 4 4 : : ; ; # # + + + + # # # > ; : 4 5 i j k H T O.O.+.=.=.-.-.-.-.a.s.s.k.j.<.O.O.;.j.n.b._._.c.x.d.=.O.T Q 8.$.+.-.k.f.s.s.s.n.x.s.h.A.1.$.H k p i 4 : ; ; ; : : : : : : : : : : : ; : : , : : : : : : : : : : : : : : 4 4 4 : ; ; > # ; ; > # ; ; # # # # # # % % $ # > # # + + + # ; 4 i v U $.O.O.O.O.E Y R ! K G G P G G H O.-.,.-.=.=.+.O.T Y H H H Y W Y G G G G G k k k k k k k k k k k k j j j j j j j z l j j j j j p p p l p p p i 5 8 : ; ; # # ; , 8 4 : : : : : 8 4 4 9 9 4 4 4 : : 4 4 4 5 i i p j k k G G H H H ",
"-.-.;.=.=.=.=.+.+.O.O.T Q W W H G G G G G J z k G H Q T e.K j p k H W Q O.+.=.=.=.=.=.=.=.=.-.-.-.-.-.-.-.-.-.-.a.-.-.-.-.-.-.-.-.-.-.-.a.-.-.-.-.-.=.;.;.+.O.+.+.=.=.-.a.a.k.f.g.-.+.O.%.%.$.+.1.j.d.f.s.v.b.b.b.b.b.v.k.j.1.;.E R R R ! ! ! R R E E E T T Q Q R R R R R R Y R &.&.&.@.@.@.*.2.@.@.@.@.@.@.@.@.&.&.@.E @.E E E Y Y Y Y Y W Y Y W K K K K J G G H Y T %.1.j.s.s.l.z.z.z.z.z.l.f.d.+.T W _ U j j K *.h.v.a.a.g.j.>.O.Y H Y E T Y H G k k j p 5 : : : ; ; ; # # # # # # # # ; ; : 4 5 i p j k H W T O.+.+.=.-.-.-.-.a.a.a.h.j.<.O.O.#.j.n.b.z._.z.n.j.=.O.T T 8.$.+.-.g.f.s.s.s.s.f.s.h.k.q.%.H j i 5 4 : ; ; : : : : : : : ; ; ; ; ; ; ; ; ; ; ; ; : : : : : : : : : : : : : : : : : ; ; ; : ; ; ; ; ; ; ; ; ; ; # # # ; ; ; # # + + # ; 4 f ' U $.O.O.O.T Y Y Y ! K G G P G G H O.=.,.;.=.+.+.O.T Y H H H Y W Y G G G G G G k k j j j j k k k k j j j j j j j j l j j j j p p p p p p l p p i a 8 : ; # # # ; 3 0 4 : : : : : 4 4 4 4 4 4 : : : : 4 4 4 5 i i p j k k G G H H H ",
"-.-.=.=.=.=.=.+.+.O.O.O.Q W Y H G k G G G J J G H H T T e.K j p k H Y Q O.+.=.=.=.=.=.=.=.=.-.-.-.-.-.-.-.-.-.-.-.-.-.-.-.-.-.-.a.a.-.-.-.-.-.-.-.-.-.:.;.+.O.+.+.=.=.-.a.a.k.f.g.=.O.O.*.*.O.O.;.d.g.f.l.b.b.b.l.b.v.v.k.k.S.Z.1.4.<.<.4.4.<.<.i.i.q.q.q.j.Z.Z.1.4.<.<.<.1.1.1.1.N.j.j.j.d.k.M.k.k.k.k.f.d.j.j.k.j.j.j.j.j.j.j.j.j.j.j.j.j.j.1.q.1.<.<.u.u.*.&.&.*.+.;.,.h.f.l.l.l.l.z.z.l.l.f.-.+.Y W _ U j j K &.h.h.a.-.a.-.+.T H H W E Q Y G k k j j i 4 : : ; ; ; ; > # # # # # # ; ; : : 4 5 5 p j k G H Y T O.+.=.=.-.-.-.a.a.a.h.j.<.T T +.j.f.b.b._.z.x.j.=.O.T T 8.T O.=.-.a.s.a.a.a.a.f.f.g.Z.0.T G p i i 5 5 5 i i i i i 5 5 5 5 5 5 5 5 5 5 5 5 5 5 5 5 5 5 5 5 5 i i i i 5 5 i i 5 5 5 5 5 5 5 4 4 4 4 4 4 4 4 4 : : 4 4 4 4 : : ; ; : : i b ( ! $.+.O.T T Y Y H K J k k L J k H O.=.1.;.=.+.O.O.T Y H H H R W R G G G G G G z k k j j j k k k k j j j j j j j j l j j p p p p p p p p l l i i a 8 : ; # # # ; 3 0 : : : : : : 4 4 4 4 4 : : ; ; : 4 4 4 5 5 i p j j k G G G H H ",
";.=.=.=.=.=.+.+.O.O.O.O.T Y Y H G G G G G J z k G H T T 7.G j p k H R Q O.+.=.=.=.=.=.=.=.=.-.-.:.:.-.-.-.-.-.-.-.-.-.-.-.-.-.-.a.a.a.a.-.-.-.-.-.=.;.:.;.+.+.+.=.=.=.-.a.s.h.f.-.=.O.O.*.&.T O.=.-.a.a.s.x.v.l.l.l.v.v.k.k.k.k.k.k.h.h.h.h.h.f.k.k.v.v.v.v.b.v.f.f.f.f.f.f.f.x.x.x.x.x.l.l.b.'.c.c.c.c.z.l.x.x.c.x.v.x.x.x.x.x.v.x.x.x.v.v.v.n.v.f.g.g.j.j.j.-.1.1.,.-.g.f.x.l.l.l.l.l.l.l.l.a.=.O.Y R _ U p p G $.j.h.g.-.-.=.+.T H H W ~ E Y G k j j p i 4 : ; ; ; ; ; > # # # # ; ; ; : : : 4 5 i i p j k G Y T O.+.=.=.-.-.-.a.a.a.h.H.;.T T +.g.s.l.z.^.b.f.d.=.O.T Q r.T O.=.-.a.a.a.a.a.a.f.f.a.-.,.*.T H G z b I U ( U R R R K K K K K P U P P P P P H K K K K K K K K K K K K K K H H J J k k k k z k z z z z k k k j C C b c l j p i 5 i i i j L ! Q O.O.O.O.T Y H H G G k k L J k G O.=.<.;.+.+.O.T Y H H H H W W W H G G k J J J k k k k k k k k k j p p j j j j j j j p p p p p i p p p l x i i a q : ; # # # ; 3 0 : ; : : , : : 4 4 4 : : ; ; ; : 4 4 4 4 5 i p j j k k G G H H ",
";.=.=.=.=.=.+.+.O.O.O.Q T Y Y H G k G G G G z k G H T T 7.G j p k H W Q O.+.=.=.=.=.=.=.=.=.-.-.:.-.-.-.-.-.-.=.-.-.-.-.-.-.-.-.a.a.a.a.-.-.-.-.=.=.;.;.<.+.+.+.=.=.-.-.a.f.h.k.-.=.O.T &.Q Y T +.-.-.a.a.l.l.s.l.s.s.s.s.h.v.v.b.v.l.v.v.v.v.l.l.l.z.z.z.z.b.b.l.x.l.l.l.l.l.l.b.b.(.(.^._.`.`.`._._._._._._.(._.(.^.(._.(._.(.(.^.^.^.^.^.^.z.z.z.v.v.v.v.x.s.a.-.g.h.k.s.s.s.l.l.l.l.l.l.l.a.=.T H H ) L p p G Q j.k.g.g.-.=.+.T H H Y E E Y G k k j p i 4 : ; ; ; # > > # # # ; ; ; : : : 4 5 5 a a f l k G H Y T O.+.=.-.-.-.a.a.a.g.j.*.T T +.-.s.l.z._.b.x.j.=.O.T Q r.O.+.=.-.a.a.a.a.a.a.f.f.a.-.-.;.+.@.E W E 7.8.8.8.<.;.;.;.<.*.*.*.<.*.*.*.0.0.0.*.%.*.8.*.*.*.*.*.*.*.*.*.*.*.%.*.&.~ E ~ ~ ~ E E ~ ~ ~ ~ ~ R R ! ) ) ! ! R ! P J z b b L G R Q O.O.O.O.Q T Y H G J k j k L L k G T =.<.;.+.O.O.T Y H H H Y R W ! K G G k J J z k k k j k j j k j j p p p j j j j j p p p p p i i i p p l f i i 7 q : ; # # # ; 3 0 : : : , , : : 4 4 4 : : ; ; ; 8 4 4 4 4 5 i p l j k k G G H H ",
",.=.=.=.=.=.+.O.O.O.O.T T Y Y K G k k G k k k k G H Q T ~ G j p k H W E O.+.+.=.=.=.=.=.=.=.-.:.-.-.-.-.-.-.-.-.-.-.-.-.-.-.a.a.a.a.a.a.-.-.-.-.=.=.;.;.<.+.+.+.=.=.-.-.a.f.f.h.-.=.O.T &.Q Y T +.-.-.a.a.a.a.a.f.a.a.a.s.l.l.l.b.z.z.l.l.l.l.l.l.l.l.l.z.l.z.l.l.s.s.s.s.l.l.l.l.l.l.z.z.z.z.z.^.^.^.^.^.^.^.^.^.^.^.^.^.^.^.^.).).^././././.^.^._._._._.b.b.v.a.a.s.k.f.s.l.s.l.l.l.l.x.x.x.f.=.T H H ) L p p J ~ ,.h.g.j.-.=.%.T H G Y E T Y G k k j p 5 4 ; ; # # # > # # # ; ; ; ; : : : 4 4 5 5 i p f j k G H T O.+.=.-.-.-.a.a.a.g.,.#.T T +.-.s.l.z.b.c.n.j.=.O.T Q r.T +.=.-.g.a.a.a.a.a.f.f.f.a.a.-.=.+.+.+.%.>.1.j.g.g.d.d.d.d.d.:.:.:.,.,.,.j.j.g.g.-.,.,.,.,.-.,.-.,.,.,.,.,.,.,.,.<.+.+.+.%.+.+.%.%.%.%.%.%.%.%.$.$.$.$.%.%.&.~ R P U U ! Q T O.+.O.O.O.T W H H G J k j j I L k G T #.<.;.+.O.O.T Y H H H R W W W P G G k G J k k k k k k k k k j p p p p j j j j p p p p p p p i i p j p p i i 4 q : ; ; # # # 1 3 : : ; ; : : 8 4 4 4 : : ; ; ; 8 8 4 4 5 5 a p l j k J G K H H ",
",.;.=.=.=.=.+.+.O.O.O.T T Y W R G k k k k k k k G H Q T _ G j p k H R E O.+.+.=.=.=.=.=.=.=.-.:.-.-.-.-.-.-.-.-.-.-.-.-.-.-.-.-.-.a.-.-.-.-.-.-.=.=.=.<.;.+.O.+.+.=.=.-.g.k.k.h.g.;.O.O.&.Q Y T +.=.-.a.a.a.a.a.x.s.a.a.l.v.s.s.b.z.l.l.l.s.a.a.l.l.l.l.l.l.l.l.s.a.a.a.a.s.s.l.l.l.l.z.z.^.^.z./././././././././././././.^./.`.).)././././././././.`.`.^.^.z.z.s.s.s.s.s.l.l.z.l.l.l.z.c.x.x.f.+.T H G U c p p J T =.a.j.,.-.+.$.W G G H W W Y G k l j p 5 4 : ; ; # # > > # # ; ; ; ; ; : : 4 4 4 5 5 i p j j G H Y T +.=.=.-.=.-.g.g.-.,.O.T Y O.-.a.l.z.b.b.n.j.=.O.T W &.T O.=.-.a.a.a.a.a.f.f.s.x.n.f.a.-.-.-.,.,.-.g.h.n.f.f.f.f.d.d.d.d.d.a.a.a.f.f.a.a.a.a.g.a.a.-.a.a.a.g.g.g.g.g.g.g.,.-.=.;.;.=.=.;.=.=.=.=.=.;.=.;.<.;.;.;.;.;.+.O.&.T T &.&.O.O.+.T T T T Y H G k J k j j L L j k E #.<.;.+.O.T Y Y H G G K W W W P G G k G z k k J z z k k k k j j p p j j j j p p p p p p p p i i p l p p p 5 4 8 : > # # + # ; , : : : : ; : 8 4 4 4 : : ; ; : 6 4 4 4 5 5 i p j k k G J H H H ",
"=.=.=.=.=.=.=.+.+.O.O.T T Y Y H G k k G k k k k G H T Q _ P p p k G H E O.+.=.=.=.=.=.+.=.=.=.;.;.=.=.=.=.-.-.-.-.-.-.-.-.-.-.-.g.a.a.-.-.-.-.-.-.=.:.;.<.O.$.T O.+.;.-.a.f.v.f.a.-.=.+.*.O.Y Y +.=.-.-.a.a.a.a.s.s.s.s.s.s.s.l.l.l.l.l.l.s.a.a.s.s.s.s.l.l.l.l.l.s.s.s.l.s.s.s.l.l.l.z.z.^.^.^.^.^.^.^.^.^.^.^.^.^.^.^.^.^.^.^.^./././././././././.^.^.^.^.^.z.l.s.s.s.l.l.z.z.z.z.l.l.z.l.l.a.+.T G G ^ l i p G Y +.;.=.=.=.O.T H G G H R R H G k j p i 5 4 : ; ; ; ; ; ; # # > > ; ; ; ; : : : 4 5 i i p j j J K Y T O.+.>.-.=.:.g.g.j.<.O.Y Y O.;.a.s.v.b.b.v.f.=.T H K R W $.>.g.h.s.a.a.a.a.s.s.s.s.s.g.g.g.g.a.a.g.g.g.a.a.a.a.a.a.a.a.a.a.a.f.f.f.a.a.f.a.a.a.a.a.a.a.a.f.a.a.a.a.a.a.a.-.-.=.=.=.=.=.=.=.=.=.=.=.=.=.-.=.-.-.-.-.-.=.=.+.+.O.O.O.O.O.T T T Y Y H K G k z j p p z k j G E #.<.;.+.+.O.T H G k k G ! W W G G k G G J J z k k k k z z z z j j p j j j j p j p p p p p p i i i i i i i 5 9 : ; # # + + $ $ : : : : : : : : 8 : : : : ; : 8 : 4 4 4 5 5 p p j k G G G H H H ",
"=.=.=.=.=.+.+.+.+.O.O.T T T Y H G k G G G k k k G H Q Q _ J p p k G Y E O.+.=.=.=.=.=.+.=.=.=.=.;.=.=.=.=.-.-.-.-.-.-.-.-.-.-.-.-.a.-.-.-.-.-.-.-.=.,.;.<.T T T T +.;.=.a.f.v.n.f.-.=.+.*.$.Y Y O.=.:.-.a.f.f.s.a.a.s.a.a.a.a.a.a.a.s.a.a.a.a.a.s.s.s.s.l.l.l.l.l.l.s.l.l.l.s.s.l.l.l.l.z.z.^.^.^.z.^.z.^.z.^.^.^.^.z.^.^.^.^.^.^.^.^.^.^.^.^.^.^.^.^.^.^.^.^.z.z.z.z.z.z.z.^.^.z.z.l.l.l.l.s.a.>.$.H G ^ l p j G E *.;.;.=.=.+.R H G G H K P K G k j p i 5 4 : ; ; ; ; ; ; ; ; ; ; ; ; ; ; : : : 4 5 5 p p j j k G H Y T O.=.=.=.;.-.,.1.<.$.Y Y O.;.g.s.v.c.b.v.k.=.T Y R ! Q O.>.g.h.l.s.f.f.x.v.v.v.v.v.v.v.v.f.s.s.f.f.s.a.a.a.a.a.a.a.a.a.a.a.s.x.x.s.s.s.s.f.s.s.s.s.f.f.s.f.a.a.a.a.a.a.-.-.-.-.-.-.-.-.-.-.-.-.-.-.-.-.-.-.-.a.-.-.-.=.=.=.+.+.+.O.O.T O.T Y W ! P L z k j p p x j j k E #.<.;.=.+.O.Y H G k k G ! Q W G k k k G G J k k k k k k k z z j j j j j j j j j p p p p p i i i i i p p i i 7 : ; # + @ @ $ > ; : : : : : : : 4 : : : : : : 4 4 4 4 4 5 5 p j k G G H H H H H ",
"-.=.=.=.=.+.+.+.+.O.O.T T T Y H G k G G G G k k G H W Q _ G p i j G R E O.O.+.=.=.=.=.+.+.=.=.=.;.=.=.=.-.-.-.-.-.-.-.-.-.-.-.-.-.-.-.-.-.-.-.-.-.-.,.;.<.T T Y T O.+.=.-.f.f.f.j.-.+.O.$.Q Y Y O.+.;.-.a.a.a.a.s.s.s.s.s.a.a.a.s.s.a.a.a.a.a.f.a.a.a.a.s.s.s.s.l.l.l.l.l.l.l.l.l.l.z.z.z.^.^.^.^.^.^.^.^.^.^.^.z.z.z.z.^.z.^.^.^.^.^.^.^.^.^.z.z.^.^.^.^.z.^.z.z.l.l.z.z.z.^.^.^._._.b.z.l.l.v.,.%.T H U z j k H Q *.>.=.-.=.+.R G G G H K K K G k j p 5 5 4 : ; ; ; ; > > > ; ; ; ; ; ; ; : : : 4 9 5 p p j j k k G Y T O.+.+.+.=.=.-.1.<.@.Y Y T ;.-.s.l.b.b.b.h.=.O.Y ~ ~ Q +.,.h.v.b.l.l.l.l.z.z.l.l.l.l.l.l.l.l.s.s.s.a.a.a.a.a.a.a.a.a.a.a.a.s.l.l.s.s.l.s.h.h.v.h.v.v.v.G.G.v.v.v.v.v.v.g.a.a.a.a.a.a.-.a.a.a.a.a.a.a.-.-.=.>.>.>.>.>.+.%.%.$.$.$.T T Y T Y Y Y H P L k c c j p x x j k E @.<.;.+.+.O.Y H G k k G ! Q W G G k k k G k k k k k k k k k k j j j j j j j j j j p p p i i i i i i p p i a 7 8 ; # + @ @ $ < ; : : : : : : : : : : 8 : : : 4 8 8 4 4 4 5 p l k G H H H H H H ",
"-.-.-.-.=.=.=.+.+.O.O.T T T Y H G G G G G G k k G H Q Q _ G p i k G R E O.O.+.=.=.=.+.=.=.=.=.=.=.=.=.=.-.-.,.-.-.-.-.-.-.-.=.-.-.-.=.=.=.-.-.-.-.-.,.;.<.T T Y T O.+.=.-.g.f.k.j.-.+.T T Q Q Q <.j.j.k.f.x.l.l.l.l.l.l.l.l.s.s.l.l.l.l.l.l.l.l.x.x.x.c.c.c.c.b.b.l.b.b.b.c.b.z.z.z.z.^.^.^.^.^.^.^.^.^.^.^.^.^.^.^.^.^.^.^.^.^.^.^.^.^.^.^.^.z.z.^.z.^.z.z.z.z.b.z.z.z.z._._._._._.b.b.l.l.l.l.g.,.O.Q ! k j k H Q 9.>.=.=.=.+.R G k G H K K G k j p i 5 4 : : ; ; ; ; ; > > ; ; ; ; ; ; : : : : 4 9 5 i p j j k k G H T O.+.+.+.+.=.=.1.0.@.Y H T =.-.a.l.b.b.v.g.=.T Y ~ ~ $.%.,.v.b.b.z.l.z.z.z.z.z.z.z.z.z.z.z.z.l.l.l.l.s.s.s.s.a.s.a.a.s.l.s.l.b.b.v.v.v.h.h.v.v.G.G.G.G.v.h.s.s.h.h.s.s.s.s.s.a.a.a.a.a.s.s.a.a.a.a.a.a.,.,.1.1.1.>.>.>.0.>.*.%.$.$.Q T T T Y Y W ! P G k c j p x v f j R #.<.+.+.O.O.Y H G k k G W Q W H G k k G k k k k k k j j j k j j j l j j j j l l j p p p i i i i i i i i i i 7 8 > # @ . @ $ > : : : : : : : : : : 8 8 8 : : 4 8 8 4 4 5 5 p j k G H H H H H H ",
"-.-.-.=.=.=.=.+.+.O.O.T T T Y H G G G H G G k k G W Q Q _ J p p k K R E O.+.=.;.=.=.+.+.+.=.=.=.=.=.=.=.-.-.,.-.-.-.-.-.-.-.=.=.-.=.=.=.=.-.-.-.-.-.g.=.<.T T Y T O.+.=.-.g.f.k.A.,.+.T Q Q 7.u.U.Y.-X-X-X'.].].`.`.XX].].].].].].].].].].].%X&X&X&X&X>X>X&X&X&X&X&X=X=X*X*X*X*XXX&X*X*X*X*X*X*X.X.X=X.X=X.X=X.X=X.X=X=X=X.X=X.X.X.X X X X X X X X X X X X[.}.].].'._.`.`.%X%X%X`._._._.'.'.'.b.v.g.>.&.) k p j L U 7.9.%.+.=.+.R k k k J K G k k j p i 5 4 : : ; ; ; ; ; ; ; # ; ; ; ; ; : : : : 4 5 5 i p p j j k G H W O.+.+.O.O.+.=.<.<.E H H T ;.a.s.l.b.v.A.,.+.Y Y R R Q O.=.g.l.l.l.s.l.z.z.l.l.l.z.z.z.z.l.l.l.l.l.s.s.a.a.a.a.a.a.a.a.a.a.a.s.s.s.s.s.a.s.s.s.s.s.s.s.v.v.h.s.h.v.h.s.a.a.a.a.a.a.a.a.a.a.a.a.a.a.a.-.-.=.=.=.-.=.=.=.>.>.+.+.%.O.O.T T T Y Y Y Y H G k z j p s s s j R #.<.+.+.O.T Y H G k k H ! Q W H G G k k k k k k k j j j j j j p j j j j j j j j j p p p i i i i i i i i i i 7 8 , # + @ @ @ $ : 4 : : : : 4 8 : : 8 0 0 : : 4 4 4 4 4 5 5 i p k G H H H H H G ",
"=.=.=.=.=.=.+.+.+.O.O.T T Y Y H G G H H G G k k G P Q _ _ P p p k G R T O.O.+.=.+.+.+.+.+.+.=.=.=.=.=.=.-.-.-.-.-.-.-.-.-.-.=.=.=.=.=.=.=.-.-.-.-.-.g.=.<.T T Y O.+.+.=.-.g.f.f.k.-.+.O.O.$.9.w.k.m.c.'.]._.`.[. X.XXXoXoXXXXXXXXXXXXXXXXXXX&X>XXXXXXXXXoXoXoXoX*X*X*X*X*X*X*X*X*X*X*XuXuXuXuXiXiXiXiXiXiXiXiXiXiXiXiXuXuXuXuXuXpXqXpXpXpXuX*X*XpXpXpXpX,X@X@X,XXX].].XX&X&X&X&X*X&X&X&X1X1X;X$Xm.I.j.*.! k i p c L ` 7.%.+.+.O.K j j k J J k k k j p 5 4 : : : ; ; ; ; ; ; # # ; ; ; ; : : : : : 4 5 5 i p p j j k G H Y T $.O.O.O.+.=.>.*.E H Y E <.g.s.v.b.v.k.1.+.T Y Y T O.>.g.v.'.'.(.c.(.^.^.^.^.^.^.^.^.z.z.z.z.z.z.z.l.x.x.x.x.x.x.x.l.l.l.l.v.b.v.v.v.l.l.c.c.c.x.b.l.l.l.l.l.l.l.l.l.l.l.l.l.l.l.l.l.x.x.x.x.l.l.x.x.f.f.f.f.f.f.f.g.g.g.-.-.:.;.;.+.+.O.O.O.O.T E Y H G k j l p i j Y O.*.+.+.O.Q Y H G k k H W Q W H G G G G G k k k k j j j j j j p p j j j j j j j j p p p i i i i p p p p i i 7 8 , # + . @ @ $ : 4 4 : : : 8 8 : : 8 0 0 8 : 4 : 4 4 4 5 5 i p j k G H H H H H ",
"=.=.=.=.=.=.+.+.+.O.O.T T Y Y H G G H H G G k k G H Q Q _ J p p j G H Y T O.+.+.+.+.+.+.+.+.=.+.=.=.=.=.-.-.-.-.-.-.-.-.-.-.=.=.=.=.=.=.=.-.-.-.a.-.,.=.>.T T T O.+.=.=.-.s.v.v.s.-.=.+.+.+.=.g.a.s.l.l.z.z.^./.^.^.^.^.^.^.^.^.^.^.^.^.^.^.^.^.^./././././././.^.^.^.^.^.^.^.^./././././././././././././././././././././././././././.)./././././.).).).)././././.`./.[.[.[. X X X/././.`.`.`.^.(.n.d.#.Y j i p b c U _ &.$.O.O.K j p k L J k k j j p i 5 4 : : : ; ; ; ; ; ; # ; ; ; ; : : : : 4 4 5 i i p j j j k G H Y T O.O.T O.+.+.>.*.T H Y @.<.g.h.v.b.v.h.g.=.O.T T +.>.Y.MX<XDXDXdXfXfX*XiXiXiXiX=X=X=X=X=X=X<X=X=X=X&X].].(.(.].].].].>X&XXX>X,X>X>X,X+X@X,X@X,X+X+X+X,X,X,X,X1X,X1X1X+X>X>X>X>X>X>X>X>X>X>X>X>X>X>X>X].OX+X+X+X;X;X;X'.'.m.V.V.V.V.B.k.N.H.H.H.q.q.u.$.T Y ! U k p k Y O.+.+.O.O.T Y H G k k H W Q W H G G G G G G k k k j j j j j j j p j j j j j j j p p p p p i i p p p p p i 5 5 8 ; # + @ + $ ; : 4 : : : : 8 8 : : : 0 8 : : : 4 4 4 4 4 5 i p j k G H H H H G ",
"=.=.=.=.=.=.=.+.+.O.O.T T Y Y H G G H H G G k k k H W Q _ J p p k G H E &.+.+.+.+.+.+.+.+.=.=.=.=.=.=.=.-.-.-.-.-.-.-.-.-.-.=.=.=.+.=.=.=.-.-.-.a.-.,.=.>.T T T $.+.=.=.-.s.v.v.l.a.a.a.a.a.a.s.l.l.z.z.^.^./.}.[.[.[.[.[./.}.}./././.}.}./././././././././././.[./././.}.}./././././././././.[.[.[./.[././././.[././././././././././././././././././././././././././.[.[.[.[.[.[.[.[./././././.z.l.-.O.H j p j b c L ) _ &.O.T U j p k I L k k j j p a 5 4 : : : ; ; ; ; ; ; ; ; : ; : : : : : 4 4 5 i s f l j j k G H Y T T O.T O.+.+.%.$.W H H E <.g.s.v.v.v.h.,.=.O.T T +.g.D.$X&X,X*XoXoXoXuXiXiXiXiXiXiX=X=X=X=X=X=X=X=X*XXX].).].XX+X+XXXXX).`.XXXXXXXXXXoX@XoXoXoXXXoXXX).).).}.}.}.}.}.].].].].].].XX].`.`.`.`.`.`.`.]././.).).).).(.(.(.(.(.c.m.m.m.n.k.k.J.J.j.1.q.w.*.$.~ e.| J j G Y O.+.+.O.Q W K H G k G H W Q T H G G G G G G k k j j j j j j j j j j j l l l j j p p p p p p i i i p i i i 5 4 : ; # + + + $ > : 4 : : : : 4 8 : : : 8 : : : : 4 4 4 4 4 5 i l j k G H H H H G ",
"=.=.=.+.+.+.=.+.O.O.T T T Y Y H H G H H G G k j G H W _ ~ J j p k H R E O.O.+.+.+.+.+.+.+.=.=.=.=.=.=.=.=.=.-.-.-.-.-.-.-.-.=.=.=.+.+.=.=.-.-.-.-.-.-.-.+.T Y Y $.O.=.-.h.v.b.b.z.^.(.].OXOX+X@X@XoX4X4X4X5X5X5X5X5X9X9X5X8X8X8X5X0X5X5X5X5X9X5X9X5X9X5XtXtX5X5X0X0X0X0XtX0X0X0X0X0X0X0X0X0X0X0X5X5X5X5X5X5X5X5X5X4X4X0X0X0X0X5X0X5X5X5X5X5X0X0X5X5X5X5X5X5X5X4X|.|.|.|.|.|.|.4X{.{.{.{.|.|.[./.^.c.f.-.O.Y G k k J U ! W T T Y G p p j k J z k j p p i 5 4 : : : ; ; : ; ; : ; ; ; : : : : 4 4 4 5 5 i s v l j j j k G Y Y T O.O.T +.;.%.O.E H H E ;.j.h.v.l.s.g.1.=.T Y T +.=.a.s.l.z.^.^.^.^./././././././.^./././.^./.^.^.^.z.z.l.l.z.z.z.z.z.z.z.z.z.z.z.z.z.z.^.z.z.z.z.z.z.z.z.z.z.z.z.l.z.l.l.l.z.z.z.l.l.l.l.l.z.l.z.z.l.l.l.l.s.s.a.a.a.a.a.a.-.-.-.=.=.=.+.+.+.+.O.O.T Y H G k j p k T +.;.+.T Q ~ K K J k k G Y W W H H G G G G G k k j j j j j j j j j j j j j j j j j p p p p i i s p p p p i 5 4 : : # + + @ $ y 0 4 : : : : : : : : : : : : ; : 4 4 4 4 4 5 i p j k G H H G G G ",
"=.=.=.+.+.=.;.+.O.O.T T T Y Y H H G G G G k j j k G W _ ! G p p k G H T O.O.O.+.;.+.+.+.+.=.=.=.=.=.=.=.=.-.-.-.-.-.-.-.-.-.=.=.=.=.=.=.=.-.-.-.-.-.-.-.+.T Y Y T O.+.=.g.l.b.(.).).}.#X#X#XrXrXqXqXqX0X5X5X9X9X9XtXtXtXtXtXtXtXtXtXtXtXtXtXyXtXtXtX5XtXtXtXtXtXtXtXtXtXtXtXtXtXtXtXtXtXtXtXtXtX0X0XtX0XtXtXtX0XtXtX0X0XtX0X0X0XtXtXtXtXtXtXyXyXyXyXyXyXyXyXyXyXyXeXyXyXyXyXyXyXyX0X0XrXrXrXrXrXrX#XOXC.N.;.@.Y H H Y W T T T Y k p p p k z k j j p i 5 5 4 : : : ; ; ; ; ; , ; ; : : : : 4 4 4 4 5 5 i s v l j k k k G R T T O.@.T +.>.%.&.E H H E %.g.h.l.l.s.g.-.=.+.+.=.-.a.s.l.z.z.^.^.^.^././././.}.}./././././././././.).(.(.^.^.^.(.(.^.^.^.^.^.^.^.^.^.^.^.^.^.^.^.^.z.z.z.z.z.z.z.z.z.z.z.z.z.^.z.^.z.z.z.z.z.z.z.z.z.z.z.l.l.l.l.s.s.a.a.a.a.a.a.a.-.a.-.-.-.-.-.=.=.;.+.O.T Y H G H O.+.+.O.T Y ! K J J k k G Y W Y H G G G G G G k k k j j j j j j p p j j j l j j j j p p p p i i p p p p p i 5 5 : : # + @ @ @ y 0 4 : : : 4 : : : : : : : : ; : : 4 4 4 4 5 i p j k G H H H G G ",
"=.=.=.+.=.=.+.+.O.O.T T T Y Y H G G G G G k j j k G W Q ! G p i k G H Y Q O.O.+.+.+.+.+.+.=.=.=.=.=.=.=.-.-.-.-.-.-.-.-.-.-.-.=.=.=.=.=.=.-.-.-.-.-.-.-.+.T Y Y T O.%.=.a.s.b.(.ZXxXcXcXbXvXbXbXcXcXcXcXcXcXvXvXzXzXzXzXvXvXvXvXvXvXvXvXvXvXvXvXvXvXvXvXvXbXbXbXvXvXvXvXzXzXzXzXzXzXzXzXzXzXvXvXzXvXvXzXvXzXvXvXvXvXvXvXvXvXmXzXlXzXzXzXzXzXzXzXvXzXzXzXzXzXzXzXzXzXzXzXzXzXzXzXzXzXzXzXzXeXeXeXeXlXwX+X:X:XY.K.O.O.T T T O.O.Y z p i p k z k j j p i 5 5 4 : : : ; ; ; ; ; , ; : : : : : 4 4 4 4 5 5 i p l l j k k k H W Q O.$.@.O.+.;.%.&.~ H H Y +.-.g.s.l.l.F.v.s.x.V.V.-XOX1X,XqXqXqXqXwXrX0X0X0X0X0X0X0X0X0X0XeXeXeXeXyXeXlXeXrXrXrXeXeXeXrXrXrXrXrXeXeXeXeXeXeXwXeXeXeXwXwXqXqXqXwXwXwXwXrXrX#X#XrX#XrX#XrXwXwXwXwXwXwXwXeXsXwXwXsXwX,X@X+X+X+X+X+X;X+X+X+X+X+X+X+X+X+X;XOXOXC.B.B.M.N.j.=.+.+.O.Y H K J J z k k G H Y H H G G J K J J k k k k j j j j p j j j j j l l l j j p p p i i i i p p p p i i 9 4 : # + @ @ + 3 0 4 4 4 4 4 4 : : : : : : ; ; : : : : 4 4 5 a f j k G H H H G J ",
"=.=.=.+.=.;.+.O.O.O.T T T Y Y H H G G G G k j j j k H W ! k p i k G H T O.O.+.+.+.+.O.+.+.=.=.=.=.=.=.=.-.-.-.-.-.-.-.-.-.-.=.=.=.=.=.=.-.:.g.g.-.-.-.,.%.T Y H T $.%.=.-.a.b.'.ZXxXxXcXvXvXvXvXcXxXxXxXxXxXvXvXvXvXvXvXcXcXcXcXcXcXcXcXcXcXvXvXvXvXvXvXvXcXcXvXnXcXcXvXvXvXvXvXvXvXvXvXvXnXnXnXnXbXbXnXbXnXbXbXbXnXnXnXbXnXnXbXbXAXAXAXAXAXAXAXAXbXbXAXAXAXbXbXbXbXbXbXbXbXbXbXbXbXbXbXvXvXvXvXvXvXcXxXSXSXVXVXg.=.O.T T T T Y b p i j b z k j j p p 5 5 4 : : : ; ; ; ; ; , : : : : : 4 4 4 4 5 5 i p p l j j k k k H W Q $.$.@.O.+.%.%.&.~ H H Y +.=.g.s.x.v.b.z.c.;XhXjX1X1XsXwXeXgXeXeXeXeXyXyXyXlXlXzXzXzXyXyXyXyXyXlXlXlXzXlXlXeXeXlXlXlXlXlXlXlXzXzXzXzXvXzXeXeXzXzXzXeXeXeXeXlXlXlXlXlXlXlXlXlXlXlXlXlXlXlXlXlXlXlXlXlXzXzXeXeXzXlXlXlXwXwXsXsXsXwXwXwXrXrXrXrXrXrXrXrXwX#X#X#XjX1X+X:XJ.=.O.T Y G G k J z k k G K K H G G G J L J J k k k k k j j j j l l j j j j j j j p p p p i i i i i p p p i i 5 8 , # + + @ + 3 0 4 4 4 4 4 4 : : : : : : ; ; : : : : 4 4 5 a f c k G H H G H J ",
"=.=.=.=.=.;.+.O.O.O.T T T Y Y H G G G G k k j p j k H ! P k i i k G H T O.O.+.+.+.O.O.+.+.=.=.=.=.=.=.=.-.-.-.-.-.-.-.-.-.-.=.=.=.=.=.=.-.-.a.g.-.-.-.<.*.T H H W $.$.+.=.a.x.m.'.'.].}.}.|.4X|.@X@X@X@X#X#X#X4X4X4X4XqXqXqX7XqX#X#XqXqXqXrXqXqX4X4X4X4X4X4XqX#XwX#X#XrXrXwXrXrXeXeXeXeXeXeXeXeXeXeXeXeXeXeXeXeXeXeXeXlXlXlXlXlXlXxXvXvXvXvXvXvXcXcXvXvXcXcXcXvXvXvXvXvXcXcXcXcXcXcXcXcXcXxXxXxXcXcXxXxXxXZXZXBXn.,.+.T T T W H b p i j b b k j j p p i 5 4 : : : ; : : ; : , : : : : : 4 4 4 4 5 5 i p p j j j k k G H Y T $.$.O.O.+.+.%.&.~ G G Y O.=.a.s.x.x.z.c.OXjXSXSXSXSXcXcXcXcXcXcXcXvXnXmXmXnXnXnXnXnXmXmXnXnXnXnXnXnXnXnXvXnXnXnXnXnXbXbXbXbXbXbXbXbXnXmXzXmXnXnXnXmXmXmXmXmXnXnXnXnXmXmXmXmXmXmXmXmXmXmXmXmXmXmXmXmXmXvXvXvXnXnXnXcXcXcXcXcXcXvXvXzXzXzXzXlXlXlXzXmXzXmXlXlXmXmXmXjXhX1.O.T H G J k b z k k G K K H G G G J J J k k z k k k j j j j z l j j j j j j j p p p p i i i i i p p p p d d 8 0 ; + + @ + 3 0 4 4 4 4 4 8 4 : : : : : ; ; : : : : 4 4 5 a f c k G G H G G J ",
"=.=.=.=.=.=.+.O.O.O.T T T Y Y H G G G G k k j p p k H ! P k i i j G H Y T O.O.O.+.+.O.+.+.=.=.=.=.=.=.=.-.-.-.-.-.-.-.-.-.-.=.=.=.;.-.-.=.-.-.-.-.-.-.1.+.T H H Y E $.O.+.=.a.f.x.x.z.c.(.).)././._.`./.).).}.}././.[.}.[.[.[./././././././././.}.[.}.}.}.).}.}././././.}.}.[.[.{.{.{.{.|.|.|.|.{.{.{.{.{.{.|.|.|.}.}.}.}.}.}././././.}.}.}.}.}.}.}.[.}.}.}.|.}.}.}.}.}.}.#X#X#X#X#X+X+X#X).).).).#X#X}.}.XX>X;Xn.j.+.T Y H P L b p i l b z j j l l p i 5 4 4 : : ; : : ; : , ; : : : 4 4 4 4 4 5 i i p j j j k k k G G Y Q $.O.O.O.O.+.O.&.E G G Y O.;.a.s.k.x.c.OXjXSXAXAXHXHXHXHXAXAXAXAXAXAXbXbXbXbXbXbXbXbXbXAXAXAXGXAXGXGXbXbXbXbXAXbXAXbXAXAXAXAXAXAXAXAXbXnXnXnXnXnXnXnXnXnXnXGXGXGXGXGXnXnXmXmXnXnXnXmXGXGXGXGXGXGXGXnXnXbXbXbXbXnXnXnXnXnXAXAXAXAXAXAXnXnXnXcXnXnXnXmXmXcXmXmXcXcXxXjXhXj.+.T H G J j z l j k k K K G G G G G J J k k z k k k k j k j l j j j j j l l j p p p p p i i i i p p p p d d 8 0 ; # + @ + 3 0 4 4 4 4 4 8 : : : : : : ; ; : : : : 4 4 5 a f c k G G H G G G ",
"=.=.=.=.+.+.+.O.O.O.T T Y Y Y H G G G G k j j p p j G P U k i i k G H Y T T O.O.O.O.O.+.+.=.=.=.=.=.=.=.-.-.-.-.-.-.-.-.-.-.-.=.=.;.=.=.=.=.-.-.a.-.-.;.O.Y H H Y E T O.+.=.-.-.a.a.a.s.l.z.z.z.l.l.l.l.z.z.z.z.^.^.^.^.^.^.^.z.z.z.z.z.z.z.^.^.z.^.^.z.z.z.z.z.z.z.z.^.^.^././././././././././././././././././.^.^.^.^.^.^.^.z.^.^.^.^.^.^.^.^.^.^.^.^./././.^.^.^.^.^.^.^.^.^.^.^.^.^.^.^.^.z.l.c.(.^.^._.(.m.f.-.O.Y G c c x V p p l b z j j j l p i 5 4 4 : : ; : : : : : ; : : : 4 4 4 4 5 i i p f j j j k k k G G H Q $.T O.O.O.O.O.&.~ G G H O.>.g.s.f.l.z./.#X#XwXlXlXlXeXrXrXrXrXrX#X#XwXwXwXwXwXwXwXwXrXwXwXqXrXrXrXrX4X4X4XrXrXrXrX#XrXrXrX#XrX#X#X#X|.|.|.#X#X#X#X#X#X#X#X#X#X#X#X#X#X#X#X#X#X#X#X#X#X#X#X#X#X#X#X#X#X#X#X#X#X#XOXOXOXOXOXOXOXOXOXOXOXOXOXOXC.C.C.C.C.OXOXOX(.'.].m.I.j.+.T G G z j l j j j k J J G G G G G J k k k k k k k k k k z l j p p j j j j j p p p p p p i i i p p p p i 7 4 : ; # # @ + 2 0 4 4 4 4 4 8 : : : : : : ; ; ; : : : 4 4 5 i p x k G G H G G G ",
"=.=.=.=.+.+.+.+.+.O.T Y Y Y Y H G G G G k j j p p k G P U k i i k G Y T Q O.O.O.O.O.O.O.+.+.=.=.=.=.=.=.=.=.=.-.-.-.-.-.-.-.-.-.=.=.=.=.=.=.-.-.-.-.;.;.O.Y H H R E T O.+.+.=.=.=.-.-.-.a.a.a.a.a.a.a.s.s.s.l.l.l.l.l.l.l.l.l.l.s.a.a.s.s.s.l.l.l.l.l.l.s.s.s.s.l.l.l.l.z.z.z.z.^.^.^.^.^.^.^.^.^.^.^.^.^.^.^.z.z.z.z.z.z.z.z.l.l.l.l.l.l.z.z.z.z.z.z.z.z.z.z.z.z.z.z.z.l.l.l.l.l.l.s.l.l.l.l.s.a.f.x.l.s.s.a.a.g.=.T H G k x x D s p v ' b k z j j p i 5 4 4 : : : : 6 : : : ; : : : 4 4 4 9 5 a i p l l j j k k G G G Y Q O.O.+.O.+.O.O.&.~ G k H O.;.,.g.g.s.z./.}././.}.}.}./././././.).).).)./././././././.}.}.[.[.}.}.}.}.[.[.[.|.|.}.}./.}.}.}.}.}./././././././././././.^.^.^.^.^.(.^.^.^.^.z.^.(.(.(.^.^.^.z.z.z.z.(.(.(.c.c.z.x.x.l.s.s.s.f.f.a.a.a.a.h.h.g.g.g.d.d.d.-.-.-.-.a.g.h.g.1.<.*.T G k z j j j j j k G G G G G G G J k k k k k k k k k z z z l j p j j j j p p p p p p i i i i i p p p i 7 4 1 ; # # @ + 3 8 4 4 4 4 4 8 : : : : : , ; ; ; : : : 4 4 5 i p j k G G G G G G ",
"=.=.=.=.+.+.+.O.O.T T T T Y Y H G G G k k j j j j k G U I j p p k G H T $.O.O.O.O.O.O.+.+.+.=.=.+.+.+.=.=.=.=.=.=.=.-.-.-.-.-.-.=.=.-.-.-.-.-.-.,.>.<.r.~ G k G R E E @.#.+.=.=.-.-.=.-.=.:.;.=.-.-.a.a.a.a.a.a.s.l.l.l.l.l.l.l.a.a.a.a.a.a.a.a.a.a.s.s.f.s.a.a.s.s.s.f.s.x.x.x.v.v.l.l.l.l.l.l.z.z.z.z.c.z.l.l.s.s.s.l.l.s.a.a.l.l.l.l.l.l.l.l.l.l.l.l.l.l.l.l.z.l.l.l.l.l.s.a.a.a.a.a.a.a.a.a.-.-.-.-.-.-.-.=.+.O.T Y G G k c h i i h b b z j j j p i 5 4 4 : : : : : : : : : : : : 4 4 4 4 5 i p p j j k k k G G H H Y T T O.=.=.=.+.*.&.P G G H W O.+.=.-.a.l.z.z.z.z.z.^.^.^.^.^.^.^.^.^.^.^.^.^.^.^.^.^.^.^.^.^.^.^.^.^.^.^.^.^.^.^.^.^.^.^.^.^.^.z.z.z.z.b.b.b.z.z.l.l.b.l.l.l.l.v.l.v.l.s.x.x.x.s.s.s.s.a.a.a.a.a.a.a.a.a.a.a.a.a.-.-.-.=.=.=.=.=.=.+.+.+.+.+.+.+.+.O.O.O.O.O.O.O.O.O.$.Q Q W H G c x x x p i j G P R H K G k k k k k k k k k k k k k k k j j j j p p p p p f f p p i i i i i i i i 5 4 4 ; # # + @ # > 8 4 4 4 4 4 8 4 4 4 : : ; ; ; ; : : : 4 4 5 i p j k k G G G G G ",
"=.=.=.=.+.+.+.O.O.T T T T Y Y H G G k k k l l k j k G I L j p p k G H Y O.O.O.O.O.O.O.+.+.+.=.=.+.+.+.+.=.=.=.=.=.=.-.-.-.-.-.-.=.-.-.-.-.-.-.g.=.=.*.*.E G k G Y E O.#.#.;.-.-.a.-.-.-.;.<.;.;.-.-.-.-.-.a.a.a.f.f.s.s.l.l.v.l.a.a.a.g.g.f.s.s.a.a.s.s.s.s.a.a.s.s.s.f.f.f.f.x.x.x.x.x.x.x.x.l.l.l.l.l.l.l.l.s.s.a.a.s.f.a.a.a.a.s.s.s.s.s.s.s.s.s.s.s.l.s.l.l.l.l.s.s.l.s.a.a.a.-.-.-.-.-.-.=.=.+.=.=.=.=.+.+.O.$.Q W H H G k f 5 i s v b z k k j p i i 5 4 4 4 : : 4 4 4 : : 4 4 4 4 4 5 5 i i p p j j k k G G G H Y Y E T O.=.=.=.+.$.~ P k k G Y Q O.=.-.a.l.l.l.l.z.z.z.z.z.z.z.z.l.l.l.l.z.z.b.z.z.z.z.z.^.z.b.z.b.z.z.z.z.z.z.z.b.z.z.l.b.z.b.l.v.l.l.l.s.a.a.a.a.a.a.a.a.a.a.a.a.a.a.a.a.a.a.g.a.a.a.a.-.-.-.-.-.-.-.-.-.=.=.=.=.=.=.+.+.+.+.+.+.O.O.O.O.O.O.O.O.O.T T T Q T T T T T W W P P L c j x f f i i p J P W H K G G k k k k k k k k k k k k k k k j j j j p p p p p f p p i i i i i i p i 5 5 : ; # + + @ # > 4 4 4 4 4 4 8 4 4 : : : ; > ; # ; : : : 4 5 i p l k k G G G G G ",
"=.=.=.=.+.+.+.O.O.T T T W Y Y H H G G k j j j j k k G U L j p p G H Y Y T O.O.O.O.O.+.+.+.+.=.=.=.+.+.+.+.=.=.=.=.=.=.-.-.-.-.-.=.=.-.-.-.-.-.g.=.=.;.*.&.H G H T +.+.;.:.d.d.f.f.a.a.a.-.-.-.-.=.=.=.-.-.-.-.-.a.a.a.a.a.a.a.a.a.a.a.a.a.s.s.l.l.l.l.l.l.l.l.l.s.s.l.l.l.l.l.l.l.l.l.l.l.l.l.z.z.z.z.z.z.z.z.l.l.l.l.l.l.l.s.l.l.l.l.l.l.l.l.l.l.l.l.l.x.l.x.x.l.l.s.s.s.f.a.a.a.-.-.-.-.=.=.=.=.=.=.=.;.=.+.+.O.$.T E ! K G k p i 5 p j z k k k j j p i 5 9 4 4 4 4 4 4 4 4 4 4 4 4 5 5 a a s p p j j k k G G G G H Y E E T O.O.+.+.Q E { I j j k K T O.+.=.a.a.s.s.s.l.l.l.l.l.l.l.l.l.l.s.s.s.s.s.l.l.l.l.l.l.l.l.l.l.l.l.l.l.l.l.l.l.l.l.l.l.l.l.s.s.a.a.a.f.f.a.a.a.a.f.f.a.a.g.g.g.g.a.a.-.-.-.-.-.-.-.-.-.-.=.=.=.=.=.=.=.=.+.+.+.+.O.O.O.O.O.O.O.T T T T T T T T T T Y Y Y Y Y Y Y Y H H K K J c j p i a 5 5 p z ^ U H J G G G k k k k k k k k k k k z k j j j j j j p p p p p p i i i i i i i i i 5 5 4 ; # + + @ # > : 4 4 : 4 4 8 8 4 : : : ; ; ; # ; : : : 4 5 i p j k k G G G G G ",
"=.=.=.=.+.+.+.O.O.T T T W Y Y H P G G k j j j j k k L ( I j p p G K R T O.O.+.+.+.+.+.+.+.+.=.=.=.+.+.+.+.+.=.=.=.=.=.=.=.=.=.=.=.=.=.=.-.-.-.-.,.,.1.<.&.Y H Y +.=.-.a.f.f.s.s.s.a.a.a.a.a.a.-.-.-.-.a.-.a.a.a.a.a.a.a.s.s.s.s.l.l.l.l.l.z.z.z.z.z.z.z.z.z.z.z.z.z.z.z.z.^.^.^.^.^.^.^.^.^.^.^.^.^.^.^.^.^.z.z.z.z.l.l.z.l.l.l.l.l.l.l.l.l.l.l.l.l.l.l.l.l.l.l.l.l.s.s.s.f.a.a.a.a.-.-.-.-.=.=.=.=.=.=.;.=.=.+.+.O.T T E R H k p i i p k J G k k k j p i i 5 9 5 4 4 4 4 4 5 4 4 5 5 5 i a f f p j j j k k G G G H Y Y T T T O.O.+.@.E / | ] j j k H E O.=.:.a.a.s.s.s.s.l.l.l.l.l.l.l.s.s.a.a.a.s.s.s.l.l.l.l.l.l.l.s.s.s.s.s.l.l.l.l.l.l.l.l.l.l.s.s.f.a.a.a.f.f.a.a.a.a.a.a.a.a.a.a.a.a.a.a.a.-.-.-.a.d.-.-.-.-.=.=.=.=.=.=.=.=.=.=.+.+.+.+.O.O.O.O.T T T T T T T T T T T Y Y Y Y Y Y H H H H H H J J l p i a 5 5 i l ^ I K G G G G k k k k k k k k k k k k k j j j j j j p p p p i i i i i 5 5 i i i i 5 4 8 ; # + + @ # , : 4 4 : 4 4 8 8 4 : : : ; ; ; # ; : : 4 4 5 i l j k k G G G H H ",
"-.=.=.=.+.+.+.O.T T T Y W Y H H G G k j j l z z k k P ( I l p j k H W ~ $.O.O.O.+.+.+.+.+.=.=.=.=.=.+.+.+.+.=.=.=.=.=.=.=.=.=.=.+.+.=.=.=.-.-.-.-.-.,.1.*.$.O.+.-.a.f.l.x.l.l.l.z.z.l.l.l.l.s.a.a.a.a.a.a.s.s.s.s.s.s.l.l.l.l.z.l.z.z.z.^.^.^.^.^.^.^.^.^.^.^.^.^.^.^.^.^././././././././././././.^./.^.^.^.^.^.^.z.z.z.^.z.z.^.z.l.l.l.l.l.l.l.l.l.l.l.l.l.z.l.z.l.l.l.l.l.s.s.a.a.a.a.a.a.-.-.=.=.-.-.-.=.=.=.=.+.O.T T T Y G j p j k L U P H k k j j p i i i i 5 5 5 5 5 5 5 5 5 5 i i i p p j j k k k G G H H H Y Y T T O.O.O.@.@.Y / | ] k j G Y T +.=.-.a.l.l.l.z.z.z.z.z.z.z.z.z.l.l.l.l.l.l.l.l.l.l.z.z.z.z.z.l.l.l.l.l.l.l.l.l.l.l.l.s.l.l.l.l.l.l.s.s.s.s.s.a.a.a.a.a.a.a.a.a.f.f.a.a.a.a.a.-.a.a.-.-.-.-.-.-.-.-.-.-.-.-.-.=.=.=.=.=.+.+.+.O.O.O.O.O.O.T O.O.T T T T T T T Y Y Y Y Y H H H H G k j p i 5 5 i p z I K G J J G k k k k k k k k k k k j k j j j j j j p p p p i i i i i 5 5 i i i i 5 4 8 ; # + + @ # 3 : 4 4 4 4 4 7 8 : : : : ; ; ; ; ; : : 4 4 5 i p j j k J G G H H ",
"-.-.=.=.=.+.+.O.T T T T W Y H H G G k j j l z z k k L ( I j p p k G R Q O.O.O.O.+.+.+.+.+.=.=.=.=.=.+.+.+.+.=.=.=.=.=.=.=.=.=.=.+.+.+.=.=.-.-.-.-.-.,.1.q.i.i.K.I.V.-X-X;X;X].].].].`.(.'.'.'.'.c.m.c.c.c.c.'.'.b.(.(.'.(.(.(.(.(.).).)./.).).).}.}.}.}.}.}.}.}.}.}.}.}.}.}.}.}.[.[.[.[.[.{.[.[.[.[.}.}.}.XX[.[.XX`./.`. X`.`.`./.^.^.^.^./.^.^.^.^.^.^.^.^.^.^.^.^.^.^.^.z.z.z.z.l.l.l.l.s.s.s.a.a.a.a.a.a.a.-.-.-.=.+.+.+.O.T G k k k K ! R H G G k k j p p i i i i i i i i i i i i i p p p j j k k k G G H H Y Y Y Y T T O.#.+.#.O.E ~ } R k G H T +.=.a.a.l.z.z.z.z.^.^.^.^.^.^.(.^.z.z.z.z.l.z.z.z.z.z.z.^.^.z.z.z.z.z.z.z.l.l.l.l.l.l.l.l.l.l.l.l.l.l.l.l.z.z.z.l.l.l.l.l.l.l.l.l.l.l.l.l.s.a.a.a.a.a.a.a.a.a.a.a.a.a.a.a.a.a.a.-.-.-.-.=.=.=.=.=.=.+.+.+.+.+.+.+.+.+.O.O.O.O.O.O.O.O.T T T T T T Y H G k p i i i j J K K G G J G k k k J k k k k k k j j j j j j j j p p p p p p i i i i i a i i p i 5 5 8 ; # + + @ # 3 8 4 4 4 4 7 7 8 : : : : ; ; ; ; ; : : 4 4 5 i p j j k z G G H H ",
"-.-.=.=.=.+.+.O.T T T Y R Y H H K J k j j j j j k k G U L j p p k H R Q $.O.+.+.+.+.+.+.+.=.=.=.+.+.+.+.=.=.+.+.=.=.=.=.=.=.=.=.+.+.+.=.=.-.-.-.a.a.g.g.j.H.L.L.Y.-X;X;X>X>X>X>X>X>X].;X>X>X;X;X1X1X<X<X<X<X<X<X1X,X<X<X<X<X<X<X1X1X1X1X1X1X,X,X,X,X,X,X,X,X,X,X,X,X1X,XsXsXsXsXqXqXqXqXpXqXqXqX@X@X@X,X,X,X,X,X,X,X*X,X<X,XoXoXuXuXuXuXuXuXuXuXoXoXoXoX*XoXoXoX.X.X.X.X.X X XXXXXXXXX].].].].].'.'.'.(.'.'.c.c.b.v.n.f.f.k.k.1.&.! H H Y E Y H H G G k k j j p p p p p p p p p p p p p p j j j k k k G G H H Y Y Y Y Y T T O.+.+.+.+.O.O.$.T Y T O.-.f.l.b.^.^./././.[.[.[.[.[./././././././././.).).).}./.}.}.[.[.[./././././././././.).)././.^./././././././.^.^.^.^.^.^.^.^.^.^.^.^.^.^.^.z.^.^.(.(.b.z.z.b.z.z.z.b.b.b.b.b.z.l.l.l.l.l.l.l.l.f.f.s.s.a.f.a.a.a.a.a.a.-.-.-.-.-.-.=.-.-.=.=.=.=.=.=.+.%.$.E G k k k G K K H G G J G k k k J k k k k k k k j j j j j j p p p p p s s s i i i a a a p p i i 5 8 1 # + @ @ # 3 8 7 4 4 4 7 q 8 : : : : ; ; ; ; ; : : 4 5 5 i i j j k z G G G G ",
"-.-.=.=.=.+.+.O.T T Y Y R H H H G G k j j l j k k G L U I j p p k H W ~ O.+.+.;.+.+.+.+.+.+.=.=.+.+.+.=.=.=.+.+.+.+.+.=.=.=.=.+.+.+.+.+.=.-.-.-.a.a.a.-.-.-.j.j.a.s.l.l.c.c.'.(.].(.(.(.'.].'.'.].`.`.].XXXXXXXX`.].].XXXXXXXXXX+XOX].].].].).).].].].].].].].].].].].XXXXXXXXXXXXXXXXXXoXoXoX|.@X@X@X@X@X@X@XoX,X,X,XpXpX,X*XoXaXaXaXaXaXaXaXpXaXaXaXaXgXgXgXgXaXaXaXaXaXfXfXfXfXdXdXdXdXdX<X<X1X<X<X<X<X1X>X>X>X;X1X:X:X:X:XY.~.Q.e.T T E E Y Y H H G k k j j j j j j l j j p j j j j j j j k k G G G G H H Y Y Y T T T O.O.+.+.+.=.+.%.+.O.O.>.j.D.F.%X&X*X*XoXoX*XuXpXpXpXpXpXpXfXpXpXpXpXdXpXfXsXpXpXaXaXaXaXaXaXaXaXfXaXpX,X,X,X,XpXpXpX@XoX@X,XpXpXpXpXpX@X@XpXpXpXpXpXpX@X,X,X,X<X<X,X,XXX>X,X1X>X>X>X1X>X>X>X>X<X1X<X<X1X>X>X>X>X;X;X;X;X-X-X-X-X-X-X-Xm.m.m.n.n.n.n.f.D.D.n.n.I.I.J.k.k.f.g.j.j.Z.i.u.&.R R R ! R Y H G k J G k k k k k k k k k k k j j j j j p p p p p p s s s s i i i a i i p i 5 5 8 1 # + @ @ # 3 0 7 4 4 4 7 q 8 : : : ; ; ; ; ; ; : 4 4 5 5 i i p j k k G G G G ",
"-.-.=.=.+.+.+.O.T T Y Y H H H G G G k j l z z k k G P P z j p p k H R Q $.O.+.=.+.+.+.+.+.+.+.+.+.+.+.+.+.=.+.+.+.+.+.+.+.+.=.+.+.+.+.=.=.-.-.a.-.a.a.a.a.a.a.a.a.a.a.a.s.l.l.l.l.l.l.l.l.l.l.l.z.^.^.^.^.^.z.z.z.z.z.z.z.z.z.z.l.l.l.l.l.l.l.l.l.l.z.z.c.c.b.b.b.z.z.z.b.(.(.^.^.^.^.^.^.^.^.^.^.^.^.^./././.^.).).).`.`.`.`.[.[.[.[.{.{.{.[.[.{.{.{..X.X.XoX.X|.|.{.{.{.[.[. X X X X X`.XX`.^.].`.`.].].].`._.(.'._.c.m.-Xm.f.i.2.&.O.&.@.E Y Y H H G G J z k k k k k z k z j j j j j k k k k G G G H H R R W Y E T T T $.O.O.=.=.=.>.>.>.q.L.W.MXMX;X1X<XfXfXpXpXpXpXfXfXfXfXfXfXfXpXpXpXpXpXpXfXfXfXaXaXaXaXgXgXgXgXgXgXaXaXfXpXpXfXsXfXfXfXfXfXfXfXfXfXfXfXpXpXaXpXpXpXpXpX*X,X,X<X<X<X,X,X<X<X,X<X<X<X<X>X<X<X<X<X<X<X<XdX>X1X1X1X1X>X>X;X;X;X;X;X;X:X:X:X-X-X-X-X-X:X:X:XY.Y.Y.Y.Y.:XMX:XMX:XY.Y.Y.!.W.P.Q.p.t.y.~ H H R G k k k k k k k k k k k j j j j j j j j j p p p p i p s h i i i a a i i i i 5 5 4 < # + + + # > 4 4 4 4 7 7 8 4 : : : : ; # # ; : : : 4 5 5 i p j j k k k k k k ",
"-.=.=.=.=.+.+.O.T T Y Y R R H H G k k j j l j k k G P P k j p p k H R Q $.O.+.+.+.+.+.+.+.+.+.+.+.+.+.+.+.+.+.+.+.+.+.+.+.+.=.+.+.+.+.=.=.-.-.a.-.a.-.a.a.a.a.a.a.a.a.a.a.f.f.f.a.a.a.s.s.s.s.l.l.l.z.l.l.l.l.l.l.l.l.s.l.s.s.s.a.a.a.a.a.a.a.a.a.a.a.a.a.s.s.f.s.s.s.s.l.l.l.l.l.l.l.l.l.l.l.l.z.z.z.z.^.^.^.z.^.^.^.^.^.^.^.^.^./././././././.^.^.^././././././.[././././././.^.^.^.^.^._._.z.z.z.z.z.z.z.z.l.z.l.l.l.l.x.l.a.<.#.O.O.O.O.T T Y Y H H H K J J G k k k k k k k k k k k k k G G G H H H H Y W W T T T T T T O.O.+.=.=.>.>.>.q.H.J.D.F.'.].].oXXX`.].].`.`.`.`.`.`.`.`.`.`.`.`.`.).[.`.}.[.[. X[..X{..X.X.X[.[.[.`.).`.`.}.XXXXXX`.`.`.`.`.[.[.}./././././././././.^.^.^.^.^./._._._.^._._._.(._._._._._.'._._.'._.b.b.b.b.b.b.b.b.v.v.v.v.v.v.v.n.f.f.f.f.f.k.k.g.g.h.j.k.k.k.k.k.k.k.k.k.j.1.<.*.&.~ ~ R H H H G k k k k z k k k k k k k j j j j p j j p p p p p i i s s i i i a a i i p i i 5 8 1 # + + + $ > : 4 4 8 4 4 8 8 : : : : ; ; ; > : : : 4 5 5 i p j j k k k k k k ",
"=.=.=.=.+.+.O.O.T T Y Y W R K K G k k j j j j k k G H L k j p p j G H T $.O.O.+.+.+.+.+.+.+.+.+.+.+.+.+.+.+.+.+.+.+.+.+.=.=.=.=.=.=.=.=.-.-.-.-.-.-.a.a.a.a.a.a.-.-.-.-.-.-.a.a.-.-.a.a.a.a.a.a.a.a.a.a.a.a.a.a.a.-.-.-.-.-.-.-.-.-.-.-.-.-.-.-.=.=.-.-.-.a.a.a.a.a.a.a.a.a.a.a.a.a.a.a.a.a.a.a.l.l.l.l.l.l.l.l.l.l.l.l.l.l.l.l.l.l.l.z.z.z.l.l.l.l.l.l.l.z.z.z.z.z.z.z.z.z.z.l.l.l.l.s.s.s.s.s.s.s.s.a.a.a.a.a.a.a.a.-.-.-.-.-.+.O.O.O.O.O.O.T E Y Y Y K K H G G G G G G G k k k k k k G G G G H H H H Y Y Y Y Y T T T T T O.O.+.+.+.+.+.+.;.1.-.-.g.a.l.z.z.z.l.l.l.l.l.l.l.l.l.l.l.l.l.l.l.l.z.z.z.z.z.^.^.^.^.^.^.^.^.^.^.z.z.z.z.z.z.z.z.z.l.l.l.l.l.l.z.z.z.l.l.l.l.l.l.l.l.l.l.l.l.l.l.l.s.s.a.a.s.s.s.s.a.a.a.a.a.a.a.a.a.a.a.a.a.a.a.a.a.-.-.-.-.-.-.-.-.-.=.=.=.=.=.=.+.+.+.=.=.=.=.=.=.=.=.=.=.+.O.O.Y Y H H K K G G G k k k k J z k k k k k k j j j j p p j j p p p p i i p i i 5 i i i i s p i i 7 8 1 ; # + + $ > : 4 7 4 4 4 8 q : : : : : ; ; > : : : 4 5 5 i p p j j k k k k k ",
"=.=.=.=.+.+.O.O.T T Y Y Y H H H G k j j j j j k k G P P k j p p j G H Y $.O.O.+.+.+.+.+.+.+.O.O.+.+.+.+.+.+.+.+.+.+.+.+.=.=.=.=.=.=.=.=.=.-.-.-.a.a.a.a.a.a.g.a.-.=.=.=.=.=.=.=.=.=.=.=.-.-.-.-.-.-.-.-.-.-.-.=.=.=.=.=.=.=.=.=.=.=.=.-.=.=.=.=.=.=.=.=.=.-.-.-.-.-.-.-.-.-.-.-.-.a.a.a.a.a.a.a.s.s.s.s.s.s.s.s.s.s.s.s.s.s.s.s.s.s.l.l.l.s.s.s.s.s.s.s.s.l.l.l.l.l.l.l.l.s.s.s.s.a.a.a.a.a.a.a.a.a.a.a.-.-.-.-.=.=.=.=.+.=.=.=.+.O.O.O.O.O.O.T T E Y Y H H H H H H H G G G G k G G G G G G H H H H H H Y Y Y Y Y T T T T T O.O.O.O.O.O.O.O.+.+.+.=.-.a.a.s.s.s.a.a.a.a.a.a.a.a.a.a.a.a.a.a.a.a.l.l.l.l.l.l.z.z.z.z.l.l.z.l.l.l.l.l.s.s.l.l.s.s.s.s.s.s.s.s.s.a.a.a.a.a.a.a.a.a.a.a.a.a.a.a.a.a.a.-.-.-.-.a.a.-.-.-.-.-.-.-.-.-.-.-.=.=.=.=.=.=.=.=.=.=.=.+.+.+.+.+.+.+.O.O.O.O.O.O.O.O.O.O.O.O.O.O.O.O.O.O.T T H H G k k J J k k k k k k k k k k k j j j j j j j j j j j p p p p i i i i i 5 5 5 5 i i s i i 5 4 < # + + + # > 8 4 4 4 4 4 8 q : : : : : ; > > : : 4 4 5 5 i p p j j k k k k k ",
"=.=.=.=.+.+.O.T T T T Y Y H H G J k j j j j j k k G U U k j p p j G H Y O.O.O.+.+.+.+.O.O.O.O.O.O.O.O.O.O.O.O.O.+.+.+.+.=.=.=.=.=.-.-.-.-.-.-.-.-.-.-.a.a.a.a.g.-.=.=.=.=.=.=.=.=.=.=.=.=.=.-.=.-.=.-.=.=.=.=.=.=.=.=.=.=.=.=.=.=.-.=.=.=.=.=.=.=.=.=.=.=.=.=.=.=.=.-.-.-.-.-.-.-.-.-.a.a.a.a.a.a.a.a.a.s.a.a.a.a.a.a.a.a.a.a.s.a.s.s.s.s.s.s.a.a.a.a.a.a.a.s.s.s.s.s.s.s.f.a.a.a.a.a.a.a.a.-.-.a.-.-.-.-.-.=.=.=.=.+.+.+.O.+.;.+.O.O.O.O.O.T T T Y W Y Y H H H H H H H H G G G G G G G G H H H H Y Y H Y Y Y Y T T T T T T O.O.O.T T O.O.T O.O.+.;.;.-.a.a.a.a.-.=.=.-.-.-.a.a.a.a.a.a.a.a.a.a.a.a.a.a.a.a.s.s.s.s.s.s.s.s.s.s.f.a.a.a.a.a.a.a.a.a.a.a.a.a.-.-.-.-.-.-.-.-.-.-.-.-.=.=.=.=.=.=.=.=.=.=.=.=.=.=.+.=.=.=.+.+.+.+.+.+.+.O.O.O.O.O.O.O.O.O.O.O.O.T T T T T Y Y Y Y Y Y Y Y Y Y Y Y Y Y Y T T Q T Y H K J k k J J k k k k k k k k k k k j j j j j j j j j j p p p p p i i i i 5 5 5 5 5 i i p i 5 5 : ; # + @ @ # > 8 4 4 4 4 4 8 8 : : : , ; ; > > : : 4 4 5 5 i p p j j k k k k k ",
"=.=.+.+.+.+.O.O.T T T W Y H H G J k j j j j j k k H ) ) L j p p j G H Y Q O.O.+.+.+.O.O.O.O.O.O.O.O.O.O.O.O.O.O.+.+.+.+.=.=.=.=.-.-.-.-.-.-.-.-.-.-.-.-.-.-.-.-.-.-.=.;.;.;.;.;.+.+.=.=.=.=.=.=.-.-.-.-.=.=.=.=.=.=.=.=.=.=.=.=.=.=.=.=.=.=.+.+.+.+.+.+.=.=.=.=.=.=.=.=.=.=.-.-.-.-.-.-.a.a.a.a.a.a.a.a.a.a.a.a.a.a.a.a.a.a.f.f.a.s.s.s.s.s.s.s.a.a.s.a.s.s.s.s.a.a.f.f.f.a.a.a.a.a.a.d.d.a.-.-.-.-.-.-.=.=.=.=.=.+.+.+.O.O.O.#.+.+.O.O.O.T T T Y Y W Y Y H H H Y H H H H H H G G G G G H H H H Y Y Y Y Y Y Y Y T T T T T T O.O.O.O.O.@.@.O.O.O.+.;.;.,.-.g.a.-.=.=.=.=.-.-.-.a.a.a.a.a.g.a.g.a.a.a.a.a.a.a.a.a.a.a.a.a.a.a.a.a.a.a.a.a.a.a.a.-.-.-.-.-.-.-.-.-.=.=.=.=.=.=.=.=.=.=.=.=.=.+.+.+.+.+.+.+.+.+.+.+.+.+.+.+.O.+.+.+.O.O.O.O.O.T T T T T T T T T T T Y Y Y Y Y Y Y Y H H H H H H Y H R H H Y E ~ E Y K K G k k k J J k k k k k k z k k k j j j k k k j p p p p p p p p i i i i i 5 i 5 5 i i i i 5 4 : ; # @ @ @ # > 6 4 4 4 4 8 8 4 : : : : ; ; ; ; : : : 4 5 5 i i p j j k k k k G ",
"=.+.+.+.+.O.O.O.T T Q T Y H H H J k j j j j j k k P ) ) L j p i j G G Y Q O.O.+.+.+.O.O.O.O.O.O.O.O.O.O.O.+.+.+.+.+.+.+.+.+.=.=.-.a.a.a.-.-.-.-.-.-.-.-.-.-.-.-.-.-.-.;.;.>.<.<.+.+.=.=.=.=.-.-.-.-.-.-.-.-.-.-.-.-.-.-.-.-.-.=.=.=.=.=.=.=.+.+.+.+.+.+.=.=.=.=.=.=.=.=.-.-.-.-.-.-.-.-.a.a.a.a.a.a.a.a.f.a.a.a.a.a.a.a.g.g.g.f.l.v.v.v.v.l.l.l.l.l.v.v.v.v.v.x.s.s.s.s.s.a.a.a.a.a.a.g.g.a.-.a.a.-.-.-.-.-.-.=.;.=.+.+.+.+.O.+.+.+.O.O.O.T O.Q Y Y W W W Y Y Y Y Y H H H H H H H H H H H H H H Y Y Y Y Y Y Y Y Y Y T T T T T T O.O.+.#.#.+.O.+.+.;.;.-.-.-.-.-.=.=.=.-.-.-.a.g.g.s.h.s.s.g.s.g.a.a.a.a.a.a.a.s.a.s.s.s.s.a.a.a.a.a.a.a.a.a.a.-.-.-.-.-.-.-.-.-.=.=.=.=.=.=.=.=.=.=.=.=.=.=.+.+.+.+.+.+.+.+.+.+.+.+.+.+.+.+.+.O.O.O.O.T O.T T T Q Q T Q T T T T Y Y Y Y Y Y Y Y Y Y Y Y Y Y Y Y R H Y Y T Q T Y Y H G G k k G L k k k k k z k k k k k j j k k z j j p p p p p p p i i i i i i i 5 5 i i i i 5 5 : ; # + @ @ # > 4 4 4 4 4 4 8 8 : : : : ; # ; ; : : : 4 5 5 i i p j j k k k G G ",
"=.+.+.+.+.O.O.O.T T T T Y H H H G k j j j j k J G P _ ) I j p i j G G Y &.O.O.+.+.+.O.O.O.O.O.O.O.O.O.O.O.+.+.+.+.+.+.+.+.+.=.=.-.-.-.-.-.-.-.-.-.-.-.-.-.-.-.d.=.=.=.=.;.;.>.>.+.+.=.;.=.=.=.=.-.-.-.-.-.-.-.-.-.-.-.-.-.-.-.-.=.=.=.=.=.=.=.=.+.=.=.=.=.=.=.=.=.-.-.-.-.-.-.-.-.-.-.a.a.a.a.a.a.a.a.a.f.f.g.a.a.a.a.a.g.g.f.s.l.v.v.v.v.v.l.l.l.l.l.v.v.v.v.v.s.s.s.s.s.a.a.a.f.a.a.g.g.a.a.g.a.a.-.-.-.-.-.-.-.=.=.=.=.+.+.+.=.+.O.O.O.O.O.@.Y Y T T W Y Y Y Y Y H Y Y Y H H H H H H H H H H H H H Y Y Y Y T Y Y Y T T T T T +.+.+.+.#.+.O.+.+.=.=.-.-.-.-.-.=.=.-.-.-.-.a.a.g.g.g.g.g.a.g.a.a.a.a.a.a.a.a.a.a.a.s.f.s.a.a.a.a.a.-.-.-.a.-.-.-.-.-.-.-.-.-.-.=.=.=.=.=.=.=.=.=.=.=.+.=.+.+.+.+.+.+.+.+.+.O.O.O.+.+.O.O.O.+.O.T T T T T T T T T T T T T Y Y Y Y Y Y Y Y Y Y H H H H H H Y Y H H H Y Y Y Y Y Y Y H H K G k k L k k k k k k k k k k j j j j k k j j j p p p p p p i i i a i i i i i i i i i 5 5 : ; # + @ @ # > : 4 4 4 4 4 4 8 4 : : : ; ; ; ; : : : 4 5 5 i p p j j k k k G G ",
"+.+.+.+.+.+.+.O.T T T W Y H H H G k k k z k k k H Y E ! P j p p k G H Y T O.+.O.+.+.O.O.O.O.+.+.O.O.O.O.O.O.+.+.+.+.+.+.+.+.=.=.;.=.=.=.=.=.=.-.-.-.-.=.-.-.-.-.=.=.=.+.+.+.+.+.+.+.+.+.=.=.=.=.=.=.=.=.=.=.-.=.-.-.-.-.-.-.-.-.-.-.=.=.=.=.=.-.=.=.-.-.-.-.-.-.-.-.-.-.-.-.-.a.-.-.-.a.a.a.g.g.a.a.a.f.f.a.a.a.a.a.a.a.a.a.a.s.l.l.l.s.l.s.s.s.x.s.s.s.s.x.x.x.f.f.f.a.a.a.a.a.a.a.a.a.a.a.a.a.-.-.-.-.-.-.-.-.=.=.=.=.=.=.=.=.+.=.+.+.+.+.+.O.T T T T W W Y Y Y Y Y W Y Y Y Y Y Y Y Y Y Y Y Y Y H Y Y Y Y Y Y Y Y Y Y T Y Y T O.O.+.#.+.O.O.O.<.;.=.=.-.-.-.-.-.-.-.a.a.a.-.-.a.a.a.a.-.-.-.a.a.a.a.a.a.a.a.a.a.a.a.a.a.a.a.-.-.-.-.-.-.-.a.-.-.-.-.-.-.=.=.=.=.=.=.=.=.=.;.;.+.+.+.+.+.+.+.+.+.O.O.O.O.O.O.O.+.+.+.+.O.+.+.+.T T T T T T T T T T T Q T T T T Q T T Y Y Y H H H H H H H Y H H W R W W W Y Y Y Y H H G G k k G k k G k k k k k k k k j j j j j j j l j p p i p p i i i i i i i i s s i i i 5 9 : ; # @ . @ @ # : 4 7 4 4 4 4 4 4 4 : : : ; ; ; ; : : 4 5 a a i p j j k k z k k ",
"+.+.+.+.+.+.+.O.O.T T W Y H H G G k k k k k k k H W E ~ U j p p j G H Y T O.O.O.O.+.O.O.O.O.+.+.O.O.O.O.O.O.+.+.+.+.+.+.+.+.+.=.=.=.=.=.=.=.=.-.=.=.=.=.=.=.=.=.=.=.=.=.+.+.+.+.+.+.+.+.+.+.=.+.=.=.=.=.=.=.=.=.=.=.-.-.-.-.-.=.=.=.=.=.=.-.-.-.-.-.-.-.a.-.a.-.-.-.a.-.-.-.-.a.a.a.a.a.a.a.g.g.a.a.a.f.f.a.-.a.a.a.a.a.a.a.s.s.s.s.s.s.s.s.s.s.s.a.a.a.a.s.s.s.a.a.a.a.a.a.a.a.a.a.a.a.a.-.-.-.-.-.-.-.-.-.-.-.=.=.=.-.-.-.-.=.=.=.+.+.+.+.+.O.O.T T T T W Y Y Y Y Y Y Y Y Y Y Y Y Y Y H Y Y Y H H H Y Y Y W T Y Y Y T T W W T T O.#.#.+.O.O.O.%.+.+.=.=.-.-.-.-.-.-.a.g.g.a.-.-.-.-.-.-.-.-.-.-.-.-.a.a.a.a.a.a.a.a.a.a.a.a.-.-.=.-.-.-.-.-.-.-.-.-.-.=.=.=.=.=.;.;.=.=.=.=.;.;.+.+.+.+.+.+.+.+.O.O.O.O.O.O.O.O.O.O.O.O.O.O.O.T T T T T T T $.O.T T T T T T T E T Y Y Y H H H H H H H H H H H W W Y Y W Y Y H Y K K G G k k k k G G G G k k k k k k k j j j j j l l l p i i i i i i i a i i i i a s p i i 5 4 : ; # @ . . @ # : 4 7 7 7 7 7 4 4 4 : : : ; ; ; : : : : 4 d a i p p j k k k k k ",
"+.+.+.+.+.+.+.O.T T T W Y H H G G k k k j k k k H R E ! P j p p j G H Y T O.O.O.O.+.+.O.O.O.+.+.O.T O.O.O.O.+.+.+.O.O.O.+.+.+.+.+.+.+.=.=.=.=.-.=.=.=.=.=.=.=.=.=.=.=.=.=.+.+.+.+.+.+.+.+.+.=.=.+.=.=.=.=.=.=.=.=.=.=.-.-.-.-.=.=.=.=.=.=.=.-.-.-.-.-.-.g.-.-.-.a.a.g.a.-.-.-.a.a.a.a.a.a.g.g.g.a.a.a.f.a.a.a.a.a.a.a.a.a.a.s.s.s.s.s.s.s.s.s.s.f.a.a.a.a.a.a.a.a.a.a.a.a.a.a.a.a.a.a.a.a.a.a.-.-.-.-.-.-.-.-.-.=.=.-.-.-.-.-.=.=.=.+.+.+.+.+.O.O.T T T W Y Y Y Y Y Y Y Y Y Y Y Y Y Y Y Y Y Y Y H H H H Y Y W T T T T T T Y Y T O.O.+.+.O.O.O.O.+.+.=.=.=.-.a.a.-.-.-.-.-.-.-.-.-.-.-.-.-.-.-.-.-.-.-.a.a.a.a.a.f.a.a.a.a.a.-.-.-.=.-.-.-.-.-.-.-.-.-.-.-.-.=.=.=.=.=.=.=.=.=.+.;.+.+.+.+.=.+.+.O.O.O.O.O.+.O.O.+.O.O.O.O.O.O.T T T T T T T $.$.$.O.T T T T Y Y T Y Y Y Y H H H H H H H H H H H R Y H H Y H H H K K K G k k k k k k G G k k k k k k k j j j j j j l l p p i i i i i i a a a i i i i s p p a d 4 4 ; # @ . . @ # : 4 7 7 8 7 8 4 4 : : : : ; ; ; : : : : 4 7 a i p j j k k k k k ",
"+.+.+.O.O.+.O.O.T T T W Y H H G k k k j j j k k G H W ! J j i p k G H Y T O.O.O.O.O.+.+.+.O.O.O.O.T O.O.O.O.+.+.O.O.O.O.O.O.+.+.+.+.+.+.=.=.=.=.-.-.-.-.-.=.=.-.=.=.=.+.+.+.+.+.+.+.+.+.+.+.=.=.+.+.=.=.=.=.=.=.=.=.=.=.-.-.=.=.=.=.=.=.=.=.=.=.-.-.-.-.-.-.-.-.-.-.-.-.-.-.-.a.a.a.a.a.a.a.a.a.a.a.a.a.a.a.a.a.a.a.a.a.a.a.a.a.a.a.a.a.a.s.s.s.f.a.a.a.a.a.a.a.a.a.a.a.a.a.f.f.a.a.a.a.a.a.-.-.=.=.=.=.=.=.-.=.-.-.-.-.-.-.-.-.=.=.+.+.+.+.+.O.$.T T T Y Y Y Y Y Y Y Y Y Y Y Y T T T Y Y Y Y Y Y H H Y Y Y T T T T T T T Y T T T O.+.+.O.O.O.O.+.+.=.=.=.-.a.g.-.=.=.=.-.-.-.-.-.-.-.-.-.d.-.-.-.-.-.-.a.a.a.a.a.a.a.a.a.-.-.-.-.-.-.-.-.-.-.-.-.-.-.-.-.-.=.=.=.=.=.=.=.=.=.+.=.+.+.+.+.+.+.+.+.O.O.O.+.+.+.O.#.O.O.O.O.+.O.T T T T T T T T T $.O.T T T T Y Y Y Y Y Y Y H Y H H H H H H H H H Y Y H H H H H H H H J G G k k k k k G G k k k k k k k j j j j j j l l p p i i i i i i a a i i i i i s p p i d 4 : ; # @ . . @ # : 4 8 4 4 4 4 4 4 : : : : ; ; ; : : : : 4 9 a s x l c z z k k k ",
"+.+.+.O.O.O.O.O.T T W W R H H G k k j j j j j k G H ! P G p i p j G H Y T O.O.O.O.O.+.O.O.O.O.O.O.O.O.O.O.O.O.O.O.O.O.O.O.O.O.+.+.+.+.+.+.=.=.=.-.-.=.=.=.=.-.=.=.=.=.+.+.+.+.+.+.+.+.+.+.+.+.+.+.+.=.=.=.=.=.=.=.=.=.=.=.=.=.=.=.=.=.=.=.=.=.=.=.=.-.-.-.-.-.-.-.-.-.-.-.-.-.a.-.-.-.a.a.a.a.a.a.a.a.a.a.a.a.a.a.a.a.a.a.a.a.a.a.a.a.a.a.a.a.s.s.a.a.a.a.a.a.a.a.a.a.a.a.a.a.a.a.a.a.a.a.a.-.-.-.-.-.-.-.-.-.-.-.-.-.-.-.-.-.=.=.+.+.+.+.O.O.O.O.T T T Y Y Y Y Y T T Y Y Y T T T Y T Y Y Y Y Y Y Y Y Y Y Y T T T T T T T T T T O.O.+.+.O.O.O.O.+.+.=.=.=.-.a.g.-.=.=.=.=.=.=.=.-.=.-.-.-.-.-.-.-.-.-.-.a.a.a.a.a.a.a.-.-.-.-.-.-.-.-.-.-.-.-.-.-.-.-.-.=.=.=.=.=.=.=.=.=.=.=.=.=.=.=.=.=.=.+.+.+.O.O.O.+.+.+.+.#.+.O.O.+.+.O.O.$.T T T O.O.O.O.O.T T T T T T Y Y Y Y Y Y Y Y H H H H H H H H H H H H H H H H H H G G G k k k J k k k k k k k k k k k j j j j j j j p p p i i i i 5 5 i a i 5 i i i i i i i d 4 : ; # @ @ . @ # : 4 4 4 4 4 8 4 : : : : : ; ; ; : : : : 4 5 i s x l l z z k k k ",
"O.+.+.O.O.O.O.T T T W R R H H G k j j j j j j k G H ! P z p i i j G K Y T O.O.+.O.O.O.O.O.O.O.O.O.O.O.O.O.O.O.O.O.O.O.T O.O.O.O.+.+.+.+.+.=.=.=.=.=.=.=.=.=.=.=.=.=.+.+.+.+.+.+.+.+.+.+.+.+.+.+.+.+.=.=.=.=.=.=.=.=.+.=.=.=.=.+.=.=.=.=.=.=.=.=.=.=.=.-.-.-.-.-.-.-.-.-.-.-.a.g.-.-.-.a.a.a.a.-.a.a.a.a.a.a.a.a.a.a.a.a.a.a.a.a.a.a.a.a.a.a.a.a.a.a.a.a.a.a.a.a.a.a.a.a.a.a.a.a.a.a.a.a.a.a.a.a.-.-.-.-.-.-.-.-.-.-.-.-.-.-.-.-.=.+.+.+.+.O.O.O.O.O.T T T Y Y T T T T T T T T T T T T T T T T T Y Y Y Y T T T T T T T T T T T O.O.+.+.+.+.+.O.O.O.+.=.=.=.-.-.a.-.;.:.-.=.-.=.-.=.=.=.-.-.-.-.-.-.-.-.a.a.a.a.a.a.a.a.a.-.-.-.-.-.-.-.-.-.-.-.-.-.-.-.-.-.=.=.=.=.=.=.=.=.:.-.-.=.=.=.=.;.;.=.+.+.O.O.O.+.+.+.O.+.O.O.O.O.+.O.O.O.O.$.O.O.O.O.O.O.O.O.T T T T T Y Y Y Y Y Y Y Y H H H H H H H H H H H H H H H H G G G G k k J J k k k k k k k k k k k j j j j j j p p p p i i i i 5 5 i i 5 5 i i i i i i i 9 4 : ; # @ . . @ # : 4 4 4 4 4 8 4 : : : : ; ; > ; ; : : : 4 4 5 p p j j k k k k k ",
"O.+.+.O.O.O.O.T T T W R K H G G k j j j p j j k G H K U k p i i j G K Y T T O.O.O.O.O.O.$.O.O.+.O.O.O.O.O.O.O.O.T T T T T T O.O.+.+.+.+.+.=.=.=.=.=.=.=.=.=.=.=.=.=.+.+.+.+.+.+.+.O.O.+.+.+.+.+.+.+.+.+.+.=.=.=.+.+.+.+.=.=.+.+.=.=.=.=.=.=.=.=.=.=.=.=.=.-.-.-.-.-.-.-.-.-.-.-.-.-.-.-.-.-.-.-.-.a.a.a.a.a.a.a.a.a.a.a.a.a.a.s.a.a.a.a.a.a.a.a.s.a.a.a.a.a.a.a.a.a.a.a.a.a.a.a.a.a.a.a.a.a.a.a.-.-.-.-.-.-.-.-.-.-.-.-.-.-.-.-.=.+.+.+.+.O.O.O.O.O.T T T T T T T T T T T T T T T Q O.O.T T T Q T T E T T T T T T T T T T T $.O.+.+.;.+.+.+.O.+.+.+.=.=.-.-.a.-.-.:.-.:.:.-.-.-.-.-.-.-.-.-.-.a.a.-.a.a.a.a.a.a.a.a.a.a.a.-.-.-.-.-.-.-.-.-.g.g.g.g.-.-.-.-.-.-.-.-.-.=.-.-.-.=.=.=.=.=.=.=.=.=.+.+.+.O.+.+.+.O.+.O.O.O.O.O.+.O.$.$.$.$.O.O.O.O.O.O.O.O.T T T T E T E E E Y Y Y H H H H H H H H Y H H H H H H H H H G G G G G J k k k k j j k k k k j j j j j j l p p p p i i i i 5 5 5 5 5 5 a i i i i i i 5 8 8 > # @ . . @ # : 4 4 : : 4 8 : : : : , ; ; ; ; ; : : 4 4 4 5 p p j j k k k k k ",
"O.+.+.+.O.O.O.T T T W R K H G G k j j p f p l k k G K K k p 5 i j G R Y T T O.O.+.O.O.O.O.O.O.O.O.O.O.O.O.O.O.O.T T T T T T O.O.#.+.+.+.+.+.=.=.=.=.=.=.=.=.-.=.=.+.+.+.+.+.O.O.+.O.O.+.+.+.+.+.+.+.+.+.+.+.+.+.=.+.+.+.=.+.=.+.+.+.+.+.=.=.=.=.=.=.=.=.=.-.-.-.-.-.-.-.-.-.-.-.-.-.-.-.g.-.a.-.-.a.a.a.a.a.a.a.a.a.a.a.a.a.a.f.f.f.a.a.a.a.a.a.x.s.a.a.a.s.s.a.a.a.a.a.a.a.a.a.a.a.a.a.a.a.a.a.g.g.-.-.-.-.-.-.-.-.-.-.-.-.-.-.=.+.+.+.+.+.O.+.O.O.T T T T T T T T $.O.O.T T T T T T T T T T T T T T Q O.T T T T O.O.O.O.O.O.+.+.=.;.+.+.+.O.O.+.;.>.,.,.a.a.a.-.=.-.-.-.-.-.-.-.-.g.a.a.a.g.g.a.a.a.a.f.a.a.a.a.a.a.a.a.a.a.a.-.-.-.-.-.-.g.g.-.-.-.-.-.-.-.-.-.-.=.=.=.=.=.=.=.=.+.+.+.+.=.=.+.+.+.+.+.+.+.O.O.+.+.+.O.O.+.+.O.O.O.$.O.O.+.%.O.O.O.$.T T T T T T T T T E T Y Y Y Y Y Y Y Y Y Y Y Y H Y H H H H H H G G G G G G k k k j j j j j j j j j j j j l p p p p i i 5 a i 5 5 5 5 5 a i a i 5 5 5 7 8 1 > # @ . . + # ; : : : : : : : : ; : ; ; # # > ; ; : 4 4 4 5 i p j j z k k k k ",
"O.+.+.+.O.O.O.T T T Y H H H G G k j j p f p j j k G U L z p i i k G H W Q $.O.O.O.O.O.O.O.O.O.%.O.O.O.O.O.O.O.O.T O.T O.T O.O.O.O.+.#.+.+.;.;.+.=.=.=.=.;.;.;.=.=.=.+.+.+.+.+.O.+.+.+.+.+.+.+.+.+.+.+.+.+.+.+.+.+.+.+.+.+.+.+.+.+.+.+.=.=.;.;.;.=.=.=.=.=.;.-.-.-.-.-.-.-.-.-.-.-.-.-.-.-.-.-.-.-.a.a.a.a.a.d.d.a.a.a.f.f.a.a.a.f.a.a.a.a.a.f.f.a.a.a.s.s.f.s.a.a.a.a.a.a.a.a.a.a.a.a.a.s.f.f.f.-.-.-.-.-.-.-.-.-.-.-.-.-.-.-.-.=.=.=.+.+.O.+.+.O.O.O.T T T T T T T O.T O.O.O.O.T T O.T O.T O.T T O.@.T T @.O.T O.O.O.O.O.+.+.O.+.=.+.+.%.+.O.+.+.+.=.=.-.-.a.a.g.-.-.-.-.-.-.=.-.-.a.a.g.g.s.s.f.a.a.a.a.a.s.s.a.a.a.a.a.a.a.a.-.-.-.-.-.-.-.-.-.-.-.-.-.-.-.-.-.-.-.-.=.=.=.=.=.=.=.=.=.=.;.;.+.+.+.+.+.+.+.O.+.+.+.+.+.+.+.+.O.O.$.$.O.O.+.+.O.O.$.$.$.T T T O.O.T T O.O.T Y Y Y Y Y Y Y Y Y Y Y Y Y Y H H H H G G G G H H K G k k k k z k j j j j j j j j j p p p p p i i 5 5 5 5 5 5 5 5 a i i i i i 5 9 4 : > # @ @ @ @ $ ; : : : : 4 : : : : : ; ; ; # > , : : : 4 5 5 i p p j j j k k k ",
"O.O.O.O.O.O.O.T T T Y Y H H G G k j p p p p p j k G U L k p i i j G H Y T T O.O.O.O.O.O.$.O.O.+.O.O.O.O.O.O.O.O.O.O.O.O.O.O.O.O.O.+.+.+.+.;.;.+.;.=.=.=.;.;.=.=.=.+.+.+.+.+.O.O.O.+.+.+.+.+.+.+.+.+.+.+.+.+.+.+.+.+.+.+.+.+.+.+.+.+.+.+.+.=.=.=.=.=.=.=.=.=.-.-.-.-.-.-.-.-.-.-.-.-.-.-.-.-.-.-.-.-.a.a.a.a.a.a.a.a.a.a.a.a.a.a.f.f.a.a.a.a.f.f.a.a.a.a.s.s.s.a.f.a.a.f.f.a.a.a.a.a.a.a.a.a.a.a.-.-.-.-.-.-.-.-.-.-.-.-.-.-.-.-.=.=.=.=.+.+.+.+.O.O.O.O.O.O.T T O.O.O.O.O.O.O.O.O.O.O.O.O.O.O.O.O.O.O.O.O.O.O.O.O.+.+.O.+.+.+.+.+.+.+.>.<.+.T O.+.+.;.=.-.-.a.a.-.-.-.-.a.g.a.a.a.a.a.a.g.g.s.a.f.f.s.s.s.s.s.a.a.a.a.a.a.a.a.a.-.-.-.-.-.-.-.-.-.-.-.-.-.-.-.=.-.-.-.-.-.=.=.=.=.=.=.=.=.=.=.+.+.+.+.+.+.+.+.+.+.O.O.O.O.O.+.+.O.O.O.$.$.O.O.O.O.O.$.$.T T T T O.O.O.O.T O.T T T T T T T Y Y Y Y Y Y Y Y Y H H H H H H H H H G G k k k k k j j j j j j j p p p p p p p p p i i 5 5 5 5 5 5 5 5 5 5 i i i 5 9 4 : ; # @ @ . @ # ; : : : : : : : ; : : ; ; # # ; ; : : : 4 4 i i p p j j j k k k ",
"O.O.O.O.O.O.O.T T T W Y H H G G k j p p p p p j j G K L k p i i k G H Y T T O.O.O.O.O.O.$.O.O.O.O.O.O.O.O.O.O.O.O.O.O.O.O.O.O.O.O.+.+.+.+.;.;.=.;.=.=.=.=.=.=.+.+.+.+.+.+.+.O.O.O.O.O.O.O.O.O.+.+.+.+.+.+.+.+.+.+.+.+.+.+.+.+.+.+.+.+.+.+.+.+.+.=.=.=.=.=.=.=.=.-.=.=.=.=.=.=.=.-.-.-.-.-.-.-.-.-.-.-.-.-.-.a.-.a.a.a.a.a.a.a.a.a.a.a.a.a.a.a.a.a.a.a.a.s.s.s.s.f.a.a.a.f.a.a.a.f.a.a.s.s.s.a.a.-.-.-.-.-.-.-.-.-.-.-.-.-.-.-.-.=.=.=.=.=.=.+.+.+.O.O.O.O.O.O.O.O.O.+.O.+.O.+.O.+.+.+.O.O.O.O.O.O.+.+.O.O.O.+.O.O.+.+.+.+.;.=.+.+.=.;.+.*.O.T O.O.+.+.=.=.-.-.a.a.-.-.-.a.g.g.g.g.g.g.g.g.s.s.s.f.f.l.s.s.s.s.s.s.a.a.a.a.a.a.a.a.-.-.-.-.-.-.-.=.=.-.-.-.-.=.=.-.-.-.=.=.=.=.=.=.=.;.;.;.;.;.;.+.+.+.+.+.+.+.+.O.O.O.O.O.O.O.O.T T $.$.$.$.O.O.O.O.O.$.T T T T T T T T T T T T Q Q Q Q T T T W Y Y Y Y Y H H G H H H H H H H G J k k k k k j j j j j j j p p p p p p p p p i i 5 5 5 5 5 5 5 5 5 5 i i 5 5 9 4 : > # @ . @ + # ; : 4 : : : : : ; ; : ; ; # # # ; : : 4 4 4 5 s p p j j j j k k ",
"+.O.O.O.O.O.O.T T T Y Y H H G G k j j l f p p j j G K L k p i i z G H Y T T O.O.O.O.O.T T T O.O.O.O.O.O.O.O.O.O.O.+.+.O.O.O.O.+.+.+.+.+.+.+.;.=.=.=.=.+.+.+.+.+.+.+.+.+.+.+.O.O.O.O.O.O.O.O.O.+.+.+.+.+.+.+.+.+.+.+.+.+.+.+.+.+.+.+.+.+.+.+.+.+.=.=.=.=.=.=.=.=.-.-.-.-.=.=.-.-.-.-.-.-.-.-.-.-.-.-.-.-.a.a.a.a.a.a.a.a.a.a.a.a.a.a.a.a.a.a.a.a.a.a.a.s.f.f.x.s.s.a.a.a.a.a.a.a.f.s.s.f.f.f.s.a.-.-.-.-.a.a.-.-.-.-.-.-.-.-.-.-.=.=.-.=.=.=.=.=.+.+.+.+.+.+.+.+.+.+.+.+.+.+.+.+.+.+.+.+.+.O.O.O.+.+.+.O.O.+.+.O.O.+.+.+.=.>.>.=.=.;.+.+.+.T T @.O.+.+.=.=.-.-.-.g.-.-.-.a.g.g.g.-.-.a.a.a.g.g.g.s.a.a.a.a.a.s.s.s.a.a.a.a.a.a.a.-.-.-.-.-.-.-.=.=.=.=.-.-.-.-.=.=.=.=.=.=.=.=.=.=.=.=.=.;.;.;.;.+.+.+.+.+.+.+.+.+.O.O.O.O.O.O.O.T T O.O.O.$.$.$.$.$.O.T T T T T Y T T Y Y T T T T T T T W W W R Y Y R R K H G G G G G J J G G G z k k j j j j j j j j j p p p p p j p p p f s i i i 5 5 5 5 i i 5 5 5 5 5 5 9 8 : > # @ @ @ + # : 4 6 4 : : 4 4 : ; : ; ; # # # ; ; : : 4 4 5 i p p j j j k k k ",
"+.+.+.O.O.O.O.O.T T Y Y H H G G G k j j f p p j j G U L k p i i z G H Y T T O.O.O.O.T T T T O.O.O.O.O.O.O.O.O.O.O.+.+.O.O.O.O.+.+.+.+.+.+.+.=.=.+.+.+.+.+.+.O.O.+.+.+.+.+.+.O.O.T O.O.O.O.O.O.+.+.+.+.+.+.+.+.+.O.O.O.O.O.+.+.+.+.+.+.+.+.+.+.+.+.+.=.=.=.=.=.=.-.-.=.=.=.=.=.-.=.=.-.-.-.-.-.-.-.-.-.-.-.a.a.a.a.a.a.a.-.a.a.a.a.a.a.a.f.f.f.a.a.a.a.s.f.x.f.s.f.f.f.a.f.f.a.a.a.a.s.f.f.f.s.a.a.-.-.a.a.a.a.a.a.a.-.-.a.a.-.-.-.-.-.-.-.=.=.=.+.+.+.+.+.+.+.+.+.+.+.+.+.+.+.+.+.+.+.+.+.O.O.O.;.;.+.+.O.+.+.O.+.+.+.+.=.-.-.;.;.<.;.+.+.O.T @.*.*.<.<.-.-.-.-.-.-.-.-.g.j.j.A.A.A.A.J.J.J.I.I.f.f.a.a.a.a.a.a.a.a.a.a.-.-.-.-.-.-.-.=.=.=.=.=.=.=.;.;.=.-.=.=.=.=.=.=.=.=.=.+.;.=.=.+.+.+.+.+.+.+.+.+.+.O.O.O.+.O.O.O.O.O.O.O.T T T O.$.$.$.O.O.O.O.T T T T T Y Y Y Y Y T T Y Y W W W R K K K K K P P J J G k k k k J J J J k z k k j j j j j j j j p p p p p j l j p p s s i i i i i i i i i 5 5 5 5 5 5 9 4 : > # @ @ @ @ $ : 4 6 4 : : 4 8 : : : ; ; # # # ; ; ; : 4 5 5 i i p p j j j k k ",
"+.+.+.+.+.O.O.O.T T Y Y H H G G G k j j p p p j k J U L k p i i k G H Y T T O.O.O.O.T T T O.O.O.O.O.O.O.O.O.O.O.O.+.+.+.O.+.+.+.+.+.+.+.+.+.=.=.+.+.+.+.+.O.O.O.+.+.+.O.O.O.O.O.O.O.O.O.O.O.O.O.O.+.+.+.+.+.+.O.O.O.O.O.O.O.O.O.O.+.+.O.+.+.+.+.+.+.+.=.=.=.=.=.=.=.=.=.=.=.=.=.=.=.=.-.-.-.-.-.=.=.-.-.-.-.a.a.a.a.-.-.-.-.-.-.-.-.a.a.a.a.a.a.a.a.a.a.s.s.s.a.a.f.a.a.a.f.a.a.a.a.a.s.s.s.a.a.a.a.a.a.a.a.a.a.a.a.-.-.a.a.-.-.-.-.-.-.-.-.-.=.=.=.=.=.=.+.+.+.+.+.+.+.+.+.+.+.O.O.O.O.+.+.+.+.=.=.+.+.+.+.+.+.+.+.+.=.=.,.,.-.;.<.;.;.<.O.T T r.u.u.5.1.,.g.g.g.-.-.-.,.g.j.j.J.J.L.L.U.U.U.U.U.B.k.f.f.a.f.f.f.a.a.a.-.-.-.-.-.-.-.=.=.=.=.=.=.=.=.=.=.=.=.=.=.=.=.=.=.=.=.=.=.=.+.+.+.+.+.+.+.+.+.+.+.O.O.O.O.O.O.O.O.O.O.O.T T T T $.$.O.O.O.O.T T T T T Y W Y H Y W E W Y Y Y R K K K K K J J J J J z k k z z z z z z k k k k k j j j j j j j p p j j p p j j j p p s f i i i i 5 5 i i i 5 5 5 5 5 5 9 4 : > # @ @ @ @ $ : 4 4 : : : 4 4 : : : : ; ; ; ; ; ; ; : 8 7 5 i i p p j j j k k ",
"+.+.+.+.+.+.O.O.$.T T Y H H H G k j j j p p p j k J P U c p p p k G H Y T O.O.O.O.T T T T O.O.O.O.O.O.O.O.O.O.+.O.+.+.+.+.+.+.+.+.+.+.+.+.+.+.+.+.+.+.+.+.O.O.O.O.+.+.O.O.O.O.O.O.O.O.O.O.O.O.O.O.O.+.+.+.+.O.O.O.O.O.O.O.O.O.O.O.+.O.O.+.O.O.O.+.+.+.+.+.=.=.=.=.=.=.=.=.=.=.=.=.=.=.=.-.-.-.-.-.-.-.-.-.-.-.-.a.a.a.a.-.-.-.-.-.-.-.-.a.a.a.a.a.a.a.a.s.s.a.a.a.a.a.a.a.a.a.a.a.a.a.s.s.a.a.a.a.a.a.a.a.a.a.a.a.a.a.a.a.a.-.-.g.-.-.-.-.-.=.=.=.=.=.=.=.=.=.+.+.+.+.+.+.+.+.+.+.+.+.+.+.+.+.+.+.+.+.+.+.+.+.+.+.+.+.+.=.,.,.=.=.;.+.+.*.O.Y Y @.@.*.<.1.-.-.-.,.,.,.-.=.=.=.=.=.=.=.=.=.=.=.=.J.M.k.k.k.f.g.g.a.d.d.:.:.:.:.:.-.-.-.-.=.=.=.+.+.+.=.=.=.=.=.=.=.=.=.=.=.=.=.+.+.+.+.+.+.>.>.>.+.+.+.+.O.O.O.O.O.O.O.T T T T T T T T T T T T T O.O.T T T Y Y Y H H H H K R Y H Y H H H G G k k k k k k k j j j j j j j j j j j k k k j j j j j l j p p p l p p j j j p p f s i i i i i i i i i 5 5 5 5 5 5 4 4 : > # @ @ @ @ $ : : 4 : : 4 8 8 : : : : ; ; ; ; ; ; , : 8 4 5 i i p p j j j k j ",
"+.+.+.+.+.+.O.O.O.$.T Y Y H H K k k j j f p p j k J U U k j p p k G R E Q O.O.O.O.O.T T O.O.$.O.O.O.O.O.O.O.+.+.O.+.+.O.+.+.+.+.+.+.+.+.+.+.+.+.+.+.+.+.+.+.+.+.+.+.+.+.+.O.O.O.O.O.O.O.O.O.O.O.O.O.+.+.+.+.+.+.+.+.+.+.+.O.O.O.+.+.+.+.+.+.+.+.+.+.+.+.+.+.=.=.=.=.=.=.=.=.-.-.-.-.-.-.-.-.-.-.-.-.-.-.-.-.-.-.f.f.a.a.a.a.-.a.f.f.g.a.a.a.a.a.f.a.a.s.s.s.a.a.a.a.a.a.a.f.s.a.a.a.s.s.s.s.a.a.a.a.a.a.a.a.a.a.a.a.a.a.a.a.a.-.d.-.-.-.-.-.=.=.=.=.=.=.=.=.=.+.+.+.+.+.+.+.+.+.+.+.+.+.+.+.+.+.+.=.+.=.=.+.+.+.+.+.=.=.=.-.-.=.;.+.O.O.O.T Y H Y T O.+.+.=.=.=.=.=.=.=.=.+.+.+.+.+.+.+.+.+.O.+.-.-.-.g.g.-.-.-.=.=.=.=.=.=.=.=.=.=.=.=.=.+.+.+.+.+.+.+.=.=.=.=.+.+.+.+.+.+.+.+.+.+.+.O.O.O.O.O.O.+.+.+.O.T T O.T T T T T T T T Y Y T T T T T T Q T T Y Y Y Y H H H H H H H H H K K G G k k j j k k k j j j j p p p p p j j j j k k k j j j j j j j p p j l p p p j j p p p p i i i i i i i i i 5 5 5 5 5 5 4 : , > # @ @ @ + # : 4 4 : 4 8 q 8 : : : : : ; ; ; ; ; : 8 4 4 5 i p p j j j j j k ",
"+.+.+.+.+.O.O.O.O.T T Y Y R K K k k p p f p p j k J P U z j p p k G H Y T T O.+.O.O.O.O.O.O.O.O.O.O.O.O.O.O.O.O.+.+.+.+.O.O.O.O.+.+.O.+.+.+.=.=.=.=.=.=.=.+.+.+.+.+.+.+.+.+.O.O.+.+.+.+.+.+.+.+.+.+.+.+.+.+.+.+.+.+.+.+.+.+.+.+.+.+.+.+.+.+.+.+.+.+.+.+.=.=.=.=.=.=.=.=.=.=.-.-.-.-.-.-.-.-.-.-.-.-.-.-.-.-.a.a.a.a.a.a.a.a.a.a.a.a.a.f.k.a.-.a.g.s.f.s.s.s.f.f.a.f.a.a.a.f.x.f.s.s.s.s.s.s.s.f.a.a.a.a.f.f.f.f.f.a.s.s.s.s.a.a.j.-.-.-.-.-.-.=.=.=.=.=.=.=.=.=.+.+.+.+.+.+.+.+.+.+.+.+.+.+.;.>.=.=.-.-.=.=.=.=.=.=.=.=.=.=.=.=.+.+.+.+.O.T T T T T O.O.+.+.+.=.-.-.=.=.=.=.=.=.;.;.=.+.+.+.+.+.+.+.+.=.=.=.=.+.O.O.O.O.O.O.O.+.+.=.=.=.=.=.=.+.+.+.+.+.=.=.=.=.+.+.+.+.+.+.+.+.+.+.O.O.O.O.O.T T T T T T T T T T T T T T T T T T T Y Y Y Y Y Y Y Y H H H H H H Y H H H H G G G G k k k k j j j k k k j j j j j j p p j j j k z k k k k k k k b j j j p p p j p p p p p p i i i i i i 5 i i 5 5 5 5 5 i 5 5 4 : ; > # @ . + # # : 4 : : 4 4 4 8 4 4 8 : : : ; ; : : : : 4 5 i p p j j j j k k k ",
"O.O.+.O.O.O.O.O.O.T T Y Y K K K k j j p f p p j k J U U z j p p k G H Y T T O.O.O.O.O.O.O.O.O.O.+.+.+.+.+.+.+.+.+.+.O.O.O.O.O.+.O.O.O.O.+.+.=.=.=.=.=.=.=.=.=.+.+.+.+.+.+.+.+.+.+.+.+.+.+.+.+.+.+.+.+.+.+.+.+.+.+.+.=.=.=.=.+.+.+.+.+.+.+.+.=.+.=.+.=.=.=.=.=.=.=.=.=.=.=.=.-.-.-.-.-.-.-.-.-.-.-.-.-.-.-.-.-.-.a.a.a.a.a.a.a.a.a.a.g.h.g.a.-.g.a.a.a.a.a.a.a.a.f.x.x.s.a.s.s.a.s.s.a.s.s.s.s.s.a.a.f.f.f.f.f.f.a.a.a.s.s.s.s.f.g.-.-.-.-.-.-.-.=.=.=.=.=.=.=.=.+.+.+.=.=.+.+.+.+.+.=.+.+.+.=.=.=.=.-.-.-.=.-.=.-.-.-.=.-.=.-.=.=.+.+.+.+.+.O.#.O.O.+.+.+.;.;.=.-.-.-.-.-.-.-.;.:.;.=.=.;.;.=.=.=.=.=.=.-.-.=.+.+.#.+.O.O.+.+.+.=.=.=.-.-.-.-.=.+.+.+.+.=.=.=.=.=.=.=.=.=.=.+.+.+.+.+.+.+.O.O.O.T T T T E E E T E T T T T T T T T T T T T W T W Y Y H H K K K H Y Y H H P P H H J G G G z k j k k k k k k j j j j j j j k k k z k k k k k k k z j j j p p j j p p p p p p i i i i i 5 5 5 i 5 5 5 5 5 5 5 5 4 : ; > # @ @ + # # : : : : 4 4 4 4 4 4 8 : : : ; ; ; : : : 4 5 i i l j j j k k k k ",
"O.O.O.O.O.O.O.O.T T Y Y H H H G k j j p v p p j j G U L k j p p k H Y Y T O.O.O.O.O.O.O.O.O.+.+.+.+.+.+.+.+.+.+.+.+.O.O.O.+.+.+.O.O.O.O.+.+.=.=.=.=.=.=.=.=.=.+.+.+.+.+.+.+.+.+.O.O.O.+.+.+.+.+.+.+.+.+.+.+.+.+.+.+.+.+.=.+.=.=.=.+.=.=.=.=.=.=.=.=.=.=.=.=.=.=.=.=.=.=.=.=.-.-.-.-.-.-.-.-.-.-.-.-.-.-.-.-.-.-.-.-.a.a.a.a.a.a.a.a.a.a.g.a.a.g.a.a.a.a.a.s.a.s.s.s.s.s.s.l.l.s.s.s.s.a.s.s.s.s.a.a.s.s.s.a.f.f.a.a.s.a.a.a.a.f.a.-.-.-.-.-.-.-.-.-.-.-.-.-.-.-.=.=.=.=.=.=.=.=.-.;.=.=.=.=.=.=.-.-.-.-.-.-.-.-.-.-.-.-.-.-.-.-.=.=.=.;.;.+.;.<.+.+.+.;.;.;.;.-.-.-.-.-.-.-.-.-.:.-.=.=.=.:.;.=.:.-.-.-.-.-.-.=.=.;.;.=.+.=.=.=.=.=.=.-.:.-.-.=.+.+.+.+.=.=.=.=.-.;.=.=.=.=.=.=.;.+.+.+.+.O.O.O.O.T T T T T T T O.O.O.O.T T T T T T T T T T T T Y Y H Y R R R R Y Y H H Y ! ! ! P J J J J k k k G G G k k k k j z z z z z z z z k k k k k k j k j j j j j p p p p p p p i i i i i i 5 5 5 5 5 5 5 5 5 5 5 5 4 : ; > # + @ + # # : : : 4 4 4 4 4 : : 8 : : : ; ; ; ; : 4 4 5 i i j j j j k k k k ",
"O.O.O.O.O.O.O.O.T T Y H H H G G k k p p f p p j j G U J k j p p k H W Y T O.O.O.O.O.O.O.O.O.+.+.O.O.+.+.+.+.+.+.+.+.O.O.O.+.+.+.O.O.O.O.+.+.=.=.=.=.=.=.=.=.=.+.+.+.+.+.+.+.+.+.O.O.O.+.+.+.+.+.O.+.+.O.+.+.+.+.+.+.+.;.;.;.=.=.=.=.=.+.=.=.=.=.=.=.=.=.-.-.=.=.=.=.=.=.=.=.=.-.-.-.-.-.-.-.-.-.-.=.-.-.-.-.-.-.-.-.-.a.a.a.a.-.a.-.a.a.a.a.a.a.s.a.a.a.a.a.s.s.a.a.s.s.s.l.l.l.s.s.s.s.s.s.s.s.a.a.s.a.a.a.a.s.f.f.f.a.a.a.g.f.a.g.-.-.-.-.-.g.-.-.-.-.-.d.-.-.-.-.-.-.-.-.-.-.-.-.-.=.=.=.=.-.-.-.-.-.-.-.-.-.-.=.-.=.=.=.=.=.-.=.=.=.+.+.+.#.;.#.+.+.=.=.=.-.-.-.-.-.-.=.-.-.=.-.=.=.=.=.=.=.,.-.-.-.-.a.-.-.=.=.=.=.=.=.-.-.=.=.=.-.-.-.-.=.=.=.+.=.;.=.-.-.-.=.=.=.=.=.+.+.+.+.+.+.+.O.O.O.O.O.O.O.O.O.O.T O.T T T T T T T T T T T T T Y Y Y Y Y H Y Y Y H Y H H H Y R ! ! H G J J J k k G G G G G k k k j k k k k k k k k k k k k k k j j j j j j p p p p p p p p i i i i i 5 5 5 5 5 5 5 5 5 5 5 5 5 4 : , > # + @ @ + # : 4 4 4 4 4 4 4 : : 8 : : : ; ; ; ; : 4 4 5 i i p j j j k k k k ",
"O.O.O.O.O.O.O.T O.E Y Y R H H G k k p p s p p j j G K J k j p p G R T T T O.O.O.O.O.O.O.O.+.+.+.O.O.+.+.+.+.O.O.+.+.O.O.O.O.O.O.O.O.O.O.+.+.=.=.=.=.=.=.=.=.=.+.+.+.+.+.+.+.+.+.O.O.O.+.+.+.+.+.+.+.+.+.+.+.+.+.+.+.+.;.;.;.;.+.=.=.=.=.=.=.=.=.=.=.-.-.-.-.-.=.=.=.-.-.-.=.=.=.=.=.=.=.-.-.-.-.=.=.-.-.-.-.-.-.-.-.-.-.-.-.a.-.-.-.-.a.a.a.a.a.s.s.s.s.s.g.s.h.f.f.f.f.a.a.a.a.f.f.a.a.a.a.f.f.a.f.f.f.a.a.a.a.a.a.a.a.g.g.g.j.-.:.,.:.=.=.=.-.=.=.=.=.-.-.-.-.-.-.-.-.-.-.-.-.=.=.=.=.=.=.=.;.=.=.=.=.=.;.=.=.=.=.=.=.=.=.=.=.=.=.=.;.+.+.O.+.#.+.+.+.+.+.=.=.=.=.=.=.=.=.=.=.+.=.;.=.+.+.=.;.:.-.-.-.-.-.-.-.=.=.=.=.=.=.-.-.=.=.=.-.-.-.-.=.=.=.=.=.;.-.-.-.-.=.=.=.+.+.+.+.+.+.+.+.+.+.O.O.O.O.O.O.O.O.O.T O.O.T T T T T T T T T T Y Y T Y Y Y Y Y Y Y H H Y H H H H H H K H H H K G G G J G G G G G G k k k k k k k k k k k k k k k k j j j j j j p p p p p p p p p i i i i i 5 5 5 5 5 5 5 5 5 5 5 4 4 8 , > # + @ @ + # : 4 4 4 4 4 4 4 : : : : : ; ; ; ; ; : : 4 5 i i p p j j k k k k ",
"O.O.O.O.O.O.O.T T E Y Y H H G G k k p p s p p j j G J J k j p p G Y T T O.O.+.+.O.O.O.O.O.O.+.+.O.O.+.+.+.+.O.O.+.O.O.O.O.O.O.O.O.O.O.O.+.+.+.=.;.=.=.=.=.=.=.+.+.+.+.+.+.+.+.+.+.+.+.+.+.+.+.+.O.O.O.O.O.+.+.+.+.+.+.+.;.;.+.+.+.+.=.=.=.=.=.=.=.=.=.-.-.-.-.-.-.-.-.-.-.=.=.=.=.=.=.=.=.=.=.=.=.=.=.-.-.-.-.=.-.-.-.-.-.-.-.-.:.-.-.a.a.a.a.a.s.g.g.a.-.-.,.,.g.-.g.j.j.-.-.-.g.d.g.d.-.-.-.-.-.g.d.-.-.-.-.,.-.;.=.;.;.;.;.;.+.#.#.+.+.+.+.+.+.+.+.+.;.;.;.>.;.;.;.;.;.>.>.%.+.+.%.%.%.%.%.*.+.+.O.O.+.%.+.+.+.O.O.O.+.+.+.O.+.+.+.*.*.O.O.@.&.@.O.O.O.O.O.+.+.+.+.+.+.+.+.+.O.+.+.+.O.O.+.#.;.=.=.;.;.;.;.+.+.+.+.+.=.=.-.-.=.=.=.-.-.-.-.=.=.=.=.=.;.-.-.-.-.=.=.=.=.=.+.+.+.+.+.+.+.+.+.O.O.O.O.O.O.O.O.T O.O.T T T O.O.O.T T Y Y T T Q ~ T W Y Y Y Y Y H Y Y H H Y Y H H H H H K H G H P K H H G K J J k k k k k k k k k k k k k k j j j j j j j p p p p p p p p i i i i i i i 5 5 5 5 5 5 4 5 5 5 4 4 8 , > # + @ @ + > : 4 4 4 4 4 4 4 : : : : : ; ; ; ; ; : : 4 5 5 i p j j z k k k k ",
"O.O.O.O.O.O.O.T T Y Y H H H G k k j p p f p i j j G J J k p p p L Y Y Q O.O.+.+.+.O.O.O.O.O.O.O.O.O.O.+.+.+.+.O.O.O.O.O.O.O.O.O.$.O.O.O.+.+.+.+.;.=.+.+.=.=.=.+.+.+.+.+.+.+.O.O.O.O.+.O.O.O.O.O.O.O.O.O.O.O.O.O.+.+.+.+.+.+.+.+.+.+.+.+.+.=.=.=.=.=.=.-.-.-.-.-.-.=.-.-.-.-.=.=.=.=.=.=.=.=.=.=.=.=.=.=.=.-.=.=.-.-.=.-.-.-.-.-.:.-.-.d.g.a.a.g.a.,.>.>.%.%.*.%.+.O.+.*.<.*.*.*.+.*.*.*.*.*.%.+.+.+.*.+.O.O.&.&.*.&.O.Q $.$.T Y Y Y Y W E E W Y T T T T ~ ~ ~ ~ Q Q Q Q Q Q T T W E E E R R R R R W R W E E W R W Y H Y W R W W Q W W R R R ! ! ! ! R R R W W W W R W R R R W W W W Y Y T T T T E T T O.&.&.O.T T T Q O.O.+.=.=.=.=.=.-.-.-.-.-.=.=.=.=.=.=.-.=.-.=.=.=.=.=.=.+.+.+.+.+.+.+.+.+.O.O.O.O.O.O.O.O.O.O.T T T T O.O.T Y Y Y T T Q Q T T T Y T Y Y Y Y Y H Y Y Y Y Y H H H Y H H H ! H H H H K K J G J J k k k k k k k k k k k k j j j j j j j p p p p p p p i i i i i i i i 5 5 5 5 5 5 5 5 4 4 4 : ; # + + @ . + # , 8 4 : : : 4 4 : : : : ; ; ; ; ; ; : : 4 4 5 i p p j z k k k k ",
"O.O.O.O.T T T T T Y Y Y H H G k k j j p v p i p j k J J k p p p U H Y &.$.O.+.;.+.+.O.O.O.O.O.O.+.O.O.O.O.O.O.O.O.O.O.O.O.O.O.O.O.O.O.O.+.+.+.+.;.=.+.+.=.=.=.+.+.+.+.+.+.+.O.O.O.O.O.O.O.O.O.O.O.O.O.O.O.O.O.O.+.+.+.+.+.+.+.+.+.+.+.+.+.+.+.+.=.=.=.=.=.-.-.=.=.=.-.-.-.=.=.=.=.=.=.=.=.=.=.=.=.=.=.=.=.=.=.=.=.=.-.-.-.-.-.=.:.:.:.d.g.a.-.-.=.%.%.&.~ ~ ! ! ) ! ! / _ ! K R ! ! ) ! ) ! ! ! ! R ! ! P P P U U U J L U U L k z k z z I I L J k k k J J J J J J J J L L L z z z c b b b z c z b z z z c b z k c k k k b L b c I L c L b z b b I b L L L L L L b z b z z z J J I J k z L U L J J J K P ! ! P J J K P R W T $.O.+.+.=.-.-.-.-.-.=.=.=.=.=.=.=.=.=.=.=.=.=.+.+.+.+.+.+.+.+.+.+.+.+.+.O.O.+.+.+.O.O.O.T T T T T T T T Y Y Y T T T T T Y Y T T T Y Y H H H Y Y Y Y H H Y Y H H H R H H G H H K G G J J G k k k k k j k k j j j j j j j p p p p p p i i p p i i i i 5 i i 5 5 5 5 7 5 5 5 5 4 4 4 : ; # + @ @ . + $ 3 8 4 : : : 4 4 : : ; ; ; ; ; > ; ; : : 4 4 5 i i p j j j k k k ",
"O.O.O.O.O.T T E Y Y Y Y K H G k k j p p s s p p k k J L J j p p G R W T O.+.+.+.O.O.O.O.O.O.O.O.O.O.O.O.O.O.O.O.O.O.O.T T T T T O.O.O.O.O.O.+.=.=.=.=.=.=.=.=.=.+.+.+.+.+.+.+.+.+.+.O.O.O.O.O.O.+.+.O.O.O.O.+.+.+.+.+.+.+.O.O.O.O.O.O.O.O.O.+.O.+.+.+.=.=.=.;.;.=.=.=.=.=.-.=.=.=.=.=.=.=.=.=.=.=.=.=.+.+.=.=.=.=.=.=.-.-.-.-.-.-.:.:.-.-.-.-.;.*.~ ! L L j p p f p f p f p f p l l l l l l l l l l l f f f s s i i i i 5 5 5 5 5 5 5 5 5 5 a a 5 5 5 5 i i i i 5 5 5 5 5 5 5 5 4 4 4 4 4 4 4 4 4 4 5 5 4 4 4 4 4 4 4 4 4 4 4 5 5 5 5 5 5 5 5 5 5 5 5 5 5 5 5 5 5 5 5 5 7 7 a a a i i i i i i i i i p s f f f f h s p j k k U ~ O.+.+.=.-.-.-.-.=.=.=.=.=.=.=.=.=.=.=.=.=.=.=.=.+.+.+.+.+.+.O.O.+.+.+.O.O.O.O.O.O.O.T T T T T T T T T Q T T T T Q Q T T T T Y Y Y H Y H H H H H H H Y H Y H H H H H H G G H H G J G k k k k k k j k k j j j j j j j p p p p p p s p i i i s a 5 i i 5 5 5 5 4 4 5 5 5 5 5 4 4 : ; # + @ . @ $ ; : 4 4 : : : : : : ; ; ; ; ; ; # ; ; : : 4 4 5 5 p p p j j j k k ",
"O.O.$.O.O.T T T T Y Y Y K K G k k j p p s s p p k k J J z j i p k R Y Y $.O.O.O.O.O.O.O.O.O.O.O.O.O.O.O.O.O.O.O.O.O.O.T T T O.O.O.O.O.O.O.+.+.=.=.=.=.=.=.=.=.=.+.+.+.+.+.+.+.+.+.O.O.O.O.O.O.O.+.+.O.O.O.O.+.+.+.+.+.+.O.O.+.O.O.O.O.O.O.O.O.O.O.+.+.+.=.=.=.=.=.=.=.=.=.=.=.=.=.=.=.=.=.=.=.=.=.=.=.+.=.;.=.=.=.=.=.=.-.=.-.=.=.:.-.-.-.-.>.*.W G j i 5 4 : : : : : : : : : : : : : : : : : : : : : : : : ; ; ; ; ; ; ; ; ; # # # # # ; ; ; ; ; ; ; ; ; ; ; ; # # # # # # # # # # # # # # + # # # # # # # # # # # # # # # # ; ; ; ; ; ; ; ; ; ; ; ; ; ; ; ; ; # # # # # ; ; ; ; ; ; ; ; ; ; ; : : : : 4 8 4 : : : 4 4 5 i l L T +.+.=.-.-.-.-.=.=.=.=.=.=.=.=.=.=.=.=.=.+.+.+.+.+.+.+.+.+.+.+.+.+.+.O.O.O.O.O.O.O.T T T T T T T T T T T T T T Q Q Q T T T T Y Y H H H Y H H H Y Y Y Y Y H Y H H H H G G H H H K G G k k k k k j k k j j j j j j p p p p p p p i s p i i a a i 5 5 5 5 5 5 4 4 4 4 5 5 5 4 4 : ; # + @ . @ @ $ : 8 4 : : : 4 : ; ; ; ; ; ; # # # ; : : 4 4 5 5 p p p p j j k k ",
"$.$.O.O.T T T T Y Y Y H K G G k k j p p s s i p j k G J k p i p k R Y Y $.O.O.O.O.O.O.O.O.O.O.O.O.O.T T O.O.O.O.O.T T T T T O.O.$.O.O.O.O.+.+.=.=.=.+.+.+.=.+.+.+.+.+.+.+.+.+.+.O.O.O.O.O.O.$.O.O.O.O.O.O.O.+.+.+.+.+.O.O.O.O.O.O.T T O.T O.O.O.O.O.+.+.+.+.+.+.=.=.=.=.=.=.=.=.;.=.=.=.=.=.=.=.+.=.=.+.=.;.;.;.=.=.=.=.=.=.-.=.=.-.-.-.-.;.*.~ k p 4 ; # + @ + @ @ @ @ @ @ @ @ @ @ @ @ @ @ @ @ @ @ @ @ @ @ . . . . . . . . . . . . . . . . . . . . . . . . @ . . . . . . . .                   . . . . . . . . . . . . . . . . . . . . . . . . . . . . . . . . . . . . . . . . . . . . . . . . . . @ + + + @ @ @ @ + # ; : 9 l R O.+.=.;.-.=.=.=.=.=.=.=.=.=.=.=.=.+.+.+.+.+.+.+.+.+.+.+.+.+.+.O.O.O.O.O.O.O.O.O.O.T T T T T T T T T T T T T T T T T T T T T Y Y Y Y Y Y Y Y Y H H Y H H H H H H H H G G H H H G G G k k k k k j k k j j j j j j p p p p p p p i p s i i i a a 5 5 5 5 5 5 4 4 4 4 5 9 9 4 4 : > # + . . . + $ , : : : : : : : ; ; ; ; # # # # # ; ; : : 4 5 i i p p j j j j k ",
"$.$.O.T T T T T E Y Y H H G G k k j p p s a p p j k G J k p i p k K Y Y T $.O.O.T T T T T T O.O.O.O.T O.O.$.$.$.O.O.T T T T T O.O.O.O.O.O.O.+.+.=.=.+.+.+.+.+.+.+.+.+.+.+.+.+.+.O.O.$.O.O.T T T $.O.O.O.O.O.O.+.+.+.O.O.O.O.O.O.O.O.O.T O.O.O.O.O.O.+.+.+.+.+.+.=.+.+.+.=.=.=.=.=.=.=.+.+.=.=.=.+.+.+.+.+.=.=.=.=.=.=.-.=.=.-.-.=.=.-.-.=.>.&.! p 4 ; + .   . .                                                                                               .     . .                                                                                                                                 . . o         . + # : a R O.+.+.=.=.=.=.=.=.+.+.+.=.=.=.+.+.+.+.+.+.+.+.+.O.O.O.O.O.O.O.O.O.O.O.O.O.O.O.O.O.O.T T T T T T T T T T T T T T T T Y Y Y Y Y Y Y Y Y Y Y Y Y H H Y Y Y H Y H H H H G G G H H G G G G G k k k j j j j j j j p p p p p p p p p i i p i i i i i 5 5 5 5 5 5 4 4 4 5 7 7 9 4 4 : > # @ . . . + # : : : : : : : : ; ; > > # # # $ # ; ; : : 4 7 d i p p j j j j j ",
"T T T T T T T T T Y H H H G G k k j p p s s p p j k J L z p i p G ! Y Y T $.O.O.T T T T T T T T O.O.O.$.$.O.O.O.O.O.T T T T T T $.$.O.O.O.O.+.+.;.+.+.+.+.+.+.+.+.+.+.+.+.+.+.O.O.O.O.O.$.T T T $.O.O.O.O.O.O.O.O.O.O.O.O.O.O.O.O.O.O.O.O.O.+.+.+.+.+.+.+.+.+.+.+.+.+.+.=.=.=.=.=.=.=.=.=.=.=.=.+.=.=.+.+.=.=.=.-.=.-.-.-.-.-.-.=.=.-.=.=.%.E L 5 ; + . .     o                                                         X X X                                                 X                                                             o       X X X                                               o o o   o     . . + ; 5 P O.+.+.=.=.>.-.=.=.+.+.=.=.=.=.+.+.+.+.+.+.O.O.O.O.O.O.O.O.O.O.O.O.O.O.O.O.O.O.O.O.O.T T T T T T T T T T T T T Y Y Y Y Y Y Y Y Y Y Y Y Y Y Y Y H H H H Y H H H H H G G G H H H G G G G G k k k j j j j j j j j p p p p p p p i s i i i a i i 5 5 5 5 5 5 4 4 4 5 5 7 7 9 4 : : > # @ . . . @ + : : : : : : : : ; ; > ; # # # # # ; ; : : 4 9 d i p p j j j j j ",
"T T T T T T T T T Y H H H G G k j j p p s s p j k k J I z p i p k ! R Y T O.O.O.T T T T T T T $.$.$.$.$.O.O.O.O.O.O.T T T T T T T T T O.O.O.+.+.;.+.+.+.+.+.+.+.+.+.+.+.+.+.+.O.+.O.$.O.T T T T $.O.O.O.O.O.O.O.O.O.O.O.O.O.O.O.+.+.+.+.+.+.+.+.+.+.+.+.+.+.+.+.+.+.+.+.+.+.=.=.;.;.=.=.=.=.=.=.=.=.;.=.=.=.=.=.-.-.-.-.-.-.-.-.=.=.-.=.;.*.W b : # .                                                                                                                                                                                       o                                                           o o o o X X     . @ # 4 P O.*.%.>.>.>.1.=.+.+.+.+.+.+.+.+.O.O.+.+.+.+.+.+.+.+.+.+.+.+.O.O.T O.T T O.O.O.O.O.T T T T T O.O.T T T T T T T Y Y Y Y Y Y Y Y Y Y Y Y Y Y H H H H H H H H H H G G G G G G H H G G G G G G k k k z z j j j l j p p i i i i i i f i i i a a 5 5 5 5 5 5 5 4 4 4 4 4 5 4 4 4 : ; ; # + . . . + # : : : : 8 8 8 0 ; ; ; ; # # + # # ; ; : : 4 9 d i p p j j j j j ",
"T T T T T T T Y W Y H H G G G k j j p p a a p p k k J I z p i p k ! R Y T $.O.T T T T E T Q $.$.O.O.$.$.$.O.$.$.T T T T T T T T T T T O.O.+.+.+.=.+.+.+.+.+.+.+.+.+.+.+.+.+.+.O.+.O.O.$.$.T T T O.O.O.O.O.T O.O.O.O.O.O.O.O.O.+.+.+.+.+.+.+.+.+.+.+.+.+.+.+.+.+.+.+.+.+.+.+.+.+.=.=.=.=.=.=.=.=.=.=.;.=.=.;.-.=.-.-.-.-.-.-.-.-.=.=.-.=.>.&.P l : +         o o                                             X                   o                                                                                                                                                                         o o o o X     . @ # 4 J T &.%.>.>.>.>.=.+.+.+.+.+.+.+.+.O.O.+.+.+.+.+.O.O.O.O.+.+.O.O.O.O.O.T T T O.O.O.O.T T T O.O.O.O.O.O.T T T E E Y Y Y Y Y H H H Y Y Y Y Y Y H H H H H H H H H G k G G k G G G G G G G G G G k k j j j j j j j j p p i i i i i i s i i i i i 5 5 5 5 5 5 5 4 4 4 4 4 4 4 4 4 : : ; # + . . . @ + : : : : 4 8 8 0 : ; ; > # # # # # ; ; : : 4 9 a i i p j j j j j ",
"T T T T T T T Y Y Y H H G G k k k j p p a i p p j k J L z p i p k P R Y Q $.T T T T T T T T T $.$.O.T O.T T T T T T T T T T Q O.T T T O.O.+.+.+.=.=.+.+.+.+.+.+.+.+.+.+.+.+.+.O.+.+.O.O.$.T T T #.O.O.O.O.O.O.O.O.O.O.O.O.O.+.+.+.+.=.=.=.+.=.+.+.+.+.+.=.=.=.+.+.+.+.+.+.+.+.+.=.=.=.=.=.=.=.=.+.=.=.=.=.=.;.=.=.=.=.=.-.-.-.-.-.-.-.;.%.&.P p : #     X   o o                                                         o o                                                             o o                                                                                                                     o X     . @ # 4 z Y $.%.%.>.=.>.=.=.+.+.+.+.+.+.O.+.+.+.+.+.+.+.O.O.O.O.O.O.O.O.O.O.O.O.O.T O.O.O.O.O.O.O.O.O.O.O.O.O.T T T E E Y Y Y Y Y Y Y H Y Y Y Y Y H H H H H H H H H G G k k G G G G H G G G G G G G k k j j j j j j j p p p p i i i i i s i i a i 5 5 a 5 5 5 5 4 4 4 4 4 4 4 4 4 4 : : > $ + . . . + # ; : : : : : : : , ; ; ; # # # # # # ; : : 4 9 5 i i p p j j j j ",
"Q T T T O.Q T Y Y Y H K J G k k j j p i i i i p j k L I b p i p k H R W T T O.O.T T T T T T T T $.$.T T T T T T T T T T T T O.O.T T T O.O.+.>.,.>.=.=.=.+.+.+.+.+.+.+.+.+.+.+.+.+.+.O.O.O.O.T O.O.O.O.+.+.+.O.O.O.+.+.O.O.O.+.+.+.=.=.=.=.=.=.=.=.=.+.+.+.+.+.+.+.+.+.+.+.=.=.=.=.=.=.+.=.=.=.=.=.=.=.+.=.=.=.=.+.+.=.=.=.=.-.-.-.-.-.=.#.~ J p ; @                                                                                                                                                                                                                                                                     . . + : j R Q $.+.=.-.-.-.=.=.=.+.+.+.+.+.+.+.+.+.+.+.+.=.+.+.+.+.+.O.O.O.O.+.+.%.+.O.O.O.T T O.*.+.O.O.O.T T T Q T T Y Y Y Y W W Y Y Y Y Y Y Y Y Y Y H R H H H H H H G H H H G G G H H H G G G G G k k k j j j j j p p p p p p p p i i i i i i 5 5 5 a 4 4 4 4 4 5 9 4 4 4 4 4 4 8 8 : > # + @ . @ + # : : : ; : : ; ; ; ; ; > # # # # # # ; , : : 5 d i i p p p j j j ",
"Q T T T Q Q T Y Y H H H K J G k j j p i i i p p j k L I x p i p k G K W T T T O.T T T T T T $.$.T T T T T T Y Y Y Y T T T T $.$.T T T O.O.+.>.>.>.=.=.=.+.+.+.+.+.+.+.+.+.+.+.+.+.+.+.O.O.O.O.O.O.O.+.+.+.+.O.O.O.O.+.O.O.O.+.+.+.=.=.=.=.=.=.=.+.=.+.+.+.+.+.+.+.+.+.+.=.=.=.=.=.=.=.+.=.=.=.=.=.=.=.=.=.=.+.+.+.+.=.=.=.=.=.=.-.-.-.=.#.E J i ; @                                                                                                                                                                                                                                                                     . . + : j R T T %.=.-.-.-.-.=.=.=.+.+.+.+.+.+.+.=.=.=.=.=.=.+.+.+.O.O.O.O.O.+.+.+.+.+.O.O.O.O.+.%.+.O.O.O.T T T Q Q T Y Y Y Y Y Y Y Y Y Y T T T T W W Y Y H H H H H H H H H H G G G H H H G G G G G k k k j j j j j p p p p p p p p i i i i i i 5 5 5 5 5 4 4 4 4 5 9 4 4 4 4 4 4 4 8 : > # + @ @ @ + # ; : : ; ; : ; ; # # # # # # # # # # ; ; : : 5 a i p p p p p j j ",
"O.T T T T T Y Y Y H H H J J G k j p p i i i i p j c L c j i 5 i k G H Y T T T T T T T T T T $.T T T T T T T Y Y Y Y T T T T T T Y T T T $.+.+.>.=.=.=.+.+.+.+.+.+.+.+.+.+.=.+.=.+.+.+.+.O.O.O.O.O.+.+.+.+.+.+.O.O.O.O.O.O.O.+.+.+.=.=.=.=.=.=.=.+.+.+.+.+.+.+.+.+.+.+.+.+.=.=.=.;.;.=.=.=.=.=.=.=.=.=.=.=.=.+.+.+.+.+.=.=.=.=.=.-.-.-.=.O.E k i ; @                                                                                                                                                                                                                                                                     . . + : j H T T %.=.-.-.-.-.=.=.;.;.=.=.+.+.+.+.=.=.=.=.=.+.+.+.+.O.O.O.O.O.+.+.+.+.O.O.O.O.O.+.+.O.O.O.O.T T T O.Q T Y Y Y Y Y Y Y Y Y Y Y Y W T W Y Y H H H H H H H H G G H G G G H H H G G G G G k k k j j j j p p p p p p p p p p i i i i i 5 5 5 5 5 5 4 4 5 5 9 4 4 4 4 : 4 4 8 1 ; # + . . @ @ # ; ; : ; ; : ; ; # # # # # # # # $ # # ; : 4 5 i i p p p j p j j ",
"O.Q T T T T Y Y W Y H H G G k k j p p i i i p p j c c c p i 5 i j G H Y T T T T T T T T T T $.O.T T T T T T T Y Y Y T T T T T T Y T T T O.O.+.;.+.+.+.+.+.+.+.+.+.+.+.+.=.=.=.;.+.+.+.+.O.O.O.O.O.+.+.+.+.+.+.O.O.O.O.O.O.O.O.+.+.=.=.=.=.=.=.=.+.=.+.+.+.+.+.+.=.+.+.+.=.=.=.=.;.;.=.=.=.=.=.=.=.=.=.=.=.=.+.+.+.+.+.+.=.=.=.=.-.-.-.=.O.E k i ; @                                                                                                                                                                                                                                                                     . . + : j H T T %.=.-.-.-.-.=.=.;.=.=.=.+.+.+.+.=.=.=.=.=.+.+.+.+.+.O.O.O.+.+.+.+.+.O.O.O.O.O.O.O.O.O.O.$.T T T O.O.T Y Y Y Y Y Y Y Y Y Y Y Y W W Y Y Y H H H H H H H H G G H H H H H H G G G G G G k k k k k j j p p f p p p p p p p p p i i i i 5 5 5 5 5 4 4 5 5 9 4 4 : : : : : : 3 ; # @ . . @ @ # ; ; ; ; ; ; ; ; ; > > > > # # # < # # ; : 4 5 5 i p p p j p p j ",
"Q Q T T T Y Y Y W R K K G G k k j p i i i i i p x c c c p i 5 i j G H Y T T T T T T T T O.$.$.O.T T $.O.O.Q T T T T T T T T T T Y T T T O.$.+.+.+.+.+.+.+.+.+.+.+.+.+.+.+.+.+.;.+.+.+.+.O.O.O.O.O.+.+.+.+.+.+.+.O.O.O.O.O.O.O.+.+.=.=.=.=.+.+.+.+.=.+.+.+.+.+.+.=.=.=.=.=.=.=.=.;.=.-.=.=.=.=.=.=.=.+.+.=.=.+.+.+.+.+.+.+.=.=.=.-.-.-.=.O.E k i ; @                                                                                                                                                                                                                                                                     . . + : j K T T %.=.-.-.-.-.-.-.=.=.=.;.=.+.+.=.=.=.=.=.=.=.+.+.+.+.O.O.+.+.+.+.+.+.+.+.+.O.O.O.O.O.O.O.O.O.T T Q O.T T T Y Y Y Y Y W T T T T T T W Y Y Y H H H K K K K H H H H H H G G G G G G G J G k k k k j j p p f p p p p p p p p i i i i i 5 5 5 5 4 4 4 4 4 4 4 4 : : : : : : 3 # + @ . . . @ $ ; ; ; ; ; ; > # ; > ; ; > # # ; < ; ; ; : 4 5 5 p p p j j p p p ",
"T T T T T Y Y Y Y H H G G J G k j p i i 5 i i p x b b x p i 5 i j G G Y T T T T T T T O.$.$.O.O.$.$.O.O.O.T T T T T T T T T T T Y Y T T T O.O.+.O.O.+.O.+.+.+.+.+.+.+.+.+.+.+.=.+.+.+.O.O.O.O.O.+.+.+.+.+.+.+.+.O.O.O.O.O.O.O.O.+.=.=.=.+.+.+.+.=.;.=.+.+.+.+.+.=.=.=.=.=.=.=.=.=.=.=.=.=.=.=.=.=.=.+.+.=.=.+.+.+.+.+.+.+.=.=.=.-.-.-.=.O.E G i ; @                                                                                                                                                                                                                                                                     . . @ : j K E Q +.=.=.-.-.-.-.-.=.=.=.=.=.+.=.=.=.=.=.=.=.=.+.+.+.+.+.O.+.+.+.+.+.+.+.+.+.O.O.O.O.*.O.O.O.T T T T Q T T T T Y Y Y Y W T T T T W Y Y Y Y H H H H H K K K H H H H H H G G H G G G J J J J k k k j j j p p p p p p p p p p i i i i i 5 5 4 5 4 4 4 4 4 4 4 4 : : : : : : > $ # @ . . . @ + ; ; ; # ; > ; # # # ; ; # # # # < ; ; ; : 8 5 5 i p j j j j p p ",
"T T Q Q T Y Y Y Y H H G G G J k j p i i 5 5 i i x b b j p i 5 i z G H Y T O.T T T T T O.O.$.O.O.$.O.O.O.T Q T T T T T T T T T T Y Y T T T T O.+.O.O.O.O.O.+.+.+.+.+.+.+.+.+.+.+.+.+.+.O.+.O.O.+.+.+.+.+.+.+.+.+.O.O.O.O.O.O.O.O.+.=.=.=.=.+.+.+.+.=.=.+.+.+.+.+.=.=.=.=.=.=.=.=.=.=.=.=.-.-.=.=.=.=.+.+.=.=.=.+.+.+.+.+.+.=.=.-.-.-.=.+.O.E G i ; @                                                                                                                                                                                                                                                                       . @ : j K E O.%.=.=.-.-.-.-.-.=.=.=.=.=.+.=.=.=.=.=.=.;.=.+.+.+.+.+.O.+.+.+.+.+.+.+.+.O.O.O.O.O.+.O.O.O.T T T T T T T T T T Y Y Y Y Y Y Y Y Y Y Y Y Y H H H H H H H H K H G G H G G G H G G G J J J k k k j j j j j p p p p p p p p i i i i i i i 5 4 5 4 4 4 4 4 4 4 : : : 4 8 : : > $ + . . . . @ + # ; ; # ; > > # # # # # # # # # ; ; ; ; : 4 5 5 i p j j j j j j ",
"T T Q T T Y Y Y R K H G G G k k j p i i 5 5 i i x b b j p i 5 i z G H Y T O.T T T T T O.O.$.O.O.O.O.T T T T T T T T T T T T T T Y Y Y T T T O.O.O.+.O.O.+.+.+.+.+.+.+.+.+.+.=.=.+.+.+.+.+.+.+.+.+.+.+.+.O.O.+.+.+.O.O.O.O.O.O.O.+.+.=.+.+.+.+.+.+.+.+.+.+.=.=.+.=.=.=.=.=.=.=.=.=.=.=.=.-.-.=.=.=.=.+.+.=.=.=.+.+.+.+.+.+.=.=.-.-.-.=.+.O.W G i ; @                                                                                                                                                                                                                                                                       . @ : j R E O.%.=.=.=.-.-.-.=.=.-.-.=.=.=.=.=.=.=.=.=.;.;.+.+.+.+.+.O.O.O.O.O.O.+.+.+.O.O.O.O.O.O.O.O.O.T T T T T T T T T Y Y Y Y Y Y Y Y Y Y Y Y W R H H H H G G G H K H G G G G G G G G G k k k k k k k j j j j j p p p p p p p p i i i i i a a 5 4 7 4 4 4 4 4 4 4 : : : : 8 : ; > $ # . . . . . + # # # # ; > > > # # > > # # # # # ; ; ; : 4 5 5 i p j j j j j j ",
"O.T T T E Y Y H H H K K G k k k j p i i 5 5 i i l b b x p 5 5 i j G H R T T T T T T T T T $.O.T T T T T $.T T T T T T T T T T T T E E E Q O.O.T O.O.O.O.O.O.+.O.+.O.O.+.+.+.+.+.+.+.+.+.O.O.O.O.O.+.+.+.+.+.+.O.+.+.O.O.O.O.O.O.O.+.+.+.+.+.=.;.;.=.=.+.+.+.+.+.=.=.=.=.=.=.=.=.=.=.=.=.=.=.=.=.=.=.=.=.;.=.+.+.+.+.=.+.=.+.=.=.-.-.=.=.#.E J s ; @                                                                                                                                                                                                                                                                       . + : j H E @.;.;.=.-.-.-.=.-.-.-.-.-.=.=.=.=.=.=.=.=.=.=.+.+.O.+.O.O.O.O.O.O.O.O.O.O.O.O.T T O.O.O.O.T T T T T T T Y Y T T T T T T Y Y Y Y Y Y H H H H H H H H H G G G H G G G G G G G G G k k k k k k k j j j j p p p p p p p p p p i i s f a 5 4 4 4 4 4 4 4 4 4 4 : : : : : : , > # @ . . . . @ + ; # # # ; > ; # # # ; $ # + # # # # ; : : 4 5 i i p p p j j j p ",
"O.T T T Y Y Y H H H K K G G k k j p i i 5 5 i i x c c x p i 5 i j G H Y Y T T T T T T T T T $.T T T T Q O.$.O.T T T T T T T T T E Y Y Y T T T T O.O.O.O.O.O.O.O.+.O.O.O.+.+.+.+.+.+.+.+.O.O.+.O.+.+.+.+.+.+.O.O.+.+.O.O.O.O.O.O.O.+.+.+.+.+.+.=.+.+.+.+.+.+.+.+.=.=.=.=.=.=.=.=.=.=.=.=.=.=.=.=.=.=.=.=.=.=.+.+.+.+.=.=.=.=.=.=.-.-.=.=.#.E G p ; @                                                                                                                                                                                                                                                                       . + : z R E @.;.=.=.=.-.-.-.-.-.-.-.-.=.+.+.+.+.+.=.+.=.=.+.+.O.+.+.O.O.O.O.O.O.O.O.O.O.O.T T O.O.O.O.Q T T T T T T T Y Y T T T T Y Y Y Y Y Y Y Y Y H H H H G H H G G G G G G G G G G G k k k k k k k k k k j j j j p p p p p p p p p i i i i 5 5 4 4 4 4 4 4 4 4 4 : : , : : : : , > # + . . . . @ + $ # # # > > ; # # # < ; # + # # + # ; : : 4 5 i i p p j j j j p ",
"O.T T Y Y Y H H G G K J G G G k j p i i i i i i x c c j p i 5 i k G H Y Y T T T T T T T T T $.T T T T T O.O.O.O.O.O.T T T T T T Y Y Y Y T T T T O.O.O.O.O.+.+.O.+.O.O.O.+.+.+.+.+.+.+.+.+.+.+.+.O.O.+.+.O.O.O.O.+.O.O.O.O.O.O.O.+.+.+.+.+.+.+.+.+.+.+.+.+.+.+.+.=.=.=.=.=.=.=.=.=.=.=.=.=.=.=.=.=.=.+.+.+.+.+.+.+.+.=.=.=.=.=.=.-.-.=.=.#.E k i ; @                                                                                                                                                                                                                                                                     . . + : z R E @.;.=.=.-.-.-.-.-.-.-.-.-.+.+.+.+.+.+.+.+.+.+.+.+.O.O.O.O.O.O.O.O.O.O.O.O.O.O.T O.O.O.O.O.Q Q T Q Q Q Q T T Y T Q Q Y Y T Y Y Y Y Y Y H H H H G G G G G G G G G G G G G k k k k k k z k k k k k k j j j p p p p p p p p p p i i 5 5 5 4 4 4 4 4 4 : : : : : , 8 : 4 : , ; $ + . . . . % $ $ # # # $ ; $ # # $ < < $ + # + + # ; ; : 4 4 5 i p p p j j j p ",
"O.T T Y Y Y H H G G J J G G G k j p p i i i i i x c c j p p i i z H H Y T T T T T T T T T T T T T T T T T O.O.O.O.O.O.T T T T T Y Y Y Y T T T T O.O.O.O.O.+.+.O.+.+.O.O.+.+.+.+.+.+.+.+.+.+.+.+.O.O.O.+.O.O.O.O.O.O.O.O.O.O.O.O.+.+.+.+.+.+.+.+.+.+.=.;.;.;.=.=.+.+.=.+.=.+.+.=.+.+.=.=.=.=.=.=.=.=.=.=.+.+.+.+.+.+.=.=.=.=.=.=.-.-.=.=.#.E G i ; @                                                                                                                                                                                                                                                                     . . + : k Y T O.<.;.=.-.-.-.-.-.-.-.-.=.=.+.=.=.=.=.=.=.+.+.+.+.O.+.O.O.O.O.O.O.O.O.O.O.O.O.T O.O.O.O.O.T T T T T T T T &.T T Q ~ Y Y Q Y Y Y H H H H H H G G G G G G G G G G G G G k k k k k k k k k k k k k k z j j j p p p p p p p p f i i 5 5 5 5 4 4 4 4 4 4 : : : : : 6 : : : ; # $ # @ . . . % $ # # # # > $ # # # $ < * $ + + + + # # ; : : 4 5 i i p p p p p p ",
"O.T T Y Y Y H H H G G J J J G k j j p i i i i i x c c j j p i p J K R T T O.O.O.T T T E T Q T T T T T T T O.O.O.O.O.O.T T T T T Y Y Y T T T T T O.O.O.O.O.+.+.+.+.+.O.+.+.+.+.+.+.+.+.+.+.+.O.O.O.O.O.+.O.O.O.O.O.O.O.O.O.O.O.O.O.O.O.+.+.+.+.+.+.+.=.;.;.;.=.=.+.+.+.+.+.+.+.+.+.+.+.+.+.=.=.;.=.=.=.=.+.=.+.=.+.+.=.=.=.=.=.=.-.-.=.=.#.E J s ; @                                                                                                                                                                                                                                                                     . . + : k Y O.+.<.;.=.-.-.-.-.-.-.-.-.-.=.=.=.=.=.=.;.;.+.+.+.+.O.+.+.O.O.O.O.O.O.O.O.O.O.O.O.O.O.O.O.O.T Y Y T T T Y Y &.T T Q Q Y Y T T Y Y Y Y Y Y R H G G G G G G G G G G G G G k k k k k k k k k k k k k k k j j j p p p p p p p p f i i i i 7 5 4 4 8 8 8 8 : : : ; : 6 8 : : ; # $ # @ . . . @ & # ; # # # # # # + + $ $ @ @ @ + $ # # # ; : 4 5 i i p p p p p p ",
"T T T T Y Y H H H G G J J J G k j j p i i i i p j c c c j i i p J K W T T O.O.T T T E E T T T T T T T O.O.O.O.O.O.O.O.T T T T T Y Y T T T T T T O.O.O.O.+.+.+.O.+.+.O.O.+.+.+.+.+.+.+.+.+.+.O.O.O.O.O.+.O.O.O.O.O.O.O.O.O.O.+.O.O.O.O.+.+.#.;.+.+.+.+.+.+.+.+.+.+.+.+.+.+.+.+.+.+.+.+.+.+.+.=.;.+.=.+.+.+.+.+.+.+.+.=.=.=.=.=.=.-.-.=.=.#.E J s ; @                                                                                                                                                                                                                                                                       . + : G T @.#.<.=.=.-.-.-.=.-.-.-.-.-.=.=.=.=.=.=.+.+.+.+.+.+.+.+.+.O.O.O.O.O.O.O.O.O.O.O.O.O.O.O.O.T T T T T T T T Y Q Y Y T T Y Y T T W W W Y R R R K H H H H K G G G G G G G k k k k k k k k k k k k k k k k j j j p p p p p p p p p i i i i 5 5 4 4 8 8 8 8 8 : : : : 6 8 4 : ; # # # @ . . . + $ ; ; # # # # # # + + + + @ @ @ @ $ # # # ; : 4 5 i i p p p p p p ",
"T T T T Y H H H H G G J J J G k k j p i i i i p j c c c j p i p J H W T $.O.O.T O.T T E T T T T T T O.O.O.O.O.O.O.O.O.T T T T T T T T T T T T T O.O.O.O.+.+.+.O.+.O.O.O.+.+.+.+.+.+.+.+.+.+.O.+.+.+.+.+.+.+.O.O.+.O.O.O.O.+.O.O.+.O.O.O.+.+.+.+.+.+.+.+.+.+.+.+.+.+.+.+.+.+.+.+.+.+.+.+.+.+.=.;.=.=.=.=.=.=.+.+.+.=.;.;.=.=.=.-.-.-.=.=.O.Y k i ; @                                                                                                                                                                                                                                                                       . + : G Q O.+.<.-.=.-.=.=.=.=.-.-.-.-.=.=.=.=.+.+.+.+.+.+.+.+.+.+.+.+.+.O.O.O.O.O.O.O.O.O.O.O.O.O.O.T T T T T E E T Y T T Y Y Y Y Y Y Y Y Y Y Y Y H H K H H H H K J J G G G G G k k k k k k k k k k k k k k k k j j p p p p p p p j p p i i i 5 5 4 4 4 8 8 8 8 4 : : : : 0 8 : : : ; # + @ . . . @ $ # ; ; ; # # # # + + + @ @ . . @ + + # # : 4 4 5 i i p p p p p p ",
"T T Q T Y H H H H H H K J J G k k j p i i i i p j c L c p i i p J K W Q $.$.O.T O.Q T E T T T T T T T O.O.O.O.O.O.O.O.O.T T T T T T O.O.T T T O.O.O.O.O.O.+.O.O.O.O.O.O.+.+.+.+.+.+.+.+.+.+.+.+.+.+.+.+.+.+.+.O.+.O.O.O.O.O.O.O.+.+.O.O.+.+.+.+.+.+.+.+.+.+.+.+.+.+.+.+.+.+.+.+.+.+.+.+.+.+.+.;.=.=.=.;.;.=.=.=.+.;.;.;.=.=.=.-.-.-.=.=.O.Y k i ; @                                                                                                                                                                                                                                                                       . + : k E O.+.1.-.=.-.=.=.=.=.-.-.-.-.;.;.=.=.+.+.+.+.+.+.+.+.+.+.+.+.O.O.O.O.O.O.+.+.O.O.O.O.O.O.O.T T Y T Y T T Y Y T Q T Y Y T T Y Y Y Y Y Y H H H H H H H H H G G G G G G G k k k k k k k k k k k k k k j j j j p p p p p p p p p p i i i 5 5 4 4 4 4 4 8 4 : : : ; : 6 4 : : ; ; # + @ . . . @ + # ; ; ; # # # # # + + @ . . . . @ + # ; , 6 4 4 5 i p p p p p p ",
"T Y Y Y Y Y Y H H H H G G G k k k j p i i 5 i p x c c x p i 5 i L ! R W T T $.T Q T T T T T T T T O.O.T T O.O.T T O.O.O.O.O.O.O.O.T T T O.O.O.O.O.O.+.+.O.O.O.O.+.O.O.O.+.+.+.+.+.+.+.+.+.+.+.+.+.+.+.+.+.+.+.+.+.+.+.+.O.O.O.O.O.O.+.+.+.+.+.+.+.+.+.O.+.+.+.+.+.+.+.+.=.=.+.+.+.+.+.+.+.+.;.+.+.+.+.=.;.;.=.+.=.=.=.=.=.=.=.=.-.=.=.+.+.T J i ; @           .                                                                                                                                                                                                                                                 X         . + : j R @.+.,.-.=.=.=.=.-.-.-.=.=.+.+.+.+.+.+.+.+.O.O.O.O.+.+.+.+.+.+.O.O.O.O.O.O.O.O.O.T T T T T T T Q Q T T T T Y T T T T T Y Y Y W Y Y H H Y Y H H H H H H H H G G G G J G G G k k k k k j j j k k k k j j j j p p p p p i i i i i i a a i 5 5 5 8 4 4 : : : : : : : : : : : : ; $ + . . . . . @ ; ; # # # > ; $ $ # + + @ @ . . @ + # > ; : 4 5 a 5 i s s p i p ",
"Y Y Y Y Y Y Y Y Y H H G G G G k j p i i i 5 i i x x c x p i 5 i z K R Y Y T T T T T T T T T T T T O.O.T T O.T T T O.O.O.O.O.O.O.O.T T O.O.O.O.O.O.O.O.+.O.O.O.O.O.O.+.+.+.+.+.+.O.O.+.+.+.+.+.+.+.+.+.+.+.+.+.+.+.+.+.+.O.O.O.O.O.O.O.O.+.+.+.+.+.+.O.O.+.+.+.+.+.+.+.+.=.=.+.+.+.+.+.+.+.+.=.+.+.+.+.=.;.;.=.+.=.=.=.=.=.=.=.=.;.;.=.+.+.~ J i ; @         . .                                                                                                                                                                                                                                                 X       . . + : j R O.+.-.-.=.=.=.=.-.-.-.=.=.+.+.+.+.O.+.+.+.+.+.+.+.+.+.+.+.+.+.+.O.O.+.+.O.O.O.O.T T T T T T T Q Q T T T T Y T Y Y Y Y Y Y Y Y H H H H H H H H H H H H H H H G G G G G G k k k k k j j j j j j j j j j j p p p p p i i i i i i i a a 5 5 5 5 4 4 4 : : : : : : : : : : : ; ; # @ . . . . . @ # # # # # # # # # + + @ @ . . . @ + # # ; : 4 4 5 5 i a s p i p ",
"Y Y Y Y E Y Y Y Y H H G G G G z j p i i 5 5 5 i x x c x p 5 5 i k H H Y Y T T T T W Y Y T T T T T T T T T O.T T T O.O.O.O.O.O.T T T T T O.O.O.O.O.O.O.O.O.O.O.O.O.O.O.O.+.+.+.O.O.O.O.O.O.O.+.+.O.+.+.+.O.O.O.+.O.O.O.O.O.O.O.O.T O.O.O.+.+.+.+.+.+.O.O.+.+.+.+.+.+.+.+.=.=.+.+.+.O.+.+.+.+.;.+.+.+.+.+.;.;.=.+.=.=.=.=.=.-.=.=.=.=.=.+.O.T z i ; .         o .                                                                                                                                                                                                                                                 X     . . . + : j R O.+.=.-.=.=.=.=.-.-.-.=.=.+.+.+.+.+.+.+.+.+.+.+.+.+.+.+.+.+.+.O.O.+.O.O.O.O.O.O.O.$.O.T T T T T T T T T T T Y Y Y Y Y Y Y Y Y Y H H H H H H H H H H H H H G G G G G G G k k k k k k j j j j j j j j j j p p p p p p i i i i i i i 5 5 5 5 5 4 4 : : : : : : : : : : : : ; ; # @ .     . . @ # # # # # # # # # + + @ @ . . . + + # # ; : 4 4 5 5 i a s p i i ",
"Y Y E E E E Y Y Y H H G G G G k j p i i 5 5 5 i x x x x p 5 5 i k H H Y Y T T Q T W Y Y Y T T T T T T T T T T T O.O.O.O.O.O.O.O.T T T T O.O.O.O.O.O.O.O.+.+.O.O.O.O.O.O.+.+.O.O.O.O.O.O.O.O.O.O.O.O.+.+.O.O.O.O.O.O.O.O.O.O.O.O.O.O.O.O.+.+.+.+.+.+.+.+.+.#.+.+.+.+.+.+.=.=.+.+.+.+.+.=.+.+.;.+.+.+.+.+.=.=.=.+.=.=.=.=.-.-.-.=.=.=.+.+.O.T k i # .         o                                                                                                                                                                                                                                                   X     . . . + : l R @.+.>.-.=.=.=.=.-.-.-.=.+.+.+.+.+.+.+.+.+.+.O.O.O.O.O.O.O.O.O.O.O.O.O.O.O.T O.O.O.O.T T T T T T T T T T T T Y Y Y W W Y Y Y R Y H H H H H H H H H H H H H G G G G G G G k k k k k k k k k j j j j j j j p p p p p p i i i i i i i 5 5 5 5 5 4 4 : : : : : ; : : : : : : ; ; # @ .     . . @ # # # # # # # # + + + @ . . . @ % + # # ; : 4 4 5 5 i a f s p p ",
"Y T T Q E Y Y Y Y H H G G G G k j p i 5 5 5 5 i f x x x i 5 5 i k G H R Y T T Q T W Y Y T T T T O.T T T T T T T T T T T O.O.T T T T T T T T O.O.O.O.O.O.O.+.+.O.O.O.O.O.O.O.O.O.O.O.O.O.O.O.O.O.O.O.O.+.O.O.O.O.O.O.O.O.O.O.O.T O.O.O.+.+.+.+.+.+.+.+.+.+.+.+.+.+.+.+.=.=.=.+.+.+.+.+.;.+.+.;.+.+.+.+.+.+.+.=.+.=.=.=.=.=.-.-.=.;.;.=.+.+.E J i # .                                                                                                                                                                                                                                                                     . . + : l R @.+.>.-.=.;.=.=.-.-.-.=.+.+.O.+.+.O.O.+.+.+.O.O.O.O.O.O.O.O.O.O.O.O.O.O.O.T O.O.O.T T T T T T T T T T T T T E Y Y Y T Y Y H R H H H H H H H H G H H H H H G G G G G G k k k k k k k k k k j j j j j j j p p p p p i i i i i i i 5 5 5 5 5 4 4 4 : : : : : ; : : : : : : ; ; # @ . . . . . @ + + # + # + # + + + @ @ . . . . % + + # > : : 4 5 5 a a f f p p ",
"Y T Q Q T Y Y Y Y H H H G G k k j i i 5 5 5 5 i f x x j i 5 5 i k G H Y Y Y T T T W Y Y Y T T T Q T T T T T T T T T T T O.O.O.T T T T T T T O.O.O.O.O.O.O.O.+.O.O.O.O.O.O.O.O.O.O.O.O.O.O.O.$.$.O.O.O.O.O.O.O.O.T T O.T O.O.T T O.O.O.O.+.+.+.+.+.+.+.+.+.+.O.O.+.+.+.=.+.=.+.+.+.+.+.=.+.+.=.+.+.+.+.+.+.+.=.+.=.=.=.=.-.=.-.=.=.=.+.+.@.E z i # .                                                                                                                                                                                                                                                                     . . + : j R Q +.=.=.=.=.=.=.=.-.=.=.+.+.O.+.+.O.O.O.+.+.O.O.O.+.O.O.O.O.+.+.+.+.O.O.O.O.O.O.T T T T T T T T T T T Y Y T T Y Y Y Y Y H H K K H H H H H G G G H H H G G G G G G G G G G G k k k k k k k j j j j j j j p p p p p i i i i i i 5 5 5 5 5 5 4 4 4 : : : : : ; : : : : : : ; ; $ + . . . . . % + + + + + + + + @ @ . . . . . . @ @ + # # ; : 4 5 i a i s f p p ",
"T T Q Q T Y Y Y Y Y H H K G k j p i 5 5 5 4 5 i f x x l i 5 5 i k G H R W Y T T T Y Y Y Y T T T T T T T T T T T T T T T T T T T T T T Y Y T T T T T O.O.O.O.O.O.O.O.O.T O.O.O.O.O.O.T T T T T T T O.O.O.O.O.O.O.T T T T T T T T T O.O.O.+.+.+.+.+.+.+.+.+.+.O.O.+.+.+.=.+.+.+.+.+.+.+.;.+.+.+.+.+.+.+.+.+.=.=.=.=.=.=.=.=.;.=.=.+.+.+.+.O.R k 5 # .   X                                                                                                                                                                                                                                                                 . . + : p K Q +.;.;.=.=.+.+.=.=.=.=.+.+.O.+.+.O.O.O.O.O.O.O.+.+.+.O.O.+.+.+.O.O.O.O.O.O.O.T T T T T T T T T T T T Y Y Y E Y Y Y Y H H H H H G G G G G G G G G H K G G G G G G G G G J J k k k k k k j j j j j j j j p p p i i i i i i i i 5 5 5 5 5 5 4 4 4 4 : : : : ; : : : : : : ; # # @ . . . . . @ + + + + + + + + @ @ . . . . . . . @ + # # ; : 4 5 a a i i s p i ",
"T T Q T Y Y Y Y Y Y H K P G k j p i 5 5 4 4 5 i f x x x i 5 5 i z G H W T Y T T Y Y Y Y Y Y T T O.T T T T T T T T T T T T T T T T T T Y Y Y T T T T O.O.O.O.O.O.O.O.T T T O.O.O.T T T T T T T T T T O.O.O.O.T O.T T T T T T T T T O.O.O.+.+.+.+.+.+.+.+.=.+.+.+.+.+.+.=.+.+.+.+.;.+.;.;.+.+.=.+.+.+.+.+.+.=.=.=.+.+.=.=.=.=.=.=.+.+.+.+.@.R k 5 # .   X X                                                                                                                                                                                                                                                               . . + : p K &.+.<.>.;.#.+.+.=.=.=.=.+.+.O.O.+.O.O.O.O.O.O.O.O.O.O.O.O.O.+.O.O.O.O.O.O.T T T T Q O.T T T T T T T T Y Y Y ~ W Y Y Y Y H H H G G G G G G G G G G H J J G G G G G G G G J J G G J J z k k j j j j j j p p p p i i i i i i i 5 5 5 5 7 7 5 4 4 4 : : : : : : : ; : : : : ; # # @ .     . . . + + + + $ $ # + @ @ @ . . . . . . @ + # # ; : 4 5 5 5 5 i p p i ",
"T T T T T Y Y Y Y H H G G G J c p i 5 5 5 5 5 5 p p x x p 5 5 i z H R W T T Y Y Y Y Y Y Y Y T T T Y T T T T T T T T T T T T T T T Y Y Y Y T T T T O.O.O.O.O.+.O.O.T T O.O.O.O.T O.T T T T T T T T T T T T T T T T T T T T T T T O.O.O.O.+.+.+.+.+.+.+.+.+.+.+.+.+.=.;.;.;.+.+.+.+.+.+.+.+.+.+.+.=.+.+.+.=.;.=.+.=.=.=.;.=.=.=.=.+.+.+.O.*.R L 5 # .   X X                                                                                                                                                                                                                                                       X       . . @ ; s K E +.+.=.=.+.+.+.=.=.=.=.+.O.O.O.O.O.O.O.O.O.O.O.+.+.+.+.O.O.O.O.O.O.T T O.T O.T T T Q Q T T T T T T Q T Y Y Y Y Y W Y H H H G G G G G G G G G G G G G G K K G J G k k G J G k k z z k k k k j j j j j j j p p i i i i i i i i 5 5 5 5 5 5 4 4 4 : : : : : : : ; : : : : ; # + . .     . . . . @ @ @ + + + + . . . . . . . . . @ + # # ; : 4 5 5 i i i s p i ",
"T T T T T T Y Y Y H H G G G z z p i 5 5 5 5 5 5 f x x x s 5 5 i k G K R Y Y Y Y Y Y Y Y Y Y T T T T T T T T T T T T T T T T T T Y Y Y Y Y Y Y T T T O.O.O.O.O.O.O.T T T O.O.T T T T T T T Y Y T T T T T T T T T O.T T T T O.T T O.O.O.O.O.+.+.+.+.+.+.+.+.+.+.+.+.+.+.+.+.+.+.+.+.+.+.+.;.=.+.+.=.+.+.+.=.;.=.+.=.=.=.=.=.=.=.=.+.+.=.O.*.R z 5 # .   X X                                                                                                                                                                                                                                                       X       . . @ ; p G E O.+.+.+.+.+.+.=.=.=.+.O.O.O.O.O.O.O.O.O.O.O.O.O.O.O.O.O.O.O.O.O.O.O.O.T T O.T T T T Q T T T T T T T T Y Y Y Y Y Y H H H H H G G G G G G H G G G G G G G J G G G G k G J G k k z k k k k k j j j j j j j p p p p i i i i a 5 5 5 5 5 5 7 4 4 4 : : : : : ; : ; : : : : ; # + . .       . . . . @ @ + + + @ . . . . . . . . . @ @ + # ; : : 4 5 i i i i i i ",
"T T T T T T Y Y H H H G J k k j i i 5 5 4 5 5 5 f x x x s 5 5 i k G H R Y Y Y Y Y Y Y Y Y Y T T T T T T T T T Q T T T T T T T T Y Y Y Y Y Y Y T T T O.O.O.O.O.O.O.O.O.O.O.O.T T T T T Q Q T T T T T T T T T T T Q T T T T Q Q T O.O.O.O.+.+.+.+.+.+.+.+.+.+.+.+.+.+.+.+.+.+.+.+.=.=.=.;.;.;.+.+.=.+.+.+.=.=.=.=.+.=.=.=.=.=.=.=.+.+.;.+.*.W J 5 # .   X                                                                                                                                                                                                                                                         X       . . @ ; p G T O.+.+.+.+.+.+.=.=.=.+.O.O.O.O.O.O.O.O.O.O.O.O.O.O.O.O.O.O.O.O.O.O.O.O.T T T T T T E E T T T T T Y Y Y Y Y Y Y Y Y Y H H H H G H H H H K K G G G G G G G G G G G G G G G k k k k k k k k j j j j j j j j p p p p i i i i i 5 5 5 5 5 5 7 8 4 4 : : : : : : : ; : : : : ; # + @ .       . . . . @ + + + + @ @ @ . . . . . . . @ + # # ; : : 4 5 5 i i i i i ",
"Y T T T T Y Y Y H H G G J k j j i i 5 4 4 4 5 5 p j x x p 5 5 i k G K R W W T T Y Y Y Y Y Y T T Y Y Y Y Y T T T T T T T T T T Y Y Y Y Y Y T T T T T O.O.O.O.O.O.O.O.T O.O.O.T T O.O.$.&.&.Q Q Q E E E E T E E E T T T T T T T T O.O.O.O.O.+.+.+.+.+.+.+.+.+.+.=.+.=.;.;.+.+.+.=.+.+.=.=.;.=.+.+.=.=.+.+.=.=.=.=.+.=.+.=.=.+.=.+.=.+.;.+.*.W z 5 # .                                                                                                                                                                                                                                                             X       . . @ ; p G E O.+.+.+.+.+.+.=.=.=.+.O.O.O.O.O.O.O.O.O.O.O.O.O.O.O.O.O.O.T O.O.O.O.T T T T T T T E T T T Y Y Y Y Y Y Y Y Y Y Y Y Y Y Y Y H H H H H H K K G G G G G G G G G G G G G G k k k k k k k k k k j j j j j j j p p i p i i i i i 5 5 5 5 5 4 4 4 4 4 : : : : : : : ; : : : : ; # + . .       . . . @ @ + + + @ @ + @ . . . . . % @ + + # # ; : : 4 5 i i i a p i ",
"Y Y Y T Y Y Y Y H H G G z k j p i i 5 4 4 4 5 5 p x x x p i 5 i k G H R Y Y T T Y Y Y Y Y T T T Y Y Y Y Y T T T T T T T T T T Y Y H Y Y Y E E T T T O.O.O.O.O.O.O.O.O.O.O.O.T T T T T T Q T T T T T T E T T T T T T T T T T T T T T T O.O.O.+.O.+.+.+.+.+.+.=.;.+.+.+.+.+.+.+.+.+.+.+.+.+.+.+.+.=.=.=.=.=.=.;.=.=.=.=.=.+.+.+.+.=.=.1.+.*.W J i # .           .                                                                                                                                                                                                                                                 X       . . @ ; p G R O.+.+.+.#.O.+.=.=.=.+.O.O.O.O.O.O.O.O.O.O.O.O.O.O.O.O.O.O.O.O.O.O.O.O.T T T T T T T T T T Y Y Y Y Y Y Y Y Y Y Y Y Y Y Y Y H H H H H H K K G G G G G G G G G G G J G G k k k k k k k k k k k j j j j j j p p i i i i i i 5 5 5 5 5 5 4 4 4 4 4 : : : : : : : ; : : : : ; # + . .       . . @ @ @ % % + + + @ @ @ . . . . O @ + + # ; ; : : 4 5 i i i i s i ",
"Y Y Y Y Y Y Y Y H G G J z k j p p i 5 4 4 4 5 i x x c c p i 5 i k G H H Y Y T W Y Y Y Y Y Y T T T Y Y Y T T T T T T T T T T T Y Y H Y Y Y Y T Y T T O.O.O.O.O.O.O.O.O.O.O.O.O.T T T T T T T T Y Y Y Y Y T T T T T T T T T T T T T T T O.O.O.+.O.+.+.+.+.+.+.=.=.+.+.+.+.+.+.+.+.+.+.+.+.+.+.+.+.=.=.=.=.;.;.;.=.=.=.=.=.=.+.+.+.;.=.1.+.*.Y J i ; .           .                                                                                                                                                                                                                                                 X       . . @ ; p J R @.+.+.+.O.O.O.+.+.+.+.O.O.O.O.O.O.O.O.O.O.O.O.O.O.O.O.O.O.O.O.O.O.O.O.T T T T O.T T Y T Y Y Y Y Y Y Y Y Y Y Y Y Y Y Y Y Y H H H H H H H H G H H H G G G G G G G J J k k G k k k k z z k j k j j j j j p p p p p p p p i i 5 5 5 5 4 4 4 4 4 4 : : : 8 : : : ; : : : : ; # + . .       . . @ @ @ + + + + + @ + @ @ . . @ % . @ + # # ; : : 4 5 5 5 i i i i ",
"Y Y Y Y Y Y Y H H G G k k j j p p i 5 4 4 5 5 i x x c c p i i i k G H H Y Y Y Y Y Y Y Y Y Y T T T Y Y Y T T T Y Y Y T T T T T T Y H Y Y Y Y Y Y T T O.O.O.O.O.O.O.O.O.O.O.$.$.T T O.O.T T Q Q T Y Y Y Y Y T T T T T T T O.O.O.T T T T O.O.+.+.+.+.+.+.+.+.+.+.+.+.+.+.+.+.+.+.=.+.+.+.+.+.+.+.+.+.=.;.;.;.;.=.=.=.=.=.=.=.+.+.+.;.=.,.+.%.Y L a ; .     o   . .                                                                                                                                                                                                                                                 X       . . @ ; p J R O.+.+.+.O.O.O.+.+.+.+.O.T O.O.O.O.O.O.O.O.O.O.O.O.O.O.O.O.O.O.O.O.O.O.O.O.T T Q T T Y Y Y Y Y Y Y H H Y W Y Y T T T Y Y Y H H H H H H H H H H H H H H G G G G G J G k k G k k k k k k k j z j j j j j p p p p p p s s i i 5 5 5 5 4 4 4 4 : : : : 8 8 : , : ; : : : : ; # @ .         . . % % + + + + + + + @ @ @ @ @ @ @ . . + # # ; : 4 4 5 5 5 i i i i ",
"Y Y Y Y Y Y Y H H G G k k j j p p i 5 4 4 5 5 i l x c c p i 5 i k G H H Y Y Y W Y Y Y Y Y Y T T Y Y Y Y W T T Y Y T T T T T T W Y Y Y Y W W T T T Q O.O.O.O.O.O.O.O.O.O.O.O.$.O.T O.Q T T Q Q T Y Y Y Y T T T T T T T O.O.O.T T T T T T O.+.+.+.+.+.+.+.+.+.+.+.+.+.+.+.+.+.+.+.+.+.+.+.+.+.+.+.+.=.;.;.;.;.=.=.=.=.=.=.=.+.+.+.;.=.,.+.%.Y L d # .                                                                                                                                                                                                                                                             X       . . @ ; i J R O.O.+.O.O.O.+.+.+.+.+.O.O.O.O.O.O.O.O.O.O.O.O.O.O.O.O.O.O.O.O.O.T T T O.O.T T Q T T Y Y Y Y Y Y Y Y Y Y T W T ~ T T T Y Y H H H H H H H H H H H H H H H G G G G J G k k J k k k k k k k j z j j j j j p p p i i i p p i i 5 5 5 4 4 4 4 4 : : : : 8 8 : : : ; : : : ; ; # @ . .       . . % % + @ + + + @ + @ @ @ @ @ @ @ . @ + # ; : : 4 4 5 i i i i i i ",
"H Y W Y Y H H Y H G J k j j p p i 5 5 5 5 5 5 i j k z j p 5 5 i z G H H Y W Y Y Y Y Y Y Y T T T T Y Y Y Y Y Y T T T T T T T T W R R Y Y W W T Y T T O.O.O.+.O.O.+.+.+.O.O.O.$.T $.T T T T T T T T Y Y T T T T T T T O.$.$.$.T T T O.@.O.O.O.O.O.O.+.+.+.+.+.+.+.+.+.+.O.O.+.+.O.+.+.O.O.+.+.+.;.+.+.=.=.=.=.=.=.=.=.=.=.=.=.=.=.-.,.=.+.$.! b d # .   X X                                                                                                                                                                                                                                                 o o o         . . @ ; i G R E O.O.+.+.+.+.+.+.+.+.O.O.O.+.%.%.+.O.$.O.O.O.T T T T T T @.E T T T T T T T T T T T T T Y Y Y Y Y Y Y Y Y T T Y Y Y Y Y Y H H H H H H H H H H H K G G G G G G G k k k k k k k k j j j j j j j j j l l p p p p p i i i i i 5 5 5 4 4 4 : : : : : : : : : : : : , : ; ; # # + @ . . . . . O * $ @ @ + + + @ @ @ @ . . . . . . @ + # ; : 8 4 5 5 5 5 i i i i ",
"H H Y Y Y Y H H H H G k j j p p i 5 5 5 5 5 5 i j z z j p i 5 5 k G H H Y Y Y Y Y Y Y Y Y T T T T Y Y Y T T T E T T T T T T T W W Y Y Y W T E T T T O.O.+.+.+.+.+.+.+.O.O.O.$.T T T T T T T T T T T T T T T T T T T T T T T T T T T O.O.O.O.O.O.O.O.+.+.+.+.+.+.+.+.O.O.O.+.+.O.+.O.O.O.O.+.+.+.+.+.+.=.=.=.=.=.=.=.=.=.+.+.=.=.=.=.=.+.Q ! b 9 # .   X X                                                                                                                                                                                                                                               o o o o         . . @ ; p G ! E O.+.+.+.+.+.O.O.+.+.+.+.+.O.+.O.+.O.O.O.O.T T T T T T T E E T T Y Y Y Y T T T T T T T T Y Y Y Y Y Y Y Y Y Y Y Y Y Y Y Y H H H H H H H H H G G G G G G G G k k k k k k k k k k k k j j j p p p j l l p p i i i i i i i i 5 5 5 4 4 4 4 4 : : : : : : : : : : : ; ; # # # + @ . . . . O . * + @ @ + + + @ @ . . . . . . @ . @ + # ; : : 4 5 5 5 5 5 5 5 5 ",
"Y H Y Y Y Y Y H H H G k j j p p i 5 5 5 5 5 i p l c b l p i 5 5 k G H H Y Y T T Y Y Y Y Y T T T T Y Y Y T T T T T T T T T T T W W Y Y Y W T E T T T O.O.+.+.+.+.+.+.O.O.O.$.T T T T T T T T T T T T T T T T T T T T T T T T T T T T T O.O.O.O.O.O.O.+.+.+.+.+.+.O.+.O.O.O.+.+.O.+.O.O.O.O.+.+.+.+.+.+.+.=.=.=.=.=.=.+.+.+.+.+.+.=.=.+.O.T P x 9 # .                                                                                                                                                                                                                                                     o o o o         . . @ ; p J ! E O.+.+.+.+.+.+.O.+.+.+.O.+.O.O.O.O.$.O.T O.T T T T T T Y Y Y Y Y Y Y Y Y T T T T T T Q T Y Y Y Y Y Y Y Y Y Y Y Y Y Y Y H H H H H H H H G G G G G G G G G G G k k k k k k k k k k k j j j p p p p p f p p i i i i i i i i 5 5 4 4 4 4 4 4 : : : : : : : : : : : ; ; # # # + @ . . . . . . = + @ @ @ @ @ . @ . . . . . . . . . @ # ; : : 4 5 5 5 5 i i i 5 ",
"Y H H H Y W Y H H H G k j j j p i 5 5 5 5 5 i p j z c l p 5 4 5 j G H H Y Y T Q Y Y Y Y Y T T T Y Y Y Y T T T T T T T T T T T Y W Y Y Y T T T T T T O.O.O.+.O.O.+.O.O.O.O.$.T T T T T T T T T T T T T T T T T T T T T T T O.$.O.O.O.O.O.+.#.O.O.O.O.+.+.O.O.O.O.O.+.+.O.O.+.+.O.O.O.O.O.O.+.+.+.+.+.+.+.+.=.=.=.=.=.+.+.+.+.=.+.+.+.+.O.E P l 5 # .                                                                                                                                                                                                                                                     o o o           . . @ ; p G R E Q O.+.O.+.+.O.O.O.O.O.O.O.O.T T O.$.$.O.T T T T T Y Y Y Y Y T T T T T Y Y Y Y Y Y T T T Y Y Y Y Y Y Y Y Y Y Y Y Y Y Y H H G H H H G G G G G G G G G G k G k k k k k k k k k j j j j j j p p p p p p p p i i p p p p i i 5 4 4 4 4 4 4 : 4 : : : : : 4 : : : : ; ; # # # + @ . . . . . . % @ @ . @ @ @ . @ . . . . . . . . . + # ; ; : 4 7 5 5 5 i i i i ",
"Y H H Y Y W Y H H G G k j j p p i 5 5 5 5 5 i p j z c l p 5 4 5 j G H H Y Y W T Y Y Y Y Y T T T Y Y Y Y T T T T T T T T T T T Y T Y Y Y Y T T T T T O.O.O.O.O.O.O.O.O.O.O.O.T T T T T T T T T T T T T T T T T T T T T O.O.O.$.$.O.O.O.O.+.+.+.O.O.O.O.O.O.O.O.O.+.+.+.O.+.+.+.O.+.+.+.+.+.+.+.+.+.+.+.+.+.+.+.+.+.=.=.=.+.+.=.+.+.+.+.T Y K j 5 ; @ o                                                                                                                                                                                                                                                   o o             . . @ ; p G K R Q O.O.O.O.O.O.O.O.O.O.O.T T T T T T T O.T T Y Y Y Y Y Y Y Y E E E E Y Y Y Y Y Y Y Y Y Y H H Y Y Y Y Y Y Y Y Y Y Y Y Y H G G G G G G G k G G G G G k k k G k k k k k k k k k j j j j j j j p p p p p p p i i p p p i i i 5 4 4 4 4 : : : : : : : : : : : : : ; ; ; # # # + @ . . . . . . @ . . . . . . . . . . . . . . . . . + + ; ; : 4 5 5 5 i i i i i ",
"Y H H Y Y W Y H H G G k j j j p i 5 5 5 5 5 i p j j z j p 5 5 5 j k G H H Y Y Y Y Y Y Y Y T T T T W Y Y T T T T O.T T T T T T T T Y Y Y T T T Y T T T O.O.O.O.O.O.O.O.O.O.O.T T T T T T T T T T T T T T T T T T T T T T $.O.T O.O.O.O.O.O.O.O.O.O.O.O.O.O.O.O.O.+.+.+.O.+.+.+.O.O.+.+.+.+.+.+.+.+.+.+.+.+.+.+.+.+.=.+.+.=.=.=.+.+.+.O.T Y H j 5 ; @ o     o . .                                                                                                                                                                                                                                                         . . @ ; p G K R @.O.O.O.O.O.T T O.O.T T T T T T Y Y T Q Y Y Y Y Y Y Y Y Y Y Y Y Y Y Y Y Y Y Y Y Y Y Y Y H H H H Y H Y H Y Y H H Y H Y H G G G G G G G k k k G G G k k k G k k k k k k k k k k k k k k j j l j p p p p p i i i i i i i 5 4 4 4 4 : : : : : : : : : : : : : : ; ; ; ; # # + @ . .         . . . . . . . . . . . . .   . . . . @ + # ; : 4 5 5 5 i i i i i ",
"Y Y Y Y Y Y Y H H G G k k j p p i 5 5 5 5 5 5 i j k c j i 5 5 5 j k G H R W Y Y Y Y H Y Y T T T T T T Y T T T T O.T T T T T Q Q T Y Y Y T T T T T T T O.O.O.O.O.O.O.O.O.O.T T T T E T T T T T T T T T T T T T T T T T T T T T O.T O.O.O.O.O.O.O.O.O.O.O.O.O.O.O.+.+.+.O.+.+.+.O.O.O.O.O.+.O.O.O.+.+.+.O.O.O.+.+.+.+.+.+.+.+.+.+.+.+.+.O.E K k i ; @ .       o                                                                                                                                                                                                                                                   X       . . @ ; p k K R E O.O.O.O.T T T O.O.T T T T T Y Y Y Y Y Y Y Y Y Y Y Y Y Y Y Y Y Y Y Y Y Y Y Y Y W Y W Y H H H H H H H H R K H H H H H H G G G G G G G G k k k k k k k k G k k k k G k k k k k k k j j j p p p p p i p s i i i i i 5 5 5 4 4 4 4 : : : : : : : : : 8 8 : : : ; ; ; > # + + . .           . . . . . . . . . . .             . . + # ; : 4 5 5 5 i i i i i ",
"Y Y Y Y Y Y Y H G G k k j j j f i 5 5 5 5 4 5 i c c c l i 5 5 5 z G G K ! R W Y Y Y Y Y Y T T T T T T Y T T T T O.O.T T T Q $.Q T Y Y Y T T T T T T T $.O.$.$.O.O.O.O.O.O.O.T T T T T T T T T T T T T T T T T T O.O.T T T T O.O.T O.O.O.O.O.O.O.O.O.O.O.O.O.O.O.O.+.+.O.+.+.+.O.O.O.O.+.+.O.O.O.+.O.O.O.O.O.+.+.+.+.+.+.+.+.+.+.+.+.+.O.O.R L s ; + .                                                                                                                                                                                                                                                           X       . . @ ; p k G R E T T T O.T T T O.O.T T T Y Y Y Y Y Y Y Y Y Y Y Y Y Y Y Y Y Y Y Y Y Y Y Y Y Y H Y Y Y H K H H H H H H H K H H G G H H H G G G G k k k G k k k k k k k k k k k k G J k k k j j j j j j j p p p p i i p s p i i i 5 5 5 5 4 4 4 4 : : : : : ; : : : : : : : : ; ; ; > # + + . .           . . . .       . . .             . . @ + # ; : : 5 5 5 i i s s s ",
"Y Y Y W W Y Y H H G k k z l l f i 5 4 4 4 5 i p l c c x i 5 5 i j k J P ! W W Y W R Y Y Y Y T Y Y Y Y Y T T T T O.O.T T T T T T Y Y Y Y T T T Y T T T T O.$.$.$.O.O.O.O.O.O.T T T T T T T T T T T T T T T T T T T T T T T T T T O.O.O.O.O.O.O.O.O.T T T O.O.O.O.O.O.+.+.+.O.O.O.O.O.O.O.O.O.O.O.O.O.O.O.O.O.+.+.+.+.+.+.+.+.+.+.=.=.+.#.*.~ L h : +     X X                                                                                                                                                                                                                                                             . . @ ; p k K R Y Y T O.T T T E E T T Y Y Y Y Y Y Y Y Y Y Y Y Y Y Y Y H Y Y Y Y Y Y H H Y H H H H H H H G G H H G G G H H H G G H H G G G k G G G k k G k k k k k k k k k k k k k k k j k j j j j j j j p p p p p p p s h a i i i 5 5 5 4 4 4 4 : : : : : : : : : : : : ; ; ; ; ; # # + + @ . .     . . . . . .                           . . + # ; : : 4 5 5 i s i i i ",
"Y Y Y Y Y Y Y H G G k k j j p p i 9 4 4 4 5 i p l c c l i 5 4 5 j k k J P ! R Y Y Y Y Y Y Y Y Y Y Y Y Y T T T T O.T T T T T T T Y Y Y Y T T T Y T T T T T Q T T O.O.O.O.O.O.T T T T T T T T $.T Y Y Y T T T O.@.T T T T T T T T O.O.O.O.T O.T O.O.T T T O.O.T T O.O.O.O.O.O.O.O.O.O.O.O.O.O.$.$.O.O.O.O.O.O.O.O.O.O.O.O.+.+.+.+.=.=.=.;.#.~ L f : +     o X                                                                                                                                                                                                                                                             . . + : p k K R Y T T T T T Y E T T T Y Y Y Y Y Y Y Y Y Y Y Y Y Y Y Y Y W Y Y Y Y Y Y Y H H H H H H H H G G G G G G G G G G G G G G G G G G G G G G k G k k k J J k k z k k k k k k k j j j j j j j j p p p p p p p i i a i 5 5 5 5 5 5 4 : : : : : : ; : : : : : : : : : ; ; > > > # + + @ . .     . O . . . . .                     .   . . + # ; : : 4 5 5 i i i i i ",
"Y Y Y Y Y Y Y H G G k k l j p i 5 5 4 4 4 5 i i l b c l i 5 4 5 p j k G H Y Y Y Y H R R Y T T T Y Y Y Y T T T T T T T T T T T T Y Y Y T T T T T T T T T T T T T O.O.O.O.O.O.T T T T T T T T T T T Y Y Y E E T Q T T T T T T T T T T T T T O.O.O.T T T T O.O.T T $.$.$.$.$.$.$.$.$.$.$.$.$.$.$.$.O.$.$.$.$.O.O.O.O.O.O.O.O.O.+.+.+.+.+.+.+.~ K l 4 # .   X X                                                                                                                                                                                                                                                             . @ # : p G K R T T T O.T T T T T T T Y Y Y Y Y Y Y Y Y Y W W Y Y Y Y W E R Y Y W W R Y H H K K K K H H G G G G G G G G G G G G G G G G J G G J J G G G k k k k k k k k k k k k k j j j j j j j j p p p p p p p p p i i i i 5 5 5 5 5 5 4 : : : : : : : : : : : : : : : ; ; ; > ; > # + + @ .       . O . . . . . .                 o O . . . @ # ; : : 4 4 5 i i i i i ",
"Y Y Y Y Y Y Y Y H G G k z l p i 5 5 4 4 4 5 5 i l c c j i 5 4 5 p j k G H H H H H H R R W T T T Y Y Y Y Y T T T T T T T T T T T Y Y Y Y T T T Y T T W Y W T Q T T $.O.O.O.Q Q T Y Y T T T T T T Y Y W Y Y Y Y Y T T Y Y T T T T Q T T T T T Q O.T T T O.O.O.T T T T $.Q O.O.O.O.$.T $.O.$.O.$.$.O.$.O.O.$.O.O.O.O.O.O.O.O.O.+.+.+.+.+.+.+.Q K l 4 # .   X                                                                                                                                                                                                                                                               . @ # 4 p G K R T Q T T T T T T T T T Y Y Y Y Y Y Y Y Y Y Y Y Y Y Y Y W E W Y Y Y Y Y H H H H K K K K K G G G G G G G G G k k k G G G G G G G J J G k k k k k k k k k k k j j j j j j j j j j j p p p p f p p p p p i i i 5 5 a a 5 5 4 8 4 : : : : : : ; : : : : : : : ; ; ; ; ; # # + + @ .       . O . . . .                     o O . . . @ # # : : 4 5 5 i i i i i ",
"Y Y Y Y Y Y Y Y H G G k l j p i 5 5 4 4 4 5 5 i x x c j i 5 4 5 l k k G G H H H H H H Y W W T T Y Y Y Y Y E E T T E T Y T W W Y Y Y Y Y T W W Y T W W W W W W W T T T T T W W Y Y Y Y W Y W Q W Y Y W W W T Q W W Y W Y W W T Y T E E E T T T T T T T O.O.O.T T T T T T $.T O.Q T T T T T T O.O.T O.O.O.O.O.T T O.O.$.$.$.$.$.O.$.O.O.O.O.T K l 5 ; @ .                                                                                                                                                                                                                                                                 . + ; 4 j G R E T Q T T T T T T T T T Y Y Y Y Y W W Y Y Y Y Y Y Y Y Y W E W Y Y Y Y R K H H H H H G H G G k k k G J J G k k k k G k G G G G G J J G k k G G G G J J L z j j j j j j j j j j j j p p p p p p p p p i i i i 5 5 7 a 9 5 4 8 4 : : : : : , ; ; : : : : : : ; ; ; ; > # # + + . .       . . . . . . . .                 . O . . @ @ # ; ; : 4 5 5 5 5 5 i 5 ",
"T Y Y Y Y Y Y H H G k k j p i i 5 9 4 4 4 5 5 i l x x j i 5 4 5 l k k G G H H H H H H H Y Y Y Y Y H Y Y Y E E T T T Y Y Y W W Y Y Y Y Y Y Y Y Y Y Y Y Y Y H Y Y Y Y Y Y Y H H H H H H H H H Y Y R W Q Q W W W W W W W W W Q W Y T R Y E Y Y Y Y E T T T Q Q T T T T T T T T T T T T T T T T T T T T T T O.T T T O.O.O.O.T T T T $.T T T Q W K l 7 : + . . .   .                                                                                                                                                                                                                                 .                     . . + ; 7 l K R E Q Q T T T T T T T T T T Y Y Y Y W W Y Y Y Y Y Y W T T T R W Y Y Y R K K H H H H H H G G k k k k J J J k k k k k k G k G G G G G G G k G k G G k k G k k z l j j j p p p p p p p p p p p p p p p i i i i i 5 5 5 5 4 4 4 4 : : : : : : : ; ; : : : : : : ; ; ; ; ; > # # + @ .       . . . . . . . . . .             . . . . @ + # ; ; : 4 4 5 5 5 5 5 5 ",
"Y Y Y Y Y Y Y H H G k j j p i i 5 4 4 4 4 5 5 i p l x j i 5 4 5 s j k G G H H H H H H H Y Y Y W Y H H Y Y Y E Y E T Y Y Y Y W Y Y Y Y Y Y Y Y Y H H Y H H H H H H H H H H G G G G G G G G G H H W W W W Y H H H Y Y Y Y W W W Y Y Y Y Y Y Y Y Y E T T T T T T T Y Y T T T T Y Y Y Y Y Y T Y T T T T T T T T T T T T T T T T T T Q W Y Y Y Y G j a 4 # + @ . . . .       . . . .     . . . .                                                                                                                                                                                                             .             . @ # , q b K R E Q Q T T T T Y Y T T T T Y Y Y Y Y Y Y Y Y Y Y Y T ~ E W W Y Y Y Y Y H H K K K K K H G G k k k k J J G k k k k k G J J J G G G G G G G G k G G G G G G k b b l l p p p p p p p p p p p p p p p p i i i i i 5 5 5 5 4 4 4 : : : : : : : ; ; ; : : : : : : ; ; ; ; ; > # # + @ .         . . . . . . . . . .           o . . . @ + # ; : : 4 5 5 5 5 5 5 5 ",
"Y Y Y Y Y H H H H G G k j p p i 5 4 4 4 4 5 5 i p j l j i 5 4 7 p j k k G H H H H H Y Y W W T T Y H H Y Y Y Y Y E Y Y Y Y Y W Y Y Y Y Y Y Y Y H H H Y Y H H H H H H H H G G G G G G G G G G G G H H H H H Y H H H H H Y Y Y Y H H H Y Y Y Y Y Y Y Y Y Y T T T T Y Y T T T Y Y Y Y T T T T T T T Y Y T T T T T T T O.O.O.O.O.O.T T Y Y Y Y H G k f 5 : ; ; # # # # + + + # + + + + + + + + + + + @ @ @ @ @ @ @ @ + + + + + @ + @ .   . . . . . . .     .         . . . . . . . . . . . . . . . . . . . . . . . . . . . . . . . . . . . .       . . . . . . . . . . . . . . . . . . . . . . . . . . . . @ . . . . . . @ + # ; 4 h L K R W T Q T T T T Y Y T T T T H H H H H H H H Y H H H R ~ R R H H H H H H G G G G G G G G G k k k k k z J z k k k k z z J z z J G G J J k k J L I I L I I I b b D v v p p p p i i i i i i i i p p p p i i i i a 5 5 5 5 4 4 4 : : : : : : : : ; ; : : : : : : ; ; ; > > > # # + @ .         . . . . . . . .     .         o   . . @ + # ; : : 4 5 5 5 5 5 5 5 ",
"E Y Y Y H H H G G G k k j j p i 5 4 4 4 5 7 i i j j j p i 4 : 7 p j k k G G H H H H H Y Y Y Y Y H H H Y Y Y Y Y W Y Y Y Y H Y W T Y Y Y Y Y Y Y Y Y Y Y W Y W Q Y Y Y Y R R H H H H H H H H H H H H G H H H Y Y Y Y Y Y Y Y Y Y T Y H Y E E E Y Y Y Y Y Y T T T T T T T O.O.$.$.T O.O.O.O.O.$.O.T T E T O.O.O.O.O.O.O.O.O.O.O.O.T T T T T Y H H G z l p i s s i 5 5 5 5 5 5 5 5 5 5 5 4 4 4 4 4 4 4 4 4 4 4 4 4 9 9 4 : 4 : 4 : ; # # # # # # # + + + + + + + # # # ; ; ; ; ; : ; : 1 : : : : 8 : : : : : 4 : : : : : : : : ; : : ; ; # + @ # ; , : : : : : ; ; : : : : : : : : : : : : : : : ; : : : ; ; ; ; ; ; ; : 4 4 5 i x J H Y Y Y Y Y Y Y Y Y Y Y Y Y Y H G G G G G G G G G G G G G G G G k k k k k k j k k k G G k k k k j j p p j p p p p p j j j j j j p j j j j p p j j l l l l l f s a 5 5 5 i i i i i i i i 5 i s p p p p f s a a 5 5 9 5 4 4 4 : : : : : : 6 6 : : : : : : ; ; ; ; ; ; ; > > # # + @ . .     . . . . . . . .   .                   . @ + # ; : : 4 5 5 5 5 5 5 5 ",
"Y Y Y H H H G G G G k k j j p i 5 4 4 4 4 5 5 i j j j j i 4 4 9 f k k k k G H H H H Y Y Y Y Y Y H H H Y Y W W W Y H H H H H H Y Y Y Y Y H H H H H Y Y Y W Y Y T Y Y Y Y Y Y Y H H H H H R H Y H H G G G H H Y Y Y Y Y Y Y Y Y Y T Y Y Y E Q E Y Y T Y Y T T T T T T T T O.O.O.O.O.O.O.O.O.O.+.O.T E T T O.O.O.O.+.+.+.O.O.O.O.O.#.#.*.*.$.O.Q T W R H k k k z k z z z z j l z b j j j p p p p f s p s p f l x l x p p p p p p i 4 4 4 4 8 4 4 4 4 4 4 4 : : : 4 4 4 5 7 7 5 5 5 5 5 i i i 5 i i f f f f p i i i i i i i i i i i 5 5 5 6 0 ; : : 7 i i i i i 5 5 i i i p f s p i i i a i i i i 5 a a a a a 5 7 5 7 i i s f j x I H Y Y Y Y T Y Y Y Y Y Y T T Y Y H G H G H G G G G G G G G J J G G k k k k k k k k k k G G G G G k j j j j j p p p p p j j j j j p p p p p p p p p p p p p p p i 5 5 4 5 5 5 5 i i i i i i i i s p p p i p i i i 5 5 7 4 4 4 4 : : : : : 4 6 0 4 : : : : : ; ; ; ; ; ; ; ; > ; # + @ . .     . . . . . . . .   .                 . . . + # ; : : 7 5 5 5 7 a i i ",
"Y Y H H H G G G G G k k j j p i 5 4 9 4 4 4 5 i j j j j i 4 4 9 f k z k k G G H Y Y Y Y Y Y Y Y H H H Y R W W W Y H H H H H H Y Y Y Y Y H H H H Y Y Y T T T T T Y Y Y Y Y Y Y H R R R Y R R R R H H H H H Y R W Y Y Y Y Y Y W W Y T Y T T T T T T T T T T T T T O.O.O.O.O.O.O.O.O.O.O.O.O.O.O.O.E E T O.O.O.+.+.+.+.+.+.+.O.O.O.+.+.%.%.%.$.$.$.&.~ W H K K U J J J J J J J J L L L L J z L b b b z z z b L I L L J L z L z c c x f f x v x x x j l l l f f f f f l v v v x x x x b b b c c c c c I ( I c j z c z x c c x x x l l l s a 7 5 7 d h l k k k z l j j z c z c z c z l z b l l l v j l l l l v l s s l j l z c k L P R W T T T T T T T T T T T T T Y Y H H H H H H H H G G H H H K K G G G G G G G G G G G G H H H G k k k k k k k j j j j j j j k k j j j j j j j j j j p p p p p p i 5 i i i i i p p p f p p p p s p p i i i i i 5 5 5 7 7 4 4 4 : 4 : : : 4 6 8 4 4 : : : : : : ; ; ; ; ; > ; ; # + @ . .       . . . . . . .                     O . @ @ + # : 4 7 5 5 5 a a 5 5 ",
"Y Y H H H G G G G G G k j j p i 5 5 9 4 4 5 5 i j j j j i 4 : 8 f z z z k G G H H H H Y Y Y Y Y H H H H Y W W R Y H H H Y H H Y Y Y Y Y H H Y Y Y Y T Q Q T T O.T T T T T W W Y Y H H H H H R R H H H H Y R W R Y Y Y Y Y Y W T Y T T T T T T T Q T T T T T O.$.O.O.O.O.O.O.O.O.O.O.O.O.O.O.O.O.E E T O.O.O.+.+.+.+.+.O.O.O.O.O.+.+.+.+.+.+.+.O.$.$.Q T T W W R W W R R R R ! ! ! ! P P P U U P K G G H K K ! R R R ! ! ! ! K U U L L P U U P P K P P P P P P L L L L U U U J J U U U U ! ! ! P K P ! ! P P P P K K K K K K K K K J z l s i f b L J H H H K J J G K K K K J J K K U K J J U K J G G J J J J J k J k G J H H H R W T T T Q Q T T T T T T O.Q T T Y Y Y Y Y Y Y Y Y H H H Y Y Y H K H H H H K K H H H H H H H H H G G G G G J J J z k k k k G G J k k k k k k z k j j j j j j j j p f h h p p p p j l v l p p s f f p p i i i a i 5 5 7 7 4 4 4 : : : : : : 4 4 : : 4 : : : : : : ; ; ; ; ; ; ; # + . . .       . . . . . . . . .                 . . @ @ + # : 4 4 5 5 5 5 5 5 5 ",
"Y Y H H H G G G J G G k j j p i a 5 4 4 4 5 5 i j j j p i 4 : 4 f z z k k k G H H H H H Y Y Y Y H H H H Y R Y Y Y H H Y Y H H Y Y Y Y Y Y Y Y Y Y Y T Q $.O.O.O.$.T T T T T W Y H H H H H H H H H H H Y Y R W W Y Y Y Y Y Y T Q T T T T T T T T O.O.O.O.O.$.O.O.+.O.O.O.O.O.O.O.O.O.O.O.O.O.O.O.T T T T O.O.+.+.+.+.O.O.O.O.O.O.+.+.+.+.+.+.+.>.%.+.+.O.$.O.O.O.$.$.T O.$.$.$.$.Q T T T Q Q Q W Y Y Y Y T E T T T T Q E Q Q Q T ~ Y H Y T Q $.$.O.O.&.O.O.Q Q Q T E E T E E E Y Q Q T Q O.O.$.T T T T T E @.E T E E E E E E E E Y Y ! U L k k G R Y T T T E W Y Y Q ~ Q Q T T ~ T T W Y W E T Y Y Y T E R R R R R Y Y T Q T T T T T T Q T T T T T T $.$.O.T T T T T T Y T T T Q T W Y Y Y Y Y Y Y Y H H Y R Y Y Y Y Y Y Y Y Y H H G G G G G J J J G J G G G G J J J k k z J J J j k k k k k k j p f x x p p p j l b b l p f f p f p p i i i a a 5 5 5 4 4 4 4 : : : : : : : : 4 4 4 : : : : : : ; ; ; ; ; # # # @ . . .       . . . . . . . . .                   . . @ + # ; : 4 4 5 5 5 5 5 5 ",
"Y Y H H G G G k G G k k j p i i a 5 4 4 4 7 i i j j j p i 4 : 4 f j k k k G G H H H H H Y Y Y H H H H H Y Y Y Y H H H H H H H Y H H H H H H Y Y Y Y T Q $.O.O.O.$.T T T T Y Y Y H H H H H H H H H H H H H Y Y Y Y Y Y Y Y Y T T T T T T T T T T O.O.O.O.O.$.O.O.+.O.O.O.O.O.O.O.O.O.O.O.O.O.O.O.T T T T O.O.+.+.O.O.O.O.O.O.O.O.%.+.+.=.=.>.>.>.>.=.=.;.;.+.+.+.+.+.+.+.+.+.+.+.+.O.O.O.%.$.$.O.T T T T O.O.O.O.O.+.+.+.O.O.O.O.&.Y Y Y T O.+.+.+.+.;.+.+.+.+.+.+.O.+.O.+.#.+.O.+.+.+.+.+.+.+.+.+.+.O.+.#.#.+.O.+.+.+.+.+.O.+.O.O.O.E R K G G R ~ O.O.O.O.O.O.O.O.O.O.O.O.O.O.O.O.O.O.T O.O.O.O.O.O.O.O.O.T T T @.T T O.O.O.O.O.T T T T $.$.$.$.O.$.$.$.$.T T T T T T T T O.@.&.T T T T T Y Y Y Y Y Y Y Y Y Y Y Y Y Y Y Y Y Y Y H H G G H H G G G G G G G G G G J G k k k J J k k k k k k k k k p p j j j j j j z b b l p p p p p i i i i i i 5 5 5 4 4 4 4 : : : : : 4 4 : : 4 4 4 : : : : : : ; ; ; ; ; # + + @ . .         . . . . . . . . .                     . @ + # ; : 4 4 5 5 a a 5 5 ",
"Y H H H G G G k k k k j j p i 5 a 5 4 4 4 5 i i j j j j i 4 : 4 f j j k k G G H H H H H Y Y H H H H H H Y Y H H Y H H Y Y H H H H H H H H H Y Y Y Y T T $.O.O.+.O.$.T T T Y Y Y H H H H H H H K H H Y Y Y Y Y Y Y Y Y Y Y Y T T T T T T T T T T O.O.$.$.O.O.O.O.+.O.O.O.O.O.O.O.O.O.O.T O.O.O.O.T T T T O.O.+.+.O.O.O.O.O.O.O.O.+.+.+.+.+.=.=.=.,.=.=.-.,.;.=.;.-.-.-.,.,.1.1.>.;.=.=.+.>.>.+.+.+.O.O.O.+.+.+.+.+.+.+.+.+.+.+.O.@.Y Y Y @.#.+.+.+.=.=.=.=.+.+.+.;.=.=.+.=.:.:.=.=.=.=.=.=.=.=.=.=.=.=.=.=.=.=.+.=.=.=.=.=.+.=.+.;.+.O.Y H G Y &.&.+.+.+.+.+.+.+.+.+.+.+.+.+.+.+.+.+.O.O.+.+.+.O.+.+.+.+.O.O.O.O.O.O.O.O.+.+.O.O.T T T T $.$.O.O.O.O.O.O.T T T T O.O.O.T T O.O.O.T T T T T T T Y Y Y Y Y Y Y Y Y Y Y Y Y Y Y Y Y Y H H H H H G G G G G G G G G G G k k G k k k k k k k k k k z z j j j j j k z z z b v p i i i i i i i i i i 5 5 5 4 4 4 4 4 : : : : 4 4 4 : : 4 4 4 : : : : ; ; ; ; ; ; # # # + + . .         . . . . . . . . .                   . . @ # # ; : 4 4 5 5 a a 5 5 ",
"Y Y H H G G G G k k k j j p i 5 5 5 9 4 4 5 i p j j l l i 4 : 8 f j j j k G G G G H H H Y Y H H Y H H H Y Y H H R Y Y R R H H R H H H H H H Y Y Y Y T $.O.O.O.+.O.$.T T T T Y Y H H H H H H H R Y Y Y Y Y Y Y Y Y Y Y Y Y Y T T T T T T O.$.O.T $.$.$.O.O.O.O.O.+.O.O.O.O.O.O.O.O.O.O.O.O.O.O.O.T T T O.O.O.+.+.O.O.O.O.+.+.O.O.+.+.+.+.+.=.=.=.=.=.=.-.,.-.=.=.-.-.-.-.-.-.-.=.-.=.=.;.>.;.=.+.+.+.+.+.+.+.+.+.+.+.=.+.+.+.+.+.E Y Y E @.#.#.+.+.=.;.;.;.=.+.=.=.-.=.=.-.:.:.-.-.-.-.-.-.-.-.=.=.=.=.=.=.=.=.=.=.=.=.=.=.=.=.=.O.O.O.T H G H T *.+.+.+.+.=.=.=.;.+.+.+.;.;.;.+.+.+.O.O.+.=.+.+.=.=.+.+.+.+.+.+.+.O.O.+.+.+.+.O.O.T T O.$.O.O.%.O.O.O.O.T T T T O.T T T T T T T T T T T T T T T Y Y Y Y Y Y Y Y Y Y Y Y Y Y H H W R Y H H H H G H H H H G G G G k k k k J k k k k k k k j j j j l j j p j j j j z b v i 5 i i 5 i i i i i 5 5 5 4 4 4 4 4 : : : : : : 4 4 : : 8 4 : : : : ; ; ; ; ; ; # # # # + @ . .         . . . . . . .                       . . @ + # ; : : 4 4 5 5 7 5 5 ",
"Y Y H H G G G G k k k j p i i 5 5 4 4 4 4 5 5 i j j b v i 4 : 8 p j j j k k k G H H H H H H H H Y H H H Y Y H H H H H H H Y H H H H H H H H H Y Y T O.$.O.O.+.+.O.O.T T Y Y Y Y H H H H H H H H H Y Y Y H H H Y Y Y Y Y T T T T $.T T T T O.$.O.O.O.O.O.O.$.O.O.+.+.O.+.O.O.O.O.O.O.T T T T T T O.O.O.O.O.O.O.O.+.O.+.+.O.+.+.+.O.O.+.+.+.+.=.=.=.=.=.-.-.-.-.-.-.-.-.-.-.-.-.-.,.-.=.=.-.;.=.=.+.+.O.O.+.+.+.+.+.+.+.+.+.+.+.O.E H H E @.O.O.#.+.+.=.=.=.=.=.;.=.=.-.-.=.=.-.-.=.=.=.=.-.-.-.-.=.=.=.=.=.=.=.=.+.=.=.=.=.=.=.=.+.O.O.T H G H E $.+.+.=.=.=.=.=.+.+.+.+.+.+.+.+.+.+.+.+.+.+.+.+.+.+.+.+.+.+.O.O.O.O.O.+.+.+.+.O.O.T T T $.O.O.O.O.O.O.O.T T T T T T T T T T T E T T Y Y Y Y T Y H Y Y Y Y H Y Y Y Y Y H H Y Y H H H H H H H H G H G G G G G k k k k k k k k k j j j j j j j j p x p p p j j j j j l f i 5 5 5 5 i i a a i i 5 5 4 4 4 4 4 : : : : : 4 4 4 4 : : 4 : : : : ; ; ; # ; ; # # # # @ @ . .       . . O . . . . . .                       . @ + # ; : : 4 5 5 7 5 5 5 ",
"Y Y H H G G G G k k k j p i i 5 5 4 4 4 4 4 5 i j j z l i 4 : 8 s j j j k k G G G H H H H H H H H H H H H H H H H H H H H Y H H K H H H H H H H Y T O.T O.O.+.O.O.T T T T Y Y H H H H H H H H H H Y Y Y Y H Y Y Y Y Y Y T T T T $.T T T O.$.O.O.O.O.O.O.O.O.$.O.+.+.O.O.O.O.O.O.O.O.T T T T T T O.O.O.O.O.O.+.+.O.O.O.+.O.O.O.O.O.O.+.+.+.+.+.+.=.=.=.=.-.-.-.-.-.-.-.-.-.-.-.-.-.-.=.=.=.=.=.=.+.+.O.+.+.+.+.+.+.+.+.+.+.+.+.O.E H H T O.O.O.+.=.=.=.=.=.=.=.=.;.;.;.;.;.=.-.-.=.=.=.=.=.=.=.=.+.+.+.+.+.+.+.+.+.+.=.=.=.=.=.=.+.O.&.~ K G G R Q O.+.+.+.+.%.+.+.O.O.+.+.+.+.+.+.+.+.+.+.+.+.+.+.+.O.+.+.+.O.O.O.O.O.O.+.+.O.O.O.T T T O.O.O.O.O.O.O.O.T T T T T T T T T T T T T Y Y Y Y Y T Y H H Y Y H H H H Y Y H H H Y H H H H H H H H H G G G G k k k k k k k k k k j j j j j j j j j j p l f p p p j j j j l s 5 5 5 7 5 5 5 5 5 5 5 5 4 4 4 4 4 4 4 : : : : 4 4 : 4 : : : : : ; ; ; ; # # > > # # # + @ @ . .       . . . . . . . .                         . @ + # ; : 4 4 5 5 5 5 5 5 ",
"Y Y H H G G G k k k j j p i 5 5 5 4 4 4 4 4 5 p j j z l i 4 : 8 s j j j k k G G G G H H H H H H H H H H H H H H H H H H H H H H H H H H H H H H Y Y Q T T O.O.$.T T T T Y Y H H H H H H H H H H Y Y W W Y H H Y H Y Y Y T T T T T T T T T O.$.O.T T T T O.O.O.O.O.O.O.O.O.O.O.O.O.O.O.O.O.O.T T O.O.O.O.O.O.+.+.O.O.O.O.O.O.O.O.O.O.O.O.+.+.+.+.+.=.=.=.-.=.-.-.=.=.-.-.=.=.=.=.=.=.=.=.=.=.=.+.+.O.O.+.%.%.+.+.+.+.+.+.+.+.+.O.Q H H T $.O.+.=.=.=.-.-.-.=.=.=.=.=.=.=.=.=.=.=.=.=.=.=.=.=.=.+.+.O.+.+.+.+.+.+.+.+.+.+.+.+.+.+.+.O.~ ~ P k k P ~ $.O.+.+.+.+.O.O.O.O.O.O.+.%.%.+.+.+.+.O.O.O.O.O.O.O.O.O.O.O.O.O.O.O.O.O.O.O.O.O.O.O.O.O.O.O.O.O.O.O.O.T T T T T T T T T T Y Y T Y Y Y Y Y Y Y H H Y H H H H H Y H H H H H H H K H G G H H H G G G k k k k k k k k k k k j j j p p p p j j p p p p p p p p p j f s s 5 4 4 8 7 5 5 5 5 5 5 5 4 9 4 4 4 4 : 4 4 : : : : : : : : : : ; ; ; ; # # # # # # # # + @ . . .           . . . . . .                         . @ + # ; : : 4 5 5 5 5 5 5 ",
"Y Y H H G G k k k k k j p i 5 5 7 5 4 4 4 5 i p j j z l i 4 : 4 s j j j j k k G G G H H H H H H H Y Y Y H H H Y H H H H H H H H H H H H H H H H Y Y T T T T O.T T T T Y Y Y H H H H H H H H H H Y Y W R Y H H H H H Y Y Y T T T T T T T T T O.$.T T T T T O.O.O.O.O.O.O.O.O.O.O.O.O.O.O.O.O.O.T O.O.O.O.O.O.O.O.O.O.O.O.O.O.O.O.O.O.O.O.+.+.+.+.=.=.=.=.-.-.-.-.=.=.=.=.=.=.=.=.+.+.=.+.+.+.+.+.O.O.O.%.*.%.+.+.+.+.+.+.+.+.+.O.Q H H T $.+.+.=.=.-.-.-.-.=.=.=.+.+.+.+.+.+.+.+.=.=.=.+.+.+.+.+.O.O.O.+.+.+.+.+.+.+.+.+.+.+.+.O.O.Q E ! J j k U ! ~ $.+.%.+.O.O.O.$.O.O.O.O.%.*.$.%.+.+.O.O.O.O.O.O.O.O.O.O.O.O.O.O.O.$.O.O.O.O.O.O.O.O.O.O.O.O.O.O.O.T T T T E T T T T T T T Y Y Y Y Y Y Y Y Y H H H H Y H H H H H H H H H H H K G G G H H H G G G G G k k k k k k k k j j j j p p p p p p p p p p p p i p p j p f a 5 4 4 8 8 5 5 5 5 5 5 5 5 7 4 4 4 : : 4 8 : : : : : : : : : ; ; ; ; # # # # # # # + + + @ . . .           . . . . . . .                       . @ + # ; : : 4 4 5 5 5 5 5 ",
"Y H H H G G k k k k j j p i 5 4 7 5 4 4 7 5 i p j j j j i 4 : 4 p j j j j k k G G H H H H H H H H H H H H H H H H H H H H H H H H H H H G H H H H Y Y Y T T T T T Y Y Y Y H H H H G H H H H H H Y Y Y Y H H H H H H H Y Y T T T T T T T T T T T T T T T T O.O.O.O.O.O.O.O.O.O.O.O.O.O.O.O.O.O.O.O.+.+.+.O.O.O.O.O.O.O.O.O.O.+.O.O.O.O.O.+.+.+.+.=.=.=.=.;.=.;.=.=.=.=.=.=.=.=.+.+.+.+.+.+.O.+.+.O.O.O.+.+.;.+.+.+.+.+.+.+.O.+.O.Q H H T $.+.+.=.=.=.-.-.-.-.=.=.+.+.+.+.+.+.+.+.;.;.+.+.+.+.+.+.O.O.O.+.+.+.+.+.+.+.+.+.+.+.+.+.O.E W K k j k ! R E O.+.+.+.O.O.O.O.O.O.O.+.%.*.+.+.+.+.+.+.+.O.O.O.O.O.O.O.O.O.O.O.O.O.+.O.+.O.O.O.O.O.O.O.O.O.O.T T T T T T T T E T T T E E E Y Y Y Y W W W Y Y H H H H H H H H H H H H H H H K H H H H H H H H G G G k k k k k k k k k j j j j p p p p p p p p p p i p p p j p f s 5 4 4 8 8 5 5 5 5 5 5 5 5 9 4 4 4 : : 4 8 : : : : : : : ; : ; ; ; # # # + # # # + + + + . . . .             . . . . .                       . . @ + # ; : : 4 4 5 5 5 5 5 ",
"Y H H G G k k k k k j j p i 5 5 5 4 4 4 4 5 5 p j j j p i 4 : 4 f l l j j k k G G G H H H H H H H H H H H H H H H H H H H H H H H H H H G G H H H Y Y Y T T T Y Y Y Y H H H H H G H H H H H H H Y Y Y Y H H H H H H H Y Y Y T T T T T T T T T T T T T T T T O.O.O.O.O.O.O.O.O.O.O.O.O.O.O.O.O.O.+.+.+.+.+.+.O.O.O.O.O.O.O.O.+.+.O.O.O.O.+.+.+.=.=.=.=.=.=.=.=.=.=.=.=.=.=.=.=.+.+.+.+.+.O.O.O.+.O.O.+.+.+.=.=.+.+.=.=.=.+.+.+.O.E H H Y $.O.+.+.+.=.=.=.=.=.=.;.=.+.=.+.=.+.=.+.;.=.+.+.+.+.+.+.+.O.+.+.+.+.+.+.+.+.+.+.+.+.+.+.O.T Y K k j J / R Q O.+.+.+.+.O.O.O.O.O.O.+.+.+.+.+.+.+.+.+.+.+.O.O.O.O.+.+.O.O.+.+.+.+.+.+.+.+.O.O.O.O.O.O.O.O.O.O.T T T T T T T E T T T T T E T Y Y Y T T T Y Y H Y Y Y Y Y H H G G H H H H H H H H H H H H H H G G G k k k k k k k k k k j j j j j p j j j p p p p p p p j j l l f i 5 4 9 7 5 5 5 5 5 4 4 4 4 4 4 4 : : 4 : : : : : : : : ; ; ; ; # # # # + # # # + + + @ . . . .             . . .                           . . @ + # ; : 4 4 4 5 5 5 5 5 ",
"Y H H G G k k k k k j p p i 5 5 5 4 4 4 4 5 5 i j j j p i 4 : 4 f l l j j k k G G G G H H H H H H H H H H H H H H H H H R H H H H H H H G G H H H Y Y Y T Q T Y Y Y H H H H H H G G H H H H H H Y Y H H H H H G G H H H Y Y T T T T T T T T T T T O.T T T T T O.O.O.O.O.O.O.O.O.O.O.O.O.+.+.+.O.+.+.+.+.+.+.+.O.O.O.O.O.+.+.+.+.O.O.O.+.+.+.=.=.=.=.=.=.=.=.=.+.=.=.+.=.=.=.+.+.+.+.O.O.O.O.O.O.+.+.+.+.=.=.=.=.=.=.-.=.=.+.+.+.~ J G Y ~ @.O.O.O.+.+.+.+.+.+.+.+.=.=.=.=.=.=.=.=.=.+.+.+.+.=.+.+.+.+.+.+.+.+.+.+.+.+.+.+.=.=.+.O.T Y H G k k ! E T O.+.+.+.+.+.O.O.O.O.+.+.+.+.+.+.+.+.+.+.+.+.+.O.O.+.+.+.+.O.+.+.+.+.+.+.+.+.O.O.O.O.O.O.O.O.O.O.O.T T T T T T T T T T T T T T T T T T T T Y Y Y Y Y W Y Y H H H H H H H H K H H H H H H H H H H G G k k k k G G G G G k k k k j j j j j j p p p p p j j j j j l f i 5 5 7 9 5 5 5 5 5 5 4 4 4 4 4 4 : : : : : : : : : : ; ; ; ; ; # # # # + + # # + + @ @ . . . .             . . .                             . @ + # ; : 4 4 4 4 5 5 5 5 ",
"H H H G G k k k k j j p s a 5 5 4 4 4 7 7 5 5 i j j j p 5 : : 4 a p j j j k k G G G G G H H H H K H H H K H H H H H H Y R R H H H H H H H G G H K R Y Y W Q T Y Y Y H H G G G H G G G G H H H H H H H H H G G G G G H H Y Y Y T T T T T T T Q O.Q T O.O.T O.O.O.@.O.O.O.O.O.O.O.O.O.O.O.+.+.+.+.+.+.+.+.+.+.O.O.O.O.O.O.O.O.O.O.O.O.O.O.+.+.=.=.=.=.=.=.=.=.=.+.=.+.+.+.+.+.+.+.+.+.O.O.O.+.O.O.+.+.+.+.=.=.=.-.=.-.,.-.=.+.=.*.{ L G K ~ @.O.O.O.+.+.+.+.+.+.+.+.+.+.+.+.+.+.+.+.+.+.+.+.+.+.+.+.O.+.+.O.O.+.+.+.+.+.+.=.=.=.+.O.T Y K k j k K E O.O.+.+.+.+.+.O.O.O.O.O.O.O.O.+.+.+.+.+.+.+.+.+.+.O.+.+.+.+.O.+.+.+.+.+.+.+.+.+.O.O.O.O.O.O.O.O.O.O.O.O.T E T T T T T T T T T T T T T T T T Y Y Y Y Y W W W Y H H H H Y H H K H H H H H H H H H H G G G G J J G G G G G k k k k k j j j j j p p p p p j j j p l x f i 5 5 9 9 5 5 5 5 5 5 4 4 4 4 4 4 4 : : : : ; ; : : : ; ; > > ; # # # # + + + # + @ @ @ . . . .         . . . . . .                           . @ + # ; : 4 4 4 4 4 4 5 4 ",
"R K K K H J G k k j p p i 5 5 4 4 4 9 5 5 5 5 i j j p i 4 : : 4 i p p j k k G G G G G G G G H R H H H H H H H H H H H H H H H H R H H H H G G G G H H W Y T T Y Y H H H H G G G k k G G G G H H H H H H K J J J H H H H W W W T T T T E T Y T T T T $.O.O.O.O.O.O.O.O.O.O.O.O.O.O.O.O.O.O.O.O.+.O.O.O.O.O.O.O.O.O.O.O.O.O.O.O.O.O.O.+.+.+.+.+.=.+.=.+.=.=.=.=.=.+.+.+.+.+.O.O.O.O.O.O.O.+.+.+.+.+.+.+.+.+.=.=.=.=.>.>.>.+.O.+.&.J p k R Q O.%.+.O.O.+.%.+.+.+.+.+.O.O.O.O.O.O.O.O.O.+.+.+.+.+.+.O.O.+.+.+.O.O.O.+.+.+.+.+.+.+.+.+.O.E U j p k P Q $.+.+.+.*.@.T T T T T $.$.O.T O.O.O.O.+.+.+.+.O.O.O.+.+.+.+.O.O.O.+.+.+.O.O.O.O.O.O.O.O.O.O.O.O.T T O.O.T T T T T T T T T T T T T T T T T T T Q T T T T Y Y Y Y H H H H Y Y Y H H G G G G G G H G G G G J G G k k k k k k k j j j j j j p p p i i p p j j j j p p i 5 5 5 5 9 g 5 5 5 4 4 4 8 q 8 4 4 4 : 1 : ; ; ; ; , , ; ; ; ; # # # # $ $ + + + + @ . . . .         . . . . . . . .                           . @ + # ; ; : 4 4 4 4 4 5 4 ",
"H H H H H G k k j j p p i 5 5 4 : : 5 5 5 5 5 i j x f d : ; : 4 i p j j k k G G k G G G G G H Y H H H H H H H H H H H H H H H H Y H H H H G G G G H H Y W T T T Y Y Y H H G G G G G G G H H H Y H P P H H H H H H H H W W W Q Q O.O.T T T T T T T O.O.O.O.O.O.+.O.O.O.O.+.+.O.O.O.+.+.+.+.+.+.+.O.O.O.O.O.O.O.O.O.O.O.O.O.O.O.O.O.+.+.+.+.+.+.+.=.=.=.=.=.=.=.=.+.+.+.+.+.+.O.O.O.O.+.+.+.+.=.+.+.+.+.+.+.+.=.=.=.>.>.%.+.O.O.Q z p k R $.%.>.+.O.O.%.%.+.+.+.+.O.O.O.O.O.O.O.O.O.O.O.O.+.+.+.+.O.O.O.O.O.O.O.O.+.+.+.+.+.O.O.O.+.O.! U j p c U Q $.+.+.+.+.@.T T T T $.O.O.O.O.O.O.O.+.+.+.+.+.O.O.O.+.+.+.O.O.O.O.+.O.+.+.+.+.O.O.O.O.O.O.O.T T T T T O.T T T T T T T T T T T T T T T T T T T T Y Y T T Y Y Y Y H H H H H H H H G G G G G G G G G G G G G G G k k k k k k j j j j j j p p p p i i p p j j p p p i i 5 5 4 5 5 7 5 4 4 4 4 4 8 8 4 : : : : : : ; ; ; ; : : ; ; ; ; # # # # + + + + + @ @ . . . .         . . . .                                   . . + # ; ; : 4 4 4 4 4 4 4 ",
"H H H H H G k k k j j p i i 5 4 : : 4 5 4 4 5 5 j x x d : ; : 4 i p j j k k G G k k G G G H H H H H H H H H H H H H H H H H H H H H H H H H G G G H Y W W T T T T T Y Y Y H H H H H H H Y Y Y T W W Y Y Y Y Y Y W W T T T T T $.O.O.O.O.O.+.O.O.O.O.+.+.+.+.+.+.+.+.+.+.+.+.+.+.+.+.+.+.+.+.=.=.+.+.O.+.+.+.+.+.+.+.+.+.+.+.+.+.+.+.=.=.=.=.=.=.=.=.=.=.=.=.-.=.=.=.=.=.=.=.+.+.+.+.+.=.=.=.=.=.+.+.+.+.+.=.=.=.=.=.=.+.+.+.O.T k p k R &.+.>.+.O.O.$.$.+.+.+.+.O.O.O.O.O.O.O.O.O.O.O.O.+.+.+.+.O.O.O.O.O.O.O.O.+.+.+.+.+.+.O.O.O.T R U j p c U Q $.+.+.+.+.O.T O.O.O.O.+.+.+.+.+.+.+.+.=.=.=.+.+.O.O.O.O.+.+.+.O.O.O.O.O.O.O.O.O.O.O.T T T T T T T T T Q T T Q T T T T T E T Y T T T T T Y T Y W Y H Y Y Y Y R H H H G H H H G G G G G G G G G J G G G G G G z k k k k k j j j j j j p p p p p i i p p p j p p p i 5 4 4 4 9 9 7 4 4 4 4 4 4 4 : : : : : : : ; ; ; ; ; ; ; ; ; ; ; # # # # + + # + + + @ . . . .           . O . .                                 . . + # ; ; : 4 4 4 4 4 5 5 ",
"H H H H H G k k k j j p i i 5 9 : : 4 5 4 4 5 5 p c x d : ; ; 4 i p p j k k G G k G G G H H H H P G H G G H H H H H H H H H H H H H H H H H H H H K R W W T T T T T T Y Y Y H H H H H Y Y Y T T T T T T Y Y Y Y T T T T $.$.$.O.+.O.O.O.+.+.O.O.O.+.+.+.+.+.+.+.+.O.O.+.+.+.+.+.+.+.+.+.+.+.=.=.+.+.+.+.+.+.+.+.+.+.+.+.+.+.+.+.+.+.+.+.=.=.=.=.=.=.=.=.=.=.-.-.-.=.=.=.=.=.=.=.=.=.=.=.-.-.-.=.=.+.+.+.=.=.=.=.=.=.+.+.+.+.O.T k p k R @.+.;.+.+.O.$.$.O.+.+.O.O.O.O.O.O.O.O.O.T T O.O.O.+.+.+.+.O.O.O.O.O.O.+.+.+.+.+.+.O.O.O.O.T R J j p c U E O.+.+.+.O.O.T O.+.O.O.+.+.+.+.+.+.=.+.=.=.=.+.+.+.+.O.O.O.+.+.+.O.O.O.O.O.O.O.O.$.T T T T T T T T T T Q T T T T T Y T T T T Y T T T T Y Y Y Y Y H H H H H H P K H H G K H G G G G G G G G G G J G G G G G k k z z k k j j j j j j j p p p p p i p p p j j p p i i 5 4 4 4 4 9 5 4 4 4 4 4 4 4 4 : : : : : : : ; ; ; ; ; ; ; ; ; ; ; # # + @ + # + + + @ . . . . .         . O                                     . . @ # ; ; : 4 4 4 4 4 5 5 ",
"H H H H H H G k k j j p i i 5 9 : : 4 5 4 4 5 i j c x d : ; ; 4 i p j j k k G G G G G G H H H H H G G G G H H K H H H H H H Y Y Y H H H H H H H H H Y Y W W T T T Y Y Y Y H H H H H H Y Y Y Y T T T T Y Y Y Y Y T T T T O.O.O.O.+.+.+.+.+.O.O.+.O.O.O.+.+.+.+.+.O.O.O.O.O.O.O.O.O.+.+.+.+.+.+.+.+.O.O.O.O.+.+.+.O.O.O.O.O.O.O.O.+.+.+.+.+.+.+.+.+.+.=.=.=.=.=.=.-.;.=.=.;.;.=.=.=.=.=.=.=.=.-.=.=.+.+.+.+.=.=.=.=.+.+.+.#.#.@.E k p k E @.+.;.+.+.O.$.$.O.O.O.O.O.O.O.O.O.O.O.T T T O.O.O.+.+.+.+.O.O.O.O.O.+.+.+.+.+.+.+.+.+.O.O.Y H G j p c U ~ $.+.+.+.O.O.O.O.O.O.O.O.O.O.O.+.+.+.+.+.+.+.+.+.+.+.O.+.+.+.+.=.+.+.+.+.+.+.+.O.$.$.O.$.T T T O.T T T T T T T T T T T T Q T T T T T T T T T Y R H H H H H H K K K K J J J G G G G k k k G G G J G k k k k k k k k k k j j j l j l l l j p p p p p p p j j p p i 5 5 4 4 4 4 9 5 5 4 4 4 4 4 4 : : : : : : : : ; ; ; ; ; ; ; ; ; ; ; # # # + @ # + + + + @ . . .           o O                                       . @ # ; ; : 4 4 4 4 5 5 5 ",
"Y H H H H H G G k j j p i i 5 4 8 4 4 5 4 4 5 i j c x d : ; : 4 i p j j k k G G G G G G H H H H G G G G G G K K H H H H H Y Y Y Y Y H H H H H H H H H H Y W Q Q Y Y Y Y H H H H H H Y Y Y W W T T T T T T T T T T T T T T T O.O.O.+.+.+.O.O.O.O.T T O.O.O.+.O.O.O.T O.O.O.O.O.O.O.+.+.+.+.+.+.+.+.O.O.O.O.O.O.O.O.O.O.O.O.O.O.O.O.O.O.O.+.+.O.+.+.+.+.+.+.+.+.=.-.;.=.=.;.;.=.=.=.=.=.=.=.=.-.=.=.#.=.=.=.=.;.;.=.+.+.+.#.#.@.E k j G E #.=.=.=.+.+.O.$.O.O.O.O.O.O.O.O.O.O.T T T O.O.O.O.O.O.O.+.+.O.O.+.+.+.+.O.+.+.+.+.+.+.O.O.Y H G j j z P E O.O.+.+.O.O.O.@.@.O.O.O.O.O.O.O.O.O.O.O.O.O.O.+.+.+.+.+.+.+.+.+.+.+.+.+.+.+.+.O.$.$.$.$.$.$.$.O.$.$.$.$.T T T T T T T T T T T T T T T T T T Y W H H H H H H K H H H G K G G G G G G G G G G G G G G k k G k k k k k k k k k c j j j l j j j p p p p p j p p i i 7 4 4 4 4 4 9 5 5 5 4 4 4 4 : : : : : : : : ; ; ; ; ; ; ; ; ; ; # # # + + + + # # + + + @ . . .             o                                       . @ # ; ; : 4 4 4 4 5 5 5 ",
"Y H H H H H G G k k j p i i 5 5 : : 4 5 4 4 5 i x c x d : ; : 4 a p j j k k k k J J G G G H H H G G G G G G H H H H H H Y Y Y Y Y Y Y Y Y H H H H H H H H R ! W Y H H H H H H H H H H H Y W W W Y Y T T T T T E T T T T T T $.O.O.O.O.O.O.T T T T T T O.O.O.O.T O.O.O.O.@.#.+.+.O.+.+.%.+.+.+.+.+.+.O.O.O.O.+.O.O.O.O.O.O.O.O.O.O.O.+.+.+.+.+.+.+.+.+.+.=.=.=.=.;.=.=.=.=.=.=.=.=.=.=.=.=.-.-.-.=.=.=.=.=.=.=.;.=.=.+.+.#.#.O.E G j G E #.=.=.=.+.+.+.O.O.O.O.O.O.O.O.O.O.O.O.T O.O.O.O.$.O.O.O.O.O.O.O.O.+.+.+.O.O.+.+.+.+.+.+.O.T Y H j j k P E T O.+.+.O.O.O.@.T T T @.@.T T O.O.O.O.O.O.O.O.+.+.+.+.+.+.+.+.+.+.+.+.+.+.+.O.+.O.O.O.O.O.O.O.O.O.O.O.O.O.O.O.T T T T T T T T T T T T T T T T Y Y Y Y W Y Y Y H H H H H H H G G G G G G G G K G G G G G G G k G G k k k k k z k k k j j j j j p p p j j p p i i 5 5 4 4 4 9 9 7 7 5 5 4 8 4 : : : : : : ; ; ; : ; ; ; ; ; ; ; # # # # + + + + # # + + + @ . .                 o                                     . @ # ; : : : 4 4 9 5 9 4 ",
"Y H H H H H G G J z l f p i 5 5 : : 4 5 4 4 5 i v c x d : ; : 4 a p j j k k k k J G k k G G H G G G G G G G G G G H H H Y W Y Y W R Y Y Y Y H H H H H H H K P P P H H H H H G G G H H H H H Y Y Y Y Y T T T T T T T T T T T T T *.$.$.$.$.$.Q T T T T Q $.$.T T Q T T O.O.O.O.O.O.O.+.%.%.+.+.+.+.O.O.O.O.O.O.O.O.O.+.+.O.O.O.+.+.+.+.+.+.+.+.+.+.+.+.+.+.+.+.+.=.=.=.=.=.=.+.+.=.=.=.=.=.=.-.-.-.-.-.-.=.-.-.-.=.=.=.=.+.+.O.T K k H @.#.=.-.=.=.+.+.O.O.O.O.O.O.O.O.O.O.O.O.T O.O.O.O.O.O.O.$.O.O.O.O.O.O.O.O.O.O.+.+.+.+.+.+.+.T Y H k j G P W T T O.O.O.O.O.T E T T O.O.T T O.O.O.O.O.O.O.O.+.+.+.O.O.O.O.O.+.+.+.+.+.+.O.O.O.O.O.O.O.+.+.+.O.O.O.O.O.O.O.$.T T $.$.T T T O.T T T T T T T T Y Y Y Y T Y Y Y Y Y Y Y Y Y H H H H H H H H K K G G G G G G G G G G G k k k G J k k k k k k k j p p j j j p p a a 5 5 4 4 9 9 d 7 7 7 5 4 8 4 : : : : : : ; ; : : : ; ; ; ; ; ; # # + # + + @ @ + + + + + @ @ .                 o                                     . @ # ; : : : 4 4 9 9 4 4 ",
"H H H R R H G k k k j p p i 5 4 : : 4 5 4 4 4 5 v x f 5 : # ; 4 a p j j k k G G G k k G G G H H G k k k G G G H H H H H H H Y H H H Y Y Y H Y Y H H G J L I ( I L U P G L P P G G G H H H Y W W H H W Q Q W W Q W W W W W W W Q Q Q Q Q W Q W Y Q ~ Q Q Q Q Q Q T T Q Q T T T T $.$.$.$.$.%.%.%.$.O.O.O.O.%.%.%.O.O.O.O.O.O.O.O.O.+.+.+.+.+.%.%.>.>.>.>.>.>.>.>.%.>.>.>.%.+.%.<.+.+.+.+.>.>.>.=.-.-.-.-.-.-.-.,.=.=.>.>.=.+.+.$.! J H O.;.=.-.-.=.=.+.+.+.+.+.+.#.O.O.O.O.O.O.O.T T T T T T T T O.T O.O.O.O.O.+.O.O.O.O.O.+.+.+.+.O.T R G k k G ! W T T O.@.&.@.O.O.O.O.O.O.O.O.O.O.O.O.O.O.O.O.O.O.$.*.$.O.O.$.O.O.O.O.O.O.O.O.O.+.+.O.O.O.O.O.O.O.O.O.O.T O.T T T T O.@.@.O.O.T T O.O.O.T T T Y Y Y Y Y T T T T T Y Y Y Y Y H H H H H K K H H G H H H G G G G K J G G G G G k k k k k k k k j j p p j j p p a a 7 7 4 4 9 5 5 7 5 5 5 4 4 4 4 : : : : : > ; ; : : ; , > ; ; # # # + @ $ & % + + # # $ % @ . . .                                                     . @ # # ; : : 4 4 4 4 4 4 ",
"H H H H K H G G J z j f s a 5 9 : : 4 5 5 4 5 i x x f 5 : ; ; 4 i p j j k k k k k k k k G G K K G G k k G G G H G H H H H Y Y H H H H Y H H H H H G G J b b b v x b x j l c l j z z L J J L L L L L L U P L U ) U U P U P U P U L U P L L L L L L L L L L L U P P ! ! ! W ! W R W W W W W W Q ~ E E E E ~ ~ ~ ~ W Q Q W W W W Q Q Q Q Q $.$.&.&.Q Q Q Q $.Q $.Q T T Q Q T Y W T &.&.$.&.&.&.&.%.%.%.%.<.<.%.%.0.*.*.*.*.*.*.&.~ ) L Y $.;.-.-.a.=.=.+.+.+.+.+.+.#.O.O.O.O.O.O.O.O.T T T T T T T T T T O.O.O.O.O.O.O.O.+.+.+.+.+.+.+.O.Q P G L U U ! R W E ~ ~ ~ T Q Q Q Q Q Q Q T T T T Q Q Q Q Y Y W T T W W Y ~ ~ E E E E ~ Q T T T T T T T T Q Q Q T E E E E Y Y Y Y E E T Y Y Y T E Q E E Y Y Y W W T T T T Y Y Y Y Y Y H H H G G G H G H G G G G G G G G k G G G G G k k k k k k k k k j j p p p p p p i i 5 4 4 : 4 5 i 5 5 5 5 4 4 4 4 4 : : : : ; ; ; ; ; ; ; ; ; ; # # # + @ @ @ % @ @ + + + + % @ @ . .                                                     . @ + # ; : : : 4 4 4 8 8 ",
"H H H H H G G J z j j p s i 5 4 : : 4 9 4 4 5 i x x f d : ; ; 4 i p j j k k k k k k k k G G H K G G G G G K K K H H H H H Y Y H H H H H H H H H H G z j l f d d 7 q 7 4 4 7 5 5 7 i a a s s s s a a d f f f f h f f h h h h h f i a d a d d d a d a d h h h h h v v v v v v v b b b b b b b b b b b b b b b b b z z z z l l z z z z b L L L I I I I I I I I I I I ' ' ' b b b ' ' I I I I I I L U ! ! ! ! P P ! ! ! U U U U U ( ( I P $.>.=.-.a.-.=.=.+.+.+.+.+.+.O.O.O.O.O.O.O.O.O.T T T T T T T T T T T T T O.O.O.O.+.+.+.%.+.;.+.$.Q W L I ' ( I L L U U ( U { { ! / ! ! ) ! P P P P U ! ) ) U U ) { { { ) ) ) ! ) ! ( ( ( ) R W R R R R ! ! R R R R R ! ! ! R R R ! ! ! R K H H R R R K K R K K K K R ! R K K H H H H H H G G k k k G G G k J k k k z z k j j j k k k j j j j j j j j j j p s i i i i a a 7 7 8 4 : 4 5 i i 5 5 5 4 4 4 4 : : : : : ; # # ; ; ; ; ; > # # + + @ . . . @ @ @ @ + + + % @ @ . .                                                     . @ + ; ; : : : : 8 8 8 8 ",
"H H H H G G G G k j p p i 5 9 4 : : 4 5 4 4 4 5 x x f d : # ; 4 i p j j k k k k k k k k k G G G G k G J J K K K G H H H H H Y H H H H H H H H H K J z p i 5 4 : ; # # # # > > ; ; ; : : : : : : : ; ; : : : : : : : : : : : : : ; ; ; ; ; ; ; ; ; ; ; : : : 8 4 4 4 4 4 4 4 4 4 4 4 4 4 4 4 4 4 4 5 4 4 4 4 4 4 4 5 5 5 4 4 4 5 4 5 5 5 5 5 5 7 5 5 5 5 5 5 5 5 5 7 7 5 4 4 4 4 7 7 5 5 5 5 5 5 i i i i i i i i a a a a a a s h x c P ~ *.=.-.-.-.=.=.+.+.+.=.+.O.O.O.O.O.O.O.O.O.T T T T T T Y Y Y Y T T T T T T T O.O.O.+.+.+.+.+.T Q U L x x v v l l l l x v l j j j j p p p p p l l x v v v l x x x b v c v b b b b b b b b L z z z I I L z z z z z z z z z k k k k k k j j z z I I I I b I z J L L L L L L L L J J z z z z z z l l l l v v v l l l v v l p p p f f s f f s s s s a s a a a g a a 7 9 9 9 8 0 0 : : 4 5 i i 7 5 5 4 4 4 4 : ; : : , ; # # # ; # # # # # + + + @ . . . . O % @ @ @ @ @ @ . . .                                                     . @ + # ; ; ; : , : : , : ",
"H H H G G G k k j j p i i 5 9 4 : : 4 5 4 4 4 5 j j p d : # ; : i p j j k k k k k k k k k k G G G G G G G H K K G H H G H H Y H H H H H H H H G J z l i 4 : ; # @ . . . . @ + @ + + # # # # # # + @ + @ + + # # # # + + + @ @ @ @ @ @ . . . . . . . @ @ + + + # # # # # # # # # + + + + + + + + # # # # # # # # # # # # # # # # # # # # # # # # # # + + + + + + + + + @ @ . @ @ # + + + # # # # # # # # # # # # # # # # # ; ; : 4 p L ~ *.+.=.-.-.=.=.+.+.+.=.+.O.O.O.O.O.O.O.O.O.T T T T Y Y Y Y Y Y Y Y T T T T T T O.$.O.O.O.+.O.Q ! U x i 5 5 5 4 4 4 4 4 4 : : : : : : : : : ; : : : : : : 4 4 4 4 4 4 4 4 5 4 5 4 5 5 5 5 5 5 5 5 i a 5 5 5 5 5 5 5 5 5 5 5 5 5 5 5 5 5 5 a a d d d d d d h h h h h h h h h h d h h h f a d a a a a a d g g a 7 7 g g 7 5 7 7 7 q q q 7 q 7 7 7 8 8 8 4 4 0 6 8 8 8 1 : , 3 > ; ; : 5 i 5 a 7 5 4 4 4 4 4 : : : , ; # # # ; ; # # # # + @ . . . . . . . . . . . . . . . . .                                                     . @ + # # ; ; > > > ; ; ; ",
"H H H G G G k k j j p i a 5 9 4 : : 4 5 4 4 4 i j j p 5 : # ; 4 i p j k k k k k k k k k k G G G G G G G G G G G H H H H H H H H G G G H H H G G J z f 5 : ; # + . . . . @ + # # # # # # ; ; ; # + + + + # # # # # # # + + @ @ @ + @ @ @ @ . @ @ @ @ + + + # # # # # # # + + + @ + @ @ @ @ @ @ @ + + @ @ @ @ @ @ @ @ @ @ @ @ @ @ @ @ @ @ @ @ @ @ @ @ . . . . . . @ @ . . . . . . . . . . . @ @ . . . . . . . . . . . . . . @ @ # ; 5 c ! &.+.+.=.;.=.+.+.+.+.+.+.O.O.O.+.+.+.O.O.O.O.T T T Y Y Y Y Y Y Y Y E E T T T T T O.O.O.O.O.O.~ ) I p 5 : ; ; ; # # # # # # # # # # # # # + + + + + + + + # ; ; ; ; ; ; ; ; ; ; ; ; ; ; ; ; ; # ; ; ; ; # # # # # # # # ; : : : ; : : : : ; : : : : : : : : : : : : : : : : : : : : : : : : : : : : : : : , : : : , : ; ; ; ; ; ; , ; > ; > ; ; ; ; # # # > ; ; ; ; ; # # # # # # : 7 a a 5 5 5 4 4 4 4 4 : , : ; ; # # # ; ; # # # + @ .               . . . . . . . . . .                                                     . . + # # > > ; > ; # # # ",
"H H H G G G k k j p p i i 5 9 4 : : 4 5 4 4 4 5 j j p 5 : # ; 8 i p j j k k k k k k k k k G G G G G G G G G G G G H H H H K H H G G G G H H G G z l s 5 : # # # # # ; ; 1 1 0 8 8 4 4 4 4 4 4 4 : : : : 8 0 8 4 8 4 4 : : : : : : ; ; : , ; : , : : : : 4 4 8 8 8 : : : : : : ; : ; ; ; ; ; ; ; ; ; ; ; ; ; < < ; ; ; ; ; ; ; ; ; # # # # # + + + + + + @ @ + + # # # # # # # + # + # # # # ; # + + % @ @ @ @ @ @ + + + + + + # ; 4 x I E O.+.+.=.+.+.+.O.O.O.O.O.O.+.+.%.%.+.O.O.$.T T Y Y Y H H Y Y Y Y E Q T T T T T T T O.O.T T E ) C i 4 ; # # # + @ @ + + + + + + + + + + + + # # # # # # @ @ @ @ . @ @ @ @ @ @ @ @ @ @ @ @ @ @ @ @ @ . . . . . . . . . . @ @ . . @ @ @ . @ @ @ @ @ @ @ @ @ @ @ @ @ . . @ @ @ @ @ + + + + + + + + + + + + + + + + @ @ @ @ . @ @ @ @ . @ @ @ @ @ . . . . . @ @ @ @ + @ @ . . @ @ # : q g a 5 5 5 4 4 4 4 : : : : ; ; ; # # ; # # # + @ . .                 . . . . . . . . .                                                     . . @ + # > > ; # # # # # ",
"G G G G G G k k j p i i 5 5 4 4 : : 4 4 4 : 4 5 f p i 9 ; # ; 8 i p j j j k k k k k k k k G G G H G G G G G G G H H H H H H H H G G G G H H G G k l a 5 : ; # ; ; : 4 8 8 B B d g d d d f p p d i 9 d d g N N d B d d 9 9 9 9 g 4 4 4 7 q 9 q g 7 7 5 5 d d d h d d d d d d 9 9 9 9 9 4 4 4 4 4 8 8 8 8 8 8 8 9 8 9 q q 8 8 9 q 8 8 8 8 1 1 : : : : : : : : : : 4 4 4 4 4 4 8 8 : : : : 4 4 4 4 ; ; < # # ; ; # ; ; ; ; ; ; ; ; ; 4 h L R T +.+.+.+.+.O.O.O.O.O.O.O.O.+.%.O.$.$.$.T T T Y Y H H H Y Y Y Y Q Q T O.O.T T T T T T Y Y R U b i 4 : : : : ; ; ; ; ; : : : : : : : : ; ; ; ; ; ; ; ; # # # # # # # # # # # # # # # # @ @ @ @ @ @ . . @ . . . . . . . @ @ @ . @ . . . . . . . . . . . . . . . . . . . .     . . . . . . . . . . . . . . . . . .       . . . . .   . . .           . .   . . . . . . . . . @ # : q 7 5 5 4 4 4 4 : : : : ; ; ; ; ; # # > # + @ @ . .                           . . . O .                                                       . . @ + + + + @ @ @ @ @ ",
"G G G G k k k j j p p i i 5 9 4 : ; : : : 4 4 4 a a d 5 : ; ; : a p p p p j j k k k G J K J G G G G G G G G G G G H H H H H H H G G G G G G G k z l i 4 4 : : 4 4 5 5 i d d d a i a f x x c c c f h f i i s f i i i i p h v v f a a i i a a i i f f x x x x x x j b b x x b b p x l f f f f x v f f f f f f f f p p f f f f f f f f f s i i i i f s i i p a s p p j j j j p p p p p p p p x x f h g g 9 8 4 4 5 i i i i a d 9 4 : : v U T O.O.O.O.O.O.O.O.O.T T T O.$.O.O.T T T T T Y Y Y H H H H Y Y T T T T $.O.O.T T T T T T E Y H k D i 5 a S m b j p p s i i p f f p p p f p p i i i a f h a a i 5 5 a a a 5 5 i 7 5 5 5 4 8 : : : : : ; ; ; ; ; # # # # # # # # # # # # # + + @ @ + + + @ @ @ @ @ @ @ . . . . . . . . . .         .   .                 . . . . . . . . . . . .           .       . . . . . . @ # 0 q 9 5 4 : : : : : ; ; ; ; > ; > ; # # # + @ .                                                                                               . . . .                   ",
"G G G k k k j j j p p i i 5 9 4 : ; ; ; : : 4 4 7 a 7 4 : ; # : 5 i p p p j j k k G G J K G H G G G G G G G G H H H H H H Y Y H G G G H H H G G z l i 5 4 4 4 4 5 5 i i a a a 5 a a h f x x c x x h h s i a a i i i i s v v x f a a i i a s p i p p p j j j j j j c b l c b b j l l l v v v l l l l x x v v l l l l l l l l l l v v v x x l l l p p p f l v x l z k z z z z z z c l l l l l l l h h d a 7 5 5 i p p j j j v f 5 : : v U T O.O.O.O.O.O.O.O.O.T T T T T O.Q T T Y Y Y Y Y H H H H Y Y Y T T T $.$.O.O.T T T T Y Y T Y K z D i i f b U P H G G z z k k k z z z z k k k j j j k z z j j j l l l l l j j j l j j p p a a a 5 5 5 5 5 4 4 4 4 4 4 4 : 4 4 : : : : : : : ; ; > ; ; > ; ; # # ; > > # # # # + + + @ + @ @ @ @ @ @ @ @ @ . . . @ @ . . @ @ . @ @ @ @ @ @ . . . .                 . . . . . . @ # : 9 9 5 8 : : : : ; ; # ; # ; > ; ; ; # # + . .                                                                                                   .                     ",
"k k G k k k k j j p p i a 7 7 8 : : ; : : : 4 4 7 a 7 4 : ; # : 5 i p p p j j k k G G J G G G G G G G G G J K H H H H H H H H H G G G H H H G J j j i 5 4 4 5 5 5 i i a s a 5 5 5 5 7 7 g d f f d g a 5 5 5 5 4 5 5 7 g d h d a 7 7 7 7 7 7 7 5 a d a f f f f f s h h s s h h i i a s h h h a a s h h h h h h s v h h h f s s s h h h h h h h h f f h h V S S V v v v v v v v v D S v v v v v h N h g q q g g i p l j j z b v g : : v ! T O.O.O.O.O.+.O.O.O.T T T T T T T T T Y Y Y Y Y H H H H Y Y Y Y T T T T $.T T T E Y Y Y Y Y K z D i p v I U ! Y H U I L J G G J L L J G J J k k z z L L k k z c L L L c k k k k k k k k x x x l f f s s s s s s a a a a a i i 5 5 5 5 5 7 7 5 5 7 7 8 4 4 4 4 4 8 8 8 4 8 4 : : : : : : ; ; ; ; ; ; ; ; ; ; ; ; ; ; ; ; # # # # # # $ # # + + @ @ . . .       . . . . . . . @ # : 8 5 5 4 : : : : ; ; > # # # ; ; ; ; ; # # @ .                                                                                                   .                     ",
"G G G G G k k j j p p i a a 7 8 : : : : : : 4 4 a 7 7 4 : ; ; : 5 i p p p j j k k k G G G G G G G G G G G G G G G H H H H H H H G G G H H H G G j j p 5 5 5 5 i i i s s a a 4 : : ; ; ; : : 8 8 8 8 : : : : : ; : : : 6 0 8 8 : : : : : : : : : 8 8 8 8 8 7 9 9 7 7 7 4 4 7 7 4 4 4 4 4 8 4 4 4 4 5 9 5 7 5 5 5 q 7 q 7 7 5 9 5 9 9 9 7 7 9 9 9 9 9 9 g M M M g 7 7 a a a a g g A g 7 7 g g g 7 M q 0 0 q q q a s l z z b b C h 4 4 b ! T O.O.O.O.O.+.O.O.O.T T T T T T T T Y Y Y Y Y Y Y H H H Y Y Y Y T T T T T T T T E Y Y Y Y Y R k b i p b L ! W Y P U I L J J z J J L J z L L L L c c c b k z L L I I L L c z k k z c L I c b b c b x x x j l x x v x v v x l f s p s s s f s a a a a a i a a a a d d a a d d a 9 9 9 7 7 4 8 8 4 4 4 4 4 8 4 4 8 8 4 4 4 , > > > > , > > > ; ; $ $ $ + @ . . . . @ . . . . @ # > : 8 5 5 4 : : : ; ; ; ; ; # # # ; ; ; ; $ # @ .                                                                                                   .                     ",
"G G G k k k k j j p p i a 5 9 4 : : : : : : 4 4 q g 9 4 : ; ; : 5 i p p p j j k k k k G G G G G G G G G G G G G G H H H H H H H G G G H H H G G k j p i 5 i a a s f f s a 5 4 ; # + @ . @ + # # # # # # # # + # + # # # ; # # # # + # # # # # # # # # # # # ; ; ; ; ; # # ; ; # # # # # # # # # ; ; ; ; ; ; ; ; ; : ; ; ; ; ; ; ; ; ; ; ; ; ; ; ; ; ; : , , : ; ; ; ; ; ; ; ; ; , ; ; ; ; , ; ; : : ; ; ; : 4 4 f l z z L b b h 4 4 b ! T O.O.O.O.O.%.+.+.O.T T T T T T T T T Y Y Y Y Y Y Y Y Y H Y Y Y T T T T T T T T W Y Y Y H Y K k b p j I P W Q W ! U L z z z z z l l l b b b v v v l x l j j l c c c c c b b b b b b b C b b b b b b b b l l x b b b b v b b b v v v v v v f f f f f s s h f f h h h h f f h d d d a a a d d a 7 7 7 7 7 a 5 5 d a 5 5 7 : : : : : : , , 3 3 , > > > > # % + % % % @ + @ @ + $ , 8 4 5 5 4 : : : ; ; ; ; ; ; ; # ; ; ; > # # . .                                                                                                   . .                   ",
"G G k k k k k j j p i i 5 9 9 4 ; : : : : : 4 4 g g 9 4 : ; > : 5 i p p p j j k k k k k k k k k k k k k k G G G H H H H H H H H G G G H H H H G k l l i i i s f l l f f a 5 : # + .         . . . . . . . . . . . . . . . . . . . . . . . . . . . . . . . . . . @ @ . . . . . . . . . . . . . @ . @ @ @ + @ @ @ @ @ + @ + @ + + + + + + + + + + + @ + + + + + @ @ @ @ @ @ @ @ @ + @ @ @ + + + + # + + @ + # ; 4 f k J G J L c v 4 4 b ! T O.O.O.O.$.$.%.+.O.T T T T T T T T T T Y Y Y Y Y Y Y Y H H Y Y Y T Y Y Y Y Y Y Y Y Y H H H K k b j k U W Q Q T ! U c p i i a i 5 5 5 a a a a a 7 7 5 5 i i i i i i i i a a a a s s f h s s s s s s s s s f h v v v h h v v h h h h h h h h h d d d d a h s s s h h h a d d d g d a d a q 7 7 7 7 5 7 7 7 5 7 7 7 5 7 7 6 , : , , , : : , , , , , > ; # # + # $ & < & $ $ $ # ; : 4 5 5 4 : : : ; : ; ; ; ; ; ; ; ; ; ; # + .                                                                                                     . .                   ",
"G G k k k k k j j p i i 5 5 4 4 ; ; : : : : 4 7 q 9 9 4 ; ; ; : 5 i p p p j j k k k k k k k k k k k k k k G G G G H H H H H H G G G G H H H G G k z l p i p f l p p f f a 5 : # @ .                                                                     o                                           .   .   .   .   . . .       . . . . . . . . . . . . . . . .                 . . . . . . . . . . . . . + ; 4 f z J G G G c x 4 4 b ! T O.O.@.T $.O.+.+.O.O.T T T T T T T T T Y Y Y Y Y Y Y Y H H Y Y Y Y Y Y Y Y Y Y Y Y H H H H K k L j k P Q Q Q T Y L l i : ; ; ; # # # # ; ; ; ; ; ; ; ; ; ; ; ; ; ; ; : ; ; ; ; : : : : : : : : : : : 4 : 4 4 4 4 4 4 4 4 4 4 4 4 4 4 4 6 8 4 4 8 0 8 8 4 4 4 4 4 4 4 4 6 6 8 8 6 6 8 6 : : : : : : : : : : : : : : : : , , ; : , , , , , > ; ; > > ; # # # # ; < < < ; $ # # ; : 4 5 5 : : : ; : : ; ; ; ; ; ; ; > ; ; # + .                 o                                                                                   . .                   ",
"G G G k G k k j j p i 5 5 4 4 : ; ; ; ; : : 8 7 9 7 9 4 ; ; ; , 5 i i p p j j k k k k k k k k k J J k k k k G G G G H H H H H G G G G G G G G k k z v p p p l l p p p p a 5 : ; @ .             X                                   X         X                                       X X                                                                                                           o     . # 4 f c P H H G L x 4 4 c ! T O.O.@.T T $.%.+.O.O.T T T T T T T T T Y Y Y Y Y Y Y Y H H Y Y Y Y Y Y Y Y Y H H H H H H G J k b j G P W T T Y H J j 5 ; + @ . . . . . . . . . . . . . @ @ @ @ @ @ @ @ @ @ @ @ + @ @ @ @ @ @ @ @ + + + + + # # # # # # # # # # # # ; > # # # # # # # # # # # ; ; ; # # # # # # # # # # # # # + + + + + + + + # # + + # # # # # # # # # # # # # # # # + ; ; ; > > < ; # # # # : 8 8 5 4 : : ; ; : : , ; ; ; > , > ; ; ; + @ .                 o                                                                                   .                     ",
"k G G k k J z j j p i 5 5 4 4 : : ; ; ; ; : : 4 9 9 9 4 ; ; # ; 5 i i i p l k k k k k k k k k k k k k k J J G k G G H H H H H K G G G G G H P U k j j p p l b v p p p i i g q ; + .                     X   X X                                                                                   X   X   X   X   X   X   X                   X                                                           . # 8 p J K H H P G p 4 5 x P T O.O.O.T T $.O.O.O.T E Q T T T T T Y Y T T T W Y Y Y Y Y H H Y Y W Y Y Y Y H H H H H H G K J k k j k H W T T Y H L l 5 + .                                                                                     . . . . . . . . . . . . . . . . .     . . . . . . . . . . . . . . . .               . .   . .         . . . . . . . . . . . . @ . . . + ; : : : : 1 > # # # # ; : 4 5 4 4 : : : : : , , ; ; > , ; ; # # # + . .       X       o                                                                                 . .                     ",
"G G G G G J z j p p i 5 5 4 4 : : ; ; ; : : : 4 9 9 9 4 ; # # ; 7 i i i p j j k k k k k k j j j c k k z J J G G G G J H H H H K G G G G H H P U k j j p p j c j p p p p i Z A ; # .                                                                                                                       X   X   X   X   X   X                                 X                                     X X   # 4 f L ! W Y P J p 4 5 c P T O.O.T T T $.O.O.O.T E T T T T T T Y Y Y Y Y Y Y Y Y Y Y Y H H Y Y Y Y Y H H H H H H H G J J z j j k K W T T Y K b f 4 @                         o                                                                                                                                                                                           . .   . + ; : : : : : : ; # # # ; 6 8 4 4 : : : : : : : : : : ; > > ; # # # + . .               o                                                                                 . .                     ",
"G G G k k k k j p p i 5 5 4 4 : : ; ; ; : : : 4 9 9 9 4 ; # # ; 7 5 i i p j j k k k k k j j j j c z k z J L J G G G G G H H H K G G G G H G J L z j j p p p l j p p p p s S A : # @ .   o o o                                                         o       o                                                                                                                                     o X X   + : j L W W Y P k p 4 5 x P T T O.E Y T T $.$.O.T T T T T T Y T T Y Y Y Y Y Y Y Y Y Y Y Y Y Y Y Y Y H H H H H H H H G J J k j j k H W T T Y K z f 7 + .                     o o o o                                                                                                                                                                                             . + : 7 7 4 4 : : ; # # # , 0 0 4 4 : ; : : : : : : : : ; ; ; ; ; # # + .               o o                                                                                 . .                     ",
"G G k k k k j j p p i 5 5 4 4 : ; ; ; ; : : : 4 4 9 9 4 ; # # > 7 i i p p j j j k k k j j j j j k k k k k J G k G G G G H H H G k k G G G G G k z j j p i p l j p p p p p S A 8 # + . . . o o o       o o   o           o   o                             . . .                                                                                                                                     X X X . + : p G W Y H H k p 4 5 x U T T Q Y Y W Q Q $.T T T T T T T T T T Y Y Y Y Y W W W Y Y Y Y Y Y Y Y Y H H H H H H H H G K J k j j k H T Q T Y K L l 7 # . .   o o             o o o o o   o   o   o   o   o   o   o                                                                                                                                                   X           O $ 0 g g 7 4 : : ; # # # > 0 q 4 4 : : : : : : : : : : ; ; ; ; > > # + . .             o o                                                                                 . .                     ",
"G G k k k k j j j p i 5 5 4 4 : ; ; ; ; , : : 4 4 9 9 4 ; ; ; , 8 5 i p p j j j k k k j j j j j j j k k k k k G G G G G G G H G k k G G G G k k z j j p p p z j j p p p f V h 4 ; # . .   o     o   o       . . . .                         . . . . . . . . . .           . . . . . . . . . . . . . . . . . . . . . . . . . . . . . . . . . . . . . . . . . . . . . .   . .                           X X . # 4 j J W Y H G k i 4 4 x U W T Q Y Y Y T T T T T Y T T Y Y T T T T Y Y Y Y W W T E Y Y Y Y Y Y Y Y H H H H H H H H H H G k k j k H E Q Q T R L c d # @ . .   o           o o . . . o                                                       o o o                           o o o o                                                         o   o                   X           O $ 0 g g 7 4 4 : ; # # # > 0 q 4 4 : : : : : : : : : : ; ; ; ; > > # + @ .                                                                                                                         ",
"H G G G k k j j p p i 5 5 4 4 : ; ; ; ; : : : 4 7 9 q 8 ; # ; , 8 5 i p p j j k k k k k j j p p j j k k k k G G G G G G G G H G G G G J G G G k z j j p p p b j j p j j l v h 4 ; # . .                   . . . . . . .         . . . . . . . . . @ @ @ @ @ + @ . . . . . . . . @ @ @ @ @ @ @ @ @ @ @ @ @ @ + @ + @ @ @ @ @ @ @ @ . @ . @ . @ . @ @ @ @ @ @ @ @ @ . . . . . . .                 .           # 4 j P Q T Y K z s : 4 x U W T E Y Y Y T T T T Y Y E T Y Y T T T T Y Y Y Y Y Y Y Y Y Y Y Y Y Y Y Y Y H H H H H P P Y Y H G z j k R T O.O.T ! U b h # . . .                     . . o                                   o o                                                                                                                                                     . # 8 7 a 9 4 4 : ; ; # # > 0 6 4 4 : : : : : : : : : : : ; ; ; ; > # + @ .                                                                                                                         ",
"P G G G G k j j p i i 5 4 4 : : ; ; ; ; ; : : 4 9 q q 8 ; # # > 4 5 a p p j j k k k k z j j p p j k z z k k k k k k G G G G G G J J G G G G k k k j p p i p b j j j j l v v h 4 ; + .   .         .     . . . . . . . . . . . . . . . . . @ @ + + + + + # # # # + + % + % + % + @ + + # + # + # + # # + # # # + # + # # # + # # # + # # # # # + # # # # # # # # # + + @ @ @ . . .               . .       . # 4 j P Q T R J z h : 4 x U W Y Y H H Y W T T T Y Y E T T Y Y Y T Y Y Y Y Y Y Y Y Y Y Y Y Y Y Y Y Y Y Y H H P P P W Y Y H J J k G ! Y T $.T W P L h # . .                                                                                                                                                                                                                 . . . . # 4 5 5 5 9 8 : ; ; # # > , , 4 4 : : : : : : : : : : : ; ; ; ; # # + @ .                                                                                                                         ",
"P G G G k j j j p i i 5 4 4 : : ; ; ; ; ; : : 4 9 9 q 4 ; # # , 4 5 a p p j j z k k z z z j p p z z z k k k k k k k k G G G G G G G G G G G k k l p p i i p v j j p j b b m h 4 ; # @ . .       . . . @ @ + + @ + + + + @ @ @ @ @ @ + + # # # # # # # > > ; ; ; > > > > > > > > > > > > > ; > ; ; ; > > ; ; ; > > > ; ; ; ; ; ; ; ; ; ; ; ; ; ; ; ; ; ; ; ; ; ; ; ; # # # # + + @ @ . . . . . . @ .         # 4 p K Q W H H z s : 4 x U R Y Y H Y Y W T T T Y Y E E Y Y Y Y Y Y T T T Y T Y T T T Y Y Y W T W Y Y Y H H H H W Y Y Y H K J k G ~ Y T O.T W P L h # .                                                                                                                                                                                                                   . . . @ # 4 5 7 a q q 8 ; ; # # > > : : 4 : : : : : : 4 : : : : : ; ; ; # + + . .                                                                                                 . .                     ",
"P G G k k l j p p p i 5 9 4 : : ; ; : : : ; : 4 5 d d 4 # + # 1 7 5 i i p j j k k k k k j j j j k k k k k k G G G G G G G G G G J J H H H G G k j s i 5 i s v p i p j k k j i 4 ; # # & @ @ . . + + # # > ; # # ; ; < < ; # # # ; ; > > > > ; ; ; ; : : : : 4 4 : : : : : : ; ; : : : : 4 4 4 4 4 4 4 4 4 4 6 6 4 4 6 6 4 4 4 4 4 4 4 4 4 4 4 4 6 4 4 4 4 4 4 4 4 4 8 : : : ; # , ; ; ; ; # # # # @ * O   . # 4 v L R W R K z p 4 5 f I K H Y Y Y Y W W T Y Y Y Y Y Y T E T T T Y Y T T T T T Y Y Y Y Y Y W W W Y Y Y Y Y Y Y Y Y Y H J k j G ! T T T T Q P k a ; @ .               . @ @ + @ . .         . . % . . . . . . . . . . . . . . . .                         .       .                                               . .                 o       o                         . . . + # 4 5 7 7 7 8 : ; > # # $ 3 , : ; : : : : 4 4 4 : 4 : : : ; ; ; # # + . .                                                                                                                         ",
"! H G k k j j p p p i 5 9 4 : ; ; ; : : : : : 4 i f d 4 # # # , 4 5 i p p j j k k k k k k j j j j j k k k k G G G G G G J G G G J J H H H H G k j p i 5 5 a s p i p j k k j i 4 : ; < 3 # + @ @ # ; ; , : : : ; : : : : : : : : : : : : : : : 4 4 4 4 4 5 5 5 5 i 5 5 5 5 5 5 5 4 4 5 5 5 5 5 i i i i i i i i i i i i i i i i i i i a i a a i 5 a a 5 i i i i i i a a 5 4 6 4 : 8 4 : : : : : ; # @ * %   . # 4 f G H Y Y K G j 5 5 f b G H Y Y T T W W W Y Y Y T Y Y Y T T T T Y Y T T T T T Y Y H H H H Y Y Y Y Y Y Y Y Y Y Y Y H H J k j G ! T T T T Y K k a ; + .           . @ + # # # # + . . . . @ + + # $ $ @ + # # # # + + + @ @ @ @ + + @ @ @ @ @ @ @ . . . @ . . . . . . . . . . . . . .                             . . . .             . . . o o                   o       . . + ; 4 5 7 7 4 4 : , > # + $ > > ; ; : : : : 4 4 4 4 4 : : : ; ; > > # + @ . .                                                                                                           .   .     . ",
"! H G k k j p p f s i 5 9 4 : ; ; ; : : : : : 7 i i 5 4 # # # , 4 5 i p p j j k k k k k j j j j j j k k k k G G G G G G G G G G J G H H H G G k j s i 5 5 s f p p p j k k j i 4 : ; 1 3 < # + + < 1 1 : 4 : : : : : : 4 4 8 5 5 5 5 5 5 5 5 5 i 5 i i i i p p p p p p p p p p p i p p p p j j j j j j j j j j j j j j j j j j j p p p p p p p i p p i p p p p p l l s i 7 7 7 4 4 7 4 4 4 0 8 ; # + - =   . # 4 l G H Y Y H k j 5 5 s z G H Y E T T W W W Y Y Y Y Y Y Y T T T T T Y Y Y Y T Y Y Y H H H H H Y Y Y Y Y Y Y Y Y Y Y H H J k j G ! Q T T Y H G j a ; @ . .   .     % % + # ; > ; > # # # # ; ; : 1 ; ; ; ; ; ; ; ; ; ; ; ; ; ; ; ; ; ; ; ; ; > ; ; ; ; # # # # # # # # # # # # # # + + + + + + + + @ @ @ @ @ @ @ @ + + . . . . . . . . . . . .                     X       . . + ; 7 7 5 5 4 4 : , ; # + # ; ; ; ; : : : : 4 4 4 4 4 : : : : : > > # # + @ . .                                                                                                     . . . . . . . . ",
"! H G k j j p p p p i 5 4 4 : ; ; ; : : : : , q i i 5 : # # # ; 4 5 i i p j j k k k k k j j j j j j j k k k k G G G G G G G k k k G G H H G G k l s i 5 i f v p p p j k G k i 4 : ; 3 0 1 ; # # 1 1 8 8 4 4 4 4 8 4 4 9 5 a p p i i i i i i i p i i p p p p p j j j j j j j j j x j x j x c c c k k k k k j k k k j k k k k k k j j j j j j j p j p p p j j j j k j j p a a 5 5 5 a 7 5 9 g q : ; # - =   . # 9 b P W Y Y H G j 5 5 f b G H E E T T W W T Y Y Y Y Y Y Y Y Y Y Y T Y Y Y Y Y Y Y Y Y H Y H Y Y W Y Y Y Y Y Y Y Y Y H H J k j k ! Q T T Y H G k a ; + @ . . . . . & $ ; ; : : : : : : : : 4 4 4 4 4 4 4 : : : : : : : : : : : : : : : : : : : , : : : : : , , , , : : : : ; ; ; ; ; ; ; ; ; ; ; ; ; ; ; # ; ; ; # $ $ + @ @ @ % % % @ @ . . . .                   o       . . + ; 7 5 5 5 4 : : , ; # # $ ; ; ; : : : : : 4 4 4 4 4 4 : : : : ; > ; $ + @ . .                                                                                                   . . . . . @ . @ @ ",
"! K G k j j p p p i i 5 4 4 : ; > ; : : : : : 6 i i 9 : # # # : 4 5 i i p j j j k k k k j j j j j j j k k k k k G G G G G G G k k k G G H G G k l l a 5 i h v j j j k G J z p 5 : : 0 r 1 ; > > : 4 4 4 5 5 5 5 5 5 5 i p j k j p i i i i i d a i i i p p p p j x l x j x x x j j j x j c c c c k k k k k k k k k k k k k k k k G G G G G k k k k k k k k k k k k k k j l p p i i s p i i h g 4 ; # e * . @ ; 5 b P W T Y H J z 5 5 f ^ K Y T T T T Y W W Y Y Y Y Y Y Y Y Y Y Y Y Y Y Y Y Y Y Y Y Y Y Y Y Y W W Y Y Y Y Y Y Y Y Y H G J k j k ! Q T T Y H G j a ; + @ + = @ @ + ; > : : 4 4 4 4 5 5 5 5 5 i i i d d q q 7 7 7 7 9 4 9 4 4 9 9 4 9 7 7 7 7 7 7 7 4 4 4 4 4 4 4 4 4 4 4 4 : : : : : : : : : : : : : : : : : : 1 1 < $ $ # # # $ $ $ # # + + @ . . . . . . . .             . . @ ; 4 5 5 5 4 : : : ; # # $ ; ; ; : : : : : 4 4 4 4 4 4 4 : : ; ; ; ; # + @ @ . . .                                                                                               . . . % @ @ @ + @ ",
"K G k k j j p p i i i 5 4 : : ; ; ; ; : : ; : 8 d d 9 4 # # ; : 4 5 i i p p j j k k k j j j j j j j j k k k k k G G J G J J J k k k G G H G G k j s i 5 i f x j l k G H P L p 5 4 : 8 q 4 : , 6 4 5 5 5 5 5 5 5 5 5 i p k G H G j j j p p p j p p j j j j j j k z k k k k k k k k k k k G G G G G G G G G G G G G G G G G G G G H H H H H H G G G G G G G G G H H G G G z j j j p p p p f h d 4 : # e * . @ ; 5 j H W Y Y R U b 5 5 v ^ P Y E T T T T T T Y T Y Y Y Y Y Y Y Y Y Y Y Y Y Y Y Y Y Y Y H H H Y Y Y Y Y Y Y Y Y Y Y Y H H J k j k P W T Y Y H G j a ; + @ + = + # > , 8 4 9 5 5 5 5 i p i i i i p i s a a i a 5 5 5 i 5 i 5 5 5 5 5 a a a 7 7 7 7 5 5 5 5 5 5 5 5 5 5 4 5 4 4 4 4 4 4 4 4 4 4 4 4 4 4 4 4 4 4 8 8 1 , > > ; : : : : : ; ; # # $ + @ . . @ . . . . . o       . . @ # 4 5 5 5 4 4 : : # + + # ; ; ; ; : : : : 4 4 4 4 4 4 4 : : ; ; # ; # # + @ . .                                                                                             o   . . % @ @ + + + # ",
"H G k k j p p i p i i 5 4 : : ; ; # ; : : ; ; 4 a d d 8 ; # ; 0 4 5 5 i p p j j j j j j j j j j j j k k k k k k k G J G G J J k k k k G G G G k j p i 5 i f x j k k G H P J p 5 4 : 9 9 4 4 6 q 4 5 i i i i i i i i p k P Q $.T H H G G G G G G G G H H H H H H Y Y Y Y Y Y H H H H Y Y Y Y Y T T T T T T T T T T T T T T T T T T T T T T T Y Y Y Y Y Y Y Y Y Y W H H H G k k k j j j j v v s 5 : # e * . @ ; 5 j H W T Y Y K b i 5 l I K H E T T T T T T T Y Y Y Y E Y Y Y Y Y Y Y Y Y W Y Y Y Y H H H H Y Y Y Y Y Y Y Y Y Y Y Y H K J k j k U W Y Y Y H G j a : + + $ $ # # ; 8 7 5 i i i i i p p p p i p p p p p p p i i i i i i i i i i i i i i i i i i i i i i 5 5 5 5 5 5 5 5 i 5 5 5 5 5 5 5 5 5 5 5 5 5 4 4 4 4 4 4 8 8 6 6 4 4 4 5 4 4 4 : : ; > > > # + + + + + + . .         . . . # 4 5 5 5 4 4 : : # + + # 2 > ; ; : : : : 4 4 4 4 4 4 : : : ; ; ; # # # + + @ .                                                                                               . . @ @ @ @ # + # # ",
"G G k j j p p i s a i 5 4 : : ; # # ; : : ; ; : 5 d d 4 ; # ; 0 4 5 5 i i p j j j j j j j j j j j j k k k k k k k k G k k z z k k k k G G G G k j p i 5 i x b k k k G H K J p 5 4 : 9 9 4 4 7 q 5 i p p p p p s s s l L _ 9.>.=.O.O.T T T T T T T T T O.O.O.O.O.+.+.+.+.+.+.O.O.O.O.O.+.+.+.+.+.=.=.=.=.=.=.=.=.=.=.=.=.=.=.=.=.=.=.+.+.+.+.+.O.+.+.+.O.O.O.O.O.Q Y H H G G G J k k k c I b f 5 : ; 2 & . + ; 5 c P Q T Y H G z i 5 f L G H Y T T T W T T T Y Y Y Y E E Y Y Y E Y Y Y Y W Y Y Y H H H H Y Y Y Y Y Y Y Y Y Y Y Y Y H K L z j k U R W Y W H J k a : # + $ > # ; : 7 a p p p p p p p p p p p p p p j k j j j j j j j j j j j j p p j j j j j j j p p p p p p p p p p p p p p p p p i i i i i i i i 5 5 5 5 5 5 5 5 5 5 i i i i i i 5 4 4 : , , : ; # # # # # + + @ .     . . . . # 7 i i 5 4 4 : : ; + + ; 3 3 ; ; ; : : : : 4 4 4 4 4 : : : ; ; ; # # # + + @ . .                                                                                           o . . @ @ + + # # # # ",
"G k k j j p p i i i i 5 9 4 : ; ; ; : : ; ; ; : d i 5 4 ; # ; 0 4 5 5 5 i p p j j j j j j j j j k k k j k k k k k k k k k k z z j j k G G G k k j s s i i l x j j k G H K L l i 4 4 9 9 5 5 5 g a f p j j j l l v s l | Q.~.P.Z.A.j.j.j.j.Z.Z.Z.j.:.d.d.j.j.d.d.B.I.I.I.B.B.B.I.n.n.n.n.n.n.m.V.:X:X-X-X-X-X-X-X-X-XV.V.$XV.V.V.x.x.x.x.n.V.V.B.I.I.B.k.k.k.k.,.4.E H G H G G J k k k k c b l i 4 ; t # @ + : 5 k W ~ T Y W U k 5 5 f z G Y E T Y T Q T Y Y Y Y Y Y E E Y Y Y W Y Y W Y Y Y Y Y Y Y Y Y H H Y Y W W W W Y Y Y Y Y H K I j p j J H Y Y Y K U c d ; + # + 2 # ; 4 a s p j j j j j p p j l s l z J K H H H H Y Y H H G G G G G G G G G G G G G G k k k k k k k k k k k k k k k k k j j j j j j p p p p p p p i i i p i p j j j p p l i 5 4 4 : : 4 : ; ; ; ; # # @ . . . . . . + ; 7 i 5 5 5 4 4 : ; + # 2 3 ; ; ; ; ; : : 4 4 4 4 4 : : : : : ; > ; # # # + @ . .                                                                                             . . @ + @ # # # # # ",
"G k k j p p i i i i 5 9 9 8 : ; # ; : : ; ; ; : 7 i 9 4 ; # ; 8 7 7 i a s p j j j j j j j j j j j j j k k k k k k k k k k k k k j j k G G G k k p p i 5 i l x j k k H H K L l 5 4 4 9 9 5 5 5 a s f j j k j l v s 5 5 j ) t.K.L.D.n.n.n.f.f.f.f.f.a.f.s.s.l.l.s.l.z.z.c.l.l.l.l.c.c.c.c.c.(.(.].(.(.(.^.(.^.^.(.(.^.^.^.^.^.^.z.(.(.(.^.(.'.'.(.l.b.'.'.$X$X'.n.u.E H G G G G G G G G G L I c p 4 ; t $ @ + : 5 k W Q T Y W P z 5 5 f z G H E T Y T T T Y Y Y T Y Y T T Y Y Y Y Y Y Y H H H H H H H Y H H H Y Y Y W Y Y Y Y Y Y Y H K L l p j L P W Y Y K U b d ; + # + , ; : 5 h f j j j j j j z j j j l z ^ / E $.O.+.+.+.+.%.T T T T T T T T T T Y Y T T T Y T T T Y Y Y Y Y Y Y Y H H H H H H H H H H G G G k k G k k k k k k k G G H G G k p i 5 4 4 4 5 4 4 : : : : ; # + . . . O . . + > 7 i 5 5 5 9 4 : # # # < 2 ; ; ; ; ; ; : : 4 4 4 : : : : : ; ; ; ; # # # + @ . . .                                                                                         . . @ @ + + # # # ; # ",
"J k j j p p i i i i 5 9 8 8 : ; # ; : ; ; ; > : 7 5 9 4 ; # ; : 7 5 i a i p p p j j j j j j x j j j j j k k k k k k k k k j j j j j k G G G k j p p i 5 i f x j k k G H P L f 5 : : 9 9 5 5 5 a s f j k k z b v S a 5 p U y.~.!.NX:X:X:X:X:X:X:X:X:X:X:X:XhX:X:XjXjXjXjXjXjXjXjX;X;X;X+X+X>X1X1X>X+X+X+X+X+X+X+X1X@X+X+X,X@X1X>XXXXX)././.`.`./.`.`.`.^.^.^._.m.u.R G G G J G G G G G G L L z p 4 ; t # @ + : 5 z ! Q T Y R P z 5 5 f z G H Y Y Y T T W Y Y Y Y Y Y Y Y Y Y Y Y Y Y Y H H H H H H H H H H H Y Y Y Y Y Y Y Y Y Y Y H K J j p j L P W Y Y K U c d ; + # # , ; 4 5 s l j k k k j j k j j j ^ | Q.Q.K.P.W.Y.Y.Y.Y.W.W.W.W.W.W.W.W.P.W.W.W.W.W.W.W.P.K.K.K.K.K.K.K.K.K.H.i.i.q.i.q.q.;.;.<.<.*.*.*.*.T T T T T T Y Y H Y Y T Y Y H J b m h 5 5 7 9 4 5 4 4 4 4 : ; # @ @ % % @ @ + 1 7 i i 5 5 9 4 : ; # + $ ; ; ; ; ; ; ; ; : : 4 : : : : : : ; ; ; # # # # + @ @ . . .                 . .                                                                   . . @ @ + + # # # # # ",
"J k j j p p i i i 5 5 9 4 4 : ; # # : ; ; ; > : 9 i 9 4 ; # ; : 4 5 5 i i i p p p p j j j j x l j j j j j k k k k k k j j j j j j k k G G G k j p p i 5 i p j j j k G G J z i 4 : : 8 d i 5 5 a i p j k z z c v 5 4 : 4 p G ~ 0.a.l.l.l.l.x.x.l.l.l.l.l.l.z.z.z.z.^.^.^.z.z.z.z.z.z.^.^.^.(.).].).).].].].].).).+XOX).).).).).).+X+XXX].].XX`././.`.`./.`.%X&X:X*.J j j z J k k G G G G G L j i 4 ; t # @ + : 5 z P T T Y R U z 5 5 p z G H Y Y Y Y W W Y Y Y Y Y Y Y Y Y W Y H R R R R H H H H H Y H H H H Y Y Y Y Y Y Y Y Y Y Y H J z j p j L P R W Y P L c a ; + # + 3 ; 4 i p j k k k k k k I L z j k U } r.i.Z.D.G.G.v.v.v.h.h.h.h.h.g.g.g.g.g.g.g.g.g.g.a.h.h.h.k.h.k.k.k.k.j.g.g.j.j.k.k.A.A.J.J.H.H.H.Z.q.1.q.q.q.q.<.<.u.u.p.p.p.p.t.t.[ D h 7 7 g d 5 a 7 5 5 7 0 : ; + + & & @ + # 1 7 i i 5 5 4 4 : ; # # $ ; ; ; ; ; ; ; ; : : : : : : : : ; ; ; ; # # # # + + @ @ . .                                                                                       . . . @ + + # # # # # ",
"J k j j p i i i i i 5 4 4 : : ; > > ; ; ; # > ; 7 a 9 4 ; # ; : 9 7 a a i p p p p p p j j j j j j j j j j j k k k k k j j j j j j k k G G G k j j p i 5 5 i p j j k G G G z i 4 ; : 8 d i 5 5 a i p j k k z x x d 4 : 4 i z U 8.I.F.F.F.F.F.F.D.m.m.m.m.F.F.$X-X'.'.'.'.'.'.'.'.c.c.'.'.(.(.].].(.'.].].].].].'.;XOX'.'.(.'.(.'.c.V.V.m.m.'.'.b.b.'.$X$X$X$Xb.a.W j p p z b z k k G G G L L k p 4 ; t # @ + : 5 z K Y Y Y R J l 5 5 s z G H Y H Y Y Y Y H H Y Y Y Y Y Y Y Y Y H Y R R H H H H H R R Y Y H Y Y Y Y Y Y Y Y Y Y Y Y H J z j p j I P R Y H H L c i ; + + + 3 ; 4 a p j k k k k k k c c j p p p G W p.Z.k.v.b.b.v.x.f.k.v.v.v.k.f.f.k.k.k.h.f.s.s.s.a.a.a.a.a.a.f.s.a.a.a.f.f.f.f.f.f.k.f.f.k.k.j.g.-.-.-.-.-.-.=.=.+.+.=.;.>.*.&./ ] s 4 4 7 9 d g a a i 5 9 9 8 ; # # & & + # ; 0 a i i i 5 4 4 : ; # # # > ; ; ; ; # # ; ; : : : : : : : ; ; ; # # # # # + + @ @ . . . .                                                                                   . . . @ @ + + # # # # ",
"k k j p p i i i d i 9 4 4 : ; ; # # ; ; # # > ; 4 d g 4 ; # ; : 9 7 a a a s p p p p p j p j j j j j j j j j k k j k j j j j j j j k k G G G k j l p 5 5 5 i p j j k G G L c a : ; : 8 9 i 5 5 a i p j j k k j f 9 : ; ; 4 i z R P.U.U.U.L.L.U.L.L.U.U.U.U.U.Y.Y.Y.Y.Y.Y.Y.Y.Y.Y.Y.Y.Y.Y.:X:X:XMXMX:XMXNXMXNXNXNXNXNXMX:X:XY.Y.Y.!.!.NXNXNXNXNXNXVXVXVXNXNXY.k.;.G p i i l b c k k G G G L I z p 4 ; t # @ + : 5 z H Y Y Y K J l 5 5 s b J K R Y Y Y Y H H H Y Y Y Y Y Y Y Y H H H H H H H H H H R R R Y Y Y Y Y Y Y Y Y Y Y Y Y Y H J z j p j L K H Y H H L k i ; @ + # 3 : 5 a x k k k k k j j p p p i 5 i k H &.;.-.s.s.s.a.a.f.x.v.n.n.v.n.x.n.n.n.n.f.f.f.f.n.x.n.n.m.V.V.V.B.n.n.B.B.B.B.n.Y.Y.-X-X-XY.Y.Y.n.k.k.k.M.M.k.j.Z.J.U.U.W.W.Q.t.[ 5 ; ; 8 4 9 d 5 i i 5 5 7 4 : # # < < # # < 8 a i i i 5 4 4 : ; # + + # ; ; ; ; # # ; ; : : : : : : ; ; ; # # # # # + + + @ @ @ . . . .       .         O                                                                 . . . @ + + # # # # ",
"k k j p p p i i i 5 5 4 4 : : ; > > ; ; # # # ; 4 a 9 4 ; # : : 4 5 5 i i i i i p p p p p j j j j j j j j j k k j k k k k j j j j k k G G G k j l p 5 5 5 i p j j k G G L b a : ; : 8 d d 5 5 i a p j j k k x f 9 : # # : 5 p J _ &.$.Q ~ ~ &.e.~ ~ &.~ ~ &.&.3.&.@.@.@.@.@.@.@.O.@.@.@.@.@.+.#.*.&.&.&.*.*.*.*.*.*.*.*.*.*.&.&.@.3.2.3.#.2.4.4.4.<.#.#.4.5.#.Y j i 5 i s f x j k c L L L I z p 4 ; t # @ + : 5 c H Y T Y K J l 5 4 s b J K R Y Y Y Y H H H H Y Y Y Y Y Y Y H H H H H H H H G H Y Y Y Y Y Y Y Y Y Y Y Y Y Y Y Y Y H J z p i j L J H H H H L c i # @ # # 3 : 4 i v c z k k k j j C S h 5 4 4 i j Y O.1.Z.M.M.N.N.f.k.n.B.I.B.B.B.I.I.Y.I.I.B.I.I.B.B.B.B.B.C.B.B.B.f.B.B.B.B.f.f.f.f.f.f.f.f.f.d.f.d.d.d.j.j.j.d.-.-.g.d.1.<.E k v 4 ; ; : : 4 d 5 i i 5 5 5 4 : # # < < # # ; 0 a i a i 5 4 4 : ; # + + # ; ; ; # # # ; ; ; : : : ; : > ; ; # # # # + + + @ @ @ . . . . . .           .   .                                                                 . . . @ + + + + # # ",
"k j j p p p i i i 5 5 4 4 : : ; > > ; ; # # ; : 4 7 9 : # ; : : 4 5 5 a i p i i p p p p j p j j j j j j j j k k k k k k k j j j j k k G G G k l s i 5 5 5 i p l j k k G c v a 4 ; : 8 q d 5 5 i s s j k k k x h 8 ; # # ; : 5 p L J k j p p p p p p p p p p p j j j j j j j j j j j j l k k k k j j j j j j j j j j j j j j j j j z l j j j k G G G H R 3.3.Y k p 5 4 5 a f j j k k G G L L z p 4 ; t # @ + : 5 b K Y T W R J l 4 4 i z G H R Y Y Y Y Y Y Y Y Y H Y Y Y Y H Y Y Y Y H H H H H H H H H H Y Y Y W Y Y Y Y Y Y Y H Y H J z j p j L J H H H K I c d # @ + # 0 : 4 i v z k G G k k j v h 7 4 : 4 i j G @.p.P.R.P.R.R.R.R.~.~.~.~.~.~.!.!.!.!.!.!.!.!.!.!.!.!.!.!.!.!.!.!.!.!.!.!.!.!.!.!.!.!.!.!.!.~.!.W.R.R.~.!.~.R.R.R.R.P.P.Q.} b 4 ; # # # : 8 9 5 a h i 5 9 7 : # # < < # # ; 0 a i a i 5 4 4 : ; # # # # ; ; ; # # # ; > > ; ; ; ; > > ; # # # # # # + + @ @ . . . . . . . .       . .                                                                       . . @ + + + + # # ",
"z k j j p p p s i 5 4 4 : : : ; ; # # # # # : 4 5 d q : ; ; : : 4 5 5 i p p p p f f p p j j j j j j j j k k k k k z z k k J J k z k k k G G k p s a 5 4 5 s x j k j k L ' c p 5 4 4 q 4 5 5 5 a s j j k k k j a 9 ; # # # ; 4 5 b k p 5 : ; # + + + # # # ; ; ; # ; # # # ; ; ; # ; ; ; ; ; ; ; ; ; ; ; ; ; ; ; ; ; ; ; ; ; ; ; ; ; # # # # ; ; 4 5 i j ] ] J z i 4 4 5 i j j k G G H J L I z p : ; 3 + . + ; 5 c H T T W ! P l 4 4 s J K H H Y Y Y W W T Y Y Y Y Y Y Y Y Y Y Y Y Y H H H H G G H H H H H H Y Y Y Y Y Y Y Y Y Y H H G z j p j J G H Y H J z j 5 # . @ > , : 5 s j k G G G k k k l s i 4 : : 5 p k Y ~ &.E ! ^ ^ / / / / / / / / { { } } } } } e.e.e.e.e.e.e.e.e.t.t.t.t.t.t.t.t.t.t.t.t.t.t.t.t.t.t.t.t.t.t.t.t.| | | | | | D a ; # @ @ # , 8 9 7 5 5 5 5 4 8 : # # > < # # # 0 7 i 5 5 5 4 4 : ; # # # # > > ; # # ; ; > ; ; ; ; ; # # # # + + + + + # # + @ @ @ @ . . . . .                                                                               . . . . @ + # # # # ",
"j j j j j p p i i 5 4 4 : : : ; ; # # # # ; : 4 5 g q : ; ; : 4 4 4 5 i p p p p p p p p j j j j j j j j k k k k k k k k k z J k k j k k k k j p a 7 4 4 5 s x j k j j c ' b p i 5 4 q 4 4 5 5 s v l k k G z l h 7 ; # + # ; : 5 D z i 4 ; + .       . . . . . . . . . . . . . . . . O . . . @ @ @ + @ @ @ @ @ + % @ @ @ @ @ @ @ @ . .   . . . + # ; 4 i C I k j 5 4 4 5 p j k G G H H G L I l i 4 , y # @ # ; i b H T $.T W P l 4 4 f J R Y Y Y H Y W T T Y Y Y Y Y Y Y Y Y Y Y Y Y Y H H H G G G G H H H H Y Y Y Y Y Y H H H H H H J z j p j J H H Y H J z j 5 # . @ > , : 5 s j k G G G G k k c x a 5 4 4 5 p j G Y H k l a a i i i i i i i i s p s p f f l l j j j j l j j j l l l l l l l l l l c c c x x l l l l l z l j l h h v v b v a : # @ . . @ > 1 8 8 4 4 4 4 8 : , # # # # # + # : 7 5 5 5 5 4 4 : : ; # # ; > > > # # ; ; > ; ; # # # # # # # + + + + + # + + @ @ @ @ . . . . . .                                                                             . . . . @ + # # # # ",
"j j j j l l p i i 5 4 4 : ; ; ; # # # # # ; 4 5 5 q 0 , # # : 4 4 4 5 i p p p p p p p p j j j j k j j j j j k k k k k k k k k k j j k k k k j p a 7 4 4 5 s j j j j j z b b f i 5 4 q 4 4 5 5 s v l k k J J b h 7 ; # + # ; : 5 D b a 4 ; @ .         . . . . . .   . . . . . . . . . . . . . . . . . . . . . . . . . . . . . . . . .       . . # : 4 i C I k j 5 4 4 5 s l k G G H H H J L l i 4 , y # @ # ; a I H Q $.T W P l 4 4 f L R Y Y Y H Y W T T Y Y H Y Y Y Y Y Y Y Y Y Y Y H H H H G G G H H H H Y Y Y Y Y Y H H H H Y H J L l p j J H H H H K b l 5 # . @ > , : 5 s l k G G G G k k L b f 5 4 4 5 p j J J k p 5 : ; # # # # # # # # # ; ; ; ; ; ; ; ; ; ; ; ; ; ; ; ; ; ; ; ; ; ; ; ; ; ; ; ; ; ; ; ; ; ; ; ; ; ; ; : 4 5 5 i i 4 ; + . . . % ; : 8 4 4 4 4 8 8 : : # + + @ + + # : 7 5 5 5 5 9 4 : ; ; # # ; > > ; # # # ; ; ; ; ; # # # # # + + + + + + + + + @ @ @ . . . . . . .                                                                             . . . . @ + + # # # ",
"z j j j l x p i 5 5 4 : : ; ; ; ; # # # # ; 4 9 d 9 0 , # # : 4 4 4 5 i i p p p p p p p p j j j k k j j j j k k j k k k k k k k j j k k k j j p a 7 4 4 5 s j j k j j k c b f i 5 4 q 4 4 5 5 a f j k k G z z h 7 ; # + # ; : 5 D z s 4 ; + .           . . . .       . . . . . . . . . . . . . .             .                 . . .         . > : 4 i C b k j i 4 5 i s l k G H H H H J J j i : : y # . # ; 5 b H Q $.T W P j 4 4 l L R Y Y Y Y Y T T T T Y H Y Y Y Y Y Y Y Y Y Y Y H H H H H G G H H H H H Y Y Y Y Y Y Y H H Y H K L l j j J K H H H P L j 4 # . @ > , : 5 p l k G G G k k G L c f i 4 4 5 i j b L j 5 : # @ . . . . . . . . . . . . . . . . . . . . . . . . .   .   .   . . . . . . . . . . . . . . . . . @ # ; : 4 5 7 4 ; @ .   . @ $ : : 4 4 4 4 8 8 : ; # + + + + + # : 7 5 5 5 5 9 4 : ; # # # # ; ; ; ; # # # # ; ; ; ; # # # # # + + + + + + + @ @ @ . . . . . . . .                                                                             . . . @ @ + + # # # ",
"b l j p j x f a i 5 4 : : ; ; ; ; ; # # # ; 4 9 d 9 0 > # # ; 8 4 4 5 5 i p p p p p i p p p j j j j j j j j j k j k k k k k k k j j k k k j j p a 7 4 4 5 s l j z j j j c x f i 4 4 7 4 4 5 5 a f j j k k k l s 6 ; # # # ; : 5 z z s 7 , # .   .       . . . .         . . . . . . . . . . . . .                               . . .         . # : 4 i b b k j i 5 5 i s z J H H H H H K J j i : ; 3 # . + ; 5 c H T Q W R P j 4 5 x U W Y Y Y Y Y T T T T Y H Y Y Y Y Y Y Y Y Y Y H H H H G H G G H H H H H H Y Y Y Y Y Y Y Y Y Y U L z j j J P Y H H P I l 4 # @ + > , : 4 p x z G G G G G G G k p i 4 4 5 a p v v i : ; @                                                                                                   @ # ; : 8 q : # .       @ # ; : 4 4 4 4 8 8 : ; # # # # + + # : 7 5 5 5 5 9 4 : ; # # # ; ; ; # ; ; # # # ; ; ; ; # # # # # + + @ @ @ + @ @ @ @ . . . . . . .                                                                               . . . @ @ + + + # # ",
"b l j p p f f f a 7 8 4 : : ; > ; ; # # # ; 4 9 9 7 : ; # # ; 8 4 4 5 5 i i p p p p i p p p j j j j j k k k j j j k k k k k k j j j k k k j j p a 5 4 4 5 s l j z k j j c x f i 4 4 7 4 4 5 5 a v l z k k k j s 7 ; # # # : 4 5 z k s a 0 $ @   . . . . . @ @ @ @ . . . @ @ @ @ @ @ @ @ @ @ @ @ @ @ @ @ @ @ @ @ @ @ @ . . . . @ . . . .     . @ > : 4 i C I k j i 5 5 i l z G H H H H H P L z i : , y # . # ; 5 c H T T W R K j 4 5 x U W Y Y Y Y Y W T T T Y Y Y Y Y Y Y Y Y Y H H H H G G G G G G H H H H H H Y Y Y Y Y Y H Y Y Y K L k j j J P Y Y H P L p 4 # @ + > , : 4 p b z G G G G G J k k p i 4 4 4 7 i v v 5 : # .                                                                                           X X     . + # ; 0 w 3 + .       @ $ ; : 4 4 4 4 8 8 : ; # # $ $ # @ # : 7 5 5 5 5 4 8 : ; # # # $ > ; # > ; ; # # ; ; ; ; # # # # # + + @ @ @ @ @ . @ . . . . . . . .                                                                               . . . . @ @ + + + + ",
"b l j p p p s a a 7 4 : : ; ; ; ; ; # # # ; 4 9 9 8 : > # + ; 0 4 4 5 5 i i p p p p p p p p j j j j j k z j j j j j j j k j j j j j j k k k j p a 5 4 4 5 a l j j j j j c b f 5 4 4 7 4 4 5 5 a v l z k k k j s 7 : # # ; : 4 a z z l a 8 ; + . @ @ + + # # # # # # # # # ; ; ; > ; ; ; ; ; ; ; : : : ; ; : : : 1 : : : : ; ; ; # # # @ . . . + > : 5 f ' ( G k p 5 5 i l k G G H Y Y H P L z p 4 , y = @ # ; 5 c H T Q W R P j 4 5 l P T T Y Y Y Y T T T T Y Y Y Y Y Y Y Y H H H H H H H H G G H H G G G H H H H H H H H Y Y Y Y Y P J j p j J H Y Y H J c p 5 # @ + > , : 4 p c z G G G G G J k k p i 4 4 4 5 a v V 7 : $ O   X X X X                     o o . . . . . . . . . . . . . . . o o           o o     o o o o   o . @ # > r t 3 + .       % ; : 8 8 4 4 4 7 7 8 : # # # # # + # : 7 5 5 5 5 4 8 : ; # # + $ > ; # ; # # # # # # # # # # # # + + @ @ @ @ @ @ . . . . . . . . . .                                                                               . . . . @ @ + + + + ",
"l l l p i i i i 5 4 4 : ; ; ; ; ; # # + # ; 4 5 7 8 , > # + ; 3 4 4 5 5 i i p p p p p p p p j j j j j z z z j j j j j j j j j p j j j j k k k j i 5 4 4 5 a f j j j j j x b f 5 4 4 7 4 4 5 5 i h j j k k k j a 7 : # # ; : 9 a I J j i 4 : # + # # > > 1 1 1 1 8 8 8 8 8 8 8 8 0 8 8 8 9 q 8 4 9 d 5 5 5 5 5 d d d d 5 5 5 5 9 8 : : # # + + # ; 4 5 x ] U G k p 5 5 i j k G H H Y Y H P L z p : , y = @ # ; 5 c G T Q T R U j 4 5 x P Q T Y Y Y Y T T T T Y Y Y Y Y H H Y H H H H H H H H H H H H G G H H H H H H H H Y Y Y Y Y Y P L j p j J H Y R H J z p 9 # @ + > , : 4 p c J J G G G G G k k p i 4 4 4 5 a v v 5 ; $ O   o o O . . . @ @ @ @ @ @ @ @ @ @ @ @ @ @ @ @ @ @ . . . . . . . . . o       . . . . . . o . o o o . @ $ 2 t t 3 + .     . % 2 0 q q 8 4 4 7 7 8 : # # + + + + # , 7 5 5 5 5 8 8 , ; # + # # ; ; # # # # # # # # # # # # + + @ @ @ . @ . . . . . . . . . . .                                                                                     . . . @ @ + + + + ",
"v l p p p s a i 9 4 : : ; ; # # ; ; # + # ; 4 4 q q , # + + ; , : 4 4 5 5 i i i i i i i p p j p j j j j j j j j j j j j j j j j l j j k k k k j s 5 4 4 5 a f j j j j j x x f 5 4 4 8 8 4 5 5 i f p j k k k j s 7 ; # # ; 8 4 s J G z p 5 : ; ; > , : : 4 9 q 9 d a a a a a a a h a i i i d f f p p p p j j j j x x j p p p j p a 7 6 6 ; # + # : 4 i x L U ! L p 5 i p l z J H R W R K P L k i : ; y # . # ; 5 c H Q T W R J p 4 5 x P Q T Y Y Y Y T T T Y Y H Y H H Y Y H H H H H H H H H H H H H G G H H H H H H H H Y Y Y Y Y H K c j p j k G Y Y G k c f 4 # @ @ # 3 : 4 s l k G G G G G G G z p 5 4 4 7 a h v f d 8 < % . . @ & & ; ; < 1 : : : 1 1 1 < ; # # # ; # # # # + + # # + + # @ . . . . . . . . . . .   o       . @ < ; 1 r ; & . . . . $ 3 9 9 8 4 4 4 4 8 : , # # # # # + # : 5 i a 7 4 4 : , # # + + # 2 , ; > # # # ; > ; ; # # + + + @ @ @ @ . . . . . . . . . . . . . .                                                                               . . . . . . @ @ @ @ ",
"v l p i i i i 5 5 4 : : ; ; # # ; # + + # ; : 4 9 8 , # + # ; 1 : 4 4 5 5 i i i i i i i i p j p j j j j j j j j j j j j j j j j l j j k k k k j s 5 4 4 5 a f p p j j j l v s 5 4 4 8 4 4 5 5 i f p j k k k j s q ; # # ; 8 4 s J H J j i 4 : ; : 8 7 7 5 d N N f p p p p p p p l p p p p j l j j j j j k k k j c z k k k k k z l s g q , ; # ; : 5 i x L W W P p 5 5 i j k G H H Y H H P L z i : ; y # . # ; 5 z H T T Y R U p 4 5 x U Q T Y Y Y Y W T T Y Y H Y Y Y Y Y H H H H H H H H H H H H G G G H H H H H H H H Y Y Y Y Y H K L j p j z G P Y G k c s 4 # @ + > 3 : 4 s x z G G G G G G J z f 5 4 4 7 a f x x f 8 < % . @ # ; 1 : 4 4 4 9 9 5 9 9 8 4 4 : ; : : 1 : ; ; ; ; ; > < > > > % % @ @ + + + + @ @ . . .       . @ < ; : 0 ; # @ . . @ ; : 9 7 4 4 4 4 4 8 : , # # # # # + # : 5 5 a 5 5 4 : , # + @ + # > > ; ; # # # # ; ; ; # # # + + @ @ @ . . . . . . . . . . . .                                                                                     . . . . . . @ @ @ @ ",
"v f p i i i i 5 4 4 : ; ; ; # # # # + @ + # : 4 4 8 ; # + # ; 1 : 4 4 5 5 i i i i i i i p p j p j j j j j j p p l l j p j p p p l j j j k k j p h a 4 4 5 a f p p p p j j x i 5 4 4 4 4 5 5 i i f j j k k k j s q ; # # ; : 4 s K H J j i 4 : : 4 7 a i p f x x j j j j j j j j k j j j k k k k k k k k k k k k k k k k k k k k z l h g 7 : ; : 4 5 p j P ! W H j i 5 i j k G G H H H H P L z i : ; y # . + ; 5 l G W T Y ! U j 4 5 x P Q T Y Y H H Y T Y Y Y H Y Y H Y R H H H G G G G G G H H H H G G H H H H H H H H H H Y H Y H J z j p j k G P H G k x s 4 # @ + > 0 : 4 s l z G G G G G k J c f 5 4 4 5 i f v x f 5 : + @ + # ; : 9 9 a i i p f f d d d 5 9 4 9 q q 7 4 4 4 4 : 4 8 4 4 : > ; ; > > > > > # # # + . .   . . @ ; ; : 8 ; # @ . . @ ; : 9 5 4 4 4 4 4 8 : , # # # # # + # : 5 5 5 5 5 8 : ; + + + + # ; ; ; # # > # # # # ; # # # # + @ @ @ . . . . . . . . .                                                                                               . . . . @ . . . ",
"f p i i i i 5 5 4 : : ; ; > # # # # + + + # : 4 4 4 ; # @ + ; 1 : : 4 5 5 i i i i i i i i p p p j j j j j j p p j p p p p p p p f p j j k k j p h a 4 4 5 a s p p p p p j f i 5 4 4 4 5 5 5 i p f j k k G k l s q ; # # ; : 4 s U H J l i 5 4 : 7 a s p p j j j k k k k k k k k k k k k k k G k k k k k k k k k k k k k k k k k k k l h 7 : ; : 4 5 p j P ! W H x i i p l z G G H Y H H U L z i : ; y # . + ; 5 x G W T Y ! U j 4 5 x U Q T Y Y H H Y Y Y Y Y H H H H H H H G G G G G G G G H H H H G H H K H H H H H H H H Y H H H G k p p p k J H H G k l a 4 # @ + > 3 : 4 s j k G G G G k k J z f 5 4 4 5 5 f v c p 9 : # + # ; : 8 g d s p j l l x v f f p f i i d h h i 5 5 5 5 5 5 5 5 4 4 : : : : : : : : : ; # # + @ . @ @ ; ; : 8 ; # @ . . @ ; : 9 5 4 4 4 4 4 8 8 , # # # # # + # : 7 5 5 5 7 8 : ; # + + # $ ; ; ; # # > > # # # > # # # # + @ @ @ . . . . . . . .                                                                                                 . . . . @ . . . ",
"f p i i i 5 5 4 4 : : ; ; # # # # # @ @ + # : 4 7 8 ; # + + ; : : 4 4 9 i i i i i i i i i p p p p j j l l l j p p p p p p p p i p p j j k k j p h a 4 4 5 a s p p p j j l f i 5 4 4 8 8 5 5 i s p j k k G G z h q ; # # # : 4 i L K z j i 9 4 4 5 a s j j k k k k k k k k k k k k k k k k k G G k k k k k k k k G G k k G G G G G k j s 5 : ; : 4 5 i j L P Y H x i i p l k k G H H H H L L l i : ; y + . + ; 5 c J W T Y R U j 4 5 l U W Y Y H H H H Y Y Y H H H H H H H H G G G G G G G G H H H H G G G H H G H H H H H H Y Y Y H G k p i p k L G G k k l 5 : # @ @ # 3 : 4 s j k G G G G k k J L j i 4 5 5 5 f l x p 4 ; + + # ; : 8 g h s j k k z z z l l j j p p j x j p p p p p p p p p i 5 5 5 5 5 5 5 5 5 5 4 : ; # # + @ + ; : 8 0 ; # @ . . . # : 4 5 4 4 4 4 8 8 8 , # # # # # + # : 7 5 4 4 7 8 , ; # + + $ > ; ; ; # # # # # # # # # # # # $ @ @ @ . . . . . . . .                                                                                                 . . . . . . . . ",
"f p i i i 5 5 4 4 : ; ; # # # + + + @ . @ # : 4 7 8 ; # + + ; : : 4 4 7 i i i i i a a i i p p p p p j j l l p p p p p p p p p p p p j j k k j j h i 4 4 5 a s p p p j p l f i 5 4 4 7 8 5 5 i p j j k k G J b v q : # # # : 4 i L J k p i 9 4 4 5 i s l k k k k k k k k k k k k k k k k k k k J z k k k k G k G J G G G G G J G H G k p 5 4 ; : 8 5 i j L P R J p 5 5 i j k k G G H H G J L l i : ; y + . + ; 5 b K W T Y R U j 4 4 l L R Y H H G G H Y Y Y H H Y H H K K H G G G G G G G G H H H G G G G G G G G G H H H H Y Y Y H J c p p j c L G G k z f 5 : # @ @ # 3 : 4 s l k G G G G G G K L j i 5 5 5 5 p l l i 4 ; + @ # ; : 7 a s j j k k G J z z k j j j j j j j j j j j p p p p p p p i i i i i i i i 5 5 8 : ; # # @ + ; : 8 q : ; @ . . . + ; 4 4 4 4 4 4 8 8 8 , # # # # # + # , 7 5 5 4 4 8 : ; + @ @ $ $ ; ; ; # # # # # # # # # + + # $ @ @ @ . . . . . . . .                                                                                                 . . . . . . . . ",
"f p i i i i 5 4 4 : ; ; # # # + + @ . . @ # : 4 4 4 ; # + # ; 1 : 4 8 7 a d i i i a a i i p p p j j j j j p p p p p p p p p p p p p j j k k j j s 5 4 4 5 a s p p p p p l f i 5 4 4 8 8 5 5 i p j j k G G J b v g : # # # , : i L J j p i 9 4 : 4 i s j k k G k k j j j k k k j j j k k k k k z J G G k G G G G G G G G G G H H H G k p 5 : ; : 8 9 i l L U K L p 5 5 i j k k G G H H G J z l i : ; y + . + ; 5 c H W T Y ! U l : 4 p J Y Y H H G G H H Y Y H H H H H K H H G J G G G G G G G G H H G G G G G G G H H H H Y Y Y Y K L c p i p b I J G G z f 5 : + @ + > 0 : 4 p l k G G K J G J H L j i 9 7 7 5 i p p i : # . . # : 8 a s j j k G G H G G G k k j j j j j j j l p p p p p p i i p f p p p p p i i i 7 6 : ; # + + + > : 8 q ; # @ .   . @ ; : 4 4 4 4 4 4 8 : : # # # # # + # , 7 5 5 4 4 4 : ; + . @ $ > ; ; ; # # # # # # # # # + + # $ + @ @ . . . . . . . .                                                                                           o     . . . . . . . . ",
"f s i i i 5 5 4 4 : ; ; # # + + + + . . @ # : 8 4 4 ; # + # ; 8 : 4 8 7 d a i i i a a i i p p p l f j p p p p p p i i i i i p p p p j j k k k l s 5 4 : 5 a a p p p p p p s i 4 4 4 6 8 5 5 i i j j k G G J b v g : ; # # , : 5 b z j p i 5 4 : 5 i p j j k k j k l j l l l z j j j k z j j z z L J G G G G G G G G G H H H H H K G j p 5 : ; ; 8 4 i f z U K J p 5 5 i l z k G H H H G J b j i : ; y + . + ; 5 c G W W Y ! U l : 4 p J H H H H G G H H Y H H H H H H H H G G G G G G G G G G G H H G G H H G G G H H H H Y H H Y H J l p i p b U L G G b h 5 : @ @ + 2 t 4 4 p j k G G G J G G G G j i 5 q 7 5 i f f 5 : # . . # : 7 d s j k k G G G G J G k k j j j j j j l b j p p p p p p i p p p i i i i i i i 7 6 : ; # + # # , : : 0 ; # . .   . + ; : : 4 4 4 4 4 4 : ; # # # # + + # , 5 5 5 5 4 : : ; + @ @ $ < > ; ; # # # # > ; # # # + + + + + @ @ . . . . . . . .                                                                                         o   o . . . . . . . . . ",
"f p i i i 5 5 4 4 : ; # # + + + $ + . . @ # , 8 8 : ; # # ; 1 0 8 4 4 5 i a a i i i i i i i i i p p p p p p p p i i i i p p p p p p j k k k j p f 5 4 : 4 a d f p p p p p p 5 4 4 4 8 4 4 5 5 i p j k k G G k v g : # # > : 4 5 l k l f a 5 4 4 5 i p p j j j j j j j j j j k k k k k k k j j k J k k J J G G P G G G G G G G G G k j p 5 : ; : 4 5 5 p I U H G p 5 5 i l j k G G H H G J b l 5 : > < + . + ; 5 x P Y Y Y ! L l 4 : s z G Y H G G G H Y Y Y H H H H H H H H H G G G G G G G G G G G G G G J K K G G H H H H H H H H J l p i f b L K H G z f a : + . + > , : 5 f l k k G J J G G G z j i 5 7 q a a s S 5 4 ; + @ # : 8 g f l k k k k k k k z k j j j j j j j k j j j j j j p p p s a i i i i i i p p a 7 8 ; # + # ; ; : 6 , > + .       @ $ , : : 4 4 4 4 4 : , # # $ + + + # : 4 5 5 4 4 : ; > # + + # ; > : : # # # # # # # $ # + + + + @ @ . . . . . . . .                                                                                                       . . . . . . ",
"p p i i i 5 4 4 : ; ; # # + + @ + @ . . @ # , 0 4 : ; # # # : 8 4 4 4 5 5 a i i i i i i i i i i p p p p p p p p i i i p p p p f p p j j k k j f a 5 : : 4 7 d i i i p p p i 5 4 4 8 8 8 5 5 5 i p j k k G G k v g : # # > ; : 5 j j l p i 5 5 4 i h f f l j p l k k k k k k k k k k k k k j j k J G G G G G G K G G G G G G G G G G j f 5 : : : 6 5 i p I U H G p 5 5 i l l k G H H H G z b l 5 : , < + . + ; 5 x P W Y W P L f : : s z G H G G G G H Y Y Y Y H H H H H G G H H G G G G G G G G G k k G G G G G H H H H H H H H H H J l p i p b J G H G z f 5 : + . + > : 4 5 s l k k G G J G G G k j i 5 7 7 5 a s S 5 4 : + + # : 8 a f j k k k k j j j j j j j j j j k k k j j j j j j j j p i i i i i i p p p p i 5 8 : # + ; ; ; : 6 , > + .       @ $ ; : : 4 4 4 4 8 : , # # $ + + + # < 4 5 4 4 : : ; > # + + # ; ; : : ; # # # # # # # + + + @ @ @ . . . . . . . .                                                                                                       . . . . . . . ",
"p p i i 5 5 4 4 : ; ; # # # + @ + @ . . . + : 8 4 : ; # # # : 4 4 4 4 5 5 a i i i i i i i i i i p i p i p s p p i i i p p p f p p p j j k k j l h 5 : : 4 7 a i i i p s f a 9 4 4 4 8 8 4 5 5 i p j j k G G k l a : # # ; ; : 5 j j l f a 5 5 5 i h f p l j p j j j j j j j k k j j j j j j j j k J G k k G G G G G G G G J G G G k l h 7 4 : : 6 7 i p L U H J p 5 5 i f l k G G H H G z b p 5 : , < + . @ ; 5 x U W W W P z p : : s k G H G G G G H Y W Y H H H H H G G G G K G G G G G G G G G k k k G G G G H H H H H H H H H H J l i 5 p l J G G G j s 5 ; @ . + > : 4 5 s l k k G G G G G G k p i 4 4 5 5 a i V 5 4 : + + # : 8 a f j j k k k j j j j j j j p j j j j k j j j j j j j j p i i i i i p p p p i i 5 8 : # # ; ; : : 6 , > @ .     . @ # ; : : 4 4 4 8 8 : ; # # $ + + + # < 6 4 4 4 : : ; ; + @ + # ; ; : ; ; # # # # # # # + + @ @ @ . . . . . . . . .                                                                                                         . . . . . . ",
"s p i i 5 5 4 : : ; ; ; $ $ + @ @ @ @ . . + ; 8 4 : ; # + # : : 4 4 4 4 5 5 i a s i i i i i i i i i i i p p p i i i i i i p p p p p j j j j j x h 5 4 : 4 7 i i i i s h h d 5 4 4 4 8 8 5 5 5 i p j j k G G j f a : # # ; ; : 5 j j l f a 5 5 4 i s p p p p p j j j j j j j j j j j j j j j j j k J k k k k J k G k k G G J G G G G l h 7 : : : 4 5 i p I K H J p 5 5 i f l k G G G G G z b p 5 : , 2 + . @ ; 5 x L ! Y W P z i : : s k G H G G G G H W W Y H H G H H G G G G H G G G G G G G G G G G G G G G G H H H H H G H H H H J l i 5 i l L G G k j i 4 ; @ . + > : : 5 s l k k k G G G k k k p 5 4 4 4 5 i i V 5 4 ; + + # : 7 a f j j k k k k j k j j j p p j j j j k j j j j j j j p p i i i i i p p p p i i 5 8 : ; # > ; : : 6 , ; @ .     . @ # ; : 4 4 4 4 8 8 : ; # # $ + + + # < 6 5 4 4 : : ; ; + + + # > ; ; ; ; ; # # # # # # + + @ @ . . . . . . . . .                                                                                                             . . . . . ",
"s a i 5 5 4 : : : ; ; $ $ $ + @ @ @ . . . + ; 8 4 : ; # + # ; : : 4 4 5 5 5 i a p i i i i i i i i i i i i i i i i i i i i p p p p p p j j j j x h 5 4 : 4 7 a i i i i s f a 5 : : : 8 8 4 4 5 i s p j j G J j f a : # # ; ; : 5 l z l f i 5 4 4 5 s p p p p p j j j j j j j j j j j j j j j j k k k k j j k k k k k k G G J G G G k l h 7 : ; : : 5 i p I K H G p 5 5 i f l k G G G G G z z p 5 : , 2 + . @ ; 4 j J W Y P U c p : : s z G H G G G G H W W W H H G H H H G G G G G G G G G G G k G k G G G G G G G G G G G G G G H H J l i 5 i l L J G k l a 4 > @ . + $ : : 5 s l j k k G G G k k k p 5 4 4 5 5 i i V 5 4 ; + + ; : 7 d f j k k k k k k k j j j p p p p j j j j j j j j j j j p i i i i i p p p p p i a 9 8 ; # ; : : 4 6 : ; + . .   . + # ; : 4 4 4 4 8 8 : ; # # $ + @ + # < q 7 4 4 4 : ; ; + + + # ; > : ; ; ; # # # # # # + + + @ @ @ @ . . . . . .                                                                                                               . . . . ",
"s i 5 5 4 4 : ; ; # # # $ % @ . @ @ . . . + ; : 8 : # + + # ; : : 4 4 4 5 5 i a i i i i p p i i i i i i i i i i p i p p p p p p p p p j j j j f d 5 : : 4 5 i i 5 5 i i a 5 4 : : : : 4 4 4 5 5 i j j j G k j f q : # # > ; : 5 v z l f i 5 4 4 i s p p j p p p j j j j j j j j j j j j j j j j j k j j j k k k k k k k k k k k k k j s 5 : ; : : 5 i p L J G G p i 5 i f l k G G G G G c l p 5 : , 2 + . @ ; 4 p G H H H U b p : : v J G H H G G G H Y W Y H H G H H H G G G G G G G G G G k k k k k k k k G G G G G G G G G G H H J l i 5 i f b J G k l a : # @ . + ; , : 5 s l j k k G G G k k j p 5 4 4 4 5 i i V 5 4 : # # ; : 7 d x j k k k k k k j j j j p p p p j j j j j j j j j p p p p p p i i i p p p p i i 9 8 ; # ; : : 4 6 8 ; + @ . . . + > : : 4 4 4 4 8 8 : ; # # $ + + + # 1 6 6 4 4 8 : ; # + @ + # ; > : : ; ; # # # # # + @ + + + @ @ @ . . . . . .                                                                                                                       ",
"i 5 5 4 4 4 : ; ; # # + @ + @ . @ . . . . + ; : : ; # + @ # ; 1 : 4 8 8 5 5 5 a i i i i p p p i i 5 5 i i i i i i i i i p p p p p p p j j j j p d 5 : : 4 5 i i 5 5 i i a 5 4 : : : : : : 4 5 5 i p j j G k j f 7 : # # > ; : 5 v z l p i 5 5 4 a h p p l l p p j j j j j j j l p p p p p p p j j j j j j j j k j j j k k k k k k j p a 4 : ; : : 5 i p J J G k p 5 5 p l l k k G G G G L z p 5 : , 2 + . @ ; 4 p G H H H L b p : : v L G H H H G G H H Y Y H H H G G G G G G G G G G G G G k k k k k k k k G G G G G G G G G G G G z l i 5 i p z k k j p 7 : # . . + ; , : 5 s p j j k k k k k k j p 5 4 4 4 5 a i S 5 4 : $ # ; : 7 d f j k k k k k k j j j j p p p p p j j j j j j j j p p f p i i i i i p p f p i i 9 8 ; # : : : 4 8 8 ; + @ . . . + ; : : : 4 4 4 4 4 : ; # # $ + + + # 1 8 4 4 4 8 : ; # + @ @ + # > : : ; # # # # # # + + + + + @ @ . . . . .                                                                                                                           ",
"5 5 4 4 4 : : : ; # # # + % @ . @ .     . + # ; : ; # @ @ + ; , : 8 6 8 4 5 5 i i i i i i p p i i 5 5 5 i i i i i i i i p p p i p p p j j j p p d 5 : : 4 7 d i a i i a d a 9 4 : : : : : 4 5 5 i s j j k k j h 7 : # # # ; : 5 v l j p i 5 4 5 a h p p l p p p j j j j j j j j p p p j j j j j j p p j j j j z j j j j j j j j k j p a 4 : ; : 8 7 i p z J G G p i i p l l k k G G G G L l p 5 : , 2 + . @ ; 4 f k H H H L b p : 4 v L G H H K G G H H Y Y H H K H G G G G G G G G G G G k k k k k k k k k G G G G G G G G G G G G z l i 4 5 p l j k j p 5 : # . . @ $ ; : 5 s p j j k k k k k j j i 5 4 4 4 5 i i S 5 4 ; + # ; : 9 a f j k k k k z j j j j l p p p p p j j j j j j p p p f f i i i i i p p p f p i 5 9 8 ; # : : : 4 8 8 ; # + . . . + ; : : 4 4 4 4 4 : : , # # $ + + + # 1 4 4 4 4 8 : ; # @ . . @ # > , , # # # # # # # # @ + @ @ @ @ . . .                                                                                                                               ",
"7 5 4 4 4 : ; ; # # # + + @ @ @ @ . . . . + # ; : ; # @ . + ; 1 : : 8 8 8 4 5 a i i i i i i i i 5 5 5 5 5 5 5 5 i i i i i i i i i i p j x j p f 5 4 : : 4 9 5 i i i a a a a 9 : : : : : : : 5 a i p j k k k j s 7 : # # # ; : 4 l l l s i 5 4 5 i i s f p p p p p j j j j j j j p p p p p j j j j p j j j j j j j j j p j j j j j j p d 7 : ; : : 4 5 p k J G k l a i p f b z z G G G J k l s 5 : ; > + . . # 4 l z G ! K J b i : 4 f z K ! G G J L H H H H H H H G G G G G G G G G G k G k k k k k k k k k k k k G G G G J H G G G z f 5 4 5 h j k k l s 5 : # . . @ $ , : 4 a i j z z k k k k k j p 5 4 4 4 5 5 h f 5 4 : # # ; : 7 a f x k j j j l l j j j j p p p p p p p j j p p p p f p p f f p p p p i i p i i a 9 4 ; ; ; 4 0 8 4 : : # @ . . . $ > : : 4 4 4 4 8 8 : , # # + @ @ + # 1 8 4 4 4 4 : ; ; + @ @ @ # ; ; ; # # # # # # + + + + + @ @ . . .                                                                                                                                 ",
"9 4 4 4 : : ; ; # # + + @ @ . . . . . . . + ; ; , ; + . . @ $ < : : : 8 4 4 5 5 5 5 i i i i i i 5 5 5 5 5 5 5 5 i i i i i i i i i i p j j j p s 7 4 : : 4 9 5 i i i a a a a 9 : : : : : : : 5 a i i p j k k j s 9 : # # # ; : 4 x l v s a 5 5 5 5 i p p p p p p p p j p j p j j p p p p j j l l j p p j j j j j j j j j j j j j j p p d 7 : ; : 4 4 i f z J G k j p i p f l z z J G G G z l s 5 : ; $ + . . ; 4 f z G K K z b i : : s z K R G G J J G H H H H G G G G G G G G G G G G k G k k k k k k k k k k k k G G k G G G G G G z p 4 4 5 h l k k l s 7 : # . . @ $ > : 4 a p j z k k k k k k j p 5 4 4 8 5 5 h h 5 4 : # # ; 4 5 a p l j j j j j l j j j p p i i p p p p p p p p p p p p i f p p i p p i i s i i a 9 4 ; ; ; 8 0 8 4 8 : # + . . @ & 2 : : 4 4 4 4 8 4 : ; # # + + @ + # 1 8 4 4 4 4 : > # + @ . @ # ; ; ; ; # # # # # + + + @ @ @ . . . .                                                                                                                                 ",
"4 4 4 : : : ; # # # + @ @ . . . . .     . @ > , , ; + . . @ # < ; ; : : 4 4 4 4 5 5 5 5 5 5 i i 5 5 5 5 5 i 5 5 i i i i i i i i i i i p j p p i a 4 : : 4 9 9 i 5 i a i i a 4 : : : : : : : 5 5 i i p j j j j i 7 : # # # > : 4 x l v s a 5 5 5 5 i p p p p p p p p p p p p p p p p p p p l l j p p p p j j j j l j j j j l l j j p p d 7 : ; : 8 9 i f z J G G j p i p f l z k J k G z k l f 5 : ; # @ . . ; 8 f z G K J k b 5 : : s k G K G k k k G G H H G G G G G G k k G G G k k k k k k k k j k k k k k k k k G k G G G G G k z i 4 4 5 s b k k j f 7 : # . . @ $ ; : 4 i s j j j k k k j j j i 5 4 : 8 5 i h h i 4 , # # ; 4 5 i i j j j j j j p j j p p p i i p p p p p p p p p p p p i p p p i i i i i s i i 5 9 : ; ; ; : 8 8 8 6 : # @ . . . $ > : : 4 4 4 4 4 4 : ; # # # + @ + # 1 8 4 4 4 4 : ; # + @ . @ # $ ; ; # # # # # # # + + @ @ @ . . . .                                                                                                                                 ",
"4 4 : : : : ; # # # + @ . . . . . .     . @ > , , > # . . @ $ < ; ; : : : 4 4 4 5 5 5 5 5 5 5 5 5 5 i 5 i i i i i i i i i i i i 5 5 i p p p p i d 4 : : 4 9 9 i 5 i i i i i 4 : : : 8 : : 4 4 5 a i p j j j j a 7 ; # # # > : 4 f j l s i 5 5 5 i a s f p p p p p p p p p p p p p p p p p p p p p p p p j j j j l j j j j l j j j p i a 6 : ; : 8 9 i f z J G k p p i i l l k k k k k z k l s 5 : ; $ @ . . ; 7 s k G K G k v 5 ; ; a j G K k k k z G L H H G G G G G G G G G G k k k k k k k k k j k k k k k k k k G k G G J G G k l i 4 4 5 s b z k j f a : # . . @ $ ; : 4 i f l j j j k k j j j i 5 : 4 8 5 i h h 5 4 , # # ; 4 5 5 i p j j p p p p p p p p i i i i p p p p p p p p p i i i s p p i i i i i i i 5 5 8 : ; ; ; : : 8 8 8 ; + @ .   . + ; : : 4 4 4 4 4 4 : ; # # # + @ + # 1 0 8 4 4 4 : ; # @ . . @ $ $ ; ; # # # # # # + + @ @ @ @ . . . .                                                                                                                                 ",
"4 : : : : ; ; # # + @ @ . . . . . .       @ # > > ; + . . . + ; ; ; : : 4 4 4 4 4 4 4 4 4 4 4 5 5 i i i i i i i 5 5 5 i i i i a 5 5 i i p p p i g 4 : : 4 9 9 5 5 i i i i a 4 : : : 8 4 4 4 5 5 a i p j j j p a 7 ; # + # ; : 5 p j f p i 5 4 4 i a s f p p p p p p p p p p p p i p p p i i p p p p p p j j j j l j j j j j j j p p i 7 8 : ; ; 8 9 i p z J G k p i i p l l j j k k k z z l s 5 : ; $ @ . . ; 7 p k G K J k v 5 ; ; a j k J k k j k k L G G G k G G G k k k k k k k k k k k k k k j j j k z k k k J J G G J J G G k l i 4 4 5 a b c k j f a : # . . @ $ > : 4 i s l j j j k j j j f i 4 : 4 8 4 i h h 5 4 : # # ; 4 5 5 i i p p p p p p p p p i i i i i p p p p p p p i i i i i s s i i i i i i i 5 5 5 8 : ; # ; : : 8 6 6 ; + .     . + ; : : : 4 4 4 4 4 : ; # # $ + + + # 1 8 4 4 4 4 : ; # @ . . @ $ $ ; # # # # # # # + @ @ @ @ @ . . . .                                                                                                                                 ",
"4 : : : ; ; ; # # + @ . . . . . . .       . # ; ; # + . . . @ $ > ; : : : 8 4 4 4 4 4 4 4 4 4 4 5 i i i i i i i 5 5 5 5 i i i a 5 5 i i p p p i g 4 : : 4 9 d 5 i i i i i i 4 : : : 8 8 4 4 5 5 5 i p j k j l a 8 ; + + # ; : 4 p j p i 5 5 4 4 5 i i p p p p p i i i p p p p p p p p p p i p p p p p p p j j j j j p p j j j j p p i 7 4 : ; ; 8 4 i p z J G k p i i p f l j j k k k z l l s 5 : > $ @ . . # 8 p k G K J k v 5 ; ; a j k G k z j j k k G G k k k k k k k k k k k k k k k k k k j j j k k z k k k J J G G G G G k k s i 4 : 5 i b c k k l a 4 ; . . . $ > : 4 i s f j p j j j j j l i 4 : : 8 4 5 h s 5 4 : # # ; : 7 5 i i p p p p p i i i p p i i i i i p p p p p p i i i i i a i i i i i i i i 5 5 5 8 : # # ; : : 8 6 6 ; + . .   . $ ; : : : 4 4 4 4 4 : ; # # $ + + + # 1 8 4 4 4 : : ; # @ . . @ $ $ ; # # # # + + + @ @ @ @ @ @ . . . .                                                                                                                                 ",
": : : : ; ; # # # + @ . . . . . . .   . . . # ; ; # @ . . . @ $ ; ; ; : : 4 4 4 4 4 4 4 4 : : 4 5 i i i i i i 5 5 5 5 5 5 5 a a 5 5 i i p p p i g 4 : : 4 q d i i i i i a a 5 : : : 4 8 4 4 5 5 5 5 p j k l l a 8 ; + + # ; : 4 p j f i 5 5 4 4 5 i i p p i i i i i i i p p p p p f s p p p p f p p p p p j l j j j p p j j j j p p i 5 : : ; ; 8 4 5 p z J G k p p i p f l j j k k k k l l s 5 : > $ @ . . # 4 p k G P J k v 4 ; ; a l k G k z j j k k k k k k k k k k k k k k k k k k k k z z k j j k z z k k k k k k k G G k k k p i 4 : 5 i x c G c l a 4 ; @ . @ & > : 4 a i p j j j j j j j p i 4 : : 8 7 5 h s 5 4 : # # ; 4 7 7 i i p p p p i i i i p i i a i i p p p p p p p i i i 5 i i i i i i a a a i 5 5 4 8 : # # ; : : 6 6 : ; + @ .   . $ ; : : : 4 4 4 4 : : ; # # $ + + + # 1 8 4 4 4 : : ; # @ . . @ $ $ # # # # + + # + + @ @ @ @ @ . . . .                                                                                                                                 "
};
