/* XPM */
static char *_1ca8b72fae34d87d26c84027bfd08e3xLEhgGuUKi9g77Jz[] = {
/* columns rows colors chars-per-pixel */
"548 548 256 2 ",
"   c #010101",
".  c #0B0003",
"X  c #010903",
"o  c #03020A",
"O  c #0C010A",
"+  c #020A0B",
"@  c #0B0A0A",
"#  c #130004",
"$  c #1B0005",
"%  c #13010B",
"&  c #1B000C",
"*  c #140A0C",
"=  c #0C0212",
"-  c #080812",
";  c #140112",
":  c #1C0112",
">  c #190816",
",  c #121214",
"<  c #230005",
"1  c #23000C",
"2  c #2B000C",
"3  c #2B0006",
"4  c #33000D",
"5  c #39000B",
"6  c #240113",
"7  c #2B0013",
"8  c #24021A",
"9  c #2C011B",
"0  c #270B1A",
"q  c #330014",
"w  c #3B0014",
"e  c #34011B",
"r  c #3B001B",
"t  c #350A1D",
"y  c #28121C",
"u  c #2B0722",
"i  c #340222",
"p  c #3C0123",
"a  c #390926",
"s  c #381528",
"d  c #301429",
"f  c #301F2C",
"g  c #430014",
"h  c #4B0015",
"j  c #43001C",
"k  c #4B001C",
"l  c #43091E",
"z  c #53001C",
"x  c #58001A",
"c  c #46000D",
"v  c #65001D",
"b  c #440123",
"n  c #4B0024",
"m  c #44012B",
"M  c #4C012B",
"N  c #470B29",
"B  c #530024",
"V  c #5B0024",
"C  c #54012B",
"Z  c #5C002C",
"A  c #550A2C",
"S  c #46142C",
"D  c #4B0733",
"F  c #540232",
"G  c #5C0133",
"H  c #580937",
"J  c #491734",
"K  c #581638",
"L  c #53132D",
"P  c #630024",
"I  c #63002C",
"U  c #6B002C",
"Y  c #6A0125",
"T  c #73002D",
"R  c #79002A",
"E  c #640133",
"W  c #6C0034",
"Q  c #64023A",
"!  c #6C013B",
"~  c #660B3A",
"^  c #730034",
"/  c #7B0034",
"(  c #74013B",
")  c #7C003C",
"_  c #750B3C",
"`  c #66153B",
"'  c #74133D",
"]  c #50253A",
"[  c #66233E",
"{  c #5B1443",
"}  c #6A0743",
"|  c #740243",
" . c #7C0143",
".. c #790848",
"X. c #691745",
"o. c #771648",
"O. c #7A1853",
"+. c #790A52",
"@. c #582C46",
"#. c #682648",
"$. c #76254B",
"%. c #792754",
"&. c #703354",
"*. c #7B3363",
"=. c #6F4F63",
"-. c #83003C",
";. c #8B003C",
":. c #850035",
">. c #94003C",
",. c #84012F",
"<. c #A4003D",
"1. c #840043",
"2. c #8B0044",
"3. c #84024B",
"4. c #8C014B",
"5. c #870B4A",
"6. c #930044",
"7. c #9B0045",
"8. c #93004C",
"9. c #9B004C",
"0. c #950B4D",
"q. c #86154C",
"w. c #8C0352",
"e. c #890A54",
"r. c #940253",
"t. c #9C0153",
"y. c #9C035A",
"u. c #9C0B5B",
"i. c #960A56",
"p. c #891755",
"a. c #971659",
"s. c #94154D",
"d. c #A3004C",
"f. c #A80049",
"g. c #A30154",
"h. c #AB0054",
"j. c #A4025B",
"k. c #AC025B",
"l. c #A30B5C",
"z. c #A90B5A",
"x. c #B30055",
"c. c #B3015C",
"v. c #BB005C",
"b. c #B7075A",
"n. c #A5155C",
"m. c #B40D57",
"M. c #882658",
"N. c #96255B",
"B. c #872E57",
"V. c #9A1863",
"C. c #980D62",
"Z. c #AC0362",
"A. c #AC0C63",
"S. c #A60A64",
"D. c #B40263",
"F. c #BC0163",
"G. c #B30C64",
"H. c #BC036A",
"J. c #BC0C6B",
"K. c #B80A68",
"L. c #A41363",
"P. c #AB1364",
"I. c #A91A67",
"U. c #B4146B",
"Y. c #BB136C",
"T. c #B61868",
"R. c #BC0B72",
"E. c #BA1973",
"W. c #AC1972",
"Q. c #992765",
"!. c #903166",
"~. c #A72568",
"^. c #B5246B",
"/. c #B82575",
"(. c #AB2D72",
"). c #A4235D",
"_. c #C4015C",
"`. c #D0055C",
"'. c #C30164",
"]. c #CB0164",
"[. c #C4036B",
"{. c #CC026C",
"}. c #C30B6C",
"|. c #CB0B6C",
" X c #C50B65",
".X c #D3016C",
"XX c #DB016D",
"oX c #D40669",
"OX c #C3136C",
"+X c #C7166B",
"@X c #CD0472",
"#X c #C40C72",
"$X c #CC0C73",
"%X c #CA0877",
"&X c #D40373",
"*X c #DC0274",
"=X c #D30B74",
"-X c #DB0B75",
";X c #DC037A",
":X c #D40C7A",
">X c #DC0B7B",
",X c #D4047A",
"<X c #C41373",
"1X c #CB1374",
"2X c #C31B73",
"3X c #CC147A",
"4X c #C91A78",
"5X c #D31374",
"6X c #D3137B",
"7X c #DB127C",
"8X c #D71879",
"9X c #D4146C",
"0X c #E4016C",
"qX c #E30174",
"wX c #EB0175",
"eX c #E4027B",
"rX c #EB017C",
"tX c #E30B7C",
"yX c #EA0A7D",
"uX c #E40A75",
"iX c #F20075",
"pX c #F3017D",
"aX c #FB007D",
"sX c #F4077B",
"dX c #E4137C",
"fX c #F10973",
"gX c #C62478",
"hX c #CE2376",
"jX c #8D5673",
"kX c #DC0A82",
"lX c #D91682",
"zX c #CB1881",
"xX c #E50482",
"cX c #EC0282",
"vX c #E40B82",
"bX c #EB0B83",
"nX c #EB0789",
"mX c #F40184",
"MX c #FB0184",
"NX c #F30A84",
"BX c #F40389",
"VX c #FC028A",
"CX c #F70A89",
"ZX c #E71484",
"AX c #F7108C",
"SX c #D22584",
"DX c #E72389",
"FX c #A66E8D",
"GX c #C25293",
"HX c #B38EA3",
"JX c #CE93B2",
"KX c #D4A1B9",
"LX c #EDAFCF",
"PX c #DDAAC7",
"IX c #ECC7DC",
"UX c #7C6D82",
/* pixels */
"j 3 3 q 1 # .     @ X   X @ @ . # $ 1 S S 1 < q < J q < 9 1 $ & > O O O > o > o . O O O % > . & % > > * O O . O % f y . % % . & 0 # 0 0 % & . : # 0 $ t t < q < 1 $ # . O O @       . O . # 0 # & % : s S 6 a 7 1 6 & 9 & 8 6 t K 2 & O . > & 1 n ~ H N j A r N : d 9 n E ( W.P.i.a.} j e 6 # . .       . . O O . . . . . . . . o +       . .   .         . O . X X X X X . . .   X o + : D ..p.C 9 ; = O O O O . . . .   X . . o = 8 N o.o.D q 5.i.( U h.:.I e.R.kXeXqX.X].+XT.E C w M D e O.! 5.h < %   @   @ .   X o o   . . . .       X X X                 o     O . . . O       + @   O , f o % : = : r j e p Q. .C G B ..Z q & $ U h 1 # C $.2 r $.~ ~ Z z B.J % u N ~ W W X.9 8 8 j / 7.r.w...k 1.i.E } G M Q } H !.+.+.Q ( | E p.1.OXv.4Xr.} H C o.U ..p i 8 p 1.l.(.z z G m 6 F ~ r K m e M X.} C n X.M n a.( i s ~ ! I ! n %.q r X.w g ` q 9 & 9 0 6 7 1 p #.&.m X.p M Q M %.M M X.e q n G q.~.u.4.i.L.(.5.+.G M q m i e I ) g Q !.C n.T.2.Z p 9 ~ I U q.~ n ) ~.q.H %.p.~.a.Q O.(.8.u.0.~.Q.! O.k E V W ( h g C C q r 7 1 e n g B w z g k k w r r 4 B Q F p s p C ~.5.) P.^./ 1.T.l.( V.+.} k ..M j E 5.M M ~ F D e G X.4 1 ",
"#.r q J s # % % . . . 0 6 # # $ e 7 7 p b 2 2 2 q N N N a J S s @.8 & % % y % O y O O O O % . % % > % % # % % # . 0 0 : & # . # & 1 & 6 6 8 % : 0 a : S ] s S 7 J s 6 : # O . o   > % & 7 7 q e 9 S $ e J q K N e a s ] 9 u i S [ N 0 0 & 6 & $ < n q j 2 D r p a & 7 } p.e.e.| E } F e a 0 # . .           . . . . . . . . .           o O O O O O O O . .       X     . . .           % 7 b C %.H i 8 % # % . * . .           o O 1 g B C F Q ^ )  .a.9.n.1.I Z.%X.XtX[.9.8Xm.W %.b p p p G E N.g & O O O .       o X   . . . . .         X X                 @           . O % % & : % O O O . O % # > 0 j ` 7 e E ! o.!.N.p.n L s 7 B B e 6 j B 2 q b w k 5 5 g 6 8 & 7 B c U H p a i C 5.n.a.a.5.E i.5.B G M w Z Q p M g ! Z E B E ( ) h.f.gXP b M X.E I | m J i b 0.T.V.Z  .p.*.i C o.n X.D r H X.H n C X.F j ^ I p p C E ( | G %.M K $.n X.~ M J 7 7 7 7 e 7 7 H M r K M M n C X.b M D r M F n k W ( ) 1.x W | !.} n b *.a K p.) k X.H k 2.0.) Q { { O.! ! } H n I V j b n k ^ W g C ) T T P W ! Z o.Q p.E N.Q...C X.$.#.N 9 K N #.A X.` B.H k A X.&.{ b X.B.p 6 8 8 G o.B Z 5.) z W q.P ..O.X.H C !.H M !.o.r H #.r e N #.X.2 1 ",
"*.D e N i 1 1 1 6 r e w M ~ ~ g b p p b M M b r m q m p 7 e i 9 K p 2 2 e @.a d J % % O O O * . . # # # # # $ # # # # $ $ 1 1 $ 7 N 7 1 7 9 8 u 8 8 8 d s 9 9 9 N b 7 7 & ; O O O 0 9 e ` o.~ $.A #.r j A n b r q 7 e a 9 6 6 9 a t 9 e w r s 0 6 S r S e q p m H 4 ~ O.~ } G F p p 9 8 t 0 # .   X X                 X X X X   . . . . . % % & 6 6 6 & O           % & # .   X X   . # # # O % r %.M.Z 4 $ # %       o O O o + o a q.) h ( (.a.T.:.W a.a./.Y.t.t.H..X'.1.U 1Xh.V b r H H b Q G $.1 ; = 7 1 6 % O o X X . . X X   . . . . .               . . . . .   X X X . . $ 2 4 4 3 $ # . . $ # # < t 3 4 3 g 4 5 w k Z w r D a p C X.K N N e b D e p H j C 2 9 @.p K N.1.a.} { J D m ! 0.P U z I q.^ V B.H B E V g k V N.Z } Z M.! ( n.m.T.P H p X.B q.W 4 m 7 j 0.n.W B U a.m e n w k g q 4 W _ b r Z o.C C ~ Z M p F H ~ C C H j H b 2 ` w H C r q 7 7 q r q K r b F n G B ~ ~ 4 K A m K X.O.! ( W W P | B n } j q w K : i } k w X.7 j  .) z M a a H n C p 6 e G C b D M n ^ P h Z U Y U U ^ E B B n Z j o.G b q m D a : O f : 9 1 e m e q e p e i u e A ` 2 $ ; O p N < r A j 1 a J 2 g 4 q < 3 K 2 2 #.g $ $ 2 # . # S e % % ",
"p 7 7 7 e a p e H %.X.n Z M.M.n X.D D %.%.H M H $.M { m m i D p 2 N 4 4 1 r 1 $ 0 # % . % . % # # 1 7 6 $ $ 6 0 s $ $ 1 7 t S 7 7 J J 9 7 6 9 i 9 & & & $ & & 7 2 r r 2 7 u s 8 8 6 1 1 N H k n 2 q r 4 r K q w L q 9 7 i 7 9 9 7 9 1 7 q 4 9 # > 0 w 4 S e S w w B !.%.n M e 9 u 8 % O ; % . . .           X X X X X X X X X X . . . . . . . # 1 6 6 % O . o * O O # # # O   o   . # # # .   . 1 4 _ N.` n e % O o + + O .     o 7 ..a.) W ^ U P.E.u.U ^ ) z.Y.S.Z.lXc.! C 2.9.x k g M %.w E C %.p = ; S a : . .   X X . .   X       . . . . . . .       . . . . . @ X X X . # 4 j k j w r 9 $ $ # & 1 2 S t < w K N b 4 3 j r b m p m A H M m p 7 F K p D X.H A q 1 S 1 w I x q.k m i e e C _ z Z 5 Z ' V h $.g k ~ z B I P ^ h ~ C M.C Z i.l.4.V D 6 A g p.z 2 r g _ n.n.V I a.~.j #.%.B o.X.L H N.o.q 2 z V c G H w k k n w H g C k C X.b b n 4 X.g g b 7 1 r N N #.N L K M j j X.A q [ r 1 q q A A X.~ M.M.O.` X.X.q q A K d J #.j p #.7 J %.o.j b 8 8 e e m 9 % : N m i a J K M.! H B.M.q.N.N.M.~ C r M H H B.n r q a e % O o > : % & 1 9 9 e a i 9 : : 6 2 3 7 $ O . $ 2 1 1 7 1 % % 8 $ 7 < t < 3 w < 2 4 < $ # # $ . . 7 1 % > ",
"1 1 p e S &.J e e J N r q r M m e e e p D K m 2 b p e e i 6 i i 1 S d $ # # # # $ # $ $ s t 2 t 0 d s s u t u a @.9 8 9 9 a S 9 7 0 @.u 0 0 u 7 @.a r r n K H H A ` #.b L K &.@.t # % . O * . O % # 0 1 1 ] S S @.a t 7 a 7 t e p N 9 i m e t % . 0 $.h e 7 S b w o.%.C w p e : ; O         . O . . . .                 X X X X         . . .     X X   . % 0 d q e 1 % O > o     . . . .   X X # 7 w C M.q.C q & ; o o O # 1 a $ 7 q _ ^.0.B C I j.g.T 2.1.4.~.L.U.4XU.O.p w _ P (.Z 4 B.g W 5.1.! 8 = > = O ; O o o X . . . . o X o     . . . .   o       + o O > > = o = > 8 p b n r e i 8 % % # 6 t e N u 1 q r p N b r e q p r b M C j b b e 7 M n e p n C w N e s 9 J n n ` q a u s m ~ o.o.%.M $.!.} M F ` $.!.~ %.M...W ~ O.} !.X.O.(.a.p.B p p X.F M.Z N g E M.).n.I o.).^ j N K k h o.b N X.A 1 p W x X.B.%.G s.N.%.C !.o.M.W ' o.n m H M B.k A K 9 1 t a S S r N J N N b L N q J a 1 6 # $ $ 2 $ 7 1 7 1 9 0 # $ t 0 > > 7 $ $ 0 . $ r w < 6 % # # $ $ % @ . # # . . . . t $ # d q w r a a 1 7 $ s S t &.l t 2 7 1 $ O O O ; : 9 i 9 7 7 6 7 9 9 8 6 C C C e 8 9 e r 7 2 7 7 8 : : 7 2 2 2 2 2 2 1 < 4 3 q 1 $ 1 # 1 q e 6 ; ",
"7 < q 2 e S 1 < < 1 1 q 7 1 e N 1 p r 2 b &.#.q q N 1 N e e 6 9 $ 1 S $ $ 1 $ 7 < < < < l l 3 q 7 7 7 7 7 7 7 6 i 6 7 7 1 1 7 1 9 $ a 1 1 7 e 2 b 4 4 5 c z z z h c k 5 g 4 w w 2 1 1 & % % ; : # $ < 1 3 4 r 2 w 2 q 2 4 2 4 4 q q 7 7 r q 2 1 8 $ w h e a 3 4 ~ %.C 4 q e t 0 .   o +       . . . . . .                               . .             . # 1 e &.K i 6 % O O > o         X X X . # t n B _ M.~ b 9 % % : % r $.n 2 1 r T 8.p.p.y.D.c.3XE.S.^ I C./.j.1.Q e 6 e j !.j q J 2 C N.Q.(.m : ; = % 9 1 $ # O . . # . o X o   . . . .   X o       . O ; : : ; % & 9 a p m p e 9 i u : 8 9 9 9 D D 8 7 { M D K K H b p n b A F ~ ~ H M p M C n b b k Z w ` N e q p 2 4 j 2 6 1 7 2 4 w q p q b n g w r j j C g k k x V h B k C j B W P W j e m F k W h j 2 k P v x g C U x r p r 4 g B 4 2 j q 9 X.p.^ n n b 5 P P k 4 n g B g B Z g n b b H j C M 7 7 2 3 q 3 2 2 q 4 g 4 4 q 2 < $ $ $ $ 9 $ 1 $ 1 $ $ $ # 1 $ $ < < 1 < 3 4 < 7 2 2 3 3 3 2 < < 3 2 4 < # 1 q 2 $ $ 1 $ 4 3 $ $ 3 4 4 4 3 3 w 4 w 3 4 B c z h z z B b i 9 e D b ~ j w n G ~ ` H M Z 5.I.3.! } O.Q.| ! ......o.} } } ! | E } ..E } E W I ~ ~ ~ Z 4 4 w w $ O ",
"1 1 1 1 2 2 2 7 2 7 1 1 2 2 7 1 q 2 2 2 w q 2 4 4 r 2 e 7 7 1 1 7 2 D e q e 2 4 4 w w w w j 5 5 j g g g j k n B j n n k B k g k Z j j w w k j B n j B I z z W U V x V I V z h z V Z V I I V V I V W U ^ -.T / Y P P U I I I ^ U ( W W W ( U z C p 1 4 A a p V o.` K r e e 1 & . .   o o     o                       . . . O O O . . .           O . . . . # # # 6 9 N K L q & % = + o X     . . @   . 0 H I ^ p...X.F e 8 & 2 A B.n j H V V e./.x.-XZX7XD.E.k.6.g.P.! E V M : o ; > O > o O 0 J FXjXK p K X.D 4 I V q & & & & . o o   . . . . .   o   . . : 6 1 $ $ 2 q 4 5 g n 2 7 6 & % % : 6 7 7 7 7 m M 7 q M b r r b r p b n k j B B I k 4 5 g w 4 g g g k w b b w w n k B n C k j r w w g w j n k h h I I z h U ^ ^ T R / ^ ) )  .E ! ^ -.^ | +.} ! W 1.W n r n g h g w r w j 7 i 7 q n w C B C j g C V h n g C g k g w j q q 7 7 q q w w w g w n n C C V z z Z z B z B z I V W ( Z k w g H } ~ C C n M X.q p M F G B B W 1.1.2.8.) 4.) ) 8.4.8.4.4.4.8.8.i.-.( 1.8.6.1.) 4.-.6.9.4.2.9.k.4XJ.h.9.g.h.h.d.h.h.f.G.OX+X+XgXa.q.s.4.a.l.T.l.7.9.9.l.P.l.:.R h.$Xc.k.J.R.8XF.$X6X5X5X6X3X<X#X3X3XH.<X4X<X<X<XH.4X4X<X4XE.r.-.T W 2 & ",
"G O.~ o.o.W o.! ....! } } ~ o.} ! 5.p...( ( ......E o.E o.} o.o.....+.p.e...p.e. .e.~.(.3.a.i.i.i.i.u.i.i.u.I./.n.^.n.u.^.I.i.u.P./.y.E.L.u.4.L.C.y.L./.P.L./.E.E.gXP.E.S./.P.U.A.E.k.G.SX<X}.OX<X4X4X}.SX|.F.<X<XE.Y.U.U.E.2XG.2XY.E.E.2XU.g.(.k b b e 7 q O.M.K 7 $ $ # . . .           o -     . . . . . O O . # % & & & 1 1 1 1 & % O o .   . O . . . # # . . : 6 1 b %.$.a % O       . # .   X @ O 1 H ..P ) V.p.Z r 7 1 1 r X.C C M...V 8.:X*XqX].$XH.:XlXk.^ Z +. .o.% - o o > O , f @.@.9 e p b G ~ B.Z (.).o.H H ~ ~ D % O % # . . . O     . & r K W I k B W _ 1.-.-.5.( ~ ` H M M C Q +...p.+.! ..5...( ..! | | (  .(  .1.1.n.1.i.5. .p.p.5.5.p.0.i.i.V.3.V.I.r.y.P.l.l./.L.a.w.e.p.p.V.w.a.u.L.I./.l./.P.U.U.G.Y.1XOXlX3X}.4XE.SXF.3X#XR.E.W.E.<X3X4Xi.~.(.i.L.u.p...a.e.} } | 3.V.e.i.V.(.Q.i.i.w.i.p. .L.i.a.a.3.e. .p.| p.O.e.i.i.i.u.3.I.3.I.gXA.U.P.P.z.l.z.S.U.E.U./.8.) 4.5.a.~.w.W | e.| Z } Q.V.| W u.W.W.gX#X$X6X3X}.lX#X3X<X#X3X#XlX6X6X$X|.|.4X<X|.5X8X4X3X1X:X7X}.J.lX>X>X=X>X&X=X7X:X>XZX{.=X>X:X&X{.<X;.:.6.9.6.T.b.+Xx.b.x.h.b.m.d.c.}.|.$X1X4X<XF.8X7X=X.X-X-X.X.X=X:X,X:X:X#X6X#X6X$X6X{.[.$XJ.K.E.^.N.4 1 ",
"6X3X1X$X$X$X=X:X:X:X5X5X1X1X1X1X$X$X:X$X$X@X$X$X6X3X3X3X1X<X<X#X3X3XkXlXzX%X%XkXkXkX:X:X:XkXkXlX%X=X:X:X=X@X@X=X:X:X:X=X=X=X=X,X,X;XkX;X,X,X,X:X@X:XkXkX:X:XkXkXkXkX;X>X,X,X,XkX:X:XkX:X,X,X>XkX@XkXvXZXvXxXkXkX,XkXkXkXkXlXlXkXZX-XZX{.=X[.4XU.(.w p 8 6 M X.w e 6 & . .       X     . . . % % # # # $ & $ 1 7 7 q b w k h I W  .| Q M 9 ; O = o o O . . . . . . . . . $ 2 E M.M.M & O . . # *   X O . O : m } x 2.I.e._ ` 9 O 8 p A C ! V.p.^ 3XtXpXNX{.{.*X5X3.h V (.^.z 7 O o 8 q K d @.IXLXHXHXe 7 H %.$.w p.) V a.T.b.1Xt.~ #.$.w $ 0 # : . O q 4 x n.m.9Xh.E.J.4X}.3X5X|.{.8XlX$XF.SX<X4X3XkX%XzX$X[.6X:X{.:X6X6X$X@XlXlX=X7X7X>X=X=X=X7X6X}.lX6X[.lX'.7X6X[.lXvX&X&XZX;X&XZX;X{.kX6XH.<X%X3XzX:X$X:X$X$X$X$X3XlXkXvX;X&XeXXXXX*X&X:XuXXXtX>X$X3X>XuXqX*X,X,X:XkXxXxX:X:X3XzX<XzXlX:X,XkXlXE.+.E 4.[.6X3XE.E.zX>X:X:X6X6X>X>X=X$X=X:X;X;XvX;X:XkXkX,XkXZX,XkXkXkXkX,XkXvXkXvX{.F.$X3XR.E.t.g.G.Z.U.S.A.y.E.y.r.Z.<X|.|.:X>X:X:X$X$X:X:X3X#X#X3X6X:X=X$X%X-X7X{.$X>X@X[.<X4X4X3X3X4XE.4X4XR.R.E.<X4X4XE.R.E.E.3X4XzXzX4XE.V.a.Q.(.~.I.I.^.u.^./.^.^.^.I.a.V.Q.Q.~.~.a.e.V.L.P.U.T.E.E././.T.E.E./././././.E././.W.I.W.W.~.~.N.r $ ",
"eXeXeXrXrXpXmXmXrXrXrXrXeXeXeXeXcXrXcXrXcXrXrXrXeXeXeXeXeXeXxXxXxX;X*X;XxXcXcXxXcXcXcXxXxXxXxXcXeXxXcXcXxXeXeXeXeXeXeXeXeXeXcXcXrXcXcXcXxXeXxXxX;X;XkX>X,X,X,X,XkX;XkXvXkX;X;X;X&X&X,XkXZXkXkX,XkXkXxXxXxXxXxXxXkXkXkXkXkXxXxXxXbXrXrXqXvX=X|.J.U.( X.i } M.G r 6 % O .     X X   . . # # & & & 6 6 0 0 a s S K #.%.M.q.a.a.^./.<XJ.U.W.Q.} e : ; o           @ X X X X . $ 4 k q.O.` e & . . O     . O = ; 8 e M.U i.n.5.~ i : % i a M G  .i.) R h.qXXX&X>XZXH.e.n ) i.(.k 7 % 7 A s...J @.PXLXJXKXPX] N PXq w ^ ^ W ~.E.c.OXg.x z x B [ &.a # . f &.4 z T m._.OX4X}.#XF.{.=X=XZX-X&XZX:X@X@X@XZX>X:X7X>X{.6X$X6X=X#X#X8X6X3XH.F.$X=X{.$X5X5X$X}.<X<X<XF.1X$X$X$X%XlX:XZX:XlXlXlXlX=X%XlX6X%X<XR.4XzX3X3XzXzX%X#XR.R.R.#X3X3X6X$X$X5X5XY.Y.1X5X1X}.Y.Y.1X5X=X=X7X6X3X$X:X>X6XzX4X4XE.<X6X:X$X3X4XW.+.} t.J.E.U.L.P.Y.}.#XOX<X4X1X1X1X3X5X5X$X|.8X$X#X<X#XH.{.$X$X$X#X#X3X3XR.#X#X3X3X4XzXU.r.4.L.L.I.L.W.I.(.~.3. .4.L.E.E.OX4XY.A.j.y.S.A.S.y.y.u.L.A.A.U.A.A.G.U.y.P.A.t.t.8. .) ) 1. .3.w.w. . . . . . . . . .( W I I W ( ( I C Z I Z z x x V V x x x x x z k B B B V z k B x x x v v v x x P P x x z z x x x x x x x z V x h B q e ",
"rXrXrXrXrXrXrXpXrXrXrXrXrXrXrXrXrXrXrXrXrXrXrXwXqXqXqXqXeXrXrXrXwXrXrXrXwXrXrXrXrXrXrXrXeXeXqXqX*X>X>X>X>X*X>XeXtXtXtXeXeX;XeXeXqXuX-X-X-X=X=X$X1X<X<X2X2XE.E.E.U.U.E.4X4X6X8X7X7X5X=X$X<X4X4X3X6X>X>X>XeXeXuXuX>X>X>XeXuXeXrXrX>X*XrXNXtXlX6X#X7.G.p.! ^.a.w 1 O         X   . . # $ $ $ 6 a s f s d 0 : & $ 1 7 r n k ( e.a.t._.nXAX>X|.E.i.G 7 8 >       @         . . . # $ 4 W N.o.n 7 ; o @   .   o o O & M M.V W N._ G C g 7 = f i G Y.D.I t.&XAX].=X@XE.Q G n.:.o.7 ; J ~.7.+X;.7 d a =.[ @.FXf . s JXZ h a.} b p m } G | 5._ B m a e % - - % : 8 & p C q.a.a./.^.E.T.I.~.e.! e. . .I.^.T.P.^.~.P.0.Q.Q.~...G q B C M n B ~ W P W o._ W Z ~ C A V I ~ I Q.Q.V...+.} } } O.} } 3.e.e.p.q.Q ~ ! E E ! ! E E E H G E E ! } Q Q } ~ F F Q Q G F M F Q ! Q Q E Z C n V I I H A A b b B k w g w 5 3 3 5 g 5 4 w g g g w w w w < < 3 4 5 5 4 3 w 4 4 w g c c g w w 4 4 w w 4 4 q 4 4 2 1 < $ 1 2 7 q 2 2 2 7 7 1 1 1 q q 4 5 g n r q q q q q 7 7 7 q q q q q q 7 7 1 7 q 2 q 4 w w g g g g h g w w w g g g h h h h h h x x x P x V P U W U W ( U P U ( ) ^ ( 1.) 4.8.6.9.9.8.8.6.6.6.6.6.>.;.-.) / T T U U Y Y ^ T R :./ ^ / ( B n w Q ",
"=X=X:X:X:X=X-X>X-X>X>X>X>X>X>X>X7X>X>X>X>X>X>X-X>X>X>X>X>X>X>X-X].9X8X5X|.|.|. X X X}.}.}.J.J.K.G.G.U.K.G.G.G.K.G.K.K.G.G.D.D.b.m.m.z.z.z.z.z.l.2.-.) / ^ I P P I I U W / -.;.6.9.9.6.;.:.:.2.t.G.c.c.F.F. XF.v.F.F.G.K.K. X X}.#XF.>X=Xh.D.U.2.6.E.! ..n.U r 8   X X X X   . . # $ 1 7 s ] d % . . O # % & & 6 e X.!.B...^ ^ -.'.qXrXrXqX-X5XgX(.E 4 1 8 ; o       . . . O O % 6 2 h p.M.C : ; O O         O : & 2 %.k V ~.-.) 5.C = > a } OX7X2.8.-XqXuXx.D.u.n o.^.T r 8 : !.+XoXuX+X(.%.jX&.7 jXIXPX=.& 1 $.V ~.Q e p 8 9 b k ..Q.I q 1 r r d ; 8 a : = ; 8 q g w k h h h g k G C k g h x h h c h c h c g 5 c c w 4 g w 4 4 4 w w 5 w w 4 4 4 w 7 2 4 5 4 4 g g q q 7 e 9 e e q w g g g k w w w g g w w g g w q q q w w w w q q w q 2 6 q 4 q 4 7 7 q w r r w w 4 4 w c c 5 4 2 2 4 g g w j k h h z V z j k h h c 5 w 5 5 3 2 2 4 5 w w q q e q w k B B B B n Z Z C M n n B j g w w 2 2 7 2 q r r w w 4 q 4 q w r r w w k B B C C n j g b n C C C C M n n b e 7 i 1 2 b C k E ! ..5.q.s.0.0...5.p.p.a.s.i.i.i.a.~.^.^.^.T.T.E.E.E.2X2XE.2XgXE.Y.E.gX4XY.K.<X3XlXlXkXvXZXlXzXlXkXlXlXkXlX3X3X4X1XOXOXY.E.OXOX1X<X1X5X4X2X2X/.Q.G h Q.",
"| ..5.e.e.p.a.a.a.a.a.n.n.n.n.n.n.a.a.a.a.a.a.a.a.a.a.a.u.u.u.s.a.s.q.q.q.q._ C g w w w q q 7 q 4 4 4 4 4 4 4 4 4 4 4 4 5 5 5 g w w w w g g g c h c c c c c c h h h g g g g g h c c h h h h x x h h h h x x h h j g w w w w g g b n  ./ W V I z I C q X.} 4 & O o X X X     . # $ s ] S 6 . O % % $ $ & & % $ $ 7 q j C E W W / }.{..XuXuX0XXX0XoX9Xm.^ w 6 : O O . # . . .     O : 6 q H %.X.r 1 O   o o . . O . # p #.C W OX>.6.a.F 6 D +.9. X'.=X.XuX0XyXt.B b X.~.h : : g I.oXfX].v.8XSXJXJX=.a HXJXPXFX: & C p.n q Q N.^.(.B G M.Z p H q.~.~ Z Q.Z r K #.7 p M 9 8 8 p m q n a.(.4.4.r.) ^ W V I V U U W P R 6.Y.T.+X X XT.3.e.i.e. .| | e.! E +.Q ..3.E ( W x V h h g x c h Y T Y Y Y Y T ) ) ;.9.r.1.-.2.2.1. .3.8.6.1.1.) ) -.) W ^ / / -.-.( ) -.-. .1.K.H.H.}.}. X'.F.F.J.K.H.$X3X3X6X1X4X<X3X8X1X<X6X-X:X<X3X7XdX-X3XE.Y.|.|.|.$X<XE.E.E.E.<X4X4X<X4X$X8XlX6X3X#X$XlX@X$X6X4X2XE.U.j.K.<X<X<X|.|.|.1XF. XOX<X<X$X$X$X$X5X8X5X|.}.#X4X1X1X1X1X<X<X#X<XE.u././ -.E.E.J.1X3X5X5X5XoX{.'.{.&X-XtXtXuX-X-X7X7X6X6X7X>X>XtXZXtX>X>X>X&X&X=XdX7X7X>X=X&X>XkXkX,X;XcXmXcXkXkXnXnXvXvXnXnXkXkXbXyXbXyXZXdXyXyXtXyXsXpXuXtXtX$X~.n P gX",
"g k k j g g g g g g h h h h h h h h k h k k h k k h k h h h h h g c g g g k j w n n n n M b m b n n n n n n B B B B B B B C C Z G G E E E E W W ( ) 1.5.4.0.i.I.0.i.i.p.p.p.q.o.q.q.e.i.u.l.t.8.0.4.4.4.4.s.s.p.E G G C C C C Z C } w.4.~.! ( a.p.k H &.K 7 O     X X       . % d t 6 # # O o . 0 t t d s s s d s s p b j C ` M.e.L.W.Y.J. XoXoXdXoX'.+X~.} b 6 & # # . .     X     . 6 r G o.M.M 9 % O O . .   . & $ p $.( :.G.7.8.p.G r G 8.'.dXtXZX_.XXoXP.G q F ~.k : : ) |.5Xx.k.G.XXDXE.GXLXe jXLXPXJX=.s o.B n %.o.I -.2.E G p.Z q w v 0.^ U T.;.V o.%.H p K a u u @.@.m r ..a.^ 1.n.i.(.e.V.(.V.4.l.P.U.G.OX1X5X'.].uX=Xr.C.U.A.3.| r.W. .! Q.+.C.W. .u.T.-.).^ q.^ ~.;.6.m.T.G.OX+XOX2X4X}.|.7X3X}.|.5X8X#XJ.<X5X5X5X3X}.}.5X1XK.G.OX+X|.1X1XOX|.$X<X$XvXcXcXcXcXcXcXrXcXnXcXeXcXcXrXcXcXcXrXrXmXrXeXCXaXaXeXrXMXMXMXmXrXcXmXMXMXmXcXxXvXkXkXxXxXxXxXcXeXcXrXrXcXrXrXcXcXcXrXeXeXtX>X=X;XbXcXNXrXMXaXMXNXNXpXpXNXmXmXcXNXmXpXpXmXNXcXcXrXrXrXrXeXeXrXeXkX[.ZX>.f.>X>X>XqXeXeXrXNXMXCXCXmXaXMXaXaXaXMXmXmXcXxXxXcXcXmXmXmXrXrXrXrXrXcXbXXXqXeXqXeXrXbXbXnX;XcXVXVXMXnXnXBXBXnXBXBXBXnXnXcXmXMXpXeXeXpXaXrXmXMXaXrXrXmX&X(.k :.1X",
"g.g.g.8.2.) ( ( W W E E I Z I I z z B B B z B V B V V V V V V V V I W ) 1.8.k.Y.<X<X3X3X3X3X6X3X3X3X3X3X3X3X3X3X3X3X3X3X3X3X3X3X<X3X3X3X3X3X3X6X6X$X:X6X6X$X$X:X=X>X7X7X7X6X6X:XlX:X$X$X:X7X:X@X>X:X=X=X:X>X7X6X6X3X<X<X#X#X$X<XOX4XhXY.^.2.d.2X^.) p.n 1 %   @ . . .       o @ O . # # % O O . $ $ $ $ # # O . O O . & 1 e 1 1 8 : e D F g V 5.a.I.^.I.P.P.l.3.j 1 % o + + X X X O . $ 7 M ~ E o.G w 1 # O X X @ . 6 1 M O.C 5.u.;.8.p.n j g.5X{.{.'.[.8.4.w.p.9 m Q.} i 7 |.dXl.C i G 4Xv.>X4Xa.X.!.LXFXPXJX1 ~ B N s $ 1 r w V 1./.Q.C n x Y I -.K.OX .E E !.p r 2 w 4 w g b 1 1 r 2 j Z _ 4.1.U.gXP.) y.S.J.w.y.t.J.r.t.J.t.(  .z.l.E E l.^.V C Q.U  .I.^ u.1Xx.Y.) u. .W.t.4X#X3XlXlX>XeX*X:X:XeX>X&X&X*XyXeX.X[.{.*XqX*X>XvXxXnXnX>X>XvXyXrXbXbXeXrXcXvXkXvXnXmXcXrXeXrXrXqXrXrXrXbXnXNXBXcXcXrXpXmXrX;XvXMXMXrXeXcXcXrXrXrXmXMXMXmXmXmXcXcXxXxXxXeXcXMXMXmXmXcXxXnXnXcXcXrXcXeXbXtX'.h.F.;XnXxXcXwXaXiXaXaXwXqXqXeXrXcXCXcXrXrXpXmXmXcXrXMXMXmXcXxXeXcXcX>X@X>Xf.'.;XtXeXrXrXeXeXwXrXrXrXCXNXmXmXMXMXMXVXrXcXcXBXBXVXVXMXVXMXMXaXpXrXrXrXrXrXcXrXcXrXeXXXxX*XrXMXMXaXNXcXmXMXmXMXMXaXmXcXcXBXmXrX*X*XrXmXcXNXMXMXmXcXmX>XW.B k.=X",
"&X-X-X:X$X|.#X<X2XE.E.E.W.W.W.W.E.E././.E.E./.gXE.E./././.gXgX2X4X4X<X4X3X$X$X:X;XeXrXrXpXmXmXcXcXxXeXeXeXeXeXeXeXcXcXcXcXcXcXcX;XeXxXxXeXeXeXcXnXeXeXbXbXxXeXxXcXmXmXrXeXrXcXrXeXrXrXcXcXcXxXeXrXrXrXmXmXmXrXrXeXeX;X*X;XeXcXrXuX].5XK./ 6.+Xb.U _ N.4 # O o   . # . .         @ . . . O O O O # # . . . .       @ @ O O . . O o o o ; : & 1 2 r M ~ ..5.4.t.u.q.M & O o o X X   . # # $ 7 b H o.( I k 1 .   X X . # 1 q D X.b 5.T.2.4.p.E 6.>XlX:X>X|.4.I E E b e G ` : w oX_.I u 8 p y.>XyX-XE.(.p jXjXKXFXK n H e $ 7 u 9 q ..a.0.^ B M.~.8.) ~.^.9.~.E z g D 1 w B.M.z h %.r $ % & 1 j a.6.6.G.F.h.^ L.g.t.w.C.4.E. .e.W.3.Z W g.0.n Z n.^.k C N.v ^ N.) t.h.F.D.t.C.r.w.4.R.9.k.,X,XeXmX*Xv.{.eXeXeXtXrXwXNXeX;XvXNXmXmXNXBXrXrXpXrXcXmXrXrXpXmXmXmXmXcXxXxXnXmXmXcXcXrXyXqXpXrXeXeXxXeXrXeXcXmXpXmXcX;XeXMXMXcXbXnXcXmXmXMXMXMXmXpXpXmXMXmXmXcXcXrXpXaXMXmXNXxX;XkX;XeXcXnXcX*X>X:Xh.7.[.,XxXxXCXrXVXmXmXmXrXcXCXCXcXcXcXcXmXMXmXcXcXcXCXmXmXmXmXcXcXmXNXxXvXvX{.ZX;XnXcXeXeXrXcXmXmXmXBXcXcXcXmXMXMXMXmXVXBXBXBXVXVXVXVXMXMXmXpXpXrXrXrXcX*X.X.X*X;X>X;X>X*XNXMXaXaXCXrXMXMXMXMXMXMXaXmXcXNXmXrX&X&XrXBXcXrXmXMXmXeXeX:X| k 3X*X",
"*XbXXXyXAXqXbXtX>X=X=X:X6XlX:X:X>X>X>X>X-X-X-X-X=X=X&X=X=X=X&X{.{.=X[.H.6X[.h.[.qXwXqXrXmXMXmXcXcXcXcXcXcXcXmXmXmXmXmXBXNXrXcXNXeXeXeXrXrXmXmXrXNX*XvXvX;XbX*XeXrXcXcXcXcXcXmXmXmXMXmXmXrXcXcXcXrXrXrXpXmXNXNXcXcXrXcXcXrXeXqXqXqXXXZX[.d.8X}.n.q a L 7 .   @   . O . .               . O O O O . . . .                   . . .         . O O O . . # 1 q j Z ! q.o.O.i & O ,   . $ # . # . % J ! U 0.W A 6 %   + + . # : 6 L ` I a.l.2.L.P.Z.ZX;XbXeXeXF.g.e.h I o.& ; O k `.`.h i i D ) $X-X*XdXL.#.=.=.FXLX#.3 n 3 n %.!.M D X.p.^ U 1./ z.l.E C Q g k p.n.Y 1 % e K n k h !.o.7 i u % K ^.9X<.x.|.x./ I.-.t.t.t.4.a.} +.(.( E W n.I.k ! n.T.Z C ~.P  . .0.-./ 2Xz.E.t./.2.2.4X6.c.[.].eXeX&X9.D.:X>XeXrXmXmXcXcXxXxXcXNXBXmXmXaXpXpXpXpXpXpXqXrXpXrXpXmXrXeXmXBXmXmXmXmXmXcXNXqXNXNX*XeXCXNXcXcXrXcXmXrXeXCXmXmXpXcXmXmXmXmXaXaXmXpXaXpXpXpXBXpXrXrXpXaXaXaXiXqXZXzXH.D.kXxXnX;XkXzXZ.;.g.kX;XxXxXxXcXBXBXBXcXcXcXcXcXcXcXcXpXmXVXCXeX;XvXnXcXmXMXMXmXmXcXrXcXcXcXcXcXcXcXcXmXmXmXmXmXmXmXmXcXrXcXcXmXmXmXmXmXmXmXmXMXMXVXVXVXMXmXmXcXxXxXeX&XF.9.<Xg.Z.j.:X:X;XeXcXMXVXmXmXVXVXMXMXMXMXMXMXcXcXVXMXmXcXcXcXcXBXMXMXrXcXeXD.C n 6XqX",
"eXuX*XqXpXpXNXrXrXrXeXqXeXeXeXrXrXrXrXrXrXrXrXrXrXrXrXrXrXrXrXeXbX*X>Xd.[.'.[.=XqXpXmXMXMXVXBXAXcXrXrXrXpXpXpXaXaXpXpXaXpXrXrXmXcXnXcXcXmXmXmXrX*X*XvXvXtX*XrXrXcXcXcXcXcXcXcXmXmXmXmXmXrXrXeXeXmXmXpXpXmXmXcXrXcXrXrXcXrXeXrXbXwXeX#X2.g.$XK.) 1 : 1 .   X . .         . .     .   .   . O o                               . .                 o X . . # 7 L $.W W | } e 7 # # & # . . .     % M p.^ 0.k M a .   @ : # % % a j C V gX6.8.Z.:XkX;XnXmXmX*X}.^.( ^ M.8 = O g `.`.P q p } y.$X-XuX0XOX*.=.FXJXLXjXq &.a q j C r e r Z 5.~.I.;.6.(.E w w H g x -.N.p u e b n o.h I q.B q p u 7 2.>.I.n.6.n.z.I.1.4.T.z.r.e.F Q ~.^ e.| g.z.V ..P.z.E G ~.h  .( a.1.-.P.2.6./ P.8.2.Y.k.1XF.7X{.*X:Xk.J.6X>XeXrXmXmXNXcXxXxXcXcXmXmXMXmXpXrXrXrXrXrXqXqXqXeXeXqX*XqXcXmXmXmXmXrXeXeXZX{.v.vX*X>X*X.XeXeXeXrXNXcXrXmXrXpXpXmXmXmXmXpXpXpXrXrXrXrXrXrXrXrXrXrXpXaXaXaXVXNXkXzX1.-.h.&XcXeXkX3XH.k.F.tX;XeXeXeXxXxXcXcXcXcXcXcXcXmXmXmXrXrXqX&X:XkX,X@XeXcXmXmXmXmXmXcXmXmXmXmXcXcXmXmXcXcXcXcXmXmXmXmXcXcXcXcXmXmXmXmXmXmXmXmXMXMXMXMXaXMXmXcXnXxXeXeX&XF.6.y.) 4.8.k.F.{.;XcXNXVXVXVXVXVXVXVXVXMXMXMXcXcXmXVXMXmXmXcXBXcXMXMXpXeX>XE.n G 8XwX",
"vXtX*X].&XbXeXeXmXMXMXMXaXmXMXVXMXmXmXmXmXmXmXmXcXcXcXcXcXcXcXnXeXZXZX7.#X8XF.:XtXrXpXpXrXcXcXcXcXcXmXmXmXmXmXmXmXmXmXmXmXcXmXmXcXcXmXcXrXrXeX;Xv.{.=X>XtX].rXmXmXmXcXcXcXNXmXmXMXmXmXmXmXcXxXeXmXpXpXrXpXrXrXrXNXcXrXeXeXeXeXrXqX5Xw.Z G.<XU.x b 6 O     . O .         . . . . . . . .   + o                               . .                   X @ O # $ r H i.i.! } o.B.$.r .   . . . o +   > { p./ ) ..~ b 8 O % : 1 1 8 & b B ) z.9.c.&XbXxXBXmXmXqX:X4X1.V O.N 6 % k 9XoXr.G | C.:X;XqXpXiX8XjXu JXLXLXFXt @.f ; & 1 6 9 n Z } G ! a.E B p.I ( ~.^ z b e K p 6 e V Q.V P 0.T x ~ ` 4 4 e 9 9 q ! 0.8.^ e. .1.9.l.(  .(.W 5.( 8.l.( a.T.n.E } (.x e.^ I.2.T I.-.i./ ^.1.4.4.8./.g.Y.7.}.c.D.J.6XvXyXwXrXpXcXcXxXxXcXcXmXmXmXcXcXcXBXBXBXCXCXcXcXnXnXcXnXnXcXcXNXCXnXvX>X:X[.c.;.<X4X<XH.[.{.*XeXeXcXcXrXcXrXmXmXBXNXNXNXcXmXBXBXBXBXcXcXcXBXBXcXBXBXBXBXmXrX*X[.Z.^ -.F.bXrXyXtX:X$X=XeXyXrXrXrXrXcXrXcXrXmXpXpXpXmXmXmXNXrX*X].{.3XJ.k.D.=X*XeXeXeXeXeXeXcXcXcXcXcXcXrXrXrXrXcXcXcXcXNXcXcXrXcXcXcXcXvXtXrXrXeXeXrXrXeXrXaXaXaXrXrXyXyXyXtX&Xv.h.7.h.c.F.f.v.{.*XeXeXrXmXmXmXcXcXrXrXrXrXyXrXpXmXMXmXcXeXxXeXrXpXrX*X=XA.n e.7XsX",
":X:X[.h.D.%X:X;XqXrXMXMXMXMXMXMXmXmXmXmXmXmXmXmXmXmXBXcXcXeXcXcXeX*X.X:X9.4XJ.7.8X-XqXrXcXcXcXcXcXcXcXcXcXmXmXmXmXmXmXcXcXcXmXBXmXBXBXmXmXcXeX;X@X%X#X6X$Xx.'.qXrXrXrXcXcXcXcXcXBXmXmXcXcXcXxXeXmXaXaXaXmXmXmXNXNXrXrXqXqX*XqXqXdX X! G U.G.I.z H u @ X . . . .         . . . . . . .                                                           X     . O # $ 2 Z 1.p.I V W q.X.$ % % . O . + + o 8 q.5.-.s...W K 7 & & 9 a % % 9 r x 8.G.h.tXeXnXnXrXrXuX>X|.-.k X.K e & C hXoXG.y.E.%XvXrXrXiXiX|.K jXJXLXLXFX] 0 > ; i q q G V. .E Z z I h W u.^.n.2.^.p.n b n G C C W ~.q...n.n.( k _ X.a 8 : % : e o.Q.Z ! p.4.g.g.Y W i.z E I / 0.I  .-./ Z } N.V q.V i.T x a.Y 1.x p.I ~.W ( a.i.) ) /.:.2.d.'.*XyXwXpXMXrXrXeXxXcXcXrXrXBXBXBXcXcXcXcXcXcXxXxXxXxXxXxXnX;X;XeX>X*X&X{.}.J.R 8.gX/ 4.U.:.x.*XeXeXeXeXrXbXrXrXrXrXrXeXeXeXcXcXcXcXcXcXcXxXcXcXcXcXcXcXcXrXNXuX$X6.2.9.=X-X0XXX.X|.|.5X-XXX*X*X*X*X*XqXqXqXqXqXqXqXqXqXqX*X>X'.x.J.U.-./ Z.#X$X=X-X=X:X=X=X*X*X*X*X*X*X*X*X*X*X*X*X*X*X*X*XqXqX-X-XqXqX-X-X*X*X=X=X=X-X:X>XZXuX=X{. X{.oX-X8X5X2XT.A.T.+XJ.h.K.1X8X>X-X>XtX>X>X>X>X=X-X-X=X:X-XqXqXqX*X:X=X=X:X:X.X|.3XA.^ B I.dXaX",
"F.#Xg.8.r.y.<X3X&XeXpXaXMXmXcXcXmXmXBXBXBXBXBXBXmXBXBXcXeXeXeXrXrXrXf.[.) y.r./ y.j.[.eXbXnXmXmXcXcXcXcXcXcXmXmXcXcXcXcXcXcXcXcXmXmXmXpXrXeX;X&X$Xh.8.y.t.4.1.<XrXaXpXpXrXrXrXrXNXNXrXrXrXrXeXrXrXiXwXiXiXpXiXwXrXrXrXrXwXrXrXtX5X9.^ L.E.z.a.k p : . O . O . o O . .       X X X X       . . .                                       . .       X       . O % 8 q j (.0.W B h M.o.A % O 6 # . O o O m B.-./ n.T ) o.n 1 8 s & 0 O & ` ) 6.|.dX*XeXxX;XeXrXtX&Xt.j H X.q : m +X.X{.[.lX,XxXcXmXwXXX1X} FXPXJXLXKXS $ N w ^ 6.6.gX8Xc.8.P.6.;.7.8X}.K.OX:.;.P.I.~.g p.T.6.( M.Q.! k B.H m m 1 d @.i i : & p K 7 b N.P. X_./ W 1.h Z G E p.V 5./ ) n H } E X.b ! V x a.V E Z ! k !.k Q G } g } N.x 6.f._.*XwX0XwXiXsXrXrXrXrXrXwXwXrXrXeXeXrXrXcXrXcXNXcXeXxXnXcXeX-X-X-X-X5X5X1X4X6.:.T.0./ 8.g.6.v.*XqX*X*XqXqXuXyXyXuXqXqXqXuXeXeXcXcXcXnXcXeXeXnXcXnXcXcXrXeXeXwX0X X9.k.E.SX9X-X|.OXE.E.E.OXOXOXOXOXOX+X1X1X1X1X1X1X|.|.|.|.1X+XK.z.T.L.^ T I.E.E.+X1X1X1X2X2X3X5X5X5X5X5X5X5X5X5X5X|.|.5X5X5X=X=X9X9X9X=X1X+X5X5XOXT.OXOXOXE.E.I.a.e.5.0.u.n.n.a.a.p.p.p.s.5.a.L.^.^.E.Y.OXOX2X2X2XE.E.E.E.T.U.E.2XOXY.T.W.E.W.^./.I.L.I...B B E.qXaX",
"'.=Xk.j.r.1.G.<X>XtXrXpXpXNXbXbXmXmXmXmXmXBXBXBXcXcXcXcXrXeXrXrXmXoXf.|.) W ~.( E  .c.:X>X*XrXpXrXeXeXrXcXcXcXcXcXcXcXcXcXxXcXcXcXrXrXrXrXqX*X*X[.6./ ^ ( ( E I.{.qXqX*X*X&X&X&X>X-X-X&X&X&X=X:X-X-X=X=X=X=XoX|.|.$X$X$X|.|.|.Y.8.P I ~.8.1.E 7 : O . . O . o O & * % O     X X X X X     . . .             . . .   .                             X o       ; u a r h e.a.5.z h a.M.a % & 6 # . O O & b p.2.;.6.4.( p.n 6 % u 0   > 7 I ;.8X{.*X*XeX;XxXeXeXeX4XB M X.q ; i T.*XcX&X,XkXxXcXrXqX|.^ jXJXPXLXFXLX< r %.z T z.h.9XXXdX{.$X<X3XdX.X'.5X X>.,.OXOXgX! I.5Xd.V Q } j q b w b K e O 8 G o.e 6 1 1 6 r C ^ 7.z.q.o.o.H K H b ` M M...M.b M G X.K D o...o.N.o.C o.M r #.b &.b K b %.X.B ~.T.E.4X5XoX=X-X=X$X$X1X6X6X:X=X5X5X5X5X8X8XlXlX|.3X1X}.}.<X}.c.g.t.t.t.l.l.n.n.I V Q.W W N.N.4.E.2XOXY.4X4XOX}.4X1X<XOXOXOX<X<X<X4X<X<X<XY.J.J.E.<X<X<X<X<X<X<X Xb.8.5.(  ./ -.:./ U W E Z P U U U U U W ^ ^ ^ W W U W ^ ^ ^ ^ T U I V B w w C V I I U U U I U ^ ^ ^ ^ ^ ^ ^ ^ / ^ ^ ^ ^ ^ ) ) 6.6.6.6.7.6.1.1./ / I V V P V B n r e 7 7 q w g g w q q q 2 4 4 w g j k z V V V I I Z Z Z Z Z Z V Z I I V V C F n b n C n w q w ! 4XqXaX",
"wXuX.X|.c.;.g.$X.X*XqXwXqXqXqXuXqXwXwXwXwXwXwXwXrXrXrXrXrXrXrXwX0XuX_.b.I.I p.O.Z W 8.K.1X=XqXwXqXrXrXrXrXrXrXrXrXrXrXrXuXuXeX*XtX>XeXtXqX*X-X-X8Xz.r.W o.C M E E.5X8X4X2XY.T.E.E.E.2XE.U.U.U.I.a.p.p.p.p.p.p.o.| ....| } } } H D 7 r E j M : ; : & O o   . O . > * # . .           X X                             .                               @ @       ; b X.w E i.n.i.I E p.o.r % O % # # 0 # 1 ( ~.P I.e.W 8.n.n & t 0 O , . 4 z._. X=X*X*XeXeXxX*XqXlXI n o.w ; 9 P.uXVXrXxXnXcXcXqX@XSXw !.LXLXFXIXFX5 ` $.g g W / >..XpXrXtX1Xg.c.$Xh.[.{..Xf.}.lXh.A.K. Xd.z } m p C 1.m.Y z { : e a.^.B b q r 7 % : 6 7 r e 9 a s y > O % % 9 6 i 8 9 n ~ p D o._ $.X.M 2 r 7 7 a & s & & $ t 1 1 p m M C G E ! | | | } } o.O.p.q.! ! E Z C B B n C Z Z B B C B j 7 7 7 7 q q e e 1 p S 1 m J q b F C n n C C n n b j j r r w r r e e e q q 7 7 7 7 7 e 9 9 9 e e q q & : % : & 7 7 1 & & % % & 1 & & $ & & : & & & & & & & & & & $ 1 & % O O O O % & & & 6 : & & & & & & & & & & & & & & & & & 6 2 2 1 7 q 2 1 & 7 7 & % & & % O O O o o o O % & & # . O . O % % . . % % & & 6 6 & & & % & & & & 1 1 7 7 2 1 6 6 & % & 8 & & % e i.6XpXaX",
"-XoX5X4Xb.;.2./.b.Y.4X8X4X1X1X4X1X1X1X1X1X1X5X5X1X1X1X1X1X1X<XOXK.hX^.a.!.b H X.M b B ) a.T.Y.OX<X<X<XOXOXOXOXOXJ.OX<XY.Y.Y.U.G.A.l.j.j.j.g.l.n.2.q.p.B %.q a 2 ! ) ( W V k j j j k B k g w w w q 7 7 7 7 6 6 1 1 6 8 : & 6 8 : ; : K o.Q #.= o > : O @ + + O O . . . . .                                       . . .       X                   .             . 2 N &.w P l.i.I.B Q e.o.9 O % 6 < < & $ Z W u.1.Q V.R T.q.` 1 6 @   > w x +XF.:X*X.XXXrXCXeX0X-X) C N.n 8 7 u.=XeXrXBXnXeXnX*X2Xb @.HXKXLXPXJX&.A X.M 7 m } p.Y.*XiXaXuX$X2.2.E.j.lX{.eX7X7.F.v.'.{.6XD.I (.F M 5.n.hXm.-.B 4 g s.^.p.~ j &.s u % ; % % ; O O ; O . @   o   o O o . 7 w $ $ r 2 7 2 1 7 $ : % . # # . % . . # . O ; ; % & 1 6 6 8 : : : : 8 6 6 1 $ $ $ $ $ $ $ $ # $ # # $ # # O O O O O O O O O O O O . & & # % % % % % % % 8 : : & % % % O O O O O O O O O O O O O O . . O O O O + o + + o . O O o     o o o O o . o         @                     o   o o       . o o       o + o o     o o     o + + o     O O . O # .     . O   o       o o   o o o   . O O O   + X + @     o + . . . . O .       o o . . O . . . % O O O O o O O O . % 2 P.>XaXaX",
"1.5.5.q.p.! G X.C C C C B B B B b b b b b m m b b b b b b p p p b r q e 9 : % % & 6 6 6 7 e p p m m m m p r q 7 q 7 7 7 7 7 6 6 7 9 e 7 6 6 1 6 1 $ & # # # # # $ 1 & & % O O O O O O O O O O = % % % % # # # . % % . . . O O O   8 B.U V jX> - - O . .     o   . . . . . . . . . .   .       @       X X       . . . .       X               X     .   .     O % $ b B.G E w./.L.V 5.!.H 7 % & S 4 $ $ b E -.T.| C l.R 9.N.C $ % # a g g U 8X.XtXqXpXpXpXrXCX-X) h T N.2 r 4.2X:X].AXbX]..X4XQ.: =.KXLXJXLXFXa a a : : i { !.i.*XwXCX>X3X4.} w.#X>X>X:X$XD.c.@XqXqXh.8.j.t.V.} C ! I -.OX:.h g B p.(.o.1 i & K $.q % O o o 9 q $ % O             . $ $   X   . # % % . O . . . .     . . . . .       . O O . . O O O O O O O . . . . . . . . . .   . . . .             . . . .       . . . . . . . . . . . . . .               . . . . . . . . . . . . . . . . .     o X X     . .                             @       @       . .   @   X   o .   . . .                                 o o     .   @ . . @   . .   o   . o     O         . # # . .     @ . .       . . . . . . . . . O . . O . O O . . . .   .     . . . # A 2XeXaXMX",
"2 q 7 q e 1 $ 6 % % % % % & $ $ . O O O O O O O O O O O O O O O O .   . O O   . . . . . O ; O o O O O O O O O O O O . . . o o o o o o o o o       . . . . . . . O .       o o o + + + + + o o     . . . . . . . . .   .     . .   & M.Y k p % O o . # # . O O O . . . . O . . . .     . . . . @ X X X X X       . . . . .     + o o o o o X       . . . . . . . . % q 7 #.F E ) P.W.B E Q.~ 7 $ q K 2 7 6 F n.2XV.Z ~.8.R ^.} q & $ q A n h 6.5X=X*XMXmXcX*XeX=X-.x x ~ b 2 Z L.gXK.|.$XZXSX1.F u jXPXJXJXLXFX8 % : i e r g Z T v.*XqXvX$XZ.|  .,XvX{.g.k.H.%X*XrXqX;.R.8XF.4.u.e.! | I.z.z.~.o.j w x x 7 i 6 b M.H 8 O ; : j %.g r $ . .   @ , X . # . X X X X   . .                       .     X                         .                 X     X X X X                               . . .                       X X X X X   . . . . . . . . . . . . . . . . .             .                                   X X       X . O . .   .   . . . . . . . . . @ X X X           X             X o     . . @   . .     .       . . .     . . # # . .     . . .       . . . . . .       . . . . .       . . .   . . @ . . $ < o.1XeXaXMX",
"O . . . . . . .           . . # . . . . . . . . . . . . . . . .   o o   . .   . # .     O .     . . . . . . . . . . . . . . .   @     + o   X     . . . . . . . . . . . . .     . . . . . . X     . . . .     .   . . .       . * 1 H g 7 6 q B $ # $ $ 0 s ` #.1 # . . . .     , O . . . . . . . .     X       O . . . O .           o o X     . . . . . .     , . . ; : H o.I u.y.i.x / (.H 1 7 S #.r & 7 1.K.l.I.E  .i./ ~.I g e ; : $.I h w.4X=XrXqXlXH.,XlXz. .w q & & q Z ! GXe.) L.( M 7 D HXLXLX@.@.u u f i | l.hX1Xj.6.d.&X*XeX*XZX$X>XqXeXc.6.t.#XeXqXNX].>.DX{.{.|.g.E.l.8.w.n G Q.Q.C ..OXT.( n r p r a u 8 r Z V q.B.o.j 1 & % .   . . . .   X X X                 X X               X                                           X     X X X X       . . . . .       X X X X X                               X X X               @   .       @ o   . . . . . . . . .     X X X X X X X X X             X X   X X X   O . . . . . . . . . . . .         . . . . . . .   . . . . . X   + X   o   @   . . . . @     . # # . . . @ . . # . .     . . .   X X         X   X X   X X O O O .   . . . . . . . @ . & < 3 q.1XrXpXMX",
"o +     @ @ o X X X X X     . . . . . . . . . . . . . . . . . .   o X   . . .   . .   o .     X . . . . . . . . . . . . . . . . O     X X   X   . . . . .       . . . . . . . . % # # . O .                   . . . . .     . . 6 7 2 2 : ] ~ Z 2 $ # # $ e A H $ # . . . . O O O . % # . . # % . . .         . . . # # # . O O o o             . . . . . .     ,   @ O & r X.q.V i./.^ v a.O.F 1 2 A %.1 e h I.;.P.5.Z a./ -.I.W X.8 : M !.n B W.4XyX*XZ.4.k.:XY.i.b @.> 0 6 1 2 4 b r X.b 7 jXLXLXJXPXPXFX6 7 8 p a.OXZX].|.}.9.$XZXqXyXXXqX*XNXeX@X#X3XlXcXrXqXZXc.F.7X&XZX{.>.d.F.U.} F C z G ..b.b.4.E o.{ n 2 7 K X.M.B c x v z w 2 1 % * . . . .           X   X   X X X X X X                                                                           . . . . . .     X X X X X X                                 X X X       o     o     @         . . . . . . . . . .           X                             X X   .     O . . . .   . .           . . . . . . . . . . . . . . . . X + o   o   O . .   . . ,   . O & # % . . * . . % O .   O O # #   X       X X X   X X X + O O O * O O @ X   . . .   @ . & 1 3 ).=XrXpXmX",
"          @ @               . . . . . . .   . . .         . . . . .   . . . .   . .     . . . . . . . . # . . . # . . . . . . . . . . . .   @ . . . . .   X X X X           . . . . . . .                 . . . @ . . . . . . . $ 6 $ 1 6 J a < $ . X X O # $ # O @ . O # & 1 1 7 1 $ # . O . . # # . .         . 6 a 9 1 $ % # % % O .           . . . . .     . % # ] q r q o.! ^ z.I.Q M ..M.p 7 4 !.X.q q Q 9.6.n. .W ~.-.u.) ! %.e : { a.U Z w.tXtXS.! 9.:XlXl.m @.> . O & &.& 9 s % ] FXPXKXLXLXJXFXjX~ !.H M C ) 1X].-Xf.;.D..XXXvXXXuXeX=X{.&XtXkX@X&X&X.XoXF.t.8Xh.*XtX=XF.7X7X$X3X#X1.Q B U -.} r Q ! i.T ( M.C q 1 M I.T.g.1._ L 6 O     X   . . . .                                                     . . . .       o o o o o o o     o o o o     . . . . . . .       X X             .   . . . . . .             @         . . . O O O O O . . o o o     . . . . . . . . . . . . . . . . . . . . . . . . . . . O O     O O O . . .           o   * O O . O . . . O . O O . . .     + O O + @ & % .   # . O   . % 0 . O     @ o O > O @ @ O ; # & . . . . . # @ .     . O O % & & % . . @ @ . . . .   +   . 1 g (.:XrXcXcX",
"O . @ @     @   . . # . . .       . .   . @ O . . .     . . . . O O . O . O . . . . . . . O . . . . . # % # # # # . . * > # . . $ 0 # . . . . . . . . .     X X         . . O % % & % % O . o @         . . . O . . . . . . . . # % 6 & : # % # # . X X @ # % .       ; f @.&.#.#.J 7 $ % ; O . # $ # .       . 0 a S S N a 7 & $ # . O             . . .       O . 6 r &.q q C Q.I T u.O.F ( 5.O.q r b B.r 9 7 I.h./ e.)  .A.t.6.8.^.Z u 9 u.G.V ( ].-X<Xy.H.vX{.t.M : % O * @.HX@.0 PX=.jXLXKXJXJXPXKXIX2 V ~.Z G C E 6.d.ZX=X3XSXF.&X-X*X.X{.#X#XkXvXeXeXZX7X7X XU.4.t.;.'.>X=X{.:X{.mXCXvX#X4.i.U.L.! r Q 5.gXn.T h g q 1 r 3.z.G.t.) B j N 8 O   o . . . . .                             . . .                 . . . .         o . o . o       o . o . .   . . . . . . . .           . . . .   .   . . . . . . .           o     O O O % > > % % % > > % .   X   . . . . . . . . . . . O O . . . . . . . . . . % # . . & y O   O O % O O . O .           . O % % . O . O . O . O . . . . O . O . & O O 7 $ O O 6 t % . O & a & O O   o ; O % O ; O O : 7 7 . O . . # # # . . . . . % : 9 9 % O . . @ , % . .   +   . $ g 5.:XeXxXnX",
"% . O O     . . . # # . .   X X   . . . . O O . O O O O O O O O . . . # . # $ 1 # : 0 & O O O . . O % % % & & & 0 # & s s : # # 1 J 6 # #         . . % % % . O . o O O O % & 6 s S s a 0 % O . o         . O O . . . O % % # . @ + > . O   . O # . X X   . . . O . . . : a a e e N S 9 # # 0 S 7 2 $ # .     O % 7 r m L K J N 7 1 # . .           . .     X     y # $ @.K w E ! Q.h Z I.4.-.2.8.W 9 : p #.: 7 -.m.i. .4.T 8.hXc.8X_.G.e F >.dXY.k.'.&XtX*XqXqXcXkXW.b e 1 . * HXjX&.HX=.LXLXLXLXJXKXKXUXO X.I g B I W T R D.$X{.oX6.k.$X7X-X'.h.k.[.{..XqXtX=X}.hXI.U L.r.:.6X[.6X>X{.rXrX.XZX'.7XlXK.i. .a.~.) a.W h B B E n p p E w.a.4.-.q.Q p % o % # O . . . .                   .     . . . .                 .                             . .                 . . . . O O O . . # & 0 .           . . O . . .             . . . # : y 6 0 0 $ & 0 6 . . O % & % # . O . . . . . .         . . O O O . % . O # O . : y O : 0 # % % 8 6 # . . % % . O % . % % . . & : % % : & . . % > : & $ q a & $ n g 6 & b K 6 % & 6 N e & : O O u & & & u 9 1 r Z n # % & # # # # . . . . % & 8 9 e & & % O % > : . O o   * ; 1 k U =XeXxXxX",
": # % *     @ * . # # # .   X X . * * O O > > O . O O % % % % % O O % : 1 7 a K # d ] a % . % & % % & & 6 6 6 6 J 7 6 a a 1 % $ < K 2 # % . . . . # $ 1 6 1 $ % O = ; ; & $ 6 7 2 q r e 6 & % O o   . . . . O O . # & 6 > > % . X X . O   ,     .   X X X . . . . O O O . # & & & & & # # % > 6 ] S N q $ # . . % a S r 2 2 p J #.J 7 & . O O . . .     .         . . & $ L ' h B ~ Q.P ^ E.1.i.g.(.a : 7 K s 7 c ~.i./ 8.gX8.k.$X].wXoXn C 5X.X-XF.J.|.*XXXtXtXCX*XSXe.j p 6 % ] LXJXjX@.=.B.LXLX#.FXjXf = q C !.Q.(.^.U.}.H.$XuX-X>.R h.c.8X|.9.9.k.[.]..X@XK.;.) u.^ E.2.Y g.H.F.vXAXqXVXxX*XpXwX*X6XSXj.-./ ( ( ! p.Q.q.(...m p G (./.4.) a.p.G 7 : 6 6 1 & . . . . .   . .     . .       . O O .           . . . .           . . . . . .       . . . .         X X O O . . * % % # # $ 9 s O o . . . . . . O O o . . .     . . . . . . $ e < S S 7 $ 7 6 # . ; 0 9 9 7 9 e % # O . . .         . O * ; > > s : . % % % . % : s J & & 7 S s 6 # % 0 0 % % : 6 u 0 % % 0 7 $ t s u % % : 6 6 q q A X.q 2 H ` e 7 A %.q 7 2 2 A b 2 9 6 & J 6 7 e K A w Z %.#.% > 0 : % # # # . # % : 6 8 6 6 & i u : # # & # % O   o % 7 ~ 1.$X,X;XkX",
"% % % % O O O . % & # # 6 0 & & . . * . . * > % 6 0 t &.7 a @.6 # s % & < r 2 e 7 1 K J $ 1 K 6 % u 6 7 m N 8 8 8 9 p q M H 6 6 q 3 < q $ 1 2 2 S 2 N &.S e 7 & O O % & j n a J D K m p i a 8 ;     . % . . . O $ q N J d O . #                 .   X X     . . . . . . O O O O O .   o @     O 0 J $.q.~ j 6 % 8 % & 9 e L q 1 i M %.H 8 : 0 $ # . @   . . . . . O . . O e M.x B E l.T.g Q a.U 0.N.M 7 ~ w K S 8 w ^.x.;.U.t.2.c.5XyX&X! B F.qXqXF.r.y.{.>XY.D..X`.5Xn.G K a 1 t PXPXFXjXJ &.JXLXFXPX: = ; 8 6 p F ..P.=X*XtX>X.XqX.X_.d.;.,.c.}.3X6X}.k.t.4. .Z U 9.}.hX9.^ ^ t.[.rXpXeXeXcXBXrXrXuX>X=X=X{.x.g.L.3.! E E ( 4.j.P.} X.C G j H G ~ B.C g %.p.C 1 . 1 $ % . # .     # # X +   * & 1 > + + +   O : . % .   * . O O . . . . % . @   , . # $ & . @ .       . . @   % : * O # $ # # % & % : % . % . . O * . * % . * . . % O O % r w g j 7 7 2 b r & O = : i a K G !.%.7 ; o O > > o O O % : % % u a s $ i : ; : 8 8 : & 1 7 e 1 i 1 & 1 # : : . : # 2 a u O > & 2 n C g 1 6 : % 7 b H k Z 5 g w g q 2 q ~ w k z g E 4 w E w 7 6 : : 7 q C g V Z e % ; O = O O O 8 0 & : 0 : > y # ] 8 J r N 6 $ 6 $ % @ o @ 1 C (.Y <Xg.lX>X",
"# & : 6 0 0 & # # # & # $ s ] 1 # * % . . . # # & 6 1 S 6 9 a $ $ t & 7 2 N e < 7 6 e r N p b q : : @.a e #.J a a p *.H H #.6 e #.n b K S S q 4 4 w n w L 7 6 6 : O : 9 #.b a e r b b N a 9 i : O @ % . % : 6 7 L K N 7 # . . .                                 . . . . . . . .     X X X X   . O 1 z ^ o.X.A 7 1 & ; > # e a N K q W p.M e N e 1 # .   . > .   O .     @ & E 5.B ( -.n.Q b ! e.( p.Z B C C n m O 6 ;. Xz.t.A.j.k.{.qX*X4. .=XrXNX>XS.4.x.'.r.^ ]..XZXh...p D 1 a JXFXLXHXJXjXLXKXKXjXs u & 7 q e w k t.-XqXeX;XZX>XXXuX X6.:.G.H.$X=X'.g.4.1. .V.4.OX5Xv.9.L./.E.dXpXrXkXlXeXrXrXrXrXeXqXtX-X'.|.4XA.2.) ^ ) ;.8XF.Q b C C r 7 C o.( Z B Q q.~ 1 & 1 1 . . . . + + . .   o . % # # % O O O . 0 q 7 & % O , O . . % . O . % O . @ . 0 7 N < . f & % % O % # O . & 7 0 & 9 s 8 & a t e s s a u : % : . % . % . . * . # % % s %.~ (.O.H M ~ %.b a : : N r C k P ( ~ 2 % = ; : 8 % % s 6 e S q q e r K J e @.J p #.p J { e { p N 7 7 J e e a & % 9 b A a 8 : e K M.M.M.A N J 9 m B.!.!.o.C !.H K 2 q !.#.G M.N.N.!.C o.~ o.K 6 % ; 9 { B P o.$.8 O : : & % & 6 9 i 6 & 1 & $ 6 & & J 6 m { e 1 $ # # .   . 2 ~ ~.U j.t.:X>X",
"1 1 $ 6 ] #.S e r a a e 6 1 $ # # . . * . # # # $ 1 $ $ & & % . & 6 7 q 9 S K p e 7 e e N 7 2 7 e $ & & # 1 7 $ $ 1 6 9 # # 1 1 C X.7 D K 7 i 8 p r e 7 M jXm J : . & . % . q g 2 4 2 2 2 < e # .   @ O # q W 5.$.S %   # # . .                                         . . . . . . @     . . . % # < < 7 S X.o.B r O o o % 2 ` H } U -.~.o.2 p #.9 .   , X X X   . . . o O 4 M.} W ( 4./.^ ( Q.E U ^.T 4 %.j n 8 6 x P.I.) j.K.c.{.*XtXK.Z.ZXbXqX*XH.g.x._.g.2.1XtX0X|.5.r p 6 8 jXFXIXPX@.=.KXLX!.2 K L B 1.;.2.8.1.9.{.tXvX&XH.3X$X=XZXF.1.3.H.,XNXrX*X=X8XhXE.;.v.-X}.r.3.C.#XtX.Xh.r.y.H.>X*XeXcXrXeXeX=XF.x.-X:X|.|.}.A.9.'. XP.1.U.P.5.j b H a.I.j 7 K a : # 1 $ $ . O X X X . . % % # # & & 0 t d t r ` B.` q :   - > 0 6 > O @ > > 0 6 % % & $ L q 1 1 q 7 & % % 8 u 8 e #.#.e e { J & t 1 7 e t e 6 : # 0 $ d 0 0 d 0 . . 1 $ 1 N j ` X.E o.C $.K 1 9 7 M N.q.(.n.).~.g 2 6 s S p A q 1 7 2 g A A Z B z X.w 4 A w k ~ M F X.e J J { D b %.C o.B.A K A C ` r J & 1 ~ I V V 4 b { p 4 n M m b D i 6 a 6 w X.p D C Z ..Z k ~ w A $.m % > s K 5 C ` e % % 1 b n j k n w q 4 r w j n 4 7 7 i 6 i a : . . . . . O $ g q.q.I -.h.=XZX",
"7 a a e p e q m 2 r e 7 9 u : & : > # % # # # 1 6 1 9 # & % O % 6 a N q 6 6 N b 1 a @.e q K #.m N t # . * # $ $ 2 $ # . . . $ r C C H p e S 8 9 N H m e r p D 9 1 $ $ & + y S g L L q q q 7 ] : o   o ; 1 E ).5.B 1     O .   @                                           . . . O O O . . . . . . % % O O & n ' M.M 8 %   O 4 k b Z s.T.:.2.~ 7 p jX6 >   X + X   @ . O o O 1 ~ M.Z W ) P.A.1.( ( ) Y.n.k n O.C D 2 j 5.L.4.-.Z.F..XqXNX>X:XZXeXeX*X=X&X].v.k.U.H.@X.X8Xr.k q a : 8 jXKXPXFXFXKXLXe X.*.M B 4.T.T.2XU.<X>X*X&X@Xj.3XlX&XdXh.4.3.H.;XmXaXeX*X&X.X7X'._.-X6XT B w.{.ZX{.j.w.r.Z.kXXXqXrXcXrX*X{.x.].qXXXXXqXuX$Xc.d.}.<X;.h.OXgX1.r C -./ F e 6 { d 8 q #.q S 0 .   +   . % # # # . . 1 1 2 2 2 n B h < # O O 9 q e & 0 O : & 9 9 $ s 9 p 4 M ] S K K 7 6 % d 8 9 1 e p 7 q e 9 J N 2 e q 1 1 $ 1 9 1 1 1 9 $ 7 1 # $ < j k k w K n C k B C r 7 $ r B U v v Y v z 2 1 6 s N b H j l 4 A c h U h x V w k B g B I h E M H M q M F C G B z V k g C g V B j b r b k h x V B C j g C C H r m D e K 9 & b A a p C E B E X.w m K b D 8 % : 1 C $.#.1 9 a A %.B.M.M.' Z H ~ ' ' ' $.B g n M D r e s . @ . . . . 2 V N.G k -.[.&XZX",
"8 u 9 6 2 2 M *.#.r 7 K s u ; O O . O * y % # $ 7 1 S 7 1 & % % 9 K K e a 6 i a K r i 9 b b e e 3 w t # # 0 < 2 < $ O   , > 0 S $.k o.A 7 J r 2 7 < r w r b L K j A J J O % q N q q 3 2 # . y O - o o & Z N.s.g 1 % % .   + o                                                   O O % % % . . . . O O O % % % $ j $.L 7 9 & $ 7 i e V 0.m.OXa.E 7 e !.w & *   @   @ . % . % : 7 X...I 3./ Y.t.U j./ -.^.1.h Z ! q.k 9 m i.U.1.8.[.*XrXCXNXcXbXeXbXqXqXpXqX_.F.4X}.8.j.y.2X4.G 9 ; % *.LXJXFXHXJX@.7 *.r 7 7 q G ( A.4X>XyXNXrX{.[.,XbX>XK.) t.zXkXbXVXMXcXeX*X.XqXuXx.F.5X;.) 8.'.ZX*X=X:X3Xc.'.qXqXrXrXeXqX].x.*XqX.X*XqXqXuX{.F.4X<X6.d. X8XT...O.l.9.| F M D @.6 C ~ C Z X.7 O - O . .     . O > t 2 1 1 & 7 q w t 0 d 1 C x g g j r w 4 b e e 1 r X.w H N 6 e t $ $ $ 1 $ $ $ # # 1 6 $ 1 ] ] S ] S 2 2 2 N &.r q t L N l r K N w M.~ ~ B.C O.O.V N.n K a 7 #.%.B.N.s.o.L 1 . . # 1 7 N [ K #.B.B.^ s.N.I M.B.g *.X.b %.~ o.O.o.o.M.o.O.~ O.o.V Q.1.U s.) a.N.W !.Q o.!.E 5.~.(.p.( ..Q.Q.! V o.B.j B.o.e 7 e 1 D j j C b e q q D 7 e i 9 9 & $ a 7 1 1 i a q b r 7 q 2 4 k k 5 C n A ` X.n o.o.C ` &.* @ . . . . 6 U ~.p q 4.6X&XbX",
": 8 a S m r r r M p 7 S u : O > ; . O > d : : # 6 $ S 9 # . % # 1 N 9 $ 8 % : 9 #.q 7 N #.e & @.H M J s : i K m e &.d = = O 8 1 w B w j S < 3 2 < #.n [ r < m %.M.V 2 1 6 6 1 1 q e 2 J 6 O O O o > : b M.q.j 1 % O % .   X                                                     . . % 0 0 & . . O     O # . o o $ 2 A [ S $ $ # % 6 A q.:.9./.~.} g B o.7 $ # . O . # & . O > & p M.( 1.6.9.4Xc.3X9.1.a.Y.l.g o.(.p.9 8 ! L.U.d.'.*XrXmXMXmXcXcXcXqXwXpXrXeX:X6XZXj.4.^ k.2X0.j : ; r JXJXFXKX*.2 ~ G w ~ o.X.F V 2.c.&X&X;XnX;X;X;X*X>XU.w.R.lX,X;XeXrXeXeXuXwXiXwXD.G.lX7XSX8.9.$X&XtXeX=Xg.D.bXrXrXrXeXeXqX_..X&X=XtX>XqXNXqX{.c.8.g.v..XF.9.V I 2.U. .( (.! m q g _ V q.5.g % o : & & 6 .     * 6 $ . % . . $ $ & # 0 e ' _ h X.B B.I Z #.K &.r j w B o.7 J 7 7 a 7 ] 7 q 2 1 # $ $ # $ $ $ 1 $ 7 1 $ $ q S r 3 q A g g 4 g B j Z Z B ( Z g E g B E q 2 7 1 w 5 w g B g e . ; 0 7 4 3 4 w 4 5 n g g z B E X.j G j q w g w E k B h x W V c E k C ~ } p.a.4.0.W E ! B E C j k k p...V I C k k z h w w O.B 2 1 q D b b M.~ M #.p J J p i 9 K 7 1 1 & 1 p { b S J N e e S N A X.G n H M n C C B C k E C e % . . . . . 1 T ~.i 9 y.kX;XrX",
"& & 9 7 2 r A M 2 *.K 7 7 J 8 u @.a 6 6 % : y 6 & # > % .   @ O S K e O = O > 8 9 m ` w e : O : #.K p J 9 6 @.9 9 d f O O u : a p L { M &.K 2 #.M M b 2 a 6 9 e C B r q b b 9 : a N D @.s ; = > O 9 W s.o.e % > O O O % O   X +                                                   . # & 0 0 & O     . % $ # . o o . $ a ] 6 2 2 $ # > u w ^ E.c.1X6.Z r r r A 3 % O 9 1 # O = ; 1 H 5.^ l.;.8X-X_.$XW ( K.K.| n I./.! r i } gX]..XqXrXpXMXMXmXBXCXVXaXiXrXuX*X&XeX;X[.j./ g.b.a.1 O 1 t f =.@.< W i.W i.c.OX/.I.S.-.d.6XC.) F.nX;X[.v.=X<XE.3Xx.vXxX;X;XcXpXiXiXaXsXE.4.x.{.#Xt. .E.&XuXqX&Xt.K.vXmXmXeX;XeXrX.X{.:X:X}.k.v.rXpXrXv.8.k..XuXZ.1.2.I.E W P.G.4XP.h B | ( n.I.i.g 8 O i r I ' &   o o O . . @   O y 0 0 & : a r 5 2 q w A 5 w p 1 9 N %.I !.M.p #.b M L p S & 2 r s $ r L a 1 1 9 O = = ; : u J J i M o.M.G C Z ( h W %.n ( p.V  .a.I ( g K J *.` Z C C X.} b 8 ; i m ~ 5.! o.! o.n e 1 6 & 8 @.M q M.Z p.a.) p.o.~ ' W ^ T ^ W B A K 1 i K Z ..z g H k ~ H w ` r r n w k ~ k 5 j A w g ` q 1 1 r B.E r D F g B k q N 2 7 N a m b #.J & & 7 j 4 r 7 6 6 7 9 e e e 7 b b M M r j G g z C w 2 1 O   o   O q -.(.a i U.>XeXrX",
"a e a a p K K 2 q p 1 7 1 9 $ 7 N < < e # 0 0 % : & # . % % O # 2 q 6 & % # : # & < ` b $ : > % 7 A K b 7 e a 8 d 8 8 9 : & ; : J 6 J p p b q 7 K r 7 i 9 J s : q %.&.K q N ; O % 6 9 $ 6 % O O 6 n a.N.r % - o   O O . . . X X                                                   O . # & 0 y > , @ . # 1 $ O   + o # $ & d ] q $ %   O p G l.{.XX{.U g m b B $.# : ] 2 $ : . ; u b q.2.2.G.'..XtX@XS.) G.4X(.V -.E.T.! 9 F OX0XrXrXmXpXMXVXmXVXmXmXMXmXqX*X*XeXeX*XvX$XZ.6.8XT.o.& % O , * # L p.4.4.E.{.ZXc.8X$X&XtX:X3. .@X*XvXc.d.7X$XD.J.h.*XeX>XkXbXbXyXwXsXtXW.( #XDXk.S.3./.&XrXpXtX9.j.eXpXNXcX;X;X>X{.g.#XlX3Xc.F.vXcXrX*X#X#XwXyXk.I ) W. .W OX5X].8Xt.^.r.x 2.I.L...X.M H B -.N.w $ o       o .   O % & # 1 7 #.M b ] q &.b j b 7 6 6 7 n Z B w m p b G j m 6 9 r *.e 7 ~ ` 7 1 6 6 ; ; = = : 9 a 8 e p M F M M p.+.W N.G b } Z | W V 5.W j q 7 K w E E r #.p e : 8 { H  .5.W W V } K p : : u i 8 9 e w B p.E | q.k C C W Q.x a.Q.g X.9 8 9 q G W h k 5 k Z w n A r L w B !.N.V B $.A 2 b r e K 1 2 !.C M K g ..(.5.%.n H ` q j j g b 7 8 % & q #.b i s ] S e e i e N { K %.~ ~ %.M ~ !.Z G K s *   o   % b 6.^.M p R.qXNXrX",
"@.J 1 e a @.a 1 6 7 a J N e p K q &.#.7 1 6 & 0 J < 2 3 r K #.2 S 1 1 K B.~ r t 1 7 1 0 s 7 3 j 2 w A A 5 4 e $ 6 7 2 r #.t 7 6 : % : s N e *.e m #.i : 8 8 d O O % : & & .     O . . # $ $ # $ B Q.O.e : = o + o   . .                                                         - . # & # . O . $ 0 0 > 0 & O . o   : % . . 6 t $ 0 0 8 ; e i.5X*XdXz.G : 8 B ~ i : J K 1 % > O : 7 B L.E.}.{.ZX-X{.6XZ. ./.k.#XR K.c.l.C } h.uXrXrXqXNXmXVXMXVXMXrXmXrXNXeXbXeX&XbX*X>XSX9.c.hXgXW &   @ % < o.Q C W ) 2.Y.8XtXwXwXpXeX,XlXkX;XmXrXqX].ZX1Xy.r.>X].vX>Xv.F.OX<XF.H.4.y.E.SXU.Z.8.D.*XwXiXqX.X{.rXrXrXeXvXkX#XH.D.[.:X>XZXvXF.F.*XcX;X>XtX*XF.2.B B ^ 9.1X-XsXqX=X8X Xh.1.U I 6.K.f.P k h V q.I q % O O O O % f y # 2 r $.~ w M b r q 7 N 7 6 1 K H B !.X.n H j B.B j H 6 7 M M 7 #.M.g 2 N p N L A %.b q p 2 r 2 m e 7 9 p K m Q ! p H C E (.B E I z Q p m j E N.k e & 6 J 8 1 b ` q.^ k k E o.b m M n B C b 7 6 : : 8 m X.o.} D p %.| 3.| Z Q D D F } V.E.4X4XW ! ~.P P V.! O.B...a.~.a.I.(.Q.X.J s a B.!.q e m w B.E U ) ..Q.a.N.p._ q.Q.Q.M.H a s d ; s #.K a J @.e 6 p p e m b H F ~ M.H j $.X.k $.e y .   - O & E 9X9XQ j H.eXcXmX",
"& 1 % % # 0 % . % : 0 a a e a K q L a $ : : % : 8 & 7 p #.&.&.r 0 & 6 L o.I w 7 & : * * 0 1 3 q $ < r j 4 q t $ & 1 < q N 2 $ # % % % 8 9 $ S $ $ t % % O . ; .   o . . .   o @ .   X   # $ # 2 q.a.H % O o o               . .                                       .     o o   O # $ # % o O 1 1 * y s t & % O > O O   O % & 0 0 7 i 9 9 Z T.7X.X4Xa.9 : n H D 1 q #.N 7 6 & % S C ( U.d.{.-XZX>Xh.R.I C.$X&Xc.7.|.Y...B +X=XuXmXrXCXcXmXmXVXMXmXnX;X*XeXbXrXeXeXqX.X@Xf.g.G. X/ : o O % A ' G e./.j.2.6.v.*X0XiXMXpXeXeXeXeXwXrX.X=XoXF.^ ) dXqXZX=Xc.c.9.;.9.9.g.4X/.( / d.F.>XbXpXpXrXqXeXmXrXcXeX*X[.9.4.:XkXvX&X*X*X[.F.;XcX;X>XvX>X>XJ.C.a.S.g.$X*XwXoXd.5XdX|.P.(./.A.7Xv.u.M.O.B ..M.X.r : : % # & s 0 # 1 2 B w 1 a a ] S 7 i s J 6 J M b X.M m M M X.b X.H 7 J B.r N #.X.r q s s S b j ` g q w 3 2 r S a u i a s i X.~ D K M H %.M o.!.!.!.b 7 q ` ~ 2 : O 6 J 0 7 S ` ` k < < w N e D X.$.M.B.%.#.i u ; ; 8 e b m i 8 M r G Q O.!.{ F { G V.y.U.l.Q } p. .5.Q...} F b Z W I W | Z q 2 7 1 k k 2 r b w o.W  .5.! | P P B z P T U V w 2 e 8 % 6 j 5 q 7 q 2 2 b r e r M X.n n o.F q b q w w 6 ; O @ o % q 1.`.oXW ! $XrXBXBX",
"O % ; O o o o - o o o O % % & 6 1 6 & % = = o o o o = ; > : : O O O % & : & % % . - +   O O . . % O % : # # O O O ; # & & % O . . * # # & # $ # . . . # # . # % o o o .   o O . O   o   O & 1 N q.W 6 o o o O . .   o X X   . .                                     . . .   o o o > 6 $ $ # o @ . . O 6 n A l $ : > o   = O O % # # a e %.b 7 F E.}.8XG.G p e p H r 6 N %.5 7 s O 8 K h T.>.$Xx.=X|.;.A.4.-.:X{.:Xf.v.5XL.U 8.8X>XcXcXCXeXcXmXVXpXcX;X@X'.*XyXrXrXrXMXwXwX.Xh.g.|.0.e : d & L B W S.SX|.ZX*Xv.f..XcXMXaXcXcXrXNX&Xx.:.9.].9X) T *XXXF.g.x.XX7XdX{.dXNXtXU.3.=XrXrXuX=X=XtXeXeXcXcXeXxXxX&XF.9.9.kX&X;XeXrXrXeXeXeXnX;XkX>X*XyX7XE.E.4X6.'.tXNXqX;.l.5X'.4. .e.w.-.A.gX) C q 8 a ~ k p J S 7 $ & ; O 8 1 7 & o - O : % % % ; > O 8 & 8 8 : 8 : u : 0 s : % 8 u $ % > # . O O . & $ $ 1 $ 1 2 1 1 $ 7 2 1 & $ $ $ 7 $ 1 $ < 2 1 $ 1 3 3 3 < $ $ $ 1 $ O O # : # $ $ $ & .   . # $ $ < 2 2 < 2 1 $ & # # # # # $ 1 $ < 2 < q 1 7 1 7 & 1 1 q 2 w 2 & 6 2 4 w w 7 1 & 1 7 q w w r q w g w 5 w 4 4 g c g r q n Z k h V h g g h h h x h g r w q w h x x h h h g k g k k w q 7 7 q r r k g g 4 1 # O     & z z.x. XW i.=XrXmXmX",
"1 1 6 & : % % % ; : : & 1 1 2 2 q 2 2 6 & % ; ; % : 8 6 6 6 6 6 6 7 7 1 & & 1 q & : & % 1 1 & 8 8 : 6 9 7 7 e e 6 7 6 7 6 7 9 1 < 4 3 3 3 q 3 q 2 $ 2 < 2 3 3 4 2 6 6 6 8 7 q q 1 & 6 e : 1 w B B q % o o   . % O   X X X     .                                     . . .     o o 0 S q N $ O o     . # 4 Z A 4 1 @.O y O . % . . # # 7 b X.8 9 ..T.5Xf.8.o.e e C ~ 7 6 o.I 3 J > % b ! T 2XF.f.F.}.6.j.4X;.F.=XkX{.f.5XG.2.Y E.=XcXrXcXeXcXMXVXmXcX@X%X'.*X*XqXeXeXmXpXiXwXH.6.8XT.g 7 %.w w g 2.}.6Xx.yXrX&X'.@XvXeXqXvX>XXXqXZX3XJ.9.c.G.A.K.rXsX=XH.{.-XXXuX_..XwX*Xr.) uXaXiX.Xh.D.,XeXeXeXcXeXxXxX;X&X{.&XZX&XtXvXeXyXrXaXrXcX;XkXeX*XwXqX{.<XzX:.h.&XeX:XP.-.v.5XE.C.| E r.4.4.^ 4.E ; : p.W n M H D 7 $ O % 0 q w p u o > & 1 r 7 9 ; : 9 p M j r m 7 p 1 2 2 7 q q 2 r 7 e 2 q r 7 e r n n b n G C ~ ~ C C Z V n k B B g w n k k n w n g g x x V B n j b b p N j r g 5 q q 6 : : : 1 2 w w 3 3 3 2 2 3 2 4 w g g g g k B V B k B w n g j g 5 g w g w q 7 m r k h g n M D H ~ E ! } X.~ Q.N.q.a.p.q.q...2.i.....3.i.4.a.~.N.N.Q.~.~.~.(.(.Q.!.!.B.N.~.^.I.I.(.~.Q.a.a.~.a.! E O.o.E ..Q.p.Q.M.$.r 9 O   o & P +Xf.OXI L.*XrXmXmX",
"P P U V U V I V B V P P P I U P P V I I B V I I U T T / ;.;./ -./ / :.-.-.^ T / -./ ^ ^ -.:./  .5.1.1.4.4.4.8.t.t.t.r.i.1.i.u.4.1.) / -.:.t.1.4.L.i.a.5.0.l.2.9.9.g.u.u.u.y.k.k.i.i.y.I.| W n. .2 # % ; .   . . . .   X                                         X     . .       . & K %.X.r : O % . . O # q V Z q N J i 1 : : O # *   O # S D e b p.G.f.OX/.G r W p.b q z N.h w s % p Z V I.<Xc.j.U.x.|.1Xh.d.ZXZX.Xc.c.OX8.^ i.=XbXrXrXeXNXmXmXrX.XF.:X,XtX*X>X>XkX&XeXwXqX$X6.5XJ.! I E.>.I U F.7X|.:.c.{.,XvX&X,X[.F.$X#XD.F.&XtXdX6.^ ) F.uXoXqX;X:X6XF.'.-X7.J.$X3X1.4.qXwXwX{.j.Z.,XeXeXcXCXeXcXxX;X;XqXCX;X[.@X{.'.-XwXaXaXmXeXbXnXwXaXiX*XD.E.4.j.j.k.<XG.R {.].F.A.( W 4X6./ k.DXOXg o./.8.I k C H b 1 : 0 j V T n.N.E n g _ / U q.n k q.^.G. X XT.h.h.h.7.7.z.t.G.U.K.F.|. X1X8XY.E.Y.<X3X1X1X6X}.6X5X8X5X6X6X=X$X$X3XK.<X3X6XzX<XJ.4XJ.$XlX&X>X[.<XU.E.4X<X4X<X}.1X}.G.A.L.V.I.W././.A.L.L.P.W./.E.U.E.4X4X4X4XzX4X<X|.5X1XOX2XG.hXgXOX1XJ.4XY.gXU.I.a.~./.T.Y.Y.T.gXP.^.E.T.+X2XE.E.T.gXT./.T.m.^.P.m.hX+XhX+X5XOXgXT.T././.(.~.n.i.4.q.o.O.p.O.o.p.p.p.a.I.^.(.~.(.^.I.T.2XOXG.OXT.L.^.~.Q.r 7 # > O $ P +Xd.E.W L.>XpXmXmX",
"T.T.^.T.^.n.T.^.I.^.^.^.^.^.~.~.~.N.N.N.~.(./.T.T.T.G.OXY.Y.G.Y.OXOXY.+XgXT.G.T.4X+XT.gX2XOXT.T.gXgXE.E.E.Y.}.1X5X}.2XE.A./.T.P./.I.I.E.G.hXgXT.SXE.^.L.T.gXG.Y.OX+XE.U.A.G.K.OXY.2XOXY.4.i.E.E & . O % .       . . . .                                         X X   . . .     O $ n B.I n 1 % O . O o . : B I j j 4 *.H e : . # . @ o , # #.M 2 b 1.b.|.OXe.j | e.V.B h _ o.5 7 d 1 F C p.Y.4X1.) }.-X{.{.F.=X*XtXD.-.1Xc.E ( #XvXrXrXeXNXcXeX;X'.F.=X=X.X].'.H.#XF.kXyXuX1X6.'.F.U.g.].oXE.G.=X>X$Xd.#X6X;X&X>X,XH.D.%X$XD.D.*XeX.Xf.( L..XpXCXCXeX&XD.2.f.|.6.t.t.j.2.H.NXwXqX;X#X#X;XrXrXBXmXcXNXcXeXeXqXcX{.d.h.'.[.v._.qXpXmXeXcXNXpXaXiXtXf.k.J.J.t.8.E.T.>.8Xx.>.9.r.E.[.F.8.k.-XoXx 3.G.K.A.4.( ! M i & 8 w V / ).N.I K B M.-.) N.B B / T.x._. X X+X X5X XK.K.4XJ.J.}..XuX-X-X.X{.<XJ.D.[.$X$X6X[.:X=X:X=X6X8X=X=X[.$X#XlX$X:XzXH.H.$X6X$X6X=XZX>XzXR.4X3X$X:X=X$X6X$X#XR.U.S.j.t.9.r.y.S.S.G.Z.G.K.K.K.R.R.D.H.<X#XH.F.3X4X4X<XZ.K.k.<X}.}.G.G.k.j.r.1.4.u.6.d.h.7.9.9.9.9.9.d.9.9.9.9.9.2.9.7.>.9.8.;.7.6.7.7.h.6.8.2.6.6.-.^ W P x x x k k B h g k B V ^ ^ ^ ) ^ ^ -.-.6.>.>.>.7.:.-.-.-./ g 1 7 d O & U T.6.T.2.K.tXmXmXmX",
"^.^././.T.z.P.^.I.I.L.V.a.p.p.O.o.X.` } o.p.s.i.I./.^.^.a.I.Q.(./.E.W.I.E.W.I.^.W.P.U.T.I.L.n.i.5.5.5.e.a.u.n.n.n.i.I.p.p.p.o...X.X.} o.3.i.i.4.e.e...} ..o...o.p.q.q...! ~ } ..5.i.0.) 3.V.o.7 O   . . . + X X   . . . . .   X                                 X X   . . .     % 1 g _ W V 2 & . @ @   . : p n K 4 g ~ p.E 1 & 6 #   +   % N X.r q j 0.|.|.L.C } i.hX8.n 4 N.Y 3 6 7 e X.C Y.c.I W G.'.*X*X>X'.].DXC.) ].9XC F D.>XrXaXwXMXrX;XvX@X=X;X&Xv.x.h.g.k.g.@X*XtX{.g.g.F.*X.X_..X8X$X|.oX7X{.[.=XcXcXbX;X&X*XrXrX*X&XxXbXtX{.g.}..XrXrXCXpXxXH.t.c.[.D.-.1.U.=XrXwXaXqXvXkX;XrXaXmXVXmXmXBXcXeXvX,X:XlXx.h.F.<Xh.;.g.&XxXeXrXrXrXyX.X:Xh.c.ZX*X'.t.t.U.:.x.f.c.c.[.7X>X[.1.w.OXK.x I U.#X8X2Xz.1.E { % % % 9 e a e & : $ r w r e & 7 4 Z z I I E ( W E E Z C p.W C ( ) ^ ( W W ( ! E B C Q Z E E ! E E E ~ ~ E E Z E W _ W E H C I ^ W W E G E V C C G C U U I I E Z z B Z I P V z n j n B B B V Z Z k k j r j n M n M F M M b b n n n n n g w q q q r r j g z P x V V B B V B z z V U I B V I V B k V h j r w M b b Z I V V E ^ ( ^ ^ ^ / T U T ^ / T T -.^ U P z V z h h h g g g B z h x x h 4 2 # o 8 / z.;.l.c.-XrXrXrXmX",
"( W ^ ^ ^ U U ^ ) W I V C B k g w w w w h h x U ^ ^ T ^ V E B k W ) ( W ) ^ U I W W ) / W W U x z z z x P P v v Y x U z z k g w 7 p w j B V P P B z h g g w g n g g c g g g g j ^ U I B p.!.e %   o   . .   X X     . . . .   X                                 X X   . .       O 1 B U ).( n 6 # O . . * % 6 J A $.G g ( N.H 2 r 2 6 O   * $ w A M 7 ! 5XuXY.( ! /.x.+XI g q.N.g 1 e 9 m n r.:.I I.9.v.].yX>X{.tX:XW.t._.XX| j t.@XuXsXiXMXcXeX@X@XZXtX>X.XtX>X$XD.g.F.{.vX&X:Xg.$XwXiXyX&X.X>X'.v.&X=XF.$X>X*XeXeXtXNXaXaXrXuXeX*XZX=X=X@X>X>X&XvXrXvX<XZ.=X*X6XD.2XD.*XMXiXwXqXbXeX;XmXVXVXMXMXmXNXeX*XeX%X@X7X=XD.9.F.4XD.g.[.;XeXeXrXuX>X{.c.h.v.uXqXbX$X6.4XD.|.'.4X#X7X.X&X$Xr. .U.E. . .G.9.g.}.4Xg.Z b p e 1 i : O O ; O 6 2 3 7 & 9 p F } ! | E Q W I E E Q ! I ( ! E ( P E E !  .! E E C Z w g g w w w 4 w 4 4 w 4 j k z h g w j z P I x j k V V B B n k P P B C V V I I W W T ^ ( _ ~ ! W W ^ ^ U V k j w w w 4 4 4 7 7 q q q r q q q r 4 b 4 n j C C Q Q ..e.4.i.a.e.3.5.p.e.3.e.i.u.u.u.u.V.a.e.e.e.| +.} } +.} } i.r.w.u.P.T.T.T.Y.OX4X1XOX2X4X1X8XOXOX2XE.E.l.u.u.1.V.a.p.p...a.a.i.l.n.a.o.N $ O a 5.9.-.9.|.bXrXrXrXNX",
"B z h h B Z V h h h z V I I I I U U W ^ ^ ^ U T ^ U U ^ ( W W W W V B V Y / W B k k B V B I T R ^ ^ ^ ^ R / / / ) U U ( ^ W ^ W Z ! I U P ^ R ;.^ U -.^ P ^ ^ / ^ U T T ) 1.2.8.h.9.( E Q.n $ ;                     . .                                                     X X   6 n ^ :.n.G m 9 # % . # . . e M Q !.j w X.Q.I k X.H 2 O   , . w ` 6 r G.oX4XA.2.S.[.'.OX) Z o.` 2 9 & e H W ) -.<Xv.{.&X*XeXqXbX*XlX:XXXuXR.W 1.4X:XqXaXaXmXeX{.[.:X>X;XtXpXwXrXbX&Xc.v.%X:XF.:XlXeXqXNXyX{.=X{.x.c.6.) P.zX:X*XqXpXMXMXiXeXeXrXbX$Xh.{.7X8XK.F.|.-X[.) y.*XwXeX*X{.:X].NXwXqXyXuXeXrXrXmXNXeXpXmXeX{.'.&X>X*X&X=Xg.t.<X5XqXrXrX&X{.&XvX:X[.F.9.d.[..XyXrXXXtXF.5XXX*XR.j.H.=X:X1Xy.r.E.t.z.E.k.;./ <X{.1Xw.! a.e.) Z e % % 0 J n x q.B C ~ | C.E.zXkX%X@X>X:X6X6X$X$X6X6X6X6X6X$X@X#X{.=X6X6X<XOXOXG.k.t.8.4.4.1.1.1.4.r.y.g.j.k.Z.k.k.k.J.<X4X}.K.G.J.<X<X<XJ.#X=X5X6X6X6X6X$X$X$X=X-X5X6X3X3X1X$X=X5X7X5X5X$X}.J.J.U.A.j.t.j.8.t./ 8.4.L.4.) 4.z.A.G.Y.4X4X3X6X5X5X:X>X:X:X=X:X:X7X:X:X:X=X=X=X>X7X=X$X3X:XlX=X>XtX>X|.OXOX=X:X:X7XlXdX7X>X*X*X*XqXqXtXuXqX*X*X*X*X-X*XtXtX-X&X&X7X7X=X$X:XH.3X&X5Xn.q.j 7 7 L E 3.:.h.].tXcXmXmXmX",
"u.i.i.i.V.I.L.i.i.u.P.T.gXgXgXgX4X4X4X4X4X4X2X2XY.G.G.Y.E.U.U.U.W.L.u.l.D.OXE.L.V.a.u.u.u.L.J.|.<X<X<X<X<X<X1X4X<XK.U.E.E.E.<XY.E./.2X<XY.2X1X1XgXU.OX1X2XOXOX1XOXY.OX}.#X$X$X:X&X|.1.Q.o.q % O                                                                           X X X o . j ( T a.e.b D a $ . . . . & D Q p.M.M b 1.^.^ V O.A 1 &   . 1 q a b v OXE.g.9.Y.lX=X'.4XB b M.C $ 7 e o.o.1.<XZX>X;X[.*XrXrXrX;XvXxXwXcX:X8.^ A.6XeXiXiXrX;X:XH.%XkX;XeXaXiXaXmXeX{.{.,X[.h.D.,XeXrXCXeX[.[.ZX[.'.k.r.4.D.lXeXqXrXmXMXMXcXeXcX*X{.c.'.h.g.t.h.D.K.A.1.j.qXaXwXeX*X&Xv.tXrXpXqXqXtXuX*XeXxXeXrXrXeX&X'.F.{.*X*X=Xg.t.J.$XwXiXrXeXeXvX:X[.H.H.h.F.>X;XtX*XNXyXf.>.>X=XD.j.#X[.[.#X1. .E.2.Y d.$Xc.Z.3X.X=XE.L.2.P.z.^ r % # a $.E x s.' ~ o.B r.3XkXcXBXcXcXeXrXrXeXqXrXrXeXrXNXrXrXrXrXrXcXrXrXuXqX*X-X=X$X$X1X$X#X|.$X=X:X>X,X;X;X;X;X;XvXvXbXbXeXeXeXvXbXbXeXrXcXcXcXrXcXrXrXrXcXrXcXrXcXcXeXeXrXrXrXrXrXrXcXeX;X;X>X>X;X=X=X7X:X[.6X$XlXk.[.$X:X*X*XqXrXrXrXrXrXrXrXrXrXrXrXrXcXcXcXcXcXrXrXXXqXqXbXxX;XxXeXrXaXMXaXuXf.'.*XeXeXeXrXeXrXrXrXrXrXrXpXpXpXpXrXrXrXrXrXpXpXmXpXwXqXrXrXeXeXcXxXnXrXuXY.1.q 1 g O.Q 3.g.{..XyXcXmXmXmX",
"=X$X$X$X6X6X6X$X[.{.&X>XtXtXqX*X&X&X&X=X=X=X=X-X7X>X-X>XZXtX>XtXdX>X:X:XtXdX7X=X$X=X>X>X7X>XtXtX*X-X>X>XqXqXtX>X=X@X=X=X=X:X>X{.>X&XuXuX>X-X-Xv.D.}..XuXtX*XqXuXyXtX7XtXyXrX>X>X*X1Xu.(.n 1 # O                                                                                 @ O 7 C I p.~.I H K $ # . X . . p H E Q.| h I n.G.R M &.` 5 # O O 6 b ~ k | V.1.r.<X{.ZX[.E.G q ~ X.2 q 1 H o.^ 7XXXeX>X'.qXaXaXrXeXvXxXaXmX>XD.) w.$XtXqXrXbXZXH.t.D.:XeXrXmXrXmXmXcXeXvXvX@Xk.g.:XeXpXaX.Xc.g.'.-XZX-X$Xf.v.qXpXrXqXrXpXrXeX>XbXeXpX.Xg.Y / h.c.h.r.r.g.{.qXpXmXcXxX[.c.{.XX*XrXyXvX*X[.{.eXNXrXrXrXtX@Xc.'.*X>X%Xy.3.3.r.#XtXeXeXxXvX&X{.[.@X>X>XZX;X>Xv.eX{.F.;.y.U.F.'.$Xh.c.H.y.3.i.L.9.x.>X*XvXtXrX*X6XE. .L.P.^ 7 ; & 1 $.X.r H C n #.e } R.;XeXBXcXxX;XrXmXcXrXcXrXrXrXmXrXrXcXrXmXmXrXpXrXrXrXrXrXeXeXeXtXeXeX;XqXeXrXbXxXxXxXnXNXcXrXrXcXcXrXeXeXrXcXmXmXmXmXmXmXmXpXmXmXmXmXmXrXmXcXeXrXcXNXcXrXcXmXBXcXrXeXxXbXZXvX*XAX*X>X>X@X=Xd.kX>XtXbXcXpXmXMXmXmXmXmXVXBXmXmXrXrXrXcXcXcXcXcXcXqXcXqXnXnXxXvXxXcXmXcXtX8X/ Z.&XeXnXcXeXeXcXcXcXcXcXmXmXmXmXcXcXxXxXxXxXcXcXcXcXeX;XeXeXeXeXnXBXmXpXuXOX) 9 : C (.| 4.{.yX*XcXrXcXcXmX",
"rXeXeXeXeXeXeXeXbXbXNXNXBXaXpXrXXX&X*XeXxXbXnXnXcXrXrXrXcXrXrXrXrXrXrXeXtXvX>X*X*XeXpXmXNXrXrXqXeXeXrXrXrXrXrXrXeXvXvX;X&XeXbXeX*X.XaXaXNXqX&Xd.6.3XvXpXpXwXBXmXiXrXeXeXrXrX;X;X{.F.(.Q 1 & . .                                                                                   O % 7 F ..^.4.Z ~ q $ . X X . & b n ! e.( I W hXz.w K N.U 1 # . % 1 M X.w C Z 1.4X:Xv.g.W.Q.n r $.o.w 1 p M.) '.XXqXeX.X*XaXiXrXeXeXeXmXpX;X#X3.) H.>X*XtX,X:Xh.6.h.>XrXpXNXrXcXcXrXcXNXbX:X[.g.>XqXMXMXeX6XH.lXdX*X.XdX{.yX0XaXpXrXeXqXeX>XlX>XeXCXqXj.U 6.=X{.c.1.w.[.vXeXrXmXeXvX=X$X6X:XtXyXqX.X'.h.c.*XcXrXeXmXCXeX]..XyXeX>XH.y.| 1.}.>XtX;X*X&X.X.X*X*XvXtX*X>XZXc.[.lX6XU.E W.1X&X@Xc.f.F.J.y.4.E.}.=XqXqXrXrXpXrXvX[.t.4.n.Q.J 8 p n C G 7 p N q s 7 Q E.kXqXMXmXxXvXeXNXmXcXmXrXrXmXmXrXcXcXeXrXcXrXmXmXmXmXmXcXcXcXcXcXcXcXrXrXcXcXcXcXrXcXmXmXmXrXmXmXmXmXpXrXmXmXmXmXmXmXMXMXmXmXmXmXmXmXmXpXmXmXcXcXcXmXcXcXmXmXmXcXcXcXnXxX;X*X*XbXeXZXkX;X[.x.;X*XeXcXNXpXpXMXcXcXcXmXmXmXcXcXcXcXcXcXcXcXcXcXeXAXcXeXcXnXnXnXcXBXNXrX;XlX8.K.,XcXnXBXcXcXcXcXcXmXmXmXmXmXmXcXeXxXxXxXxXnXnXnXnXxXxXxXxXxXkXcXVXpXiXqXE.E 8 6 ! E.1.t.;XcXeXcXrXcXmXmX",
"BXcXcXcXnXnXnXnXcXcXcXcXcXmXmXmX.X.X*XeXxXnXcXcXNXmXmXmXmXmXmXmXmXmXnXkX:XzXlXkXnXBXmXmXpXcXvXZXbXcXBXBXBXBXBXCXnXAXAXeX&X;XCXnX;X{.rXpXeX&X#X8.( E.kXcXmXrXcXrXmXmXvXkXcXcXvX>X$XG.Q.q $ . . .                                                                           . . . . . o O p E T.n.W ~ ~ 2 . X X   # 7 b E a.i.I I z.Y.5.h U N.n < % . ; & { H q n ( 6.{.>.-.w.w.! q ~ ~.v 7 9 p.8.6.&X>XtXZX>XvXqXrXrXeXeXcXrX;X:Xr.) F.7X=X{.F.F.H.D.@XvXpXMXCXrXNXcXcXcXrXeX;X,XD.kXqXaXMXeXzXD.dXXXXX-X'.h.-X*XrXrXeXeXrXeX,X#XH.{.qX.X}.c.{.yXyX.Xt.t.6XZX>XtXeX;XeX>X:XH.D.{.tX.X].'.F.[.;XcXeXrXMXMXaXpXpXMXaXMXNX>XD.D.>XqXbX*X*XXXqXrXrXpXrXcXeXtX=Xc.6.6X}.D.^ /.}.'..XdX_.*X*X{.'.F.7.$X>X*X&XeXrXmXpXrX.Xd.6.p.a ; B (.0.( e i K m 7 r W 4XbXiXMXaXeXvX;XcXxXeXxXeX;XxXnXxXvXbXeX;X;X;XeXeXcXBXcXcXcXcXnXcXcXcXBXBXBXBXmXmXmXmXmXMXmXmXMXMXMXMXMXMXMXmXcXcXcXcXNXNXmXcXcXcXcXcXcXcXcXcXcXcXcXcXcXcXcXcXcXcXcXcXcXeX;X&X.X.X&XvX&X&Xc.{.,X;XxXnXrXqXrXmXcXcXcXcXcXcXcXxXxXxXxXxXxXxXxXxX&XtX_.cXrXcXBXcXcXmXMXrXeXkX<XH.xXcXcXcXcXmXmXmXmXmXmXmXmXmXmXmXcXcXcXcXcXBXBXBXBXcXcXcXnXxXxXcXMXaXaX*Xn.b 8 9 i.J.g.{.eXrXmXcXcXcXmXmX",
"cXcXcXcXcXcXcXnXcXcXcXcXcXmXBXBX*X;XeXnXcXNXcXcXmXmXmXmXmXmXMXMXVXcXxX@Xj.Z.%X,XcXmXmXmXpXrXkXkXeXcXcXcXrXrXcXcXeXeXxX&X'..XeXeXnXeXMXmXxX:XzXS.! w.[.bXAXcXnXcXVXmXkXkXcXeX;X$X}.T.G 7 &   . X                                                                           . . . O   + - % j n.G.3.| p.k $   X + . & e C  .^.( I ^ l./.1.h _ o.w & O o O e &.K C V.g.'.$XW.3.g.P.q b z.t.e 6 W y.^ E.&XqXZX{.:X'.qXrXqXrXbXvX;X:XZ.8.F.8X@X{.{.@X,X>XvXcXpXMXMXmXmXmXNXmXrXrXeX;X&XvXrXpXrXXXH.9.v..XdX7X9.8.}.{.tXqX*XeXpXeXF.d.h.[.*X].:X=XeXqXwX*X[.D.=X&X*XvXvXvXcXeX'.g.;.g.$X'.].&X>XkXvXbXxXcXMXMXMXMXMXMXMXaXaXNX;X>XNXqXeXeXcXcXpXpXaXMXpXCXeX>X:X3X6.D.}.>.y.S.k.h.c.{.*XyXsXsXqX.Xg.9.=X>X,X>XeXrXwXqX.X6X9.I F r z t.2XP.} e p K b k v b.qXiXaXiXeXvXeXcXeXeXxXeXeXxX&X&X;XvXeX;X;X&X;X;XeXnXcXeXeXcXcXcXrXrXcXcXrXeXcXmXmXpXrXrXpXaXaXpXpXpXmXMXmXpXcXcXcXcXcXcXcXrXrXrXcXcXcXcXxXeXcXxXxXcXcXcXcXmXmXmXcXcXcXcXrXeXxX*XvXZX;X&Xx.vXkXvXxXxXeXeXrXmXmXBXBXBXBXBXnXnXxXxXxXxXxXxXxXkX:Xc.>.bXCXrXcXmXpXMXMXpXqX&XJ.k.bXcXrXeXrXrXmXmXmXmXmXmXmXmXmXmXmXcXmXmXmXmXmXmXmXmXmXmXcXcXcXrXpXiXaX.Xe.e 6 b E.#X&XnXcXcXBXmXcXcXmXmX",
"mXpXpXmXNXmXNXNXNXNXcXmXpXpXpXpXrXrXrXrXrXrXrXrXpXaXaXaXaXaXaXMXMXrXNX.X;.2.[.&XwXiXaXMXMXpX*X&XbXNXmXaXaXaXaXNXrXrXrXqXXXqXrXrXeXeXrXrXXX&X#XU.W ) c.*XeXeXeXrXmXpXeX>XeXeX&X'.d.0.4 : O   X X                                                                           . . . .   + + O 7 -.G.e. .2.^ q . X X   . $ q C a.a.^ n | T.2XW z p._ 1 : o O % N X.W 8.4X{.8XL.3.=X X| n 0.gXG p ^ P.} C.=XqXeXF.j.2.*XwXiXpXrXeXtX>X=Xc.c.=X-X&X>X;X&XbXmXpXmXMXMXMXMXmXNXcXcXmXmXcXeXeXrXNXrXeX%XF.{.-X|.c.) L.U.H.=X*X*XqXrX*Xv.d.F.&X>X&XeX*X*X*X&X&X*X{.,X@XeXeX;XZXcXrX&X#X8.y.H.v.].eXxX;X;X,X,XkXmXMXMXmXcXrXMXMXwXrXeXeXNXqXeXbXCXBXmXMXMXMXMXmXeXvX>XlX#X<X6X7.P.t.D.c.1.2.&XXXrXpXwXuXE.^ .XeXzX#XrXiXqX'.j.E.A.g.T.z.R v h.D.i.Q 7 D ' x v d.|.uXiXrXtXtXrXpXrXwXpXrXrXrXXXXXqXuXqXeXyXeXvX>X*XeXbXrXrXNXrXrXrXrXrXrXrXyXqXqXqXqXqXqXqXwXpXrXwXrXrXsXsXrXrXrXpXrXrXrXpXpXpXpXrXpXpXrXqX0XqXeXrXcXcXpXpXmXmXaXpXrXpXpXmXNXeXqXeX*X.X'.f.*X;XtXeXeXrXmXBXMXpXpXpXpXrXrXrXrXrXrXrXrXrXeXeX;X3X;.7.:XbXeXrXrXpXaXaXpXqX|.6.9..X*XqXeXrXrXrXrXrXrXrXrXrXrXrXrXrXrXrXrXrXrXpXpXpXpXrXrXrXrXrXeX*X>XuXOX} e 7 G E.{.cXmXcXBXmXMXmXcXmXmX",
"dX>X-X>X7X7X7X7X:X7X7X7X7X>X-X=X5X5X5X=X=X=X=X=X5X5X5X:X=X:X7X7X|.[.SXE.W ! W.2X$X=X5X5X-X=XE.E.3X5X:X:X=X=X:X5X5X1X6X6X$X5X8X5X|.8X-X7X}.2XU.^.|  .E.4X}.8X3X5X=X$X}.<X1X1XK.k./ E 7 O   X X                                                                         . .       . + +   = 1 x P.w. .-.s.j # + X @ . & 6 b G /.i.M G Y.+Xi.W ..M.A $ 8 O ; 8 j p.2.G.7X[.C.3.].yX/.V I ~...( k.2XQ ! .XpXyX=XK.r.@XqXaXaXqXeXeX*X>Xv.f.{.bXqX{.h.{.eXaXaXCXMXpXMXMXMXcXeXrXmXmXrXNXeXrXeXqX*X{.F.g.Y.4XY.) ) / D.[.-XtXeXqX*X=X$X>X;X:X=XNXeXeXtX&X&XeX&XkXkXnXeX;XZXqXrX*XZXt.1.4X#X*XNXmXeX;X>X,X;XrXmXMXmXxXxXcXCXMXMXaXrXrX*XbXcXrXrXpXMXMXaXMXrXrXbXv.7.H.#X$X3Xk.d.5X4X|  .5XyX*XXXMXqXE.r.*X*X#Xj.cXMXAX@XZ.) t.4X|.F.P.y.}.h.9.V.q M !.N._ n.T.5X-X=X6X$X7XdX-XoX>X-X=X:X7X=X:X=X|.$X8X6XOXZ.k.F.#X1X$X=XoX=X5X=X|.|.1X6X}.OX<X1X3X4X5X5X1X|.|.|.<X1X1X5X=X-X7X-X-X-X7XdXdX7X-X-X-X=X{.'.'.$X>X7X>X-X>XtXtXtX>X*X*X*X*X-X.X7X:X:X8X{.'.lX@X=X-X*X>XyXtXqXyXyXyXyXuXuXeXeX*X*X>X>X>X*X&X$XW.U A.G.1X=X5X=X-X-X-X=X<X/.I e.8.h.Y.4X4X4X1X1X1X1X1X4X4X4X4X4X<X$X$X$X5X5X7X8X=X$X$X|.|.<X3X<XE.gX+XI.H i e E K..XCXeXcXCXrXmXrXcXmXmX",
"a.a.a.i.i.e.e.e.e.e.5.3.5.a.V.V.e.5...| ! ! ! ! ! ! ! Q Q Q Q Q C F F m u u i m b n b j j j e e n E ..p.a.p.5...! ! ! } | ......p.e.i.s.p.p.p.M.F K o.! Z Z E E B G C j E p...Z E r %                                                                               . .         @   +   O $ g ~./.r.-.1.Z < . X   . . # 9 F r.T...C ) E.P.U G %.!.~ 2 & = ; 4 N.-.:.$X3XS.j.wXiXoX) M F gXJ.7X$X4.1.uXaXwXZX4X2.%X*XMXMXMXwXrXeX*X*XqX.XwXyXc.h.[..XCXVXiXaXBXcXmXmXcXcXmXpXpXrXrXxXeXeX*XbX:X4XP ) A.6.P 2XF.'..X-X>X=X>XtX:X@X:X@X>XtX*XNXeXbXeX;XeXcXxXeXeX*X*XvXcX_.*X=Xg.;.G.k.*XmXaXmX;X;XeXcXVXMXpXmXnXvX,XvXcXpXiXpXeX&XeXrXcXmXmXmXmXpXrXmXrX.X].x.F.v.|.c.x.|.uX1X} | 4X{.{.dX0XuX#X#XvXvXD.k..XqXrXvXtX[.6XD.J.2.W (.E.g.>.L.C 7 n n A ` p.a.i.a.a.a.V.a.e.) 3.~.(.a.p.Q.a.( E ( ..| G F F E ~ ! ! ( | ( ( ! | ....! C G E E Q ..o...!.M.o.! E G Q ! ( (  .5.5.e.p.p.a.a.a.p.5. .( ( 4.a.L.V.a.L././././.E.E.T.E.E./.Y.E.E.P.U.E./.E.E.z.9.2XY.1XF.1X1X}. XOX4X8X1XJ.Y.2XOXK.Y.2XY.i.! O.Q.~.I.I.I.I.n.n.a.5.! M i i p M D H F C M n j j b b n M M n G G E E G ~ o.} ~ E G C j r j n C G W I q 7 r a.=XqXeXeXcXcXcXmXmXmXmXmX",
"4 4 4 2 2 2 2 2 2 2 2 2 2 2 7 2 q 7 7 1 1 1 1 1 & & & & & % % % O O % O o o o % ; % O O % % O O & & 1 1 1 1 6 6 6 1 6 1 6 6 6 6 1 1 2 2 1 < 3 < & & 7 1 $ $ 1 1 1 & % $ w o.A 2 p 6 O   o   . .                                                                     . .     X X o   @ . O & 2 q.U.9.-.e.o.e O     . . . : m 3.P.W.! z ) gXI.r e _ ^ k 2 O O < C i.y.k.G.2.$X0XaXyXg.m p U.=X.X>X3XF.XXiXwXqX<X-.3X:XrX0XrXbXpXNX.X&X*XqXqX{.[.4X3Xv..XaXMXCXbXcXmXmXmXmXpXpXpXrXxXeXbXrXqXvX%X4X4.y.E.c.9.6X.XuXXX.X[.F.'.].F.h.F.H.$XZXeXmXeXeXeX;XrXcXeX*X*X&XxXeXeXf.*X*X{.F.D.c.*XpXpXpX;X;XeXrXcXcXrXcXbX>X%X3XvXmXMXpX&X{..XqXrXcXmXcXmXNXCXcXqX*XyX*X*X].*Xv..XtX_.F.3.W D.x.h.{.tXZX=XF..X>XD.c.>XtX{.'.>X=X-X'.F.Z.1.C./.U.7.Y.V.j 7 1 $ 1 4 4 q q e e q q 2 2 2 q q 2 2 e e 2 1 7 7 6 & % % % 6 6 1 1 2 1 1 1 6 7 6 & & 6 6 & & 6 6 1 6 6 1 1 & & 1 6 1 6 7 7 7 7 7 7 7 7 7 7 7 7 6 1 7 q q q q w g j B n n j g w g g B V V V V I W E ( E V |  .5. .5.5.5.) ( ^ U V z z B V B V E Z k 1 7 q w w w w w w w w q 6 % o o . O O % % # # # # # # . . % O % % % & & & % & & & % % % % % % % & & q 4 < 2 w a.oXwXeXeXcXcXcXrXmXmXmXmX",
"# # # # # # % # % % % % % % % . . . . . O . . .                   . O .     . O . .     . . . . O . O . . . . . O . . . . . O O % % % # # # $ $ . . . .   @ O . & # . 1 c q.b & 6 % . o o X . .                                                                     . .     X X X   O O # # $ Z E.h.1.! O.q & O . . . . % e ! i.Y.2.! | T.I.r 7 I -.) k % ; % 2 ..i.w.2.D.&XaXiXsXOXF e -.8X.XrXuXuXiXMXNX.XG.^ Z.R.:Xv.[.7XrXwX_..X&X7XF.9.'.$X:XF.c.'.&XeX;XnXNXmXmXmXaXaXrXeXZX&XAXrXpXeXF.D.g.<X5Xx.h.8XtXqXrXuX.X].].{.[.c.6.9.g.&XqXaXmXmXrXeXmXmXeX*X,X;XNXrXeXh.>X*XtX&X@X{.vXNXaXMXcXbXCXnXkX,X&X;XkX:XK.K.&XrXaXwX'.v..XqXcXmXcXcXcXNXcXcXcXrXCXeXbXqX0X0XwXqXx.j.r.r.3Xv.6.h.@X.XvXZXZX:X[.[.{.:XH.2.j.<XZXrX].:Xt. . .4.h.}.hX1.6 ; ; % # $ % % ; % % % & : : # # % . . . % % . . . .     . . . . . . . . . . O . O O O . . . . # # # # # . # . . . O O O O O O . . . . . . O O O O ; % % O % % % % 8 6 : & & % & & $ 1 1 $ $ 6 6 1 6 1 1 1 1 7 6 7 1 1 6 1 1 $ $ $ & & & % & & & % > ; % & $ 1 $ & # # # # . . o X X       . . . . . . . . .     . . . O O . . . . . . . O O O .   +   & $ 1 q I T..XqXeXxXxXcXrXrXmXmXmXmX",
"                                . . . .       X X X X X X X X X X   . . . .               . . .     X . . . .     X X X     .         .   . . . X X     X + X   . . @ # x ' 1 O O O . O o X . . .                                                                   . .     X X X   O . # # . w Y.}.i.G O.e 6 : . . . . . & n  .2Xc.e.B U ~.M.r ( a.^.( $ ; O & k p.E w.1XuXaXwXuX<Xe.j V <X*XwX*XuXwXpXyX$XU.4.U.4X<X8.) g.bXrX&X7X7X@Xd.9.}.$X$X$XR.g.v.&X;XxXnXNXmXMXaXaXrX>X$XF.eXXXrX*Xh.g.c.5X.Xf.F.=XtX].sXyXtXqXeXtX>X$XR.K.g.@XqXrXBXrX*X*XcXmXrXrXvXvXmXmXvXF.>X&XuXqX>X*XtXeXrXmXrXcXcX*X{.F.F.{.&X@Xt.g._.qXMXMXtX>X*XrXmXNXNXcXcXcXqXrXCXcXrXXXrXNXpXiXpX*Xg.y.L.E.f.F.G.4XlXx.].-X$XlX{.{.lX4XZ.Z.8.D.qX0X_.&X$XU.( ^ 4X'.|.A.p = = O . . O O o o     . . . .   O @ .   @ O       X X X X X         . .               . . . O . . O . O . . . .     o o o o       @ @ @ o o o o o                 . . . . . . . . O O . . . O O O O O % O . . O O . . O .   . . o o o o + o       o o   . O . O . O O O O . X X X X X     . . . . . . . .       X       .     . . . . .         o + X O # & 2 ;.5X&X*XeXcXcXcXrXpXmXmXmXmX",
"      X X             X X X X X   . . . .                               . .                 . .       . . . .             . .   X X . . . . . . X X     X X X X X X + . ' ~ # + +   O O o X . .                                                                         . .     X   . . . . . 1 -.4XL.e.O.H e 8 . . . . . # e Q G.F.r.! Z e.I.U B ..gXi.e O % & q o.} ( K.-XqX-X1Xg.W.( b w.>XrX>X>XyXqX>X6Xw.W E.J.<XE...( >X'.D.k.>XtX[.H.D.S.A.E.3XF..XcXkX,XxXcXmXMXMXaXeX,XD.k.vXrXMXrX{.$X{.].v.c.3XD.{..XXXqXeXrXrXrXvX>X6XF.9.[..X*X*X{.[.{.;XcXpXmXcXeXpXNX;X@X@X>XyXNXyXuXeX.X*XrXrXrXrXXX{.'.].*XrXeXtX*XwXaXMXaXqX*XcXcXmXmXmXmXmXrXcXcXrXeXeX.X;X*XCXXX=X#X^ 3.V.8. X}.4.1.D.x.[.h.j.9.v.$Xj.j.4X3Xx.'.yXbX$X[.>X'.t.2.D.v.-X<X} 8 % O . .         . . .     . . .                               . . . .                                                                           . . . . . . . O . . . . . . . . . . . . . . O . . O * . O . * . .                     X       o X X + @ O O         . . . . . .     . . . . . . . . . . .     X       . . . . . . . . . . O . @ X + . # % 2 z.-X=X;XcXmXNXNXNXpXmXmXmXmX",
"                X                 . . . . . . . . . . .       . .       . . .                       . . . . . . .   X     . . . X X . . . . .   X X . .     X X + X   & N.W % - + + . .     . .                                                                         . . .   X X     . . o # x gXA.W.! O.i 6 # .     . # 7 F -.Y.A.i.} ! G.U.j n n.).~ 1 % > $ p B.P g.3Xv.|.k.T k.4.m C @XtXD.D.7XtX>X5X8.) 4Xg.j.E.w.W $X{.t.-.v.tXtX[.9.y.4.y.:XvXmXmXeXvXeXcXmXmXmXpXeX,X9.k.,XeXwXXX@X:XH.h.c.F.4XD.[..X].XXeXrXpXrXeX>X[.h.7.$XtXAXZXkX%X%X;XrXaXMXeX.XqXcX;XkX=X7XtXqXqXwXqX{.&XxXrXmXaXqXeXeXrXrXNXNXrXrXwXiXiXwX*X>XnXcXcXcXmXmXmXpXVXmXrXeXeX{.&X&X;X*XH.Z.1.r.y.-.K.OX1.^ g.|.$X7.-.g.[.lX4Xt.g.[.AXeX&X@X#Xh.tX.X6.t.:.F.ZXh.e.X.i > @ X     X +   .       X       X . .   . .   . . .     . .                   X X X X               X X                                       . . . . . . . . . .     . . . .           . . .     o       o             X X         X X     X X X   . . .   X     . . # . . . . . . . . . . # % . . . . . . . O O O O O % > > & : # % y y % O   , O % : r OXtX;XxXmXMXVXMXmXmXMXmXmXmX",
".   .       . . .                                 . . . . . . . .       . .         .   X X           @ O . .               .   X   . # # . . X X X . . . .     o O & C a.P 1 > o o . . . . .                                                                     X X   . . . .   X X X . . X . w n.K.}.) +.D 8 # . X X X . & b ! /.Y.2.Z +.hX4X .n ~ M.s.z 1 . O 6 W 8./ /.-.U.j.R k.u.F M J.#X4.1.8.[.].uX-XlX{.f.'.:XR.j.[.{.3Xk.h.{.&Xv.g.4X9.6.[.ZXbXrXpXVXmXmXcXcXrXrXeX;XH.3X%XvXrXrXvX:Xr.3.S.E.4XH.{.qXqXrXbXbXmXrXcXkXF.9.9.'..X*X.X*XkX:X;XcXMXMX>X[.&XxX;XtX>X>X>X_.].qXqX]..X;X*XrXmXwXuXyXyXeXrXqXrXyXqX.X'.c.j.k.kXcXcXmXMXMXMXmXmXmXNXeX&Xv.@X:X:XlXj.Z.$X$X'.D.2.P.Y.h.9.F.-X-XZX{.{.-Xv.x.=X8X].'.t.G.<XH.ZX{.7.9.;.E.E.2.t.a.M :   X                           @ . .                                                     . .   .                         .   .                                           X X X                   +   +   o   O . . . .                         . . # # .   X X X   . . . . .       . . . O > > . . .         o O * O O > u 8 & 6 % % u u % # . % . % & G }.*XxXcXBXVXVXVXMXmXMXMXMXMX",
"        . . O O . . .         .                     . . . . . . . . X         o     . . X X     X o                         .       . # . . .   X X . # . .     o % r p.0.h 7 y       . . .                                                                         X   . . . .   X X X     X . 1 ! 4XF.j. .p.p $ .   X X . # e } ^ G.2X! E h.}.E.z w Q ^.2.r & = % w a.(  .( P.E.G.8XY.} } <XF.S.1.^ K..XXX-X=X>X.XAXXX@X3X[.6XE.U.c.&XqXx.h.J.<X9.g.@XeXNXMXMXMXmXcXrXrXrXeX>X%X#Xg.[.&XtX,Xg.| n 3.2XR.d.h.>XyXtXtXeXrXrXcXvX3Xg.h.'.v.{.].tX>X,XeXrXaXMXeX{.;X;X.X{.*X;XZX'..XpXCXqX;X>X;XbXbXqXeXrXqXqXuXtXXXqX*X{.F.D.Z.D.;XcXNXmXmXMXMXMXrXrXcX;X&Xc.[.:XlXh.1.U.}.'.$X<Xr.1.g.1X<X8X=X-X].v.c.}.$X'.{.'.x.F.2.t.t.c.=X'.x.:.g.SXZ.S.Z.P.E q O   X X . .                 .         . . .   . o           +               X             . . . .                   . . . .                 .     X X X       X X X X       X     X         .             . . . . . . . . . . . . . . # . . . . # 1 1 & O . . . . . % : > * O O O % . . 0 d d : . O O .   o O % > O O ; > % % 6 & & 9 7 1 7 1 & ; : 7 p.}.uXnXcXmXVXVXMXMXmXMXMXMXMX",
"          . O . O O O   . O o     O . . O       o X     @ O . O . . @ @   @     . . . .         X   . . .   . o X + . . *     O . *     . . . . . . . # & .   + o ; z ).I r % @ O .     . .                                                                                 .                 . % r ^.h.t.2.i.W 1 . .     . O & C e.9.Y.1.) g.F.4X8.h | +Xm.Q 8 O O 9 M C E r.U.4.2.yX>XC.+.%XxX$Xh.t.U.K.g.2.4X#X=XrXpX&X=X9.2.+. .'.sXiXyX:.t.E.k.) K.ZXrXiXMXaXMXmXMXiXwX>X}.3Xg.7.%X#X9.k.Z.3.E -.Y.F.D./ U.:X{.ZX{.qXBXcXcXkXkX;X&Xx.c.7.v.=XtXpXMXMXmXxXxXNXrX*X{.&XeX;X*XeXrXrXrX>X:X=X=X>X].vXrX0XNXtX>XtXqXtXeXrXcX;XeXcXrXrXmXmXmXmXrXrX*X*XkX:X$X#X[.=XF.2.r.L.w.2.2XE./ c.=X}.3X|.8X{.D.1. .8.H.7Xx.k.J.4Xg.T k.-XNX].].dXdX|.U.3.V./.V & o   X . . . . o   . O X   . .     . . . . .   .   O   O .     O     O O             . . . . . . . .   . . @   O % . . O   o X X + X X @ .   . .   X X X   X   X X X     X @   + X X   . . $ .   +   . & $ 1 $ ] s % % 6 # . . O . $ 9 # . # # . % 1 1 & % $ $ & # 6 a : % : u 0 7 t $ 1 S & $ 0 # . * . . O O > > o o = O % 9 S @.*.r r N < $ O 8 w /.7XrXcXcXmXMXMXmXMXVXMXMXMXMX",
"@     @ O O O O O ; O . O o   O O . O . . . O @   @     @ O . # % > O . * . O O . . . . . . .       # .   X X   X X % & # O > . . % O O . % # . # . & & . . ,   - ; ) s.n & O   . . X X   .                                                                                                     % e 0.z.Y.-.9.n.w # . .     . % n e.9.D.c.E./ j.2Xz.I z G.Y.a.m & . % 7 p o.U.K.2.9.qXqXZ.r.,X;XZXx.-.t.A.r. .4.zX{.qXsX.X#Xk.1.C E  XXXfX].6.S.E.t.r.4X>XXXqXCXaXaXwXpXiXrXtX[.3Xh.v.@X%XD.k.G.W.1.8.K. X4X) ) $X.Xc.d.*XmXrXeXrXCXNX*X&X3Xk.D.:XqXrXaXmXmXcXcXmXpXeX*XrXNXnXbXeXrXaXrX{.v.'.=XF.g.:XZXqXuX.X=XtXqXrXrXmXMXrXcXmXaXpXrXrXrXcXeXeX'.F.[.lX=X%X'.tX&Xg.j.y.1.-.R.#Xc.d.$XJ.9.G.<X6X4Xy.( E 1.F.x.F.F.|.F.t.2X.XXXdX.X].-XF.8.E i.}.7.1 O       . . O     . .     . .     . . .   .   .   . . * O * . O   . .     o X       . . . . . . O . . * . . * . . & & . O     + o     . O . O .             X X   . % O .         @ . . s $ : ,     . r 3 < 7 e 1 % % 6 0 6 . % . 7 a S & # 0 y : & 9 6 $ K r t 6 9 &.: 8 9 S 1 e N r q K < a &.S $ # # y & # % %     O # 9 6 9 1 m 4 p $ 0 # . & B G.-XqXrXrXaXMXmXmXVXVXVXMXMXMX",
".       O O O O     : 0 O O > % & . % . # 1 O O . O O   . . % & # 6 6 # # 0 # & % % % % % . . . . . # .   X   X + X   . $ # t J ] % : J % & 0 # y 1 0 @.O > ; > ; 6 p.) r # O   . .   X   .                                                                                                     O 1 I T.2X:.t.^.G 2 . @     . # r ! g.F.5X4XZ ..i./.p.x 1.E.2X4.q # $ & p p.4X.Xv..XqXbX:X[.nXxXZXh.;.j.S.1.w.y.$XtXtX>X4XU.<XgX .i.U.7.9.-.7.J.W.( t.$X&X{.&X;XrXcXrXNXpXqXuX.XlX@X>X.X*X*X{.SXE.^ 2.k.=X5X( P =X-Xg.7.eXrXxXeXcXpXaXwXbX{.h.F.5X-XqXrXcXcXcXcXrXrXeXrXpXmXmXcXrXrXMXaX*X_.].-XK.4.j.H.v.v.f.v.vXrXMXaXMXVXmXNXMXaXaXpXrXeXeX>XeX'.k.8.&X.XeX.XeXbX.X.X].v.h.=XXXZXg.r.4.) U.J.$X>X{.D. .E 4.H.ZX*XuX>X}.#XD.1X$X_.v.{.k.U V L. XgXq ;   X X X . .   . . % o   # .   @ * # .       @ @ O   @   . .     @ @   @ @ .   . . O . . % . . . . . . # # % # . % . . % . O O . . % . O O @ o O O O X X X @ . # & # . . * . % & # # $ 6 O + + + > 9 X.$.e $ r 2 # ; # # 6 # : % & # u $ # 0 d 0 : 0 e 1 1 t < 2 $ u 8 $ b 4 2 b #.w 4 q w w t $ $ 7 1 $ s 6 $ # O O 6 7 a &.9 $ e 9 % y ] # % & ! E.>XqXrXrXpXmXmXmXVXVXMXmXmXmX",
"O O O O O O % : * O & 0 . % > # 6 & $ $ t t $ # # . O % . 6 y & & 1 &.$ s d & 0 % ; > > * O O O O O # O     o *   o ; # 6 6 t a 9 & 7 p $ $ & 0 1 1 6 & : % 6 9 6 D p.V e % O             .                                                                                                     . $ B (.2Xg.j.I.q.g $ O o   @ # 1 B n.h.|.c.+.M ( /.L.^ z L.4XK.z < $ : 8 H G..XXXdX].ZXvX;XnX;Xf.h.S.E.E.8.S.8.$X{.*X'.2.-.<Xk.^ a.t.2.8.t.c.4XW.3.|.*XqX{.F.F.>XxXcXNXrXqXqX].x.'.dXtXNXuX'.#X<X2.8.9.5X5Xr.8.=X-X}.D.eXeXeXxXeXrXpXqXrXv.h.#X:X>XeXrXrXrXmXrXcXrXxXcXMXMXmXmXNXrXmXrXyX*XwXeX4X4.9.k.[.{.'.{.*XeXBXMXVXVXmXBXmXMXpXrXrXrXeXeXrXeXR.8.'.XXNXqX.XbXeXrXpXpX.X*XqX*X<Xj.4.2.:.:.[.=XdXDXW.( ) K.:X.XtXtX'.d.6.4X{.'.].ZXE.U Z (.K.^.q % O   X X . O . . % > @ @ # . @ @ > % O . . O , , O O @ . O O @ o         . . . . O % # . > % . . 0 % . s 0 $ 0 ] d % . # & 1 # $ $ $ # . % O . . . .         # & & # t # . . % 6 1 J N 6 = o o o ; e j H a 7 7 ] u > d 8 u 9 i @.s % : : . # & 0 > : 9 s # & S 7 6 0 8 a &.w 2 #.4 k m 2 %.#.J 6 1 e 6 $ $ # $ # % % & $ q 2 6 6 9 % ; , y # # 1 Z gX&XqXrXrXrXmXmXMXMXVXMXmXmXmX",
"O * O . % # # $ t ] % % 7 7 . > . & 4 e $ & q < $ % O % 9 d 0 & & $ 7 9 9 6 : & . O > , O   . O , @ o O O # 7 J 7 e K r & s @.1 & @.{ q q N 1 7 7 #.p 9 6 N $.H g %.~ g 9 # O                                                                                                                   . $ j e.2XF.1.r.n.I 1 .   X X . O a a.:.x.OXI.k  .n.v.f.k +.Y.OX/ c $ ; = 8 ( U.5X.X9.:XeXrXcX*Xv.K.w. .t.D.6X>.{.ZX&Xv.'.F.@XD.4./.S.t.}.8X1XE.n ( $XXXrX*X}.4X:X;X*XeXeX*X*X_.>.h.v.@XtX{.D.j.J.4XG.:.h.}.<X3X}.v.lX:X&X;X;X;X{.ZX7X'..X.X*X>X:X>XNXMXaXaXaXNXtX=X=XeXmXMXmXcXbX;X*X].;X-XyXqX>X'.'.XXtXZX:X#Xk.F.kXbXcXBXcXBXmXcXxXeXaXiXrXrXiXrX#XD.&XyXyXqXc.,XeXrXrXpX*X&X6X7.F.lX:X.Xc.F.9.J.7X-X.XF.k.K.SX}.3X8X5Xf.:.<X-X.XqXZX<XW B p.L.W 7 O O . # . . . . O % % O . . . . O O . . O . # & % O . & 6 O * y % .   . O . . o O * * % . 0 % % % 0 : O s S < $ : # # % & e q 2 K a 1 a a a 9 : O % . O . O > 0 > ; 0 @.: O , = : w Z w 1 % = - = 7 { 7 7 q 6 ; o O > O > & 7 2 J K 6 O o O . . * @ . & d % % e 1 : > O : 9 a q 2 b q e e a a a 6 1 6 > > ; > % # O ; 6 7 K w 1 ] 1 0 .   . . # 7 Z U.&XrXrXrXrXcXMXMXMXVXVXMXMXMX",
"% : # % y 0 $ $ < t $ 6 7 q & # & 6 J [ $ $ [ N 7 s # # d t # t 1 7 i S 6 a : : O O O O .   o o , o   O O % r K q 2 r 7 6 9 a 7 1 9 p q r #.N 1 e N a 1 e q M.h W !.j 7 9 . .                                                                                                                   . & 1 B /.Y.^ l.Y.2.q .   X X .   8 ..;.9.2Xt.u. .-.-XoX! G y.T.n.V $ = o ; b a. Xv.2.#XeXpXmXcX{.Z.3.4.K.:X>Xf.x.'.*X&X{.&X>Xx.6.j.r.;.@X=X#XS.I y.7X0X0X].9.2.H.,XeXeX&X{.*X&X'.{.x.'.*X.X$XD.v.8XD.2.t.9.|.ZXF.d.lX:X@XkXxX&X$X<XH.F.;XrXCXNXeXxXmXMXMXaXrXtXkX$X%X>XNXpXeX;X>X&X&Xv.[.F.qXuXeXrXrXrXrXqX&X{.h.D.;XcXcXBXcXBXcXcXxXeXpXpXrXrXaXXXt.S.7XyX0XyXc.:XbXNXqXrX*X7X4X8.x.-XXX].-X[.1.t.].XX0XoXG.U.g.R R ;.3X Xd.6X:X_.*X-X#Xr.( e.~.g 9 o O . # . # . O . . . . . . . O O O . . O & 1 7 a 6 1 1 1 & & 0 : . % % ; O O O ; > > : % > . > > . % > # 7 t 6 : s s : # t 2 2 #.r $ 9 s a i 8 > ; O O O % O : % : % m 1 % O ; u r B C K 6 % O ; 6 K 6 6 J @.> = ; : s u & N K b @.8 ; O o . O . . . . % > s # 0 & : ; % 6 7 7 #.e a a S s u 7 6 : 8 ; O . O . O . O $ q q 3 2 1 7 1 ; , . . 1 m } 4.&XrXrXrXeXcXMXMXMXMXMXMXMXMX",
"7 e & & s s 9 0 : & q #.t S K 4 1 1 0 a 3 5 N 6 t N 2 $ : % $ S 1 7 @.$ 8 : & # & % % . O .   . O O O o o O 6 a 1 1 8 d @.e 2 D &.6 e K b L r 1 : % % 9 e j w g 5.p.q & : O     X                                                                                                               . & $ n ^.4Xy.Z.}.A.G & o X   .   % V n.1.j.9.gXW T XXuXy.z ^ L.^._ & o = O e 5. Xx.h.$X&XqXcX>XlX}.h.v.{.*XqXbXv.tXZX=X:X$Xx.'.*X=X3X#XZX{.9.4.h.&XqXuXqX>XF.6.k.@XbXbX&X'.>X>X.X*X*XuXpXaXeX].{.}.9.U.U.;.XXuXc.9.&X&X>X>XvX&X3Xg.6.$XvXrXMXMXcXcXmXMXaXwX{.F.$X[.$XkXNXrXeXvX,X{.>X'.H.d.'.tXeXmXpXrXeXeXvXZX{.XXmXMXVXCXnXnXnXNXmXcXrXeXeXrXMX]. . .&XwXqXbX@XkXnXCXeXxX*X3Xy.S.$XZXuX>XDXU.3.4.XXsXuXF.4.4.1Xh.2.-.J.h.>.}.<Xd.eXeX7X6XF.2X~.r 9 O o . . . % % O O . # O O : % O O O O O % t r a ] N r 2 7 K 2 7 9 $ $ & # % O O % > > : % % : : : % # % # & 9 & # > y ; : 6 $ # 0 $ $ # : % % : : O o O O > # & e #.w n &.N $ J K 9 6 S N #.N p p e 9 r q 8 % : % $ 2 p 7 7 S #.r u % & 1 . . O . . O O O & 1 : : # 0 . : 9 9 & t : % 7 K 6 6 6 6 % ; d ] O O > y y % & r n 3 r L 3 2 0 O . % 1 ~ ! -.=X*XrXeXeXcXMXVXMXmXMXMXMXMX",
"$ 6 # # % # # 0 . % $ J $ q N 3 r d & # ` #.1 $ e 1 r s . . 0 t N #.$ 9 & > % 6 a 7 1 $ & % O O % & & O   o % # & # ; : 7 < 4 r a $ 6 e r w 3 @.% > > d &.%.w W n./ 7 % O . o   X                                                                                                               . . & b 1.P.zX2.F.<X .7 . X   . . % k Q.^ 2.J.6.i.4._.XXJ.) E (.a...7 % ; O : Q 8X].>XZX*XeXeX=XD.4X-XXXXXyX*XuX*XeXqX*X:X7Xv.*XCXuX{.kX].'.8.R..XrXwXyX_.$X8Xc.k.[.*XrX>X=X#Xc.v.].yXXX].eXrXeX>XF.-.U.y.;.yX`.f.h.{.*XZX*XeX&Xk.2.;.=XeXaXVXaXVXmXpXpXrXXXc.9.f.f.c.@XeX*X*X>X@X'.>X=X:X9.c.=XeXmXwXrXrX*X*XeXbXrXMXMXMXVXcXnXBXNXmXrXeX*XeXyXyX$Xi.( $XqXrXqXcXxXeXBXcXvX'.c.j.J.3X[.c.7.;.1.I ) XXwX.XOXu.w.F..X4Xk.OXd.>.lXZ.;.bXqX*XtX].8Xi.r 6 %   o . . * % % % % % : : y : . O . . O % 7 < < r 2 2 < q #.< $ 0 1 1 6 & % . # # & & & & & J & # s & # s 6 $ 6 t % . 0 d 0 0 > . : &.0 0 % : 9 9 > O O % % : & 7 %.j 4 B.q 2 N e : O % $ q j j r s 9 &.a % : & s #.w 4 2 6 7 b 7 . % < 2 $ % % . . # O O 1 9 & 6 9 $ & # # @.0 & # 0 1 N 7 1 $ 1 & # 9 s : O . % * O & ] K j N N L N & % . 0 2 O.! y.ZXeXrXeX;XcXMXMXMXmXVXVXMXMX",
". O O O > y y % & @.d > 6 & : & > # 1 1 6 e q < $ & & 8 % : & $ J #.9 # . * . # t N $.w q $ % ] &.w 1 : ] 0 ; O . . % # # q A ~ 3 r S 2 N w r t %   o > e q b E 2.P & o O O .   X X   .                                                                                                           . # 7 E /.4X;.F.D.P.j O X . . . 1 r o.L.G.OXk./.:.f.].8X9.E } i.U W q & % & g 4XqXqXXXqXXXqXv.-.4.[.tXyXuX*XvX;XeXrXrXrXyXuX].rXNXcXXXbX_.D.lX&XqXwXXXh.9.c.h.:XvXrXrXZX3Xy.4.U.6.[.H.6.D.6X&X{.5XE./.E.;.*XXXx.&XtX*XeXbXXXf.U 1.<XZXwXpXmXqXmXrXrXeX&X5Xc.'.tX.X].*XqXXX*X.XeXeXqX*XlXd.[.:X>XeXrXrXwXNXbX*XeXeXpXMXMXMXVXBXcXcXnX*XNXqXqXtXtX|.E. .D.@X*XNXBXBXcXcXcX*X.X_.tX>XJ./.) 4.r.T l.R v.dX.Xc.t.Y._.`.7X8X=X=X-X7Xj.j.eXwXvX.X0XZXe.r 7 6 ;   , . . O ; ; . . % 0 . & & # > : O & % & 7 d 8 : s 6 # % 0 8 % O > y 0 # 1 t @.7 $ 7 7 s 1 1 e $ 7 t 7 J a $ 1 e a d 8 % % : O % a a 6 s &.7 % O O O O > . # q p 1 e K $.1 : f - o % C M.N 1 : % a S % O O d #.n $ 7 &.t 1 $ f : 7 q $ J S % $ 1 % # t 7 7 s a 2 $ 6 % % : 0 J ] 0 & $ t S r 2 2 2 $ % % 6 % . O % & $ 1 & & 7 7 % O . % w +.x 4X,XeXrXNXbXcXmXMXVXVXVXMXMXmX",
". O % % > y 0 # 1 7 . : 6 $ & O ; # e @.& % &.N t s % : s 9 # 9 2 r # .     . % 1 3 j L q $ . s [ w $ # 9 & & 0 0 & . . # 1 b L 1 9 t $ q 2 7 9 O . o : 7 7 4 ~ )._ 8 o o .     X X   .                                                                                                           . # 1 n V.<Xd.F.<XE. .& . . . # # 7 n /.D.K.D.;.9.9.+X7X1X3.Q ~.L.n.V 1 % O 7 gXXXqXpXrX.XeX=X) 1.$X*X].*X,X:X$X,XeXrXpXpX*X'.&XeXqXmXpX_.f.$X'.=XyX=Xt.r.<X=XtXeXrXrX{.7. .C.P.t.#X1Xr.j.6X&X>X}.t.W.y.k.*XbX.XtXbXrXcXNXrX{.|  .[.yXpXMXAXnXrXeX*X>X$XlX.XuXqX`._.*XeX]..X*XeXrXrXeX:X7.c.[.>X;X*XqXuXtX>XlXZXeXrXmXMXVXVXmXmXAXAX*XeX{.{.$XJ.Y.E.T 9.:XNXrXmXmXcXcXcXeX*XXXrX.XY W w./.4X8X4Xd.;.gX4XD.^ t.-X0XyXuX=X$X.X&X<XH.rX0Xv.].iX.XV.b r X.@.% O . O . O % : % & & # & 8 6 s s 8 0 d & $ 6 : 8 a 1 : 0 0 & . % ; & $ $ $ $ t $ 1 $ 2 $ $ t 1 $ 7 $ 1 r q q w r r 7 & 9 : % 8 & $ 7 7 1 N 9 6 % f > # % 0 # 6 #.7 < 4 N # . ,   % 7 Z o.j $ & % 8 & # 0 : # 4 w $ $ q 4 w 7 a # 1 t 2 7 1 $ $ & & 0 9 1 $ $ 1 $ & y & % % $ 7 q # & 1 4 q w n ` K N 6 e S u O O : 6 a 7 u 6 1 a J > O & n ~.4.H.,XCXrXcXnXcXmXMXMXMXMXmXMXmX",
"N e 1 $ 1 1 1 & : & N #.e r H K & % 6 a 9 & 6 1 1 a % % ] a 9 J $ $ O   , o   ; J 2 3 K N S . # 1 $ $ & $ $ t #.[ t & % # # # % o . O # # # . . . % % % 1 2 5 M.s.~ > o             . .                                                                                                             # $ q O.<XF.6.4X<XP.q # . . . . 1 5 /.K.c.Y.8.U.2.t.K.8Xu.I ( L.T.Y < * o : i.$XyXrXrXqXdX}.1.4.6X*XXXNX>X#Xr.j.@XvXpXeXD.8.g.:XrXMXiX0Xx.'.j.j.[.6Xy.) j.6XvXeXrXCX*X7.1.L.Y.}.dXZXk.D.bXqX{.7./ S.t.#X&XeXeXeXrXpXrXrXrX8X|  .[.yXpXrXeX,XZX:X$X$X$XZXwXiXsXXXv.{.].].;XvX*XrXmXrX:X9.D.#X>XvX>X=X[.t.4.S.6XvXnXmXMXMXmXmXMXaXaXqX'.-.1.W.W.W ( r.kXrXwXpXmXBXnXbXxXcXyXyXqX.X-.2.4X#X_.*X}.k.P 3.V.| b ! {.0XaXqXj.w.g.D.:X&XyXbX{..XuX8X~.n g B.X.2 % > O . O % % % & & & & 9 $ 9 8 6 9 J & & 7 e a e 6 1 7 7 & $ 7 6 # # s 0 # # $ d 1 $ 1 $ 1 # & 0 $ 2 2 j ` H M n 2 1 u : % a i 1 e #.e & # & # 9 7 $ 2 < q 7 r n h 5 r % @ * 1 B ' $.` j J S $ & $ r L s # $ S N 4 2 A M.B.` q # # 9 1 1 6 : & u s . . & & % . % 0 & # & & 1 1 $ q $.[ N 4 2 j B j 2 7 q 7 % % 8 $ a q e e 4 N J & : $ C L.<X$XvXnXrXmXcXcXmXMXMXMXmXmXmXmX",
"#.N 2 7 6 $ 1 d % # 7 r 7 K A r $ 0 % & ] S & a $ 6 s 0 6 6 e 1 # . .   ,     O 9 N K j 2 t t % . % : 6 $ < 7 N N q % * % O o + X o   O . .   . . 6 6 6 i b ~ M.I g O     . .       . .                                                                                                             . # 1 ~ Y.=XY R.$XY.B 1 & . . # $ r 1.Y.9.Y.E.u.^ U 9.J.J.1.Z a.T.-.< O   % ! <XZXqX*X=XF.2.^ 2.{.].*XZXF.Z.1.r.[.eXrX*XZ.r.g.lXbXrXrXNX*X@XJ.8.g.4XA./ 9.6X>XeXeXrXcX'.8.4.j.F.tX.Xh.F.tX.X{.>.9.H.R.H.;XeXtXeXrXiXqXqXuX:X^ 3.}.uXwXwX>X:X3X#XR.H.@XtXiXiXqXdX$X1X[.{.@X'.&XeXrXeX:Xj.H.3X'.{.H.D.D.2.E  .|.*XeXmXMXMXcXcXMXaXpXNX$X-.^ V.| E y.#XbXrXaXMXmXcXcXeX*XtX*X-XF.h.k.<X6X&XrXNXf.k.4.Z ! G E w.&XwXCXrXk.r.h.[.*XbX&X{.{.{.f.K.u.B B Q.p.C & O     O . O % 9 s 6 9 K e e & 7 a a & 6 0 e t 6 9 1 a s a a J S 9 u @.s 6 & 9 d $ $ 0 $ d # & 0 J J b K *.#.#.#.r 7 6 d d 7 p J m N a % % J 1 $ & @.$ 7 &.$ 1 B.H 4 1 *   O 6 V ' n 2 1 J a & 6 a A n 7 # % s J q q A V B 4 1 # : 1 7 a 9 O O 8 0 O O : 6 % O O . & # & & & & 1 t N N p r e b A b N { #.@.u % a a 7 7 1 e K L 1 & & 1 | 2.3XkXvX;XrXcXmXNXNXmXMXMXmXmXmXmX",
"0 # # % % O . : 8 % % % u @.a & i J % 9 J r S ] 8 & #.N & & q 1 % O ; ; y ; > % 6 J *.b q p #.@.0 = O : a 9 & # 7 6 : ; O O - + + o o - o + + o : 7 7 e K H B.C j 7 O     . .         .                                                                                                             . # % A z.5X) Z.=X5X1.q : . . # $ r g L.8.r.I.! W ) 9.4X7XD.C } n.N.4 # o % ! K.*XtX>XK.4.E W r.[.].>X#X4.Z.D.H.&XeXrXuX:X[.*X>X:X{.6X:X>XtX7Xh.9.R.R.k.K.#X;XxXeXqXeX&Xc.t.g.g.:X[.h.H.H.[.#Xv.{.=XR.6.,XbX;XeXaXaXrXtXeX'.c.[.>XqXwXwX*X[.8.8.8.g.'.*XcX;X@X4XJ.<XF.[.F.h.=X;X*X{.H.j.D.J.t.4.) 4.J.K. .^ [.XX*XeXaXMXcXeXqXeX=X:X7X Xw.e.w.j.7XeX;XxXCXmXmXmXpXrX&XdX{.}.r.) D.8X&X*XbX*Xx.J.SX8.2.g.F.>XuX*XrXcXeXtXeXrX*XZXF.>.d.$Xg.9.W.U V ~.T.0.i O     O . O & s ] 1 a &.K K p m J u O > : ; : : d % 8 u 9 u d 9 : 8 9 & 8 a @.] S J : 9 &.9 & u J a 7 9 a 7 p J 9 8 8 @.@.6 9 J a $ 9 : d @.e % ; f % 6 s % > 0 : % # > O O : 6 e & % O > O : a a s 6 $ & : u u % N J 7 & & u d ] @.#.&.J : % & % ; > : : ; O O O y > : % O O : d > ; 8 9 u d u & : s s s = o : 8 : 6 & 9 J s % % % r ~.:.&XeX;XeXrXrXpXmXNXNXMXMXmXNXmXmX",
". % % % % > ; % % % % O & 9 % 6 9 9 & 1 1 2 7 1 & $ r 2 1 7 4 r & & & 6 9 6 7 1 7 7 7 q q j n r 6 % % & r q : % 6 7 6 & & % % O ; % % % O O % & 1 2 q q b n O.q 9 & .     . . .     .                                                                                                           +   O . O r 7. Xy.1.{.7XU.h # . X . . & q p.C.) r.3.e.L.6.SX:X<XG r ( N.k $ O ; C J.>XeX6XE.a. .w.E.>X*X7XD.8.#XkX>XbXNXpXrX>X&XeXeX@Xh.H.@XtX*XeXx.6.J.6X[.F.h.'.*XvXbXbX*X&X>X|.c.lX>X&X@Xg.Z.#X{.].tX#Xg.{.;X;XrXMXMXrXZX-Xx.&XtXtXqXuXXX_.f.8.8.g.x..X*XkX{.H.g.2.Z.c.'.'.=X>X>X*X].'.F.'.[.K.j.1.4.|.3Xw.( '.qXdXtXiXaXcXvXtX{.9.g..XoX4.( gX'.0XaXCXcXxXcXVXmXrX*Xv.#X9.8.( 1.K.7X-X&X'.F.1X}.lX$XF.lXqXsXXX].*XeXrXpXrXrX].'.J.g.6.D.Y.L.(.V z 4.OXT.} 8 O   . O O % 7 p & $ A n b e r r : O % % % % & 6 & & 6 1 & & 1 1 7 6 1 7 7 r 2 7 p 7 1 p 1 7 7 7 7 1 1 & 1 7 i 1 1 7 r e 1 1 q 2 9 6 7 e 2 2 7 & : & 1 9 & : : % : % & & 6 7 1 1 e 1 % : ; 8 e 7 7 1 2 q 1 6 8 1 2 r 1 6 1 6 & 7 4 4 5 4 1 $ 6 6 & % & $ # . O % 8 6 6 1 & & 1 9 ; : 6 7 6 6 9 6 6 6 6 1 8 8 e 2 2 2 7 6 1 6 : O 1 C (.>.yXcX;XnXcXrXaXmXnXcXMXMXmXmXmXmX",
"2 1 1 $ $ & & % & : & $ 1 q 1 q 1 1 7 1 q p 1 1 1 e 1 1 g g w n e e w B h g z B C C j G Z V x P C n n Z z g 2 7 j w 4 g z V k g I U I g Z B I I V V W I B E Q b : O       . . . . . .                                                                                                           +   . . O 7 :.OXP.W {.>X1X( & o X X X o 6 ..W.;.g.E.L.L.>.}.k.S.V.C I M.' 4 . % w Y.ZX*XH.Y.l.8.D.7XqXuX=Xc.F.kX>X;XeXmXaXiX*X[.{.>X*Xv.v.=XZX*X*Xv.h.$XtX.XF.d.h.{.;XtXeXqXwXpX*X{.>XqXpXqXh.t.#X{.].yXvX:XH.:XxXpXMXMXqXtX=Xh.]..X.X>X7X'.x.c.|.5XqXqXCXeXkXH.g.-./ <X&X*X.XtX>XvXeX*X*XtXqXrXrXuX{.[..X|.i. .].qX6X:XwXwX>X6X3XD.1.j.XX].1. .F.uXaXMXMXpXxXxXcXrX*X'.9.j.U W T.gX4X$Xc.h.2.Z.J.k.F.{.1X6XXXqX{.[.vXvX;XeXeXrX].x.6X4Xr.1.8.w.F i Q 8. X8X0.w ; + . . . . 1 2 6 1 w 4 q q w q 7 7 2 q r q w w w w w w w g j k w n j n j w g B w C j w w C g w g n g r r r j w j k c c V B g k B g V Z h B V x h Z w n B j n M r p w g z V V V V g j C C k k B z B I I n B Z V z B n C V z k C P P z h h g 4 4 w 4 2 q 7 2 1 q h x I P U U V V I W | | E C Z V ^ ^ -.) I W ^ / T U E C g q : % 7 X.n.>.CXMXcXxXcXrXaXmXbXbXmXMXmXmXcXcX",
"' Z C K K b b K J J M A C ~ ~ H A ` G ` K A X.n b &.K X.o.M.!.!.%.%.q.(.a.0.a.(.p.Q.Q.Q.~.I.P.T.~.Q.q.~.a.M.F M !.o.o.M.~.N.q.^ 0.n.~.2.~.a.).~.~.N.Q.~.n./.E M % o o   . . . . . . .                                                                                                                 O O 1 / 2XW./ =X=X9Xn.7   X X X o ; H L.7.f.6Xt.8.g.d.8.r./.I j } s.c # % w P.>XeXc.6./ 6.|.&X{.dX=X[.ZXkX>X*XqXrXiXaXrX*X&XtX*X*X].*X*XtXyXtX=X&X*XNXZX'.&XvXkX&XeXCXNXqXXXZX*X.XiXCXZXc.F.'.uXXX@XH.g.lXNXpXmXNX*X-X$Xx.&X=X=X6X#Xd.d.=X.XuXwXwXNX*X$Xt.U.t.-.<X*XpXrXcX;XbXNXrXrXsXwXiXaXwXqXtXyX>XP.r.>X.Xc.c.qXNX&Xc.9.D.Z.<XuX>X4.) 5XNXiXaXVXBXkXkXnXcXvX&Xg.U.1.4.j.9.9.c.d.H.j.E.g.g.x.x.SXH.:X-X[.F.{.=X$X>X;X;X{.[.5XK.I.3.^ Q p F V.2.d.1XG.z %   O O . O 6 a K J ` ` A K H E ~ o.~ ` o.~ O.M.q.p.q.q.q.p.p.p.a.~.p.p.Q.a.Q.a.p.p.Q.Q.V.Q.p.q.p.N...~ o.} } o.q.a.a.).~.a.a.Q.~.a.n.a.Q.(.a.I./.2.~.~.5.(.~...O.M.p.a.~.~.^.~.~.I.~.p.a.a.~.~.(.^.^.(.~.Q.~.(.(.Q.Q.(.^.a.5.a.n.(.).p.N.p.o.} M.O.o.X.` ` ` $.~.^.^.~.^.^.~.~.^.a.a.Q.Q.~.(.(.~.a.~.~.N.~.).^.~.(.Q.!.!.K % : q ~.P.>.&X.XbXeXcXrXaXmXcXnXmXMXmXmXmXcX",
"~.a.~.Q.!.M.a.N.N.Q.Q.Q.a.^.a.Q.~.Q.Q.Q.N.N.B.!.M.!.!.%.} ~ ~ } O.N.Q.Q.Q.p.p.M.N.q.N.N.s.s.a.~.p.Q.Q.p.} o.%.%.%.B.} O.Q.p.p.Q.q.p.~.).s.q.q.p.Q.N.Q.5.h.gXn 9 O                                                                                                                               . O     . $ z n.Y.7.9.6X'.gXM % X X @ . O e p.G.>.<XR.t.<X>.7.K.T.i.r M (.I # % 4 1.8XtXF.H.H.h.-Xv.k.J.lX>X{.vX,X*XeXcXNXrXpXpXMXqXrXNXqXtX{.-XqX.X>XZXqXeXcXeXCXeX&X>XeX*X:X6XqX].v.$XtXwX0XqX=Xv._.tXR.) k.&XrXrXeX>X{.v.F.}.1Xh.8.6.k.h.{.uXyXwXwXXXoX8XK./ z.y.1.Y.tXiXiXMXeX;XrXMXCXqXrXqXaXwXNXqX*X*XF.@X>XtX].].XXqXeX].].>XkXvXnX=XW ( 6X*XrXcXcX*XZX&XbXrXcXqX'.:X7Xh.1.1.y.[.*X;X$X$XtX].].7.K.E.Z.SX|.c.h.h.t.G.3X#XlX#X|.+Xg.^ C r W I./.4./ J.K.^ & + O .     y @.[ ` ~ H M M } Q.Q.Q.Q.Q.Q.(.(.Q.Q.Q.Q.Q.Q.~.~.V.I.V.~.(.(.(.Q.~.Q.~.~.~.~.~.(.(.Q.Q.~.~.~.Q.Q.Q.(.(.~.~.I.~.~.I.~.~.I.V.V.~.~.(.~.~.Q.Q.N.Q.Q.Q.~.~.~.~.a.~.~.i.~.a.a.V.(.(.~.V.n.n.n.N.Q.Q.N.N.Q.Q.Q.N.V.~.~.~.N.p.o.N.N.Q.N.N.Q.Q.M.!.M.!.M.(.~.~.p.......~ F F F H H H F C M m p a i p N B n A b H 7 m 9 O % V OX<X:.r.4X.XcXrXmXmXmXmXmXmXmXmXmXmXmX",
"h I C B E Z z V k B k V Y x V B x x v P V x z V B V B k g k z z z V z h z h h z B h z z z h h x V z z h k k j g g k g g k h z k w n h x h h c h h g j z >.g.q # .                                                                                                                               . O     . $ w 5.OXF.^ U.5XY._ & .   O . O 6 ..I./ D.#X6.8.9.K.b.f.P.M m ..! & % 2 W |..Xc.[.%X[.|.7.-.8.F.=X{.{.vXeXcXNXxXeXpXaXpXmXNXeXXX>Xc.D.tXuX&X&XeXcXcXcX*XtX%X:XvX>Xy.t.ZXeXH.U.K.{.fXwX{.v.{.F.r.1.D.ZXNXrX@X$Xc.7.h.}.6.:.8.k.#X@X>X{.*X*X7X|.K.U.j.;.h.g.1.A.ZXpXaXMXeXxXrX0XwX0XuX].NXMXNXrX;X{.>XvX;XeXXXqXeXeXbXuXrXrXeXeXeX{.E Q }.tXnX'.,XZX'.oXqXwXrXeX&XtXbX{.K.E.#X&XbXbX;X>XqXyXZXd.8.S.1.8.h.v.v.x.k.8.9.g.j.j.c._.f.R w q 2.<X<XR.j.<X$X9.2 & 7 2 1 1 1 2 c h h g w g z z z x B B B B n j b n B z B z z z I V V B V P x P x z B V V V V V V V V V V V V V P P P V V P P P V V V x x V V P z z z z z B B B x x x x h z V V z h h z z B z z x x x x z z z z k z z x x x v x z h h x x x x x x x h z h x h V x x x h h k k g g g j j n n k n b p e 7 w g g g w w r j b e . & 2.7X5Xg.w.C.=XqXrXpXmXmXmXmXmXmXmXMXmXmX",
"e q 7 7 7 2 7 1 & 6 7 q k w n j V I W ( ( U P V U ^ ) -.2.8.8.2.2.2./ T / ) ^ ( I Z k k j g k k V z V ) 2.2.8.6.6.;.4.) P I I n b p j h V z z B Z V Z W t.-.7                                                                                                                                     . . . . . 1 ~ +X5XE 3.8X}.i.q #   . O O & E (.j.h.lX6Xw.w.c.f.f.gXe.G Z F 1 . # n v.].c.H.=X7XK.6.g.#Xc.7.x.vXrXpXmXNXrXrXiXMXwXNX&X=XZXF.I ( |.ZXF.9.'.*XeXAXv.=XK.K.>X:X1.W #Xg.( +.+.3.OX8X=X}.J.r.3.W.J.>XwXqXH.E.Z.9.v.4X4.4.E.6X&X;XkXk.8.j.U.l.-.^ 1.8.v.G.8.r.:XqXpXpXrXCXrXqXyX&X=X&XqXMX*X*X@Xd.:X,XtXcXrXNXbX*X>X>XZXeXcXmXrX@X! C |.tX;XD.%XDXh._.iXaXrXeX>XeXeX*X{.>XpXwXqXqXaXaXeX&X&Xh.t.L.3.i.k.=XqXuX-Xv.6.t.D.g.7.b.9Xf.j w 9.ZX>X,X@X6X5Xg.z W 5.2.;.2.8.8.2.6.8.4.4.4. .W B k h g w 7 6 6 1 2 w h c c 5 g 5 w g g h v v v h g g j z x z h h g g g g h h h h z h h h x x x z z z h h h h h h h h g g g g g g g h z h g w w w w g g g g w g g g k n k k k B z V U U ^ / / / ) ) -.-.-./ / ) / / ^ ^ U ^ / :.;.6.6.6.8.9.t.8.t.t.t.g.g.h.c.c.[.'.c.m.b.x.x.x.9.t.9.g.5.Z 7 q k.dX>XJ.r.1.lXeXrXpXpXmXmXmXmXmXmXMXmXmX",
"*.M b X.C j { a a J $.E ! p.N.a.L.U.E.gX/.U.S.g.j.K.3X6X8X6X6X6X6X6X$X$X3X4X<XY.E./.L.L.L.V.I.V.C.y.A.4X3X$X7XdX>X@XlXR.S.W.C.V.O.F V. .(.a.I.L.P.P.W.W.T.I %                                                                                                                                       . . . . % M hX|. .G D.4Xn.I $ . . O . : m Q.Y.7.F.3X.. .k.5Xf.d.P.( ! F : O ; M OXuX{.,X>XlXJ./ 9.8X:Xv.'.AXrXpXaXpXrXeXqXqXrXeXkX$Xc.2Xa.x T Y.gXk.'.-X*X&Xf.F.A.8.F.#XU.t.1Xg.W Q } } C.g.[.$XD.S.Z.SX$X&XCXqXh.8.t.k.<XY./ 8.<X=X.X*XkX[.j.4.) 1.t.S.G.F.oX5Xj./ [.>XNXrXrXrXeXeXZXh.g.$XrXCXeXeX:Xh.:X:X.X*XqXrXtX>X7X6X>XeXcXBXmX:Xe.V c.*X@XzXZ.S.8.f.iXMXrX>XvX;X*XrXNXwXCXCXXXqXMXwX&X>X>Xh.2.I. .^ D.7XXXNXuX7XD.H.ZXF.9.h.+Xz.n k J.uX*XnXvX{.c.G. .i.Y. X.X-X=X'.:X:X5XlXzX4X4X4XE.L.u.3.! C j q 4 3 4 A $.[ L L H ~ p.a.n.T.m.G.u.i.i.a.a.n.l.u.L.a.a.a.a.u.u.u.L.L.L.L.L.L.I.I.I.I.I.L.L.L.L.L.L.L.L.a.a.u.a.a.e.p.a.V.a.a.a.p.p.e.p.p.0.0.p.i.a.V.I.I.L.L.L.P.A.U.E.2X4X4X6X3X<X<XlX1X6X[.3X3X3X<X<XY.J.J.1X1X$X6X5X6X6X6X6X6X5X7X>X7XtXtXtXyXMXiXwXwXwX0XXX>X>XdXtX|.I.z q w K.uX-X$XS.) $XvXwXpXrXmXmXmXMXMXMXMXmXmX",
"(.5.2.^.z.6.Q.! ! 5.n.h.9.4X8X7X$X$X3XlXlXlX:X%X=X>X>X;XeXeXrXNXcXcXcXNXnXbXeXqX*XtX&X.X:X=X$X}.<X<XzXlX>XeXrXrXpXqXtX{.#XR.r.W.I.V gXg.Y.<XlX=X:X:X7X8XT.h % X                                                                                                                                 X o . . .     7 G.'.L.C -.<XY.1.q $ . . . ; 6 ! 3Xv.D.Z.( 3.9.F.h.>.E.4.| G % O : n OXZX;XkX&X=X4X8.9.@XyXsXpXpXNXmXaXpXrX*X[.D.7X.X=X1XJ.G.}.k.h ( P.c.h._.uXuX].v.E.) 4.r.SX|.qXtXj.( Q O.p.P 9.&X&XZXqXqXqXNXrXyX.X&X8X4Xu.( ;.c.}.@X;XeXrXBXNX].h.c.3XlX7X>XuX].h.:.{.eXCXrXcXcXeXvX3X-.2.#X*XrXeX;X;XF.&X&X{.>XvX>X{.@X@X=X>XeXmXrXwXtXL.I :.}.4XR. .( U j.qXmXeX;XvX,X&XbXNX0XXXrXtXqXqXtX7X{.=XZXS.1.Y 9.=X-X=X:X[.lXZXbXNX.Xh.2.! B j ) 3X*XeXeX*X=Xd.I.G | Y.dXuXXX*XXXrXpXrXtX=X@X>XvX]..X1X<X<X+XG.h.P.;.x g 2 & 0 J F ..L.Y.#X6X%X,XnXnXxXvXkXZXvXvX$X%X$X%X%X%X$X$X:X:X:X$X:X:X:XkX:X:X:X:X:X:X:X:X,X,X:X:X:X:X:X:XlXlXzXR.D.#XlXlX6X6X6X3X6X>XtXtX|.$X$X=X:X:X=X=X&X=X-X=X=X*X=X&XeXxXnXeXbX;XvX>XkX@X%X:X:X>XZXtX>XeX;X;XeXvXvX;XeXeXeXeXeXeXeXrXMXaXpXpXaXwX>XvX&XeX*X[.e.q 7 n <XuXyX=XG.1.g.kXwXiXrXcXBXmXMXMXMXMXmXmX",
"8.I.g.h._.x.i.1.1.9.f..Xv._.wXpXeXeX;X*X;XeXxXcXcXcXrXrXmXmXmXpXcXrXmXmXpXpXaXpXpXrX*X_..X>X&XkX:X:X;X;XeXBXVXaXVXmXcX.X,X[.t.R.<X:.1X'.f.eXeXrXeX;XqX-Xn.n * X                                                                                                                                     . .       & 9.5XY.2.) S.4Xl.h < .     > & B F.].H.U.S.A.Z.Y.k.k.<Xk.) ..& . $ g G.>X;XZX@X#XS.8.D.>XrXpXwXaXmXrXpXiXpX*XH.j.2.G.<Xk.8.6.].OXj 7 1.gXP.h.'.b.z.-.a.V n B E.oXoXdXY. .! +.} B g.>XqXNXqX`.0XMXXXqX*X.Xv.7.r.u.Y.8X{.{.vXnXqXVXaXrXqX>X*X.X].uXtXx.h.g.7X*XeXcXcXnXxX,XH.4.k.zX>XeXnXnXbXvX>XtX'.&X>X'.f.f.h.v.*XeXcXeXrX-XI.P Y U.U. .( w.h n.*XmX;X;XvX;X&XtX.X*XF.'.tX'.h.6X@X=X>X>X}.D.g.}.=X'.3Xj.j.d.eX0XmX*XJ.| 9 & n L.<Xv.&X&X].{.6.I.b b 1.K.}.|.5X3X'.{.{.F.F.3X8X&X.X-X4XY.}.5X7X5X]. XT.i.F 8 : i G e.4X5X>XvXxXBXVXMXmXrXxXcXmXmXeXkXxXxXnXnXnXnXnXnXcXnXcXcXcXBXcXcXcXcXBXBXBXBXmXmXBXmXcXcXcXcXnXnXxX{.F.{.*X.XrXeXeXeXrXrXpXrXyXeXeXrXcXcXNXrXBXCXNXcXrXcXcXcXmXmXmXcXmXcXcXeX;XF.F.;X;XtXrXeXcXcXcXcXNXBXNXcXcXcXNXBXCXcXcXNXMXMXmXcXmXrXkXkX;XnX*X$XQ e q ..5XyXNX*X#Xj.2.3XrXaXmXcXNXmXMXMXMXMXMXmX",
"! W.Z.9.F.F.r.i.r.r.h.>X@X'.mXMXMXVXVXMXmXMXMXMXmXmXmXMXVXMXmXrXcXeXcXNXeXrXNXcXbX;X&Xd.h.#XD.lXZXcXcXcXrXmXmXrXmXrXcXeXxXxX&XZXtX].tXqX_.BXaXMXcXrXiX.X-.r   X                                                                                                                                             + & / dXoX{.4.w.A.W.( 3 #   + - & C hX$XD.E.G.j.k.D.-.G.{.[.t.p.K e 2 k }.tXxXZX[.Z. .) c.*XvXtXqXpXiXpXwXwXiXrX$XS.i.B  .~.( x d.l.{ 8 B p...^ 0.N.q $ e & = 9 i.5X|.}.L.| } Q p E $XvX&X'.R.F.XXwX.X6X4X4X'.v.}.4XF.|.'.{.&XvXeXCXqX*X.X*XNXpXqXtX[.9.K.}.ZXeXeXeX;XeXeX{.H.h.&XvX&XeX;XcX*XcXqXeX&X@X=X[.[.:X>XZX*X;X,X,XNX-Xl.x x a.L.) j.E.x l.>XxX;XxXcXeX*X;X$X3XU.E.>Xv.2.t.$X{.'.{.tX'.x.4X4XJ.3XJ.R.k.&XrXMX0X<X} = > E ^.4X6.h.lX.Xx.>./.X.7 2 j ! p.p.! n F G G ..V.Q.a. . .( E ! 3.P.OXdX7X5X<XW.e.D e C 1.+XuXwXpXpXMXMXMXmXeX>X>XpXaXrXeXrXrXcXmXmXmXmXrXrXrXcXrXrXmXcXrXcXpXmXmXmXmXMXmXmXpXpXrXrXrXrXrXmXaXrXrXcXuXuXqXwXwXwXwXqXqX>X;X;XeXeXrXrXmXmXmXmXrXrXcXcXcXBXVXmXmXcXCXxX;X>Xc.h.:X>XvX*X*XeXxXcXcXmXmXcXcXcXcXcXcXcXxXxXcXmXBXnXnXcXcXkXkXnXAX>XU.m 9 r a.=XrXrXuX=X<X4.H.rXaXcXcXcXmXMXMXMXMXmXmX",
"M w.K.F.$X4XS.L.t.2.#X=X,X&XcXVXiXaXMXMXaXaXrXwXrXrXrXeXqX*XrXNXvX;XtXvXeXeXbXeXtX:X7Xd.h.R.t.}.eXiXpXpXwXrXrXrXrXeXNXrX*XrXrXrXqXyXyXXXqXrXaXpXmXmXMXXXU q   X                                                                                                                                 X X X o     + O V hX0XuXy.w.1.E.~.g :   o   6 G g.x.F.lX3XD.F.g.T T.&X-X<X1.M.w w B }.eX*X;X9.-.r.E.ZXqX=XkXxXpXaXpXeX*XqXuX|.A.Q...g C !.z x Q.m $ 2 n r 2 j N % . O O o ; W G.f.6.1.I | ..C w.7XuX*Xf.D.#X*XrX>XJ.4.-.x.oX X>.9.F.=XZX;XvXeXeXrXtX*X-XyXXX.X>Xg.8.#X$XeXCXNXeXnXcXcX;X&X{.cXrX*XAXeXCX*XNXrXrX.Xx.f.f.'.>X@X&XbX;XH.H.tX Xi.x g q.W.E.6X1X>.h.=X;X,XeXmXmXcXvX}.2.r.E.>X>XG.^ f..XZX.XyX].x.D.8.9.;.H.K.R.h.>XsXXX2X} = : ! Y.j.R.3X@Xv.-X=Xz.A 1 & & $ 7 S S ; : : : 7 q r r r r e q 7 q B ^ -.g.J.<X4XE.S.3.g U T.oX0XiXiXMXMXmXcXtX>XtXrXiXrXrXrXrXpXpXpXpXmXpXpXpXpXrXrXpXNXrXpXpXpXaXmXaXaXaXmXaXMXaXmXmXMXiXaXaXwX0XqX*X-X-X-X-X-XoXoXoX>XkXxXxXeXrXmXmXmXMXmXmXrXcXcXrXrXmXrXmXeXbX;X;XlXg.7.6X=X>X].]..X*XcXNXBXmXmXMXMXmXmXmXcXcXcXNXrXNXvX;XeX;X@X[.eX&X$X3.i : n n.>XpXwXCX&XzXr.j.cXMXcXbXnXNXMXMXMXMXmXmX",
"b  .gX7.6.2Xl.l.k.h.F.#X$X:XvXNXpXiXpXrXwXqXqX*X>X=X:XlX8X$X|.|.:X:X=X=X-X-XuXtX-X=X7X8XF.d.g. XsXiXMXwXqXbX*XtX].&XtXyXuXwXrXsXwXuXqXuXtXcXcXcXcXBXiXuX^ e #                                                                                                                                     X     . .   o w z.uX_.6.E.4.Z.T.W 8 o   O : r -.f.-XtXD.zX>X$Xk.D.ZX*X$Xj.W g g a.1XeXBXeXD.d.*X*XbXtX:X@XeXqXNXeXF.j.8.G.<XU.I o.G w e a & e j 4 q 7 a # % . O * o   + ; B z.v U.g.2./ 8.D.v.*XqXqXrXeXvXbX*X6X6.( E.$Xc./ I  .E.[.{.bXcXpXaXpXyX=X5X$X[.E.Z.9.3X6X*XrXpXAXeXbXeXBXCX;X;XcXrXrXrXrXeXeXeXeX*XbX*X*XtXtX&X'.v.&X&XD.t.D.2Xq.w g Z 8.F.*XZXoX<.*XcX;X&XMXiXwX*X:Xh.H.lX*X*X#X9.{.bXqXyX-Xc.2.D.$Xv.7.2.4.E.g.>XyX=Xu.k 7 M W 8.-.U.D.{.&X]..XgXX.< 7 $ : O ; O % 8 : & 7 q w 4 2 $ $ & > & $ N D M n ( Y.}.uX|.P k I n.oXwX0XaXeX*X=X*XqXwXwXqXyXqXqXqXqXrXrXsXrXrXrXqXrXNXeX]._..XuXuXqXqXrXrXrXrXrXrXrXrXrXrXaXiXpXyX*XXX-X{.|.1Xt.T 1.n.T.2X&XeXxXcXmXmXmXmXmXpXrXrXeXeX;XeXNXpXpXrXyXuX>X=X8Xd.>.1X=X7X]._.v.&XvXbXrXpXpXiXiXiXiXiXiXiXiXiXpXwX*X>XrXeX{.v.&X=XU.G : 8 ) v.qXMXpXmXeX6Xy.8.yXMXeXNXcXNXVXMXMXmXmXmX",
"p n I.n.) s.a.5.-.-.2.i.u.A.T.Y.OX1X4X4X4XY.G.z.8.4.r.i.i.4.3.3.4.8.r.i.g.z.z.G.U.G.U.U.l.8.i.E.1X'.|.F.c.Y.j.U.t.z.U.Y.J.K.}.|.}.K.K.Y.OX<X3X3XkXkXtXF.G e # .                                                                                                                                       . . .     7 P b.9Xh.Z.R.k.g.a.& > O # ; 7 2. XdX*Xd.D.{..XF.c.tXeXtXF.( g c 4.R.ZXmXrX6X$XuXXX>XkX:XF..XqXtX$X8.4.3./ :.^.Z H o.n 9 % o ; #.` < @.f o , O & $ O   + O B ~.U /.OX5XF.c..XdX.X*XwXpXrXeXeX{.$X2.( S.5X'.8.3.( 2.d.v.&XrXMXMXwXyX}.D.h.9.r.4.g.{.-XqXMXaXqX*XxXeXpXmX;X;XxXeXmXmXrXrXeXeXeXeXrXcXrXeXtX>X{.v.*X;X%XH.J.I.~ 3 4 Z j.$X*XyXuXoXrXqXkX&XpXiXwXNXvX{.*XvXqXuX7X{.ZX.X`.rX6Xj.2.k.$X7X1XH.g.R.k.1X_.+X3.g r } I.G.G.Y.d.F.{.v.f.gX~ 2 2 1 & 6 9 p j Z G Z C V U ^ 5 3 2 $ $ $ & 6 d u u D p.z.0XoX^.( Z ) F.-XqXuX6X6X6X5XtXuXoX{.>X=X&X*X>X*X*X*XeXtXtX*X*X-X{.x.f.v.@X>X>X>XtXtX>X>X>XtXtXtXtXtXNXyXtX>X5X6X}.d.J.8.P z V h E E.=X*X*XqXuXrXrXrXqX*X*X>X>X5X3X$X5X:X=X$X1X1X<XE.T.2./ I.n.T.h.d.9.A.E.OX}.|.oX.X>XuXuXuXuXuXuX-X=X|.OX<X=X=X[.F.|.Y.p.p ; 8 0.=XqXmXpXmXeX:Xy.r.eXpXqXCXcXNXVXMXMXmXmXmX",
"8 $ A ` 1 $ r < 4 2 7 e r j n M b b M M m p 9 7 6 6 9 i i 8 6 : : : : 6 6 7 e r b n n b g g M H H C G n b M p m p m M M M M C G Z C M M F } } } e.C.U.( i >   X                                                                                                                                     . . # . X o % 2 ( ^.Y.h.ZXc.7.(.m 9 $ # O & 2.8XuX.Xc.{.eXyX.Xv.&XeXNXoX1.g U ) r.,XrXmX>X1Xc.h.{.:X$Xc._.].{.D.2.t.z.;.z Q o.5 w 4 $ O , . 7 2 < 9 O . O # 4 4 1 . - = p G C V.G.|.-X-X-X].qXqXrXrXrXrX>X#Xj.r.2.6.].dXuX X2Xk.'.*X;XcXMXaXiXAX}.g.v..X>X=X.XtX7X=XNXCXqXbXnXrXMXMXcXbXbXxXrXmXmXrXrXcXrXeXeXeX>X*XeXvX*X].rXmXeX&XJ.1.r 1 w ( E.3X@X&XuX0XrX.X>X%X.XAXeXrXMXiXaXmXrXrXNXvX[.h.f..X3XK.S.4X}.}.F.3X{.$XZ.j.z.n.E e e } /.c.G.c. Xf.2Xz.2.Q.B 2 1 q k ) 9.K.8X5X5X-XuXoX XY.T.-.( !.p.C k q 8 ; o = : C z.|.gXP.4.V 2.H.lX}.E.E.E.4X<XY.L.C.J.H.H.$XlXlX6X6X6X6X6X$X3X3X#XD.9.j.J.<X3X4X3X3X3X3X3X3X3X3X3X3X<X<X#X#X<XgXW.3.! 3.I.(.a.E Q ~.4X.X].{.=X-X=X|.5X4X4XE.T.l.w.3. . .| | | | ~ ~ ~ b r K G ~ Z Z n F } ~ Q Q ! ! ................5.5...+.e.r.0.4.n.p.A : o 8 g.XXqXmXmXmXeX,XZ.t.&XrXrXCXcXNXVXMXMXmXmXmX",
"0 $ $ $     . . # . . . . . . . % O ; O O O o o o o o o o o o o o o o o O O O % % & : & & & 6 8 : % % O O O O O O O O % O O O % % % % % ; : : 8 p +.| r ; O                                                                                                                                         . . # . o X   & q W T.c.kX{.d.I.!.7 1 & o %  .hX.X.X#XlXeX].].f.v.;XNXtXP.( q.i.r.[.rXMX&X#Xk.D.:X:X:X@X>X=X5XG.8.4.2.a.~ 4 4 4 #.&.0 O     . # 0 . . O . $ K L e & O % e M b p./.5X.X.XXX&XdX=XqXqXqXtX=XH.U r.E.K.8X=X.X'.U.t.{.*X;XeXwXiXrX.X8.;.'.qXqXqX*X=Xk.g.x.{.*XcXeXrXaXaXrXcXcXeXrXmXmXrXrXrXrXeXZX>X&X>XtXeXeXpXaXMXaX*XJ.( 1 $ 3 | Y.D.Z.#X-X_.tX=XlX}.d.:X>XqXaXMXaXaXaXaXaXNXZXlX{.{.#Xk.9.U.OXc.7.c.x.}.<Xt.0.I q 8 : M z.v.F.c.b.j.U 5.g G D 9 i C a.J.uXwXwX0XiXiXaXsX.X1X5XD.1.1.4.i.^.a.G m : u & 2 Y ;.2.I.(.| I W  .W Z Z G E E Z b b Q W !  .w.i.w.4.4.4.1. . .3.3. .e.e.....| ! E I ( ( ( ! W W E E E Q ( ! W } } G G } } ! ! ! } O. .-.) ) -.1.1.) U I E Z C j w q 7 1 1 1 1 1 1 & : % % 8 % 6 $ $ % : : : & & & & 1 1 & & & & & 1 1 1 1 7 q w r g G A 6 O = e h.qXrXmXmXmXrX>XH.g.[.yXrXBXcXcXMXMXMXmXmXmX",
"` 5 $ .   + . # . . X X   . . . .               @ o . o O O O O O O O O O . . . . . . O O O O . .   o   . O . O o O O o .   . o o o   . O O o % 7 X.b q % O . .                                                         @                                                                           . . . O X X   * . 2 5.Y.*X*XD.j./.Z 1 & O & B I.|.>X3XzX>X_.{.v.F.;XxXtX}.t.Z V.J.@XeXqXv.8X&X&X6X$X@X{.:X=X5XY.4.n 6 a D 7 7 & % > . %   o o X X @ * % . & 1 1 < N 1 2 k p.G F W k.7XtX-X{.J.K.>XuX*XeX.X[.2.y.E.U.y.^ 2.W.G | }.*XvXNXqXsXZXc.-.t.ZXsXXXbX{.k.I | ) 6.*XqXqXpXaXiXpXaXaXaXrXcXmXpXpXpXrX;X=X#X#X:X>X*XrXMXiXMXMXrX2X..1 # w 5.<Xj.r.y.h.7.1X#X#XK.^ 8.=XbXpXmXrXrXMXMXmXmX.X>XD.k.#Xg.6.2X X1Xc.9.I 3.hXOX..4 1 ; ; p 2.v.c.9.2.~.B M p e 8 ; e ( Y.=XuX0XrXwXaXiXwX.Xj.W.G.SXzXU.P.S.F.x.v.OXL.a.E z h g w C } o.n 2 $ 1 $ $ $ & & & $ 1 $ $ $ 1 7 7 2 2 q 2 1 < 1 1 1 1 $ $ $ $ $ 1 1 7 7 2 1 1 1 $ $ $ $ # # % # # $ 1 1 $ $ 1 q 2 < 1 : ; ; % : : : & & & & & % % ; % O O . . . . . O . .   O . . . . . % % . . O O O . . .           . O O ; & & & 1 < 1 # # 8 G [.mXcXcXmXmXcXvX@Xg.c.tXrXMXcXcXmXMXMXmXmXmX",
"^.h 1 O       .     X X     . . . . .                   . . . . . . # . . . . . . . @     . .                                     X     . .   . e %.e 8 O . % .                                                         o @                                                                             .     X X   . % n W.:X;X#Xj.t.a.M & # & 1 ..+XuXk.K.=X{.|.$XH.kXxXqX].x.h p.4X@XcX.Xd.$XyXXX=X{.'.7.;.:.t.^.N.X.9 ; e &.& . @   & & * @   + , X % & # % . & 2 ` ~ I P 5.| ! 1.g.@X{.[.Z.( 4.7XyX*XeX*X>Xg.t.j.S.u. .^ ( j | F..X;X*X.X-XOXl.3.1.'.yXqXeX>Xk.M !.w.9.tXpXrXNXtX*XeXpXMXMXcXcXcXrXrXrX*X&Xd.k.D.F.{.*XrXiXaXaXiX*XP.! 1 $ C s.lX[.Z.r.g.g.Z.6.6.G.r.t.=XvX&X;X*XqXmXMXmXrXrXeXF.k.<X2./ E.f.x.h.t.C B t.n.K 1 & : p O.j. X9.2.^ E D 7 !.e ; : b ~.+X8X5X4XJ.}.dXtX-XG.E G ( r.w.3.C.u.K.7XdX'.R U a.(.N.G C j w j 7 & . X   .         . . .   . . . . . . . . . . .       @ X   X . . . . . . .           .     + X   . . . . . # . . # &   + o + + o o   +               o X X   O O O .   @ + o       . . . . . . . . @ X X X X X X X o X   o o o     . . # . $ e e.@XBXcXcXBXcXcXbX:Xg.g.7XpXMXcXnXmXMXmXmXmXmX",
" X:.e ; o o = O .   @ @   . % # . . . . .       X                               X             .                     . . . . . . X X . . . . . # j #.7 : O . O .                                                       X @ o                                                                           X o       X   . & 1 +.}.*X,XD.) V.M.2 # O & n G.oX;.r.c.f.c.J.y.H.eXpXwX5XP e.zX@XAX&Xj.H.bXwXyXtX&X9.W n e F Q ` A q < J >   @ . % $ 1 & f @.=.d ] ] s & % % % p N.^.U.T./.U.=X.X7X$XZ. .n W {.wXXXqX&X>X:XF.8.1.t.E.S.-.-.k.=XlX<XR.3X<XG.P.a.^ d.uX>X.XyX{.Z p.P.F.wXaX*X=XZ.y.H.$XeXaXmXcXrXeXeX;X@XF.9.k.D.F.{.qXrXqXNXuX&XH.3.n $ 1 g 2.7X;XlXR.:X6Xg.R 2.J.3X$X>X=Xj.D.,XrXmXmXcXrXAXrXeX-X4X1.3./.g.>.>.d.2.E E M $ . # p s.gX+XT.1.p.E q 7 b N.n & & k ~.9.;.W F D D e.i.P.a.m 6 7 b a 6 b M.n.g.^.^.! r m m ! p.I.y.W j 1 & .   . . . .       @       . . . . . . . . . @     o       o @ .   .           X o @ . . . . . . @   X         @ @   . . o . . . . .       . . . . + X X     . . . .   .         . . . . .                   . . . . o   . % O   X X X . # 1 b L.[.xXnXxXBXrXrXuX>Xh.9.6XpXMXcXCXcXBXmXmXmXmX",
"oXhXG : ; o .       .     . % # . . . .     X X     X   X X       X X X X X X X X     X X     X             X . . . . . . . .   X X   . . .   # k Z 9 % % . . .                                                     . . O .                                                                         X X X X   . X   . . % p r.<X6XZ.) 1.(.k : O = 1 0.OX6.U.<Xh.F.$X4.y.&XrX0X|.W | <X'.vX{.j.D.tXrXNX*X-X|.P.O.i 6 7 n B ` p # ,   X , % S ] @.HXPXFXKXLXPXJX=.d O % q ~.6./ ( W -..XqX.Xg.y.C.| 1.:XuXwXNX*X>X*X&XF.R.H.zXE.t.}. X.X6Xr.1.j.;.2./ 1.2.x.>X>X*XwXdXW } S.8X0XaXqX$Xj.8.Z.$XeXmXmXrX;X;X,X=X[.c.6X@X{.=XtXeXeXbXbX;XkX<X3.j $ 1 g 2.5X{.lXzXzX#XD.9.4X#X=XtXeX>X2.j.:XNXmXmXmXrXcXqXMX*Xt.W 4.l.3X|.c.7.9.~.o.2 % O # H T.'.9.U B C !.r B o.W Z & # k !.s.P n 8 ; : m h v I q 6 7 1 6 1 4 k x x U E p 9 d : b V.L.L.~.p.~ 2 & # . . . . .             . . . . . O . . .       o               .                 . . . . . . @   X X o @     X   . . . . . . . . . . . .         X X   . . . . . . .     . . . . X                   . . . . . .     . .     X X X   # 1 Z zX%XxXnXeXCXeXeXqXtXx.6.3XrXMXmXBXmXVXVXMXmXmX",
"rX'.V.7 % O     . . .         . . . . X X     X           o o   X X X X X         . .     X X X X @ . . . .   . . . .         X X X   . > .   # z M.7 % . O . .                         X X X X X   + + o o +   . . . O % %   X                                                                                 X   . O . $ M M.a.2.Y.6.8.p.8 o + . 5 ~./.6.D.kXeX;XH.K..XwXsX}.M } <X_.tX$XZ.j.vXqXXXtX.X7X-XOXq.q & 7 ' B.s O * O y =.HXPXIXHXLXKXFXLXHXHXLXLXJX=.& r q.c r e b ( _.iXuX=XR.E.U.SXF.oXwXiXqXbX*XbXqXtX6X#XE.8.d.v.1XH.6.H.1Xg.4.2.c..X&X*XyXrXCX&Xy.3.J.=XrXpXuX*X&X&X,XxXNXmXrXeX:Xg.H.[.@Xf.d.F.=XvXcXeXxXvXeXvX;X%XU.W 2 1 k ^ r.2.y.G.gX2X6X$X@Xx.uXqXvX*X.X.X'.&XaXiXMXmXmXmXpXXX4.I Y.7XZX;X;X@X1.3.n.h $ % ; e gXK.L.Q 7 N K 5 s.I.} i O , # < r g q r M M I -.8.2. .| F M } !  .U V x z h w 7 O O 6 2 m ~ I 5.^.s.V 4 $ % O . ; . . ; . . . . . . O . @ . * . . O   O @   @   O * . . . . * . . . . @   @ . . * .     X X   . . @           @ O . # . . . @ X     @   . . O . . . . . . . . . % . . .   X @ X o   @   .   O . .   O     - o o - - ,     . # 2 3.#XlXxXxXcXcXcXcXnX*X'.t.Z.-XNXrXmXCXmXVXMXMXmX",
"xX:XW.B 1 . X   . # O .       . . . . X X       @       .       . .       @ . . O . . . .     o   . O . . * > > . . .     X     + X   O % . o # P N.e O O % . .                         X X X   X   o o o o     . # O . : %   X                                                                                 X     . . # 1 S } ) 1X'.F.L.p O +   q I n.;.k.@X*XeXZ.j.&XyXsX|.} } H.].>X{.j.#XvXeXeX*X[. Xv.hXa.B 2 1 g b % % & e f =.JXKXJXjXPXJXLXJXIXLXJXKXPXKX@.2 $.$.6 6 m E d..X7X5Xk.;.d.c.9.h.].qXXXqX*XvXqX*XF.9.g.g.}.=XK.Z.h.'.{.1XU.D.;XNXtX*X*XXXXX>XR.Z.k.@XqXpXqXrXrXrXcXBXcXrXmXeXkXF.:X@XtX].{.&X;XrXrXrXxXxXeXcXxXkX#X1.j p C ..L.y.y.8.6.>.F.{.qX.XwX0XeX*XrXrXh.:XwXaXiXpXmXmXpXoX1.B 9.{.*XeXBX;XZ.W.~.h 1 . O m E.9.2. .M 1 S 5 :.T.!.8 % % 1 r G E } Q.V.L.K.#X$X#X#XE.C.i.W./.hXE.L.V.5.p.q.~ e 1 7 e 9 S M h U -.^ ' 2 8 O   . = O O . . . .     X . . O . . O . * .   O . . . . % # > # . . > . . .   O . # . .   + X X   . . . . . @     O . . . . ; . . . . O * * . % . % 0 % O . . % O . . . . . @       @   . O % , O . * O O . % O O ; o o : # . . % q 8.{.kXxXeXcXcXcXcXcXeX{.8.t.$XyXmXMXVXVXMXMXmXmX",
";XlX<X3.7 # .   . . # O     . . . .   X X   @ X * . . % % # # & < 1 $ # . * % . > 0 > # % 0 0 $ 9 9 y 0 % # & > . @ @   .       . O . % . . > 7 T s.e O   O o .                                 . . . = = o     . $ & % > O   X                                                                                       . . . # 2 C -.8X.X.XF.} 6 % . & 2 n.<X:XZX{.ZXF.h.{.uXiXdX .| h..XXX'.6.#X*XrXbXF.1.B B p.) 5._ 2 % = o & n !.b e M HXKXJXjXJXJXLXLXKXLXPXKXPX#.2 L b & 9 q B E z ^ E.4X;.4.r.4.2.k.lXrXmXtXc.2.t.[.[.c.c.'.ZXG.t.c.-X&XdX{.[.*XtX&X].]._.].bX>X$X9.@XqXpXrXrXxXbXBXVXcXrXVXmXNX*XvX*XrXrXuXrXmXaXaXiXmXCXrXNXcXvXR. .j a 7 E P.#X3XF.v.f.v.=XvXyXrXwX;X;XeXbXt.H.*XMXpXcXeXqXXX|.2.I / h.ZXmXVXcX[.~.X.$ # . ; m G.v.F.U.p.g $ 1 c (.M.q r w g ^ I.2Xc.h.$X>XvXvX>X,X:X6X$XF.D.<X7X7XJ./.(.(.l.z.T.g.-.Z q 6 : ; 8 i w K M 2 %   ,   . %         X X   @   . . . O . O   O . O . % y > > . . : # . O O O O & % % 6 O     + X o . . . O O   O : 6 6 & > y * * & & 9 S s & # 8 0 @.] # # & & # . # . . # . O O ; % % : . % # : . % 0 & . 0 S N N e % : a $ . . # r k.&X;XnXeXcXmXcXrXcXrX=X8.2.$XuXBXMXVXVXMXMXmXmX",
"[.:X5XG.B $ .     O % %     . . . . O . . O . . % # & 0 0 6 $ 1 r r 7 $ # % % . # & & # # 6 1 $ 3 2 $ 6 0 # # .       O & 0 % . # 9 $ : o o : r -.-.2 O   +                                       . # : u = . . # 1 6 & 0 O   X                                                                                         . . # $ w 5.8XXXXX=XP.B 1 % O $ ( 2X:X>X=XZX=X{.{.-XsX.X^  .J.>XXX_.d.:XeXcXbX@XP.! m 7 c q.M.r o , 6 n ).:.I GXV B p =.LXFX&.HX&.&.&.#.jXJXHXq 2 L 7 K %.O.p.| ! 4.}.F.r.u.y.-.r.6XqXwXZXF.y.Z.-XuX{.:X].7Xk.j.{.yX*XuX*X*X*X>X*X*X*XXX*XCXeX;Xd.:XuXrXaXaXxXxXmXmXcXmXVXMXVXrXcXqXrXrXrXrXmXMXMXMXmXmXrXrXpXeXJ.( q 6 1 Q <XvXZX>XyX0X*XZXeXrXpXMX;X;XqXZXJ.8.].NXbXeXxX;X.X1Xa.e.4.<XZXqXMXrX5XV.p % . & 9 ~ K.tX>XOXT.Z & $ z N.F e B 4.W.Y. X'.]..X*XrXcXeX;X;X;X,XtX'.d.h.v.v./ W F 3.g.v.uX>X1X/.5.G p 8 ; O & K r K t %   , @   . O   o , +     . O d % O O   * O > O % 8 & d # u y &.0 : y ; ; 9 J 9 6 $ & % ; O O o o O O . O O % % & 6 & % % O % & $ 2 N e < $ 1 & 6 9 & 9 $ 6 0 t & & d s # # % : # % s % # & 8 & 0 9 : % S L g 4 r 0 & 7 1 . . # B  XeX;XnXeXrXmXcXrXcXrX>X2.-.7XqXCXMXVXVXVXMXMXMX",
"Z.H.-X|.1.2 # .   O & & O @ . # 6 $ s 1 6 d # # # # & 0 0 & & 6 0 9 6 & # . # & 0 $ $ t t & # $ r r $ 6 ] s # # O O . d J @.a < w K r 9 > = : n s./ 3 #   X X X                     . . . . .     . $ 6 s % . . # < 7 $ 0 O   X                                       .     . . . .         .                     X     . . # # 1 E T.7XyX-X5X2.q % o % 5 /  X-XtX;XrXyX[.$XtXf.E | <X>X.Xx.f.=XpXMXeX=X6XP.B.7 7 p N 9 O % x m.b. X+XOXOX2.q #.PXjX&.=.=.FXJXJXLXIXHX7 j V C !.D X.I.G.S.c.>X7Xg.U.<Xd.f.&XXX`.>X:XlX7XpXiXiXNXbXF.t.#XuXwXXXyXuXyXtXtXbXbXtXtXrXmXeXeX].tXcXrXMXaXcXcXcXcXBXVXVXMXVXrXcXnXnXxX>X*X*XqXpXpXqX.XuXrXrXuX<X5.q $ 7 } 6XeXcXpXMXiXyXbXeXpXiXMXqXeXeXvXSXt.x.rX*X;XvXtX=XOXe.5.9.4X$X@XrX>X<Xe.7 % # $ n Q.1X'.x.c.^.z 7 < !.~ e e V.A.R.H.=XvX*XeXrXcXcXkX;XxXxX,X:Xv.d.v.].F.Z p D Q.zX{.]._.'.[.|.8Xz.) r : : d e L [ 3 $ . , X O : ; ; > = o O O > ] > % > o O : 0 > ; O u 8 6 9 & u % % : % & N @.e N b #.J p q 1 % O % O o O : : % % : 8 9 e S 6 8 6 1 1 4 K #.e 7 p a e 7 e @.s a a 7 1 & & 8 : : & 6 @.a 7 9 S s e & u u 6 g g < $ > O # & . . & ! =XaXrXBXcXcXmXmXmXcXrX=X8.2.lX*XNXmXVXVXVXMXMXMX",
"t.D.qX-Xz.B & o o O : : * O # $ 1 2 a 7 e S 1 # # # . % # . . % % . . % . . # 0 6 $ < 9 7 & # # 1 7 # # y & . . . . # 9 2 q < 2 2 g 4 2 : : 1 w N.P 3 &   X X X                     . . . . . .   * $ 9 { : .   . $ 0 $ 0 O .                                   .   . . . . . . . . .       .                     X X     . . # & r / D.7X].XX XE & = O 1 h ^.dXtX*XMXuX2.8.5Xv.W.3.k.F.8X$Xc.[.qXCXrX*X].h.M.b D 1 & 8 o 1 >.fXdX].yXXX].1X( r s HXJXKXIXJXLXLXPXJXPXr g o.c g j Q 9.>.g.h.'.f.-.r.J.c.].tXtX].>X*XeXeXqXqXqX].&Xx.h.7XpXaXqX.X].*X>XeXrXbX>XtXrXpXmXNXeXeXeXrXpXaXmXmXnXnXBXVXVXVXBXeXxXbXxX&X@X:XvXvXeX*X;XvXtXyXrXyX6X4.r $ 7 ..7XrXmXMXMXaXrXNXpXMXiXaXqXrXrXeXlX[.x.eX{.ZX*XtX$Xt.n n ;.c.H.3X>X_.9.W & . O < W T.D.f.x.}.^.w 6 $ #.5 1 b ^.D.H.H.@XvXeXBXcXcXxX;X;XxXcX,X1Xh.F.&XtX6X .m M V.3XeXrXNXbXeXXXfXXXOX3.b 8 & e r g L $ . X + # 9 u 8 : : : 8 8 6 6 t d % % O 6 ] 8 9 8 S @.e 7 N 9 : 9 6 S a 2 M 1 p b $.b 2 A j : O % O O O & d d 8 : 6 a #.@.e 6 6 7 q 4 K { 2 e J N 7 1 e N 1 $ e a 7 a ] 6 & e e 6 e 7 7 i a i e 6 s s 1 2 #.s O O * # .   . 7 5.-XMXpXBXmXmXmXmXmXNXrX&Xt.4.5X*XrXmXVXVXMXMXMXmX",
"9.[.uXuX|.0.1 O o o O * % % # $ 1 q 2 < 2 r 9 $ # # . . . . .           . . % 6 9 t t 9 9 0 0 : O . O O o   o , * 0 6 d # $ 1 J 9 7 H C M K H Z X.g $ O     X                               . . . > 1 e $.7 .   . # 6 # u # .                                           . . . . . . .                               X       . . % & q ( <X]..X8X~.r ;   % 1 ^ z.>XqXpX&X^ ( 5XtX7X9.W ! 4.U.r.8.:XyXwXiXsX XI j O.w 1 8 o p `.iX0XqXqXwXXXDXF.^ : @.JXKXKXKXJXIXJXJXLX*.j Z n M.a.-.-.8.U.;.8.U.G ! r.D.>X-X6Xv.tXpXaXyXg.2.k.d.c.'.{.>XwXCXeX_.x..XtXeXrXrX*XtXeXmXmXmXmXrXeXeXpXaXMXVXnXnXVXVXVXBXBXxX;X;X@XH.9.k.[.[.v.x.c.[.[.@X.X*X=X8.q $ b 4.ZXmXVXMXMXiXrXMXMXMXpXrXwXmXpXqX;XvX_.rXeXbXwXNX|. .8 9 8.d.8.K.].v.6.V 8 O O q 0.c.9.c.-X8Xp.7 O O & $ 3 W 2X{.1XF.F.>XeXnXcXeX;X;XeXrXaXqXS.8.|.0X0X.Xj.!  .K.bXmXeXeXcXeXNXXX{.5XOXt.| G 6 : 0 $ $ # # . # 9 i e 7 e r e e 1 1 e S 1 1 6 6 9 e q q #.m r b &.K n A e J b B $.K S 1 7 1 7 K a > > ; % % % % s S 9 1 < 1 S 7 $ 1 1 q b 2 q q 2 7 e p K J 1 a J S 1 & a d 7 t a @.] e 7 N N q 7 7 7 e e i a 1 0 O + ,   . *   O b L.*XMXmXmXmXmXmXmXmXcXrX>XZ.4.c.>XNXrXBXVXMXMXMXmX",
"g.:XyXuXoX2Xq ; o o o . # # . % J ] 7 1 q t ] 1 # % * O O . . .     +   o O % # 6 1 1 2 1 1 6 0 *   O *     @   . % # d : : & s u 1 %.o.C ` $.` n 2 & O     @     .                           . . y 6 p M.w . X . # > % N 1 O o                                             . . . .                     . .         X X @     O O % % M /.5X{.|.E.I 9 O . & 4 s.5X*XqX=Xy.t.=X.XuX<Xi.| U E.L.A.6XtXwX0X-Xg.h M.!.w $ : % F 8X0XXXyXwXqXNX.XqXG.8 = PXHX=.JXLXJXLXLXLXe 4 !.g 1.T.f.k.U.gX/ ) E.i.3.r.#XZX{.H.f.yXiXwXtXr. .U.D.&XdX>XtXqXrXXX.Xf.$XZX>X*XXX.X;XcXCXrXrXrXBX;XeXmXaXMXMXcXcXMXVXmXcXmXcXxXkX@X[.3X3X:XkXvX>X@XF.9.h.v._.'.2.q & g 1.=XmXVXMXmXsXmXMXaXpXtXtXrXrXpXcXrXrXXXqXAX*XwXuXh.C ; u I.d.) S.|.8Xn.C 6 O % j m._.9.S.5XU.b 8 o   O # < o.P.OXE.:.R J.1X|.$X}.J.}.|..X0XoXz k G.-X0XuX8Xj.4XkXrXrX;X;XnXrXrXqXZX*X.XZX1XI.C 7 & 8 & $ # # . % 8 9 e N N 1 1 7 J 1 7 S b q 1 6 q L r b < q 1 r 4 4 N 2 < 2 C ~ b e 9 $ & $ 7 6 % * > & $ 1 # & & 1 S J 9 6 $ & a S K J e { r q b &.#.2 q < 7 7 7 7 7 1 $ 7 9 1 e 1 < 1 J q 2 S S 1 7 1 6 e 6 #   + O . . . . & E +XXXaXMXBXmXmXMXmXmXrXrX7XU.2.7.>XNXrXBXVXVXMXmXmX",
"g.@XtXqXXX X+.6 = o   , # # O   ; d : # 7 & d & & % % > y 0 : % 0 % d . O O . . % & 9 S S a a s % > 0 & # % : % 6 6 # : O O ; : 9 7 H w 7 p H n r b $ . >   X X   . .           o   + o +     O . 0 : p Q.z # X . . > & n g O +   .         @                   .   * . . O > . . .           X       . . . . .                 . O o : Q U.6X|.7.:.G 7 O % $ B G.dX*X.X'.7XtX].<Xk.SXG.-.u.-.<X{.tX-X3XP.h k A J 8 o : r N.T.5XoX&X&X{.ZX;XqX=XG u { LXHXLXJXjXFXJXLXJ 4 N./ 7.hX X.X=Xt.3.G.6X$X{.eXuX>X=Xv.v.pXwXqX&X2.A.lX*XeXeX>X*X*X*XrXeXD.3XH.[.*X.XrXeXnXcXaXMXcX;X;XeXpXMXrXcXmXMXVXMXCXrXCXMXmXBXxX,XkX;XeXeXeXeX>X>X}.#X'.'.{.2.1 & w e.@XcXVXmXNXqXmXMXaXcX6X#XqX0XeXyXaXaXmX.XZX;XuX|.3.r : i P.4X~.1.|. X~.B 0 O % H b.8XL.! 1.~.7 % O @ @ . & r B q.! ! p...3.e.) I ....p.a.f.n.7 7 Z G.oXwX-X7X=X=X*XeX>X,X;XeXrXBXrXcXrX0XrX*X5X8.j 7 0 * . @ o + o % & $ $ 1 # % % : 0 q q 4 q $ # # & 7 2 2 l a 7 $ 1 6 a j o.h w 1 8 # $ 6 @.0 J # # $ r r # . # $ $ & % O . * % & 6 7 e e w w g w w g q 4 4 [ L q 4 q < q 6 & & 6 t 0 $ 6 $ $ t t s s & # t t   @ 1 q 1 # % 7 8. XtXrXcXBXmXpXmXmXmXrXrXdXE.-.7.*XrXBXcXVXVXMXmXmX",
"F.=XvXtXqX=XL.F ; -     # # O , o > > : d & t 6 & % % % : : & $ 1 1 7 & % % % O % # & 7 7 6 6 & % % % # $ t t $ r N & 8 : % > ; @.q K X.a 6 b q n K 6 . .   X X . . .           X   +   +     . $ t 9 r ~.P $     . ; 1 W ! &   . . . O     @                   O O O . O O > . . . .                 . . . . .                 . O o O i +.Y.oXx.}.n.n $ % % 2 E U.dX].f.v. XJ.4.4.J.G.y.4.6.=X-XZXK.r.Q.j o.n % > o : !.~.^ 1.j.<X6X@X%X;XrX-X(.q 7 jXPXKXJXjXFXjXIX=.2 C ~.^.6.b.=X|.j.S.5X*XrXrXaXwX*X>X&X*XwXNX{.7.D.#X-X*XcXcXeX>X:X>XrXuXH.K.g.D.&X*XmXrXxXxXMXVXeX{.{.;XNXNXrXCXCXMXMXMXBXmXMXiXMXpXcXxXbXxXrXrXrXrXrX>XlX6X&X=X<X1.7 : q | 3XcXcXBXeXyXrXcXrX;XS.r.=XuXZX*XwXwXrXvXkX=X].h.Z 9 9 ..k.1Xr.^ x.2XU w & . 8 C  X_.u.k ! Q 6 O O O @   . & 1 r 7 q A M B B C 7 e 6 2 4 x M.i ; e p.+XoX_._.G.h.c.}.$X:X>XeXeX;XeXrXmXmXpXwXXX.Xu.j 6 O = + o o   O $ 7 9 9 & % O % 1 7 w w t 0 0 % & 1 1 7 &.S $ # & & 9 N E z n q # : t 1 0 & 1 t 1 1 w 2 $ $ $ # # . .     @ O ; 0 9 a N n g g w A #.A w q L S q q q < 7 7 0 6 0 0 6 7 t 1 6 t 0 0 0 & & e 8 , O N j t & 6 b b.-XyXeXeXcXrXmXVXVXmXNXrX=XE.2.d.>XrXVXBXVXmXmXmXmX",
".X>XtXtXeX>X$X3.: - o   % & . > O O > 8 s 9 s ] & % O O % % & & 7 e < 9 # 6 % . > . . % % O O . % O . # 1 S S q r S 1 9 s : u % @.7 e @.s 1 q j k L ;       X   . . .             X +       + O 1 r D n E.-.q . . . 0 D l.^.m ; . . . . .   X                 . O ; O . % O > > . O .                 . . @ . .                 . . . O ; F l.-X].-X X8.Z q 6 6 9 } 2X].>.-.Z ! r.4.w.} +.( v.yXf.J.r.p.C r _ %.& O = & Q.5.n p ! y.G.#X@XvXrXtXK.5.q J KXPXLXIXJXFXIX=.d e e b n n Z y.<X&XqXwXqXrXVXaXrXyXqX*X.X{.9.-.6XZX>XtXeXrXrXeX>X>XrX;Xj.r.y.H.=XeXpXrXvXxXmXVXeX{.'.{.tXqXuXrXmXmXMXAXeXbXMXaXVXiXmXcXcXcXpXaXaXaXrXeX>X&XeXZXY.E 1 % 6 G zXxXeXAXqXrXeXxXcX:X .! 1X=XJ.|.NXpX*X,XD.F.c.1.i 8 E E.'.oXh.;.9.~.4 & # & ; e OX_.h.x ` p % o     . . . . % 8 & $ q 2 4 w b & : O % # $ e u : 8 M s.T.m.6.U I ) y.Y.|.-XtXh.c.>XeXeXcX*XeXqXAX$Xn.M 9 ; > . O # $ 2 g L J 1 & % % 1 7 r r 0 & 6 $ $ 1 $ 6 6 7 1 1 e t 0 $ n 4 q s % % e 2 1 1 < [ 6 1 1 N r r 7 & . . . . O O . O & 7 H $.r 2 a 7 e S 7 7 $ 7 9 1 9 6 & & $ 7 7 t 7 $ 7 2 e t 7 1 $ $ 1 7 & : - . 7 3 $ % 6 G }.uXbXxXcXcXqXmXVXMXmXNXrX{.2X4.h.>XrXBXBXBXVXVXMXmX",
"qXeX;XkXeXeX>XA.e O O   * > O % % O % & 7 7 1 s & % O O O % % & N S 7 S 7 a u 6 u : % O O o o   . . O O % t S r 1 e 1 7 K e 9 & e m 1 a s 6 r ` ~ N O   @     . . .                     o o O # 2 G o.( 3Xk.B & . % 9 q.OXOXQ 6 & . . . . .   X               . O : 0 % % # & f . . . .     X X       . % % % .                 . . O O = p 3. XuXuX|.1XI.I w 6 : i i.4XG.j.E ..E.t.C.E | 8.uXwX'.y. ...q H w H 9 . & 7 1.) m i M B ^ F.&XeXqXtX8X4.q &.KXKXJXLXLXJX=.d ; & 6 i b b r Z j.-XmXiXmXrXMXpXqXeXqXtX4Xj.2.D.{.eX*XeX'..XeXrXtX>XeX>X8. .j.$XeXrXrXrXbXvXeXrXcXeX'.c.d.c.*XeXeXrXqXeX6X{.MXaXMXaXcXxXcXmXaXaXpXpXrXuX-X.XeX>Xt.B 7 : 8 G zXxX;XAXrXpXeXeXeXlX| E E.F.-.k.>XyX{.[.h.F.h.^ u 8 u.=XXXXX|.h.0.o.& % & & u } 2X9X7.x r % . . o   o O O . & 6 7 b E W _ q.X.M p & & e 9 1 7 6 8 6 C W ..Z F M C E ^ -.x.=Xh.c.:X=X=X:X&XeXrXXXyX5X/.G 9 % . # # $ < r J K 7 0 0 0 8 7 e 9 0 : : 1 7 t 6 6 : s s e 7 0 0 % K b 7 J 0 > u 7 : $ 2 J $ s $ t S S y & . . O . . O O 0 a q w g 7 s @.8 % d 8 : % # > > y > y 0 1 e 7 a e 1 J N N N 2 7 7 1 t 9 : u = % 7 r # : 6 | =XrXcXnXNXmXrXNXMXpXrXrXeX&XE.8.c.*XrXmXBXBXVXVXMXmX",
"aXrX;XvXxXeXNX$X| 6 O     O . & % & 1 e q A 4 N 9 : % O ; ; : : 7 e 1 9 6 7 a 7 a 6 & % o o o o     + + . : u 9 : 8 9 7 K J u a w X.e 8 u 9 p X.M.A %   O .   X                     . O % % . $ w p.I.Z.-X5XW e % : q a.7X'.4.b q # . # . O                   . # % 0 & & 6 # s 0 # . . .     X       . % > % . .               . . . O O 6 C 1.v.dX:X5X1Xk. .g 7 2 ~ ^.9X-Xx.OXE.2.8XF.[.&XNXXXuX'.j.Z r K e & # 1 q _ n.a.m m D w I Y.qXpXwXuXv.~.D d LXIXJXFXJX*.s s 1 K B M.Q.Q.3. .| 1.].aXVXrXrXrXrX*X[.<XL. .y.lXXXqXrXrXx.'.eXmXcXeXeX>XK.4.t.F.qXNXyX*X;XxX;X*XrXCX@Xg.6.D.>X*X&XtX*X{.E.6.uXwX0XrX;X;X*XrXmXpXrXeXeX;XZX*X*X'.2.! A a 7 | $XcXxXcXmXiXeX*X*XlX4.( S.6.-.8.7.'.{.&X,X=XOX( 8 p U..XqX0XXX'.i.n 8 O . & } W.Y.T.^ w $ . . . .   . O & 1 b h T g.OX9X|.+Xg.n.a.U U  .e.( G r e 9 p 7 7 9 i i i p p n ^ f.uXuX XK.E.<X6X&XXXqXXXyX.XE.F : O O . . # & 0 d 8 8 u 0 : : ; % > ; ; = ; 8 : : u s d u ; O O : D K r e : > > % : 8 e e 9 &.d ; > , O O O o o o o = : J @.J e 1 8 ; u : ; > O : ; O O = > = > ; ; 8 & 8 8 9 @.@.6 7 & 9 i 6 9 8 : 8 8 9 a J % % 7 e.:XmXmXMXMXmXCXBXmXmXmXrXrX>XU.8.F.uXrXmXBXmXmXmXmXmX",
"aXpX;XvXxXcXMX*Xu.r # @   . # $ % 6 1 r 4 K g N 7 & % % % % & & 1 1 1 $ 1 1 e 7 S p t 9 : % ; O O . . . O # % & & $ 6 1 r b 7 p w j 7 6 1 7 e b C j %   O O   X                 O O . & & 9 1 1 k ~.<X=XqX-X) j 8 6 h c.yXqX4X5.L # $ # # % . .               . 8 $ 1 $ 1 a $ 1 s & . . . .           . # * & . . .             . .   . . & i G 8.$X7X&X-X7XY.4.k 4 q E d.dXXXXX<X/ |.-X*XuXNXrXXXZXA.| r 7 0 > O $ z n.9.i.F m M j 1.1X*XsXNX.X8Xa.m a jXJXjX&.FXFXjXjXK H V I ) ) 2.L.e. .v.CXcXqX;X;X&XF.d.t. .3.E.:XCXpXMXNXv.{.rXBXmXrXrXvX6XD.j.H.qXpXyX*X{.eXxX*XwXsX=Xh.r.E.6X=X&X-X=Xg.4.P {.qX0XyX&X,X&XeXmXpXeXeX;X&X&X{.[.c.j.V.o.r j i.{.cXnXeXMXiXrX*XqX-Xk.2.6./ l.8.-.F.=X*XbX=XhX) q +.}.qXwXwXuX+Xo.e % O O i V.<Xh.;.Z 1 . X . . . . . % q n Q.8.h.|.uXyX.Xx.x.|.8X}.}.}.1XK.A.4...} } F m e 7 7 7 9 9 e n T b. X8.3.3.w.E.}.dXqXaX0XyX|.u.n % . O o . O % & 1 7 7 7 7 6 8 8 6 6 6 6 6 6 7 e 7 7 6 7 7 6 9 7 q C r q 7 7 6 i 6 e q q q e 8 O o o O % & 6 6 6 1 7 4 w j w r r e 6 6 9 e 7 6 9 e 6 6 6 6 1 6 6 6 7 7 7 7 7 b r 4 q q r r 7 r b e e C w 4 1 % & M I.>XmXmXMXMXaXBXmXmXMXmXrXeX:XZ.8.|.tXrXmXVXBXmXmXmXmX",
"aXiX;XxXxXcXMXqXv.W & + +   & $ % & $ < 3 w 4 w q 7 6 1 1 1 7 q q 2 7 1 1 1 1 1 7 2 4 4 2 2 2 3 q 4 3 4 r 2 1 q 2 4 q q q r w g r q q q g n e 7 j 1 o o O % .                 . O % # $ e K N 4 h E.-XpXrX*X8.B : 7 ) '.pXwXdXI.` $ $ # # * . .               . a e 1 e r J r $ s 6 # . . . .     X   . . % # . . .                     O & 9 m +.S.$X*X>X&X{.1X>.P 1 6 E U.5XtX3X2.2.Z.{.qXtXbXyXZXt. .B 2 o   > < / T./ I G m r g 7.].].-X:Xd.f.gX! r *.LXjXFXFXPXKXX.~ X.H B.| i.OX8X8X7XZX{.nXeX%XD.g.g.g.D.j.H.=X{.NXwXiXwX&X;XvXcXcXrXpXmX*X:XZ.H.*XqXyXqX].;XcXeXqXuX=XH.-.S.j.}.>X&XH.U ! I }.XXyXuX'.:X*XrXpXrXeX;X&X[.h.c.H.H.<X/.o.5 P T.{.eXnXcXaXiXrXrXpXqX.Xc.6.9.2X8.r.E.>XqXpX.Xn.I Z P.&XiXiXyX1Xa.D : % # . D U.@Xv.6.B $ . X X X . # % 7 G q.(.y.J.*X*XrX*X'.@X@X&X&XeX*XyXqXtXdX1XY.G.+Xz./ 8.4.W k 1 : 7 e k Z F b r m | r.$XXXqXAXXX-X Xu.e O   o o O & 2 C I T / / ) ( ( W ^  .) ) 1.-.2.) 2.) ^ ^ ) 4.( W W  .) 1.) ( e.1.;.) -.( k e u ; % 6 m ~ ) -.;.6.h.9.8.-.^ ) 1.^ u.i.) ) 0.u./ 1.2.1.-./ / ) 1.^  . .) ) ) T Y 2.-.2.1.-.-.1.a. .( z.:.h 4 6 7 Q E.>XmXMXMXMXaXrXrXmXmXmXcXeX&Xt.4.$XuXrXmXVXBXVXMXmXmX",
"aXaXeXxXxXxXmXqX-Xn.q O ; % e a : 8 s S K H ` X.X.X.#.K K H X.o.X.` #.` K @.K K A A H ` ' o.o.X.` ' ~ ' $.K N #.` o.X.%.X.X.o.} #.#.K B q.M.n b %.i o + O .   o               . . % # 1 n B.o.h x E.*XrXMXtXK.( r F 4XrXaXrX>XY.' < # . & 0 . O . . .       . . a A w H H ~ o.w b q < # . . .     X . . . # # # O .     .           X   . . ; 8 D Q t.F.=XtX&XdX9Xn.F p w C 9.OX4Xj.^ j.-XZX=XF.{.#X~.B ~ b >   . q ^.OXz.x C } G P v.uXuX>X:X>.7./.M.q #.JXFXIXJXLXPXA O.z n G W ^ d..X*XeXZX@X;XxXlXH.k.}.$X:X&X{.v..XXXmXaXMXeXxXxXeXrXrXpXpXqXtXg.k.=XqXNXqX*XqXrXrXrXuX-X$Xk.A.) 9.{.&XlXt.w.y.|..XuX_.f.:X$X>XeXeXeXeX.Xv.F.@X:X$X$XY.) c / +X&X*XAXcXqXyXqXrXNXqXuX-Xv.8X4X/ 3.L.3X*XyX5XW g 9.$XtXXXwXtX9.k 8 % 6 & : m y.F.}.T.B # X X X X . & 6 b 0.gX3.3.#XvX.XeXxX;XvXZXlX@X,X&XcXwXiXiX*X>X.X7X Xf._.+X2Xa.! M e 1 2 q M r 6 e e C ^ 6.OX5X1X|.dXOX! e % O o O : r B.).T.+X+XE.W.I./.T.Y.T.T.gXT.T.gX2XY.gX2Xn.T.I.~.L.SXI.T./.^.l.Y.Y.gXn.I.(.F 9 6 2 b o.~.^.T.+X X+XK.T./.E.E.U.U.2XA.E./.T.gXU.z.T.P.T.z.n.G.^.I.^.^.P.T./.T.^.T.n.T.E.E.E.P.T.I.u.4XhX2.M.a 7 ! 2X&XpXMXVXMXMXmXMXMXrXrXNXbX&X2.2.1XtXrXpXVXmXmXmXmXmX",
"wXwXeXeX;XeXrXrXyXJ...q 7 H X.K K N J #.{ H o.~ C Q X.H } G } E Q ~ q.C a S L k ` Z A ` ~ H K a J N L K L L b K M A H H H F H H M n k V V W g r X.e O o O O   o             . .     . p ) z.2X6./ gX}.=XqXqX&XJ.! 3.@XmXpXxXkXzXI.k o + 6 a t & : . % O   . . $ 4 o.W ) y.S.E.L.( B r # . X     X X . . & $ $ a O o . O . . X X . #   X . O . O O 8 p ! J.>X*XvXtX[.4Xu.} j j ! V.l.h.v.XX>XD.1.-.1.M.m H J 0 o % r ^.'.Y.k.t.1.w.4XXXiXaXCX*X[.Y.a.G #.FXPXKXHXJXPXLXb 5./ P ) 0.t.'.qXeX*X,XkXnXeXvX&X>X>X>XuX.X.Xf.eXeXrXMXaXrXNXcXeXcXrXqXrXmX*Xk.g.H.kXNXrXeXrXpXaXrXuXdX&X-X$X1.4.3X>XtX.XlX'.yXpXqXeX'.}.Z.j.[.*X*XqXqXrXrX>X>X&XqX-X9.x ) l.-XuXqX'.x.=X:X*XNXoXdXdX.X.X{.8.} } | U.|.>.g h 1X.X:X:XkX#X .7 0 O % # & r L.;.-.a.A $ . .     O % 7 a.1X|.4.w.lXv.'.*X&XtXyX.X4XE.W y.'.rXwX0X.X.X'.x.[.lX.X{.=X|.gXi.p.p.e.( ) I p 6 6 1 1 q k W a.g. X|.4Xi.n 8 ; > & $ 1 j ,.>./ 2.W  .) 2.T 1.^ ^ ^ ^ ) ^ Y U / ) ^ I U W Z Z E V W ^ T -.-.T U E C j B z ! I I P U P U P V I W ( W U ^ W E Z C C Z Z E B B C g V x Y P P I I P I U P ^ P P U x U ) I G } / -.R ( i 9 V.4XyXaXVXVXVXMXMXMXmXmXrXeX*X5Xy.-.h.-XrXmXMXVXVXMXmXmX",
"rXrXrXrXxXeXrXrXrX=XU.E k ~ g w j n q r n g I P V I | C C |  .( W x T h 1 9 Z c h x z z P V r q 4 g 4 w g g w w g g g h h h V I Z W W U _ U C ` H 2 O   O O o +             . .   X O r 0. X6XF.R }.$X7XqXqXeX>XK.R.cXmXrX*X@X[.4X) ; - & j l < & % 9 0 O O . # 3 ~ a.j.%X,XkX3X9.U $.$ .   . . X X . . % & 6 a @.8 % % . . X X . . @   * .   +   % 9 C 3.J.5X&X;X&XuX@X/.V...F B ) 1X.XAXXXlXK.S.^ 7 & 7 7 # : 8 G 1XoX-X@X{.D.D.ZXpXMXpXqXqX>XG. .m FXLXPXKXPXPXJX=.7 _ ^.I./.~.U..XwXrXcXxXxXBXcXeX{.&X>XeXeXqXuX{.ZXeXeXmXMXCXeXrXCXCX*XqXCXwXNX,XD.Z.:XCXpXeXrXpXaXrXqXtX&XtX=X-.1.}.*XrXqXvX*XmXwXoX*X&X3X1.1.F.&X*XeXrXmX0XrX>X.X.XdXgX^ z i.5XXX].x.g.D.[.>X].`.v.-XwXsXnX%XW.} Z 4.^.T 4 5 +X7Xy.1.D.#XV.r % O & p ~ | w.y.P.~.j # . . . # . 7 C T.'.'.1.y.$X.X;X;XbXqXuX].E.W n w.6XtXoX_.f.v.{.{.@X@X>X>X>X{. X9.-.1.E.E.gXu.5.~ D $ & # & e ' 1.G.OX6XR.I.M ; o . # . 2 s.m.z.j.U.A.Z.G.g.A.i.l.u.u.n.l.t.t.l.n.l.u.8.l.i.I.p.e.3.u.t.z.b.g.t.u.i.4.U.U.T.y.i.L.u.4.i.i.r.i.u.l.y.t.S.l.i.e.i.i.i.y.C.i.5.p.p.a.0.0.i.r.i.u.w.4.i.i.i.) 0.i.8.l.u.i.e.a.y.h.c.L.D 9 )  XrXaXMXMXVXVXVXMXVXVXmXrXqX5XA.-.7.|.yXaXMXVXMXmXmXmX",
"rXrXrXrXcXcXrXrXwXqX8X4.Z M.E I ( a.1./ z.h. X Xt.) e.i.r.Y.F.|.Y.t.K.8.r D ~.;.-.I.T.x.'.'.g.8.0.0.x 2.n.0.u.t.t.g.k.c.c.c.F.Y.E./.z.l.I.) E M.A 2 O . O . X X             . .   X O 7 n.J.3X$Xc.dXqXpXwXqXrX*X;X;XrXmXcXcXcXeX-X6.7 : 1 K ~ w 7 1 e J . + o . $ g ^.K.>XxXxXZXc.R N.c t . O .   X   . . . O 6 K X.j < % @   X +   . . #   X X * a E z r } E.[.>XnXaX0X-X Xz.-.P ^ j.1XqXwXcX*XZXU.p u & 7 % & w i.-XiXaXiXpXqXeXvXeXNXeXqXrXtXhXW b FXLXLXJXJXJXHX@.J !.h I  .5.P.yXaXiXpXmXmXrXeX&XF.F.,X*XeXeXtXtXvXeXeXmXmX;X;XpXiXaXMXNXwXiXiXeX.X{.@XeXNXeXcXrXaXpXwX>X{.&X$X4.2.[.*XrXqXeXrXaXaXrXbXyX$X1.1.[.uX>XeXeXmXCXiXXXZX*X{.gX( Z I.=XqXyX>XH.9.*XAX.X'.;.Y.uXwXqXvXSXr.4.u.p.5 4 b I.y.( w.[.$X/.E 1 # q I T.OXC.4.c.2XA .   X . . 1 w gX X4XS.y.Y.7XwXpXwXsX0XyXoXA.z B L.lXF.;.;.>.'.DXZX>XZX%X#Xc.k.g.8.^ U I ( C.E.hXgX~.} q 9 8 & e g  .~.E.U.hX^ % - o   . < 5.2X5X[.lX:X>XuX*X*X&X7X=X=X>X-X-X*X-X-X>X>X.X-Xv.3Xg.E.6.4X|.-XuX-X-X-X5X|.7X-X=X=X=X8X|.5X=X5X:X:X>X>X-X*XyXuX&X=X>X7XtX*X.X-X|.}.1Xh.x.OX5X@X=X-X|.|.<X4XY.h.5XoX-XZX{.6X4XJ.=XdX-Xk.p q 6.XXyXsXMXmXVXBXMXMXVXCXmXrXeX>X<X6.6.}.yXpXcXmXVXMXmXmX",
"qXeXrXrXmXmXNXmXaXpX7Xj.C O.q.) ) i.z.7.|.uXuX-XJ.-. .L.A.1XXXyX7X$X7XG.M p I.z.4.P.1X-XuXyX*X{.J.t.R k.G.G.4X3X|.$X:X7XtX-XqX>X#Xg.;.h.4. .z M.A 1 % O . .   X             .       . 7 e.U.<X#X:XxXwXiXpXrXmXrXmXmXrXrXrXNXmXpXwXf.Z p e B.p.W r 7 q &.: o   . . 3 n.}.&XxXeX>X3X:.;.T L & % . X X         . # q $.M.5 7 O   o X o # 2 #   X X . 7 o.~.Q r V S.#X=X].qXdXoX Xd.OXh.g.<XXXMXaXqX_.j.n i 1 1 : 6 h T.0XaXaXaXMXpXCXrXrXrXeXtXyX-XK.I r FXJXjX!.FXKX&.8 @.b r w n V 8.-XNXaXiXaXMXmXCX;X{.F.@X'.*XrXeXeX*XeXnXcXrXeX'..XpXpXwXrXrXwXwX>X@X{.{.eXNXcXcXeXcXaXpX;Xv.h.#Xk.h.&XeXeXeXrXrXqXqXqXqXyX>Xj.j.*XrXtXtXeXrXiXiX*X>X>X6X/.W I W.-XyXyX*X#Xg.;XNXtXD.2.E.4X'.yX>X8.1.h.^.~ q r p.V.4.r.zX=X5XG.I 2 e I R 5X=X) 1. Xm.q . X + * & $ C T. XK.8.r.k.dXqXqXyX*XdX.X8XY./ 1.2X$Xh.8././.U.E.J.v.f.x.v.x.F.F.3XR.E./.r.1.1.h.d.9.2.3.! j q n g j j Q e.T.n.$ o   @ O $ j I.=X;XvX;XmXrXmXqXqXNXqXrXrXrXpXpXpXrXrXrXpXuXf.'.7.1X:.8X&XqXqXqXwXrXyXqX&X'.'.dX-Xv.f.*X*XuXrXrXrXrXrXpXaXpXwXwXrXpXaXiXwXCXwX*X-X>.d.8X>XeXrXpXrXeX:X#XF.[.eXqXpXBX*XtX&Xf._.uX-X8.r G K.uXqXrXMXMXVXBXmXmXmXmXmXrXeX*XdXc.6.F.yXrXrXxXmXmXmXmX",
"eXeXrXpXMXMXBXMXMXaXyX1XE ! I.-.1.1.E.h._.yXXX.X<Xt.E 3.r.}.yXrXeXvXbX#X| p e.E.3. .Z.$X&XeXbX:X6.4.U.U.2.D.3X$XlX>X;X>X*X*XrXvX:X-.9.E.w...C !.p & O . . . . X                     O 7 V n.U.k.&XrXmXMXmXrXpXpXaXaXeXqXwXiXiXiXaX].l.! b !.P.n.E C k N.6 ; O O O 1 -.1X&XnXeX{.hX9.R s.C q 9 : O     o . O   o & j s.-.4 & = o o > 5 I q . X X   & e ~ ^.T.) x W ) 2.U.k.:.d.5XdX.X5X:XsXiXMXuX6Xi.| !.q.g % & V 8XqXaXcXxXvXxXxXrXVXaXqXqX-X|.T.V { PXFXjXLX!.*.J 2 $.C r q w z P 6.{.mXVXVXVXrXcX;XkX$X#Xv.tXyXeXeX*XeXbXcXcX.X'.&XZX>X.X.X.X].dX6Xk.g.@XCXmXcXxX;XcXMXMX*Xc.6.#X3X@XrXrXeXvX*XeX>XvXyXXX*X>X|.'.*XwXwXrXeXrXpXMXvX=X$XD.1.Z  .J..XwXrX*X3Xk.eX*X6Xt.) L. .W F.}.( | 2XI.q 1 ( U.#X:X;XkX'.5X4.g 2 M N.2.8X[.) ) v.6.1 . @ . . # O J q.P.G.:.8.0.OX|.}.<Xz.I.8.T.5X'.].-X$X}.E.a.M e p G u.5XXXCXNXyX&X;X&XvX:X6X3Xt.W V g.7X|.8X8XOXG.) M u 8 M ;.^.l # # # # 6 1 ..3XbXcXBXmXrXNXeXeXcXeXcXmXmXmXmXmXmXmXmXrXtXv.1X9.4X/ 4X3X:X>XeXeXrXrXeX[.g.g.lX$Xh.>.,X,X>XeXeXeXeXeXcXrXrXrXrXrXrXrXpXMXCXqX*XlX;. .E.kXcXmXpXcXbX%Xj.r.3X;XrXmXmXcX,X=Xd.f.|.Y.( m +.Y.-X.XrXVXMXBXBXmXmXmXmXpXpXrXqXyXoX9.g.qXrXxXeXcXmXmXmX",
"rXrXmXmXMXMXMXMXaXaXwX7X .Z ^.0.8.^ G.c.x.*XXX.XlXU.^ r.U.F.yXaXmXmXrX@XC.F ! C.C. .t.$X{.*XbX,Xg.2.4XG./ k.F.@X:X;X;XeXeXeXrXcX:X-.#X4XV.E Z M.b & . . . . . .                 X   . 6 5 i.i.2.:XxXcXrXNXeXqXwXiXpX>X>XpXaXaXaXaX0X6X4.r p.G.8Xw.a.-.L.C p D : O & V 2X&XbX;XF.t.8.Y ~.V M m 9 . . O % # . o o O $ x ~.I r % - o O w ~ #.$ .   @ O % q 0.T.n.~.L.3.) P.A.6.6.OXXXXX#X1XqXwXqX7XG.P x q.N.M > : P 5X*XrXxX;XxXxXcXpXMXiXwX*X|.K.L.GXLXLXJXJXPXPXJX9 o.q.H H H Q /.OX4XZXCXpXrXmXrXrX;X3X3XD.d.&XuXbXeXeXeXeXcXcXcXbX>Xx.7.c.5XlX$X#XZ.8.j.6XCXpXcXxX;XxXMXMXeXx.6.#XlX>XrXrXeXbX*X&X[.[.>XyX&X{.7X.XqXwXiXaXtX>XeX*X&X:X6XZ.4.U.J.6X0XiXCXbX:Xk.bX;X3Xt.T L.Z E t.U.r.) l.^ 6 8 ^.{.*XAXwXqX.XOXE 4 w o.I.6.6X#XE.) 9.) 9 .   . & .   O e ( /.l.( ( v ) ( I G M ~ ) g.x.dX=X6X8X}.2.r 8 u p 4.}.0XiX0XqXeXbXrXrXyX*X>X$XW.3.h.*XrXwXXX*XAX}.e.D 7 2 h s.#.< 1 # . ; ; m E.*XrXmXcXeXbX;X,X@X;XnXcXcXmXmXBXBXBXcX*X-X{.3Xt.R.-.zX3X:X;XeXcXrXrXeX#Xj.k.$X6X[.F.vXtXeXeXxXcXrXeXeXeXbXbXcXeXeXeXcXrXpXqXeX:X^ B w.kXnXmXrXrXvXH.1. .3X,XeXmXrXnX'.>X{.-X5Xy.B F a.h..X*XNXCXpXmXBXNXNXmXmXpXmXrXrXwX>X2.8.*XrXvXkXcXmXmXmX",
"cXcXmXmXMXMXMXMXMXMXwX.Xr.z 1.i.G.6.d.1Xv.oX-XuX:Xc.;.g.4Xx._.qXMXMXmX&XE. .W 1./.r.t.}.*XqXyX-X6Xg.<XF.7.'.x.dX*XuXrXNXMXaXaXrX{.d.=X<XI.I ) p.H 9 & . . . .                   X   . # q ..| ( Z.#X$X[.vX>X=XvXCXmXkX>XpXaXpXrXwXeX>Xt.n ( ].yXt.U.#XzXW.| p.q % # g n.|.eX=XD.W Z n Q.! E H e ; O 7 7 # .       O < ` s...7 u o o : r q.P 3 $ . * O & k s.^.K.|.'. X8X}.g./ 6.5X3X4.L.{.ZX{.$XT.P w 7 7 % o o W |.*XrXcXcXcXmXMXwXiX0XsX-X X^.O.!.KXKXKXLXJXIX@.p ( ..6 : p (.}..XqXqXqXqXeXnXCXAXkX[.R.g.>.v.*XyX.XbXeXeXeX*X.X&X>X>X$Xc.g.k.A.t.8.k.$X>XrXpXmXnX;XeXmXMXeXF.h.$XvXqXcXcX;XvX>X{.t./ d.:X=X-XtXqXrXiXiXaX>X$X:X:XH.D.H.D.H.#X%XtXCXMXiX*X@X[.bXvX7Xk.4.E.g.E.W 2.9X|.5.r ; 6 gX;XeXpX0XpXdXG.j q V i.t.t.%XlXD.8.V.C O + @   . % o y 6 H Z G M D 7 m m p { J D r n ( n.z.J.|.-X X .r 7 ~ /.+X0X0XXX.XZXbXaXwXrXXXqX>X3Xr.g.>XqXrXrXqXNX*X7XE.I g h I ` < 2 #   X - : e.[.qXrXeX*X>X=X{.h.{.kX;XeXcXcXcXcXcXcX*X.X.X'.h.D.d.$X=X*XqXrXpXpXaXrX@Xc.[.$X>X*X*XqXrXrXwXrXpXNXrXqXeXuXyXrXeXeXeXeXwXaXpXrX{.2.B  .3XxXrXeX;X:Xj.W 3.E.3X;XxXeXkX'.].uXNX7Xi.j ..W.d.=XyXCXBXmXmXmXmXBXMXmXmXmXcXrXiXuX-.2.qXrXxXxXcXmXmXVX",
"rXrXcXmXMXMXMXMXaXMXNX=XgXP W I.^.h.-./.P.G.OX+XOXG.t.6.U.g.h..XwXqXbX$XE.e.Q ( ~.4.) u.OX5X1X2XP.L./.u.8.P.8.2X2XOX}.|.|.|.=X1XG.U.g.u.p.k W ( A 7 # .   X   .                 X X . # r H G !  .W.SXK.$Xc.t.J.tXeX@X&XrXaXpXcXcXNX>XH. .1.qXwX{.3XkX{.lX-.E.! 1 % e 5.}.*X$XE...r i $...W ! M : ; e w $ . @   X   % 1 ..q.o.9 ; = o % W N.5 2 ;     % 1 w / d.5X9X|.|.|.8Xj.8.}.k.! ! R.7XD.g.r.Z J s % o + =  .=XtXcXBXmXmXmXpXwXNXXX7XK.L.GX#.FXJXLXKXKXJXFXs b (.x 6 : p  .<XqXqXqXrXNXvX;XcXcX;XD.3XH.'.dX.XXXx.uXeXeX*X_.'.;X>X.X=X6Xk.2.T 2.D.$X&X*XrXMXmXBX;XeXrXpXbX{.'.;XrXqXbXbX*X;Xx.[.4X8.8.4X&XtX].].rXpXaXaX,X%X<X8.T h.'.x.@X,XeXqXMXaXaXNX;X{.bXcXvXf.4.2.f.OX .^ _.8Xn 6 9 b D.bXrXpXaXwX].n.7 7 x k.9.}.kXkXJ.Y E e o   o O O O * O 6 r g C 4 q i D i i 9 m 9 e q Q Z ( 1.y.2X9.| $.K C ) >.f.b.gX2X6X&XmXAXXXqXrX*X$XZ.t.j.xXnXxXeXNXwXpX-X2X) g w b N $ . + X o ; Z ^.|.=X5X4X4X4XJ.6.H.4X:X:X>X>X>X>XkX>X7X X|.F.K.}.c.'.-X*XqXrXpXrXrXtXf.6.}.5X7X-XdXbX*XXXXXqXyXyXuX*X>X-X-X-X>X5X6X:XtXuX0XXX$XU.!  .<X=X*X:X$XE.r.E V./.zX1X:XlX:X'.-X-X.X8XV.b  .t.7.{.uXrXpXVXCXmXmXmXMXMXmXBXbXeXsXuX) 1.tXrXeXxXrXmXmXmX",
"rXrXcXmXmXMXVXMXMXrX*X=X<X^ B o.q.p.o.X.} G ! E ( 5.| E ..o.p.^.4X5XOXT.a.O.H b ~ C p p C G C m p p i i i p m m F F F F G G G H b e 4 b a 7 !.o.M 7 : .     . .                     . # $ e H G M } e.P.OX6.E  .$XbX;X&XcXCXrXmXcX;XbX>XZ.}.0XaXeXZX&XxX;X].:Xt.g & : G F.uX-X<XV.m : u Q.) p.n 6 % q N 2 $ . @   @   O 9 X.p.Q : o o % j M.W 4 o +   o > & 2 w Z 1.l.b.7X|.OX6.D.A.V.| $XZXf.R j 6 : % O O o ; 1.{.bX*XrXcXxXeXyX*X-X1XgXp.b FXLXPXLXLXLXJXIX@.n a.g.u.C e 8 } P.6X6X>XpXaXBXmXmXrX;Xd.#X[.ZX&XyX.XXXqXeXbXeXqX;X;XqXqXqXtX>X$XF.[.7XZXyXrXwXBXVXcXnXxXNXrXbXeXeXeXmXqX&X;XXXeX>X:XlXH.W /..X0X&Xv.XXpXXX*XlXZ.Z.Z.h.x.{.>XtXtXqXcXwXMXCXeX;X.XpXrXNX*X:.6.8X+XZ Q I.x i 6 Z n.g.,X;XrXqXXX2XW 8 e z.7X.X&X;XkXG...r : o o $ 1 & O o O M G G E 5.U Z Z n g n Z z z V g w e p p i p p J p 4 B 5 h E |  .P.}.ZXqXXXyX].{.zX4Xw.4.[.kX@X@XeXCXqXqX-Xz...p 1 & O   o X . % b } 5.2.2.0.4.a.0. .~.^.P.U.U.U.Y.E.2XE.g.z.n.t.g.U.2X1X1X1X5X7X-XoX=X3X6.t.G.T.OX}. X X'.v.x.x.F.}.}.J.c.Y.2X2XU.l.u.y.Y.OX8X|.Y.L.} E /.K.k.P.I.a...} } ..5.0.z.U.E.2X2X2X8XT.X.m ~.t.7.=XbXpXmXMXVXMXVXMXMXaXcXeXeXeXsX-XW 3.>XwXcXcXrXrXmXmX",
"pXpXmXcXcXmXVXVXmXbXtX=X5X2.B b r j 7 6 : & 7 2 2 r 7 1 7 7 e C W T I B j q & & 6 & # . & & % O O o O O O O O O O O % % % % % % % % & & : $ Z h j $ # O   @ X           .           . # % 8 K K 7 7 B U 2X/ r G 4X&XvXZX;XeXmXAXxXcXrXrX{.>XMXMXrXxXxXcXrXrXeX[.W q : r G.XXuX5X3.M > : ..1.5.Q 7 % 9 S J 1 $ . . . + o O 9 o.Q.K : = O 1 ~ N.C % o - = O = ; : b w P 6.x.K.gX) ;.S.w.( [.yXtXJ.! r r b N a o % I.=X-X>X>X{.*X{.:X8XY.GXGXX.*.KXLXHXJXLXPXJXFX#...n.T.g.I. .C g W 1.8.[.qXoX0XmXpXqXtXf.@X$X:X>XyXqXeX*X*XvXrXeXeXeXeXqXwXwXqX*X:X[.*XtXrXaXpXpXMXmXNX;XbXeXeX.XrXrXaXNX,X@XXXrX>X>X*XF.Z C.dX0Xv.f.*XqX*X>Xj.8.t.#X7XvXbX*X*X*XeXrXeXeXeXeXcXqXpXaXrXtX<XA. XOX( C N.C : 9 q.9.j.kXvXtX*X5X(.C 8 M T.uXXXeXnXlXl.~ 6 O o O & < e N e M p.~.(.e./ :.l./.^.L.L.I.gXT.n.-.( G m i u 9 6 7 e L #.p e N m M 3.t.}.'.x.$X'.$X<XU.E.y.j.R.%XkX*XeXrXNXbX[.(.M 9 : O O     . # $ 7 q 4 w w w n w 4 n n C Z E W ! W W I k n B B B I ^ ^ 1.1.4.0.0.4.e.a.W E E ( 5.5.1.) 0.4.4.5.5.( I z V P U I C n b n ! ( 2.-.( E p r I P V V B g q 2 7 q w j z V I W ( ! ( Q p p p. .d.=XtXpXMXMXVXMXMXMXMXMXmXxX;X>XrX-X(  .@XrXrXrXcXmXNXBX",
"MXmXmXcXcXmXMXMXcXvXZX=XtXF.! 7 1 & . O . O % # # & . O O O # 1 1 1 $ # # . . . . # # . . . . . . O O O O O . . . . . . . O O . . . # # $ < h h I 4 % O   o             .     X   . . . O : J J 0 & 7 w ^.2.e M L.7.'.vXcXCXBXeXxXAXwXmX>XqXMXaXcX;XAXxXrXVXrX7Xu.E 8 e k.XX0XuX-.G u ; C a.( o.6 % 6 S ] 2 1 # # .   @ o % p o.N.C 6 O O 7 q.N.C 1 O O O o - O K q.I h U W Z z j.<Xt.k.tX`.-X<X^.^ >.m.n.Z % 8 Q.Y.G.hX4X4XDX5XOX1.Q.p i PXLXJXFX*.LXJXJXHXK C ..1.n.6. X_.5XY.E ( 8.}.:Xv.'.eXcXqXbXx.@X@X'.*XeX*X&X.X&XvXrXcXrXrXcXeXqXqXqXqX=Xh.v.&XrXMXMXaXMXMXmX*XvXkX*X].pXpXwXrX{.{.eXCXeXuXqX.X(  .dXXX}.d.v.[.3XD./ j.<X5X0X0XqXeX;X*X;X,XkX[.&X*XbXrXrXAXrXF.e.e. XdXT.v E p ; J a.;.D.%X=X:X'.g.o.e 8 H T..XqXvX{.j.4.n & o - o O $ C ^ 6.+X+XP.4.I I / h.|..X].F.D.b.+X8XoX X}.E.I.2.-.U I j q e & ; s J D C P 6.z.) ) U.9.2.E.lX[.2.K.3XZXeXcXCX.X;X{.4X( b a : O & # # # . . . . # # # # . . # # # & $ 6 6 1 & & O . O O % & 1 1 2 2 7 e 9 6 8 9 & % & $ 1 1 6 1 1 6 7 6 8 & % % $ 1 & & O O = ; ; 6 e q 1 6 O O 1 < 1 1 & # . . . . . # $ $ 2 7 6 6 8 9 8 H X.E h.=X>XrXMXMXMXMXMXMXMXMXcXxX;X>XrX{. . .}.eXqXpXcXcXNXNX",
"MXMXmXcXcXmXMXMXcXxXbX*XyX5Xa.r & . .     . O . . O o X + @ . . . . . . X X . . . . . . . . . . . . . . . . . . . . . . . . . .   X . . $ 7 ~ Y M.j & O       X         .     X   . . .   O a a % % # < ^ N.e e ( -.D.@X.XeX;XvXeXcXqXCXtX*XqXrXcX*XAXxXwXVXrXyX}.a.e p 2.7X0XuX9.! i : j M.Z n & > # J N 3 < $ .     . O % & 7 ..N.M 9 : 1 B p.N.W r 9 6 ; - o 1 ~ (.Q.^ P  .4.D.H.2.k.AXoX*X5Xn.-.f.+Xs.h & : E ) ^ ) ) 1.T v  .!.{ @.FXPXLXJXJ JXLXIXJXw k o.z z I i._.0XXX|.W./.3X7X$Xc.c.x.qXeXvX'.=X'._.&XtX{.'.F.=XtXeXcXrXcXcXcXrXqXeX-XH.>.h.&XrXMXVXMXMXMXmXeXkX:X&XXXpXNXpXqX[.c.;X*XrXwXiXvXS.U F.&XlX#Xh.H.E.t.j.4XF.-XNXiX*X*X&X&X;X@XlXh.{.*XeXqXqXrXNX{.! ! _.oXm.Y g 7 9 M 1.J.lXF.k.Y.g.P r 6 1 ~ G.oXdX>X{.G._ w #   - o ; e ^ >.oXdXv.G.-.2.W.U.|.XXqXeX=XF.x.v.].dX.Xf.x.}.-X5X5XgX0.E H D 6 9 9 i M Z (  .! B p.! ) P.}.F.8.<X$X-X*XqXNXeXvX,X:XK.G #.N $ & # . .   X X X @   o o X +     . . O O O O O   X o o + @ . . O . O O O o o o o       . . . . O . . .       o @ O O .     + o o o o % . O O     O . O O .     X X X       . O . % ; O : 7 M.+.W F.*X*XbXVXMXMXMXMXMXMXmXcXxXvXvXrX].t.1.J.>XqXmXrXrXcXcX",
"MXMXmXNXmXmXVXmXCXcXBXwXwX-XP.G & .       . . . .   X X X   . . .       X         .             . . . . . . . . . .             X X X o . 6 $.V N.j #         @         . .   X   . . .   o 8 : . . . $ 5 B.b 7 C ( i.Y.-XtXh.$X&XqXrXyX.XdX*XuXvXxXnXxXeXpXpXqX.XY.C r I E.oXoXG.( p 8 1 M n < . * . s n 3 $ #   o . # . O O % 4 !.p.^ j 7 q C P.m.5.! Q m ; = O $ G ~.gX9X.X*XdX6X4.1.$XqXrX.X8.W I h 4 1 % : B.!.B.X.%.!.M X.jXJXLXKXPXIXJXJXjXKXFXPXi M N.N.z g p M.c.=Xv.h.g.}.*XqXrXeX>X@Xv.>X=X&X:X_..X-X>X1XH.g.D.=X*XrXrXrXcXcXmXeX:X<XS.4.D.bXmXMXmXcXmXmXrXeX$X$X&XqX*XqXrXqX:Xh.#X{.qXwXpXtX3X;.6.c.|.8XF.j.r.j.lX8X8X|.uX0X].F.[.lX>X@X3Xg.{.*XuXXXyXXXpXAXS.1.v._.;.B 1 6 E 1.f.NXZXg.8.Q.o.q 1 7 n a.2X|.|.}.{.gX_ 2 O   ; & r ! d. X=Xc.T K..XyX>X-XqXqX&X:X#XD.'.>.>.hX2X-.6.:X.XuX-X{.F.}.<Xz.1.W b 7 9 i r b ~ F 9 K a.:.i.2.-.b.].*XvX].qXCXbXeXqXdX^ o.%.q # O   X X X X . .       X X X   + @           o o X         . . O O O O O o . O .       . . . . O O O O @       . .             O O . O . % . .               X X             . . & # 2 V (.e.1.].qX*XbXVXMXMXMXMXMXMXmXcXxXcXcXpX*XE.) j.6XrXmXeXeXrXcX",
"MXMXmXmXmXmXBXBXBXrXVXMXiX*X<X5.1 . .   . . . . . X X X X X . . . X     . . X X O .       o o   . . . . . . . . . .             X X o - o 8 #.z N.j O o   .             . .   X . . . . o + > % %   @ * < L m 7 n G C e.Y.1XT G.@XqXyX].f.8X=X[.>XvXxXNXcXrXCXqXwX=X3.r b +.Y.b.z.( M p & & S 1 . o O 6 K q 1 . X X . # . .   O & C a.n._ w 7 7 U n.^.u.a.e.F e % 0 q V l.5XoXCXwX{.t.1.J.$X.X5Xe.g 5 j m t 0 s KXJXPXFXFXjX] FXPXKXPXLXJXKXJXHXFXKXKXN @.#.V P N.C q n 4.2X4Xh.[.*XwXaXMXqX@X[.x.,X{.>X&X_.*X.XF.4XU./ 2.[.eXcXcXcXrXmXmXrX>X3XS.y.%XAXMXMXmXnXcXrXrXeXF.}.*X*X&X].XX*XZXh.Z.3XuXNXyX{.#XJ.2.6.|.{.$Xg.^ t.=X-XF.>.x..X}.k.d.[.>X*X$Xh.[.*XyX*X&X>XqXrX6XD.v.b.^ q $ b i.5XrXrXv.7.8.p.D & & 7 w 0.h.d.d.g.d.;.B $   @ : e ( n.K.8X7.t.-.k.tXwXoXXXrXeX,X:X3X$X7X{.d.W.u.1.k.-XyXrXeX*XtXtXuX*X7XJ.3.C r p 7 q w r : 9 ../ _ V x 2.x.x.#X6XeXqXeXqXwXqX2.W (._ 1 O + X X X . . . O .         o                       .     .               . .                 .         @ o . . .   X o . O O % O O     @ .   X X   . . .   X X   . . .   o o . # # 2 T 2Xi.2.].qXqXcXVXMXmXmXaXaXmXmXBXcXmXmXwXyX4X^ 1.R.vXeXeXeXcXcX",
"MXMXmXmXVXVXBXBXBXpXVXMXMXqX:XL.q . .     . . . .   X X X   . . . .     . . X X . .       .                                   . . . O > 8 p ~ Z N.n % o . O .           . .   X   . # . X o ; . O   @ . # $ 6 1 r K e b x 8.x (.1X&X.Xv.;.A.J.g.[.,XcXVXmXrXNXwXaXqXU.F u p p.2.( E H J O . t 0     # < S 9 %   + X X o # . . . & 2 ^ i.a.Z 9 ; : H n.K.OX4X}.8.w $ 1 q M (.8XXXsXqXF.Z.U.1.T  .G q I Q.!.L 6 s HXHXLXKXFXFXjXPXPXIXPXLXLXLXLXPXjX=.e 7 S M w n n ~ M.| I V r.<X&XrXiXaXMX*X$X3X[.:X@XZX].].*X'.h.E.C.W 2.$XtXcXcXcXcXmXaXpXrXxX[.H.kXCXMXMXcXnXcXrXrX*Xg.#X>X].|.$X*XXX*Xc.1.S.=XbX*X[.h.4Xt.-.8XoXtX}.4.t.qXAX9./ g.d.) 1.g.ZXqXrX*X].{.XXvX>X2.K.tXrX*X=XK.1.r & e X.P.-XNXbXd.d.m.5.9 O : 6 r p.v._.G.U.A.5.4 #   . 9 ~ g.OXg.u.C C.<X{.7X&X&X*XrXcX;X,XkXvX].tXh.8. .y.>XqXrXeXeXnXCXeX*XcXnX&Xh.9.9.~.1.^ j r e 1 g ` w 7 j Z i.T W U.ZXeXqXrXwX.XA.:.+XT.5 $ .   o     . . 0 . O O . O . . . O . O O . . O % % . . . @   o X X     . . . . X @ X       @ . X . . . . . .           . . # % .     X X     X o . . # . .     . # # # .   X X X O < 5.T.y.6.v.qXeXcXMXmXmXmXrXrXNXNXBXmXMXMXiXwX6X2.4.t.&XqXeXeXxXcX",
"MXMXMXMXVXVXBXBXCXmXMXaXaX0X=XP.n $ %     @ . # . .   X     . . . . X o . . X X . . o + . O                     .             O % & 8 8 i D C E a.n %     .             . .       . . . X X O O   @   . O O : & 2 ] i p 5 N.g W E.c.h.Y.4.r.P.4.t.D.eXBXrXrXrXwXiXuXE.X.; ; M Z n E ~ K % . . #   @ # < 1 0 O @   o X X . . # # % 9 B T 0.~.M 8 : : Z 8.c.|.uX_.1.C 2 6 6 p P 2X|.8X2XE./.e. .+.M M q.s.U q $ y HXFXKXPXPXPXKXKXJXJXKXLXJXJXJXKXJ e Z (.{ 9 C ! h Z 5.Q.p. .r.J.=XNXiXwXXX{.#X#X:X:X:X7Xv.$X=X'.H.K.r. .S.zX*XrXmXcXcXcXrXwXrXcX;X,XbXcXmXMXcXNXcXcXcX.X9.<XdXv.;.}.*XqXqXZX2.r.F.&X{.$X>.K.j.) t.4X.X>XS.j.NXyXt.w.E.k.4.U.J.|.0XMX*X=X{.].>X$X4.4.@XvX.X=XgXE 6 % 4 _ 4X.X&X*Xx. XhXs.1 O % 9 B n.|..Xh.-.1.o.1 & . . r q.b.x.g.r.C +.<XZXtX*X>X,XeXxXkX,X,X&XtX7X9.t.y.R.bXqXrXNXcXeXcXCXmXmXcXNXeX].v.8X X2X^.p.! ! z g 2 1 6 7 !.p.C Q Z.-XXXNX0XoXE.6.f.+XP 7 % o + X   % & s & % % O ; O % % . # % % O * . & & # . .             . . # . .       . @         . . . . . . . . X     . . # . .     X X . .   + % & $ # # . . # # & % % O   X X . < n. XA.8.h.=XeXNXBXmXBXmXNXNXmXcXcXmXMXMXaX0X>XJ.U.2.F.>X,X;XeXeX",
"MXMXMXmXmXcXmXmXmXrXMXiXiXNXSX) Q.r % . * * . . # . +   O % . @ .     o     o o       + . O   * . % % . . . . . . . . . O .   O O . # a 6 7 %.C Q.k : o . O   X                     .         .     . .       . 1 N a q r A A j /./ x /.^ ) ( 3.p.I c.bX*XeXbX*X].}.W { > = $ X.n Z ~ ~ e # # .   o . # & y y O   + +   . . # : o 8 ' x / a.T.1.m 8 8 F n.|.XXuXb.L. .n e 7 q q b g r M } p.~.(.{ p Z ( W b s O =.S JXLXKXJXPXJXFXJXLX&.=.LXFX&.7 o.+Xf.7 8 o.I.+X6.Z } V.E.U.Z.F.eXaXMX'.c.9.}.{.=X.X8X6.U.6.6X$X6X4Xy.w.R.NXaXMXBX;X>XF.x.;XeX;XAXeXeXcXCXrXmXmXrXbX@X6.H.:X{.J.H.;XAX*X;X@XD.h.F.5XF.>.4XK.U  .C.6X{.g.g..XZXU.y.6.6X$X}.E.Z.XXwX=XOX7.K.h.6.K.:.zXH..X5XL.Q 6 e h 0.Y. XF.c.;X{.hXP 2 . . q z.[.lX@X*X X..e % ; % 9 I 6.7._.uX{.| C.E.&XrXrXZXlX3XH.SXR.SX3XzXR.t.Z.lXkX&XAXeXNXqXrXeXcXrXpXmXeXmXBXF.lXtXyXbX.X&X8XK.4.W C 9 : D $.#.g 0.1X'.&XqX&XG. .:.E.a.M & O + X   @ . s 0 . % . . : # % # & . O O . 6 $ 6 # y . O O * * . . % . . . .   @   @ @       * . * . . % . # $ # . . # % . . . . . O . % 0 O 0 s 1 1 & 0 & 0 & . O ; % N *.> O O r hX=XG.4.t.<XZXcXmXVXVXBXNXNXmXMXMXMXMXMXMXpXNXtXH.t.) U.6X&X,X&X",
"MXMXMXMXcXcXmXmXCXcXBXwXaX0X4XU u.Q 6 O # # . . . . O * . % . . .                 .   . . . . > # 0 6 . . % % . . . . . O . . . . . $ a i m X.Q ~.B : O . O   X                                 . . . .   X   . # 7 S < e 9 J b Q.U B Q.W  . ...p.B -.6X>X-XZXF.7.i.B a O . . a r n G H e $ . .   X   . # > > . O     + O O & s ; & b (.U / b.Y.a.} 8 6 ! T. X_.8XhXgXa.| Z M F M b j B W 1.8.4.G w W (.(.q 8 % PXHXFXjXJXIXFXHXFXjX@.=.HX=.&.1 K !.+X+X} 7 n 4.=X|. .C W t.R.@X=X*XaXmX@X#Xj.g.g.|.dX5X/ r.) K.{.@X$Xg.4.R.yX0XiXrXvX:XH.g.;XeXrXeXnXnXcXrXVXCXAXcXeX'.6.F.>X-X@XlXvXrXqXCXxX&Xg.<X5Xx.c.Y.F.G.| ( c.*X{.[.*X>X#Xt.K.lX@X$Xt.8.'.].3X-.^ ^.+Xf.F.c.t.<X=X|.a.M 6 M i.T.c.G.h.F.eX&Xn.c $ . . 2 c.*XkXkXqX_.B % u : 7 E l.4X<X'.*X.X2.S.4XkXMXpXF./ ) L.( ( r.w.) U t.:X&X*XcX*X*XtXqXyX;XrXrXrXVXCXNX*XF.{.XXwXaXpXpXeXqX7X6XW.O.e b r e M B a.j.7.DX=XJ.U.P C.~.M : O @ X X   . % . . y > . & 0 & & & & & y d 1 1 6 & d : % O % > & # # # . . O         @   . . O O ; : : 6 6 & # : d y % . % . O . % % # . & : 0 9 $ # # & # t 9 % o > : q r 8 % % k  XXXF.2.r.R.vXcXmXVXMXMXNXNXmXMXMXMXmXmXMXmXrXrX&XH.1.w.3X=Xc.vX",
"MXMXMXMXNXcXmXmXBXcXBXiXaX0XE.^ j.a.7 & . . . . . & & s O O . . . % # . % % . O . . % # & # % : # % : % f % O . O * O . . O .   . . $ e N H H ! I.W 6 o   .                                     . .           . # 1 @.2 K 7 J r 5.( n X.! I ..W q.C g V.8X'.}.6.)  .j e 1 % O : J p : : 0 > . .       . . # . . O     O O O % s s 1 r B N.T 4.I.+XT...m 7 e E u.E.c.5X8X Xv.d.9.^.P.G.|.-XXXqX=Xi.x >.T.a.j 6 : @.IXLXJXjX=.@.FXKXLXPXKXIX: % 7 !.o.V U ~.^ k W  X7XE. .U 8.@XtX.X&XZX>X>X7X3XE.-.k.7X{.7.K.3.r.7X-X6Xk.9.#X7X'.rXqX*X@XlX[.bXqXmXqXmXCXrXeXVXmX&X.XXX_.f.{.yXyXqXtX.XtXNXNX*X>X6.J.8X|.U.8.F.8XZ.9.`.sX*X&XvXeXyX_.8.E.J.d.h.H.4.8.E.-.P P.].oX5X4X2.4XdXF.3.w e ~ gXb.6.G.c.:X:X<X5.4 $ # % r K.xXkXnXpX'.r O = 8 5.+X-XXXtX@Xh.[.H.:XkXeXMXrXA.k j } M r C Q 1.9.{.dXqXqXyX>X}.J.$X8X.XyXNXmXwXNX:X#XlX;XeXrXbXbXbXeXwXaXNX-XOXR 4X/ w 7 p M 5.3.P.OX7X$X1.| V.n 8 o . . X   . . . & y : # & &.9 7 $ & # . # 6 6 # # % O O . O > > # . . . . O O O * . O O O ; . % # % & 0 s 0 : u f f > ; > O O O ; > ; ; 8 8 9 6 & . O O % $ $ % O o ; e m & % 7 ( oXfX].7.k.#XxXmXMXVXMXMXmXmXmXMXMXMXmXmXMXVXrXrX>X3XC.) $X=X>.ZX",
"MXMXMXMXNXNXmXmXmXrXmXpXiXyXj.1.K.E.B 1 # . @   . & 1 S O   @ . . 0 & . % % . . # # % % d 6 & # . O O > f * O . * > * . . .   . . # $ 6 p D } W I. .6 o                                         . .   X     . . . # J 1 S 2 9 2 V N.7 N $.c _ P ~ G 6 H /.x.8.) 5.! j j a & O O J a O o ; > .           . . . . O . O . O O O & a K 2 4 E (.h ) 9X9XT.i.C w w ! -.R v.XXwXAXXX.X5X|..XyXpXiXiXyX0.T hXh.h X.6 % 1 =.LXPXJXFXLXFXPXPXJXPXe a 7 ` I k 7 q I./. . .F.:X6XJ.Z.H.*XrX*X>XlX3X=X=XH.U.( 4.{.].'.SXy.-.=X.X=Xc.d.|.3Xc.tXbXkX:X@Xx.*XrXMXrXeXNXeXcXqX].$X$XdX-Xx.x.v..X7X_.d.F.&X>X.X>X9.J.:X8XE.1.9.}.6X>XyXpX*X*XeXpXpX.X) i.K.h.@XlX) w.K.j.I u._.yX8Xc.h.OX+Xd.Z q p ! P.d.;.J.{.ZX}.y.Q 7 # & 1 } 4XvXxXcXpXc.e > ; m k.uXNXwX*XF.j.%XkXbXeXqXaXeXT.B q r Q C r E ^.8XuX0XiXwX*X$XU W g.8X.XyXqXXXNX&X4.r.H.{.eXtX&X&XtXyXwXwXiXwXXX-X.X X4.Q b w Q } n e.5X5X^.z 3.! 8 O . . . . . O % % % 0 6 $ t $ e $ 6 & & 0 s s 0 : % > * * . % > % O . . O O . . d . O . . . . s 0 6 # & 0 : : ; % % O O O O O O ; > : > d & 6 6 y % * % 0 7 9 0 y ; % p @.& $ w n.9XfX.Xf.{.,XxXmXVXMXMXMXmXmXMXMXMXMXmXmXmXAXmXNX>X6XE.^ #X*Xd.ZX",
"MXMXMXmXmXmXmXMXVXrXBXpX0XdX-.8.:X5X4.w % o @   O & 2 e O   @ X O y % . O O . . . . % # y > % . . % . O > ; O O > * O O O . . O . > # 6 7 n M.^ z.s.9 O   o                                     .   X X     . . . O & $ 7 a 6 1 5 B.1 7 B.c I ~ B J : 9 a.g.U ..o.~ C B b $ O . : d y O o o                 . O % % # . . O . . 6 a #.4 g o.I U k.F.5X5X_.d.) ( Z.h.>XtX0XsXsXyXuX-X>XtXeXeXrX>X1.Z n.:.P !.8 O < K KXPXPXLXJXLXFX@.6 K w o.(.P I ~ i 6 Z ~.T.G.{..X&X>X:X>XrXpXeX=Xg.Z.=X>X7.8.W 3.=X*X{.6Xj.-.>XqXdX[.v.$XzXR.=X>Xc.H.c.h.{.vXuXbX>X{.>X;X&XF.E.j.OX6XG.) ) ^.E.8.U ^ 2.<XlX&Xf.lX{.|.2X3.W U.'.*X&X&XbXrXqXrX0X=XL. .c.8XH.k.g.1X}.D.! i.J.5XH.>._._.;.U q 6 q Q r.k.c.=XqX-XU.E p % % 1 g P.lXkXxX;X>X8.2 % i +.3XqXpXoX.X,X:XlX;X&XeXeXmXrX Xi.z W 9.n.k ! OXXXwXiXiXiX*Xk.r q 1. X.XuXqX-X6Xj.3.SX8XZXZX*XqXeXrX*X}.|.tXyXuX].f.dXc.}.Y.T B q 8 m y.hXI.V 9.a.6 O . . . . . O O . . d d $ 2 2 #.r 7 $ & 0 # 6 % ; O >     . O O O * O . * 0 : & ] 0 % & & # & s & & $ $ $ 6 0 : # # * * # . # . # % # # > & & 1 t 7 6 $ 1 1 # % > > 6 4 2 1 $ g ^.9XoX Xc.>XcXcXmXVXMXMXMXmXmXMXMXMXMXmXmXrXCXmXrX*X$X4XT @X*X{.bX",
"mXmXmXmXmXmXMXMXVXpXBXrXXX7X/ j.>X*X2XI ;     O . # < $ .   o X O * O . . O . O . O O . O O . . > % O . % % . % ; % O % ; . . % # > # 6 1 j M.^ d.I.e ;   + @                                   .   X X     . . . O . 6 2 @.9 6 3 L 0 # ' U c o.q a > & _ 4.n X.F ~ ! Z w $ % O O 0 u ;       .               O > & # # % O . > % 6 D { q w  .I.2.7.'.dXfXoXU.P.zX@XkX{.v.].].XXeX*X>X>X;X;XrX>XW h T :.(.X.% > < l KXJXHXFXjXb D #.J #.E I ) x | !.F b w Z /.<X{.>XuXeX>XrXpXwX*XF.:.8.'.:Xd.G.| y.7XtX'.$XD.7.*X*X&Xv.f.d.8.8.$X[.>.k.Z.J.[.{.[.=XlXh.>X{.>X$X6.Y ;.T.2XT C Q.a.^ V ! ) U.8X.Xx.&X-X=X6.I W U.'._.9.k.kXyX0XwXXX|.w.W d.F.Z.8.F.>X-X$Xi.! j.J.H.g._.b.h w 1 $ p e.y.3X&XeXNXoXT.j : o ; e / 8XkX;XnX;X4X) 2 1 Q P.=X.XyXqX.X&X>XvXxX&XeXeXcXyX-X|.m.G.oX9X2.^ h.-XsXiXMXmX*XJ.M e )  X.XuX'.3Xk.2.-.R.x.'.{.{.>XtX*Xv.9.Z.=XXX.X-Xv.'.-X*X*X8XI q : : G I.V.8.b.^.r % . O . . O   . . . : 0 7 < 1 S 7 7 6 8 0 # 6 % % O > O O O . . O * O . * 0 $ # s & # # & 0 0 6 # # $ 6 9 $ # # # # . . . . # # # # # . . s 6 $ 7 e 9 1 $ $ $ & > u S M q & $ z ^.2XK.j.g.>XmXpXaXMXMXMXVXmXmXMXMXMXMXmXmXmXVXaXrXeX=X4X:.[..XnXeX",
"mXmXmXmXmXmXMXMXMXMXpXyX-X[.2.U.eXqXdXi.8 o   O . # # # # *   o o           @ @   O . . . . . . * . . y % # . % % & % % & # # % . * . % 6 r } / >.^.r ; o   o                                       X X     . .   . # & 1 @.8 % $ 1 d $ z q.5 K e & 8 6 B W n H M H W _ j 1 % O ; & 6 6 O o O . . .         . . & 6 & # # O @ , ; 8 7 K K r W ^.A.6.6.c.5X5XE.S.:X,X%XH.D.D.$XZX&X*X>X;X;XcXmXeXT U h.Y.(.q O , . 0 =.KX=.& L !.o.o.o.B.V ( } w 7 M.T.U.E g  .A.@XtXrXrXeXeXrXwXbX@Xj.g.h.'.c.<X4.S.=X*Xh.1X:X].yXyX>X'.c.g.6.g.=XtXv.#XZ.r.8.y.t.Z.H.c.{.&XyXtXh.;.2.g.4X6.B } 3. .1.L.S.J..X*X'.f.tXZX;.T t.F.-X_.t.r.y.D.;XeX5Xc.T 2.k.;.D.D.J.{.qXdXS.W 2.<X<XK.T.0.5 3 # & M V.R.kX;XeXdX X0.g % o = i G.tX&X*XMXrXl.C 1 q -.+XDX|.c.F.@XtXqXqXeX.X>X&XqXrXsXqXZX*XsXoX$X2.| W.>XqXcXeX&X%XE j -.2X8X X) 4.g.x.].*Xv.c.9.6.y.j.c.x.h.'.{.'.F.4X}.7X].AXqX=X0.C 6 : 8 m p.T. Xm.} 9 O O % . . . . O O . % 0 7 $ $ & : > > O 0 0 & # % ; O O . . . . % . . : 0 1 1 9 6 1 $ 9 1 1 1 d t 6 $ $ 0 & & 6 6 & # % # > : % % & % # s 6 & & 0 6 & % 6 6 0 & # 6 e 1 . # k a.~.a.e.2.&XMXMXMXMXVXnXbXmXMXMXMXVXBXmXmXBXMXMXpXbX*X6Xd..X*XNXeX",
"mXmXmXmXmXmXMXMXMXVXrX*XlXg.r.J.eXwXwXY.p = = . # $ @ * & f . @ @     . . . O O O * . O O > O . . # % y . : % . % 6 6 # # # # . . .   O 9 b C ) :.^.r : o   . .                                                   . % . & J 0 & % . y 1 c N.k N S & 6 p k Z C r H n z o.A 7 % . % # 7 s > . O O . .       X   . # 0 t # # % @ O u a C n #.H B W /.G.g.7.d.Y.L.) D.,X3X#Xt./ 8.<X#X:X:X;X;XcXmX;XSX8.1XG.W r : O % # & # O % ] $.} C w g W I N.F 8 F OX|./.e.^ t.:X*XqXqX*X*XqXNXbX{.6X#Xv.'.|.}.8.J.-X].;.J.ZXrXXXqX=X$X6X#XF.lX&XdX{.6X6Xg.t.t.t.g.d.:Xv.ZX*XXXZX8XA.6.-X5X3.E 4.R.3X1X#X8XqXyX7X7.XXbX:XH.#X}.tX=X4Xy.E 4.kX=X2X8.g.Y.gXk.D.4X3X6X.X{.4.w.9.4XU.r.~.h 4 1 # 7 C S.@XxX*X>X|.9.z q O o ; r 8X*X{.&XpX-XW 7 # 2 ^.9Xb.d.-.I.8X{.dX.X].x.J.Y.$X-XtXtX.XqXiXpXNX<X} } @XBX&XkXAX%XL.^ ;.G.}.k.E w.[.yXCXXX{.|.c.D.4.2.x.&X-X.Xv.d.:.U.gXK.ZX.XeX.X^.I w 9 : 8 C a.m.>.(.Z & . O . .     . % % # % 0 6 & 6 % O O O 0 0 & & > > . . . & % # # # % : 0 1 9 & 6 0 & 0 $ 6 6 ] s # # # 8 : % % % % % : 8 d u % % : : & 6 $ & # : # % & d 7 9 7 & # & % O # w U } ..O.3.&XMXMXMXMXVXvXvXmXMXMXMXVXBXBXBXcXmXVXmXNX.X$XF.eXeXcXeX",
"mXmXmXmXMXMXMXMXaXVXrXyX[.;.r.4X*XMXwX5XQ.: ; O # . X o & ] > O y ; O % % . . % . % : . % 0 % O . . . . . . . # % # * . # . & # . @ @ O : D n I v n.M : O   . *                                                 . . . . . % @.# O O . 7 h U A r *.1 1 &.4 Z ~ 4 p e ` H r #.O . % $ 1 9 0 & . # . .     X     O . 1 9 0 # % @ O 9 $.Q.B 7 H Q z I 4.1X{.d.4.G b 2.>X:X$XK.2.) 3.E.K.H.kX*XeXeX>XA.8.7.6.e.n 7 9 q b 4 1 : % & e N 7 e b Z ) -.~.p m ;.].|.=X-X[.@XvXBXNX{.c..XeXrX.X=X8X-X-X}.g.c.lX*X&X8.3X*XrXrXqX@Xc.SXF.'.&Xh.c.$X=X-XtXqXuXXX.X].*X*XtX=X-XyX*XK.9.qXyX$X#X=XeXrXrXeXbXrX*XZX{.*XyX=X=X7X>X-X'.6XG.Z 3.ZX{. .3.OX5X<XJ.Z.j.$XZXv.4XC e.5X5X .} { 1 $ $ r E W.{.cXCX&XH.i.n $ % O : 2 W K.|.9.D.=Xm.w # # t _ n.l./ B E 0.T.9.hXd.:.a.) i.t.8.R.J.[.bXXXwX$Xm D :XMXxXkXkX>XY.6.d.8X4X8.( j.*XqXwXcX3X#X*XtX{.h.>X*X.X.X.Xc.8.C.| e.K.lX*XZXI.) ) E i 8 q G Q.:.z.2.7 O   o       . O . % % # 9 6 & % : y % 6 & % % % O . % # & : & % % ; % % % # # & & & 0 % % : 0 > % . % : % O % % % 8 d % % ; ; % % O % $ 7 $ & 6 6 & 7 @.e N r 7 a 6 # ; % ~ z j p F ! >XiXaXMXMXmXvXvXmXMXMXMXMXmXmXmXCXmXMXaXXX*XZX[.;XqXeXrX",
"MXmXmXmXMXMXMXMXMXaXNX*X6X;.8.H.eXrXrX>XI.M : ; # & X   . 1 6 % % . # # # % & % & & 0 & & 0 : . O @ @ . . @ * * * * > # & # > % .     O 8 N b Q ^ N.A & o @ . .                                       .     X   . . . . . O ] % o o O q V W A 7 %.b 7 N H j } w $ 6 N A b S ; = # # % % & 1 & . . .           O # # 0 s : . O % $ w ^ 5.M C Q.e.W ) D.3X<Xj.! E c.>X*XdXZXJ.8.^ 1.2.g.{.*XeX;X,Xc.g.c.gXa.n e $.I ( ( ! K p 1 a { b H G B 0.Y.G.(.B v v.-X.X{.f.v.&XrXnX@XF.&XxX*XeXvX-X.X=XF.>.x.tXuX*Xg.$X*XyXrX*Xv.d.[.c._..Xd.h.&X*XqXrXwXpXrXwX0XqX*XtX=X*XqXyX6Xg.*XrXvX,XqXpXMXaXpXrXrXeX;XeXbXyX.X'.[.F.ZX.X>X$Xr.j.tX-XE e.2X'.d.d.6.9.c.F.'.1XZ (  X1XB #.s % % $ g ~.<X*XVXrX&X8.G 6 O X O 9 Z I.Y.Y.j.j.G.-.e % . # j Z U h 7 q C W E V T a.B b p.( ! } V.y.}.uX0X4XG } 6XoX*X'.{.lXD.,._.5XA.4.) SXZXpXrXeX3X%XqXrX*X.XyXNXtX-XdX}.A.3.b n S.$X;X.XI.2.;.^.q.e e 7 X.^ T.d.q .   X         . * > 0 # & 8 s u % O O d 6 # # : : % . % 8 8 : % % % % O % % ; > ; O ; ; O O O O . . O % O O % % % : 0 % : > > ; % % % & 6 6 9 s e 6 a 9 & 9 t a ] d % ; i N.U g r b e.>XpXpXMXVXmXnXbXmXMXMXMXMXmXmXmXmXpXMXMXpXeX{.d.*XqXeXrX",
"MXMXmXmXMXMXMXMXVXiXmX&XzX2.-.c.NXqXcX>XR.e.7 : # & @ @ & $ e 6 & : 8 & 8 d s t u 1 u 9 & d s 0 .   . . . . O . . . O . . . . . % O . : 6 e i X.W N.%.6 O o O .                                 X   . .     X X . . .     O u 6 o o % 7 M G J q I o.6 & #.w o.A % ; & e b N s O . O     . 6 8 # . .             . . % s 0 % . % % 7 B a.a.^ 3.W.Y.g. .( k.8X=X-XqXwXwX0XwXpXuX>Xd.7.c.{.tX*XeXqX*X>XF.U.5.C q H ^.2X2XP.~...w n Q.P ) 5.C  .7XyX$XJ.4.8.H.3XS.T c.&XxXbX;X@X:X,XeXrXrXwX-XF.h.h.'.eXeXtX{.>X:X>XeX*XF.c.{.'._.*Xx.'.tXuXqXuXeXZX>XvXeXeXeXcXeXqXrXqXZXk.,X;XnXeXeXmXMXMXMXaXcXxXrXrXrXeX&X{.F.g.tXwXqX*X$X@XrXyX4.3.E.g.>.c.F.c.1.j.-XtXt.1.2.P.g J : O % 2 h gX=XeXCXqX7X) 9 .     > a o.(.w.4.P./.(.B $ O O O % & 2 1 : ; 6 7 6 6 r K : 8 J M H F i ~ n.b.+XT C ..hX_.dX_.c.E.9. XyX]. .| S.zXeXrXaXmXlXzXeXrX&XvXwXaXuX.X5XF.K.t.( W [.;X;X$Xz.Y f.+Xm.) 7 : i F ^.z.4 O   X o         @ * > . . . 0 > O O > 0 : % % % O O % J ] J s u : : ; O = = > > ; O O > = = = = O o O O . . . . . . % # & 0 0 & # % % O O % 8 s 8 & 0 O = ; % : 0 = o ; m ^.6.U W n u.>XpXrXmXVXMXmXBXmXMXMXMXMXmXBXBXmXmXMXaXNXtX'.c.;XqXeXcX",
"MXMXmXmXMXMXMXMXMXMXpX>X<X8.,.'.NXeXeX;X=XE.b : % # . . 6 1 e 7 1 6 8 & 6 e i 7 9 $ 6 $ $ 6 a 8 % # % % % % % % % # % # % # % & $ $ % 6 1 7 8 { j E B.7 . . . .                                 X   . . .   X     . O     . & 0 . o % & e r J b c M.6 % J g H #.% ; O & a S J %   + X   . > 0 : . . .           . . . : 0 y 6 & % & r E I.P.) t.OX4XW.3.8.x._.yXuX0XCXaXiXaXiXCX*X{.:X>XZX*XrXwXmXNXF.t.e.5.E  .<X=X.Xf.c.I.V h ^.:.7./.} C {.NX].ZX<XU.E.j. .4.{.eXxXvXvX,X%XH.vXrXiXaX>Xh.d.5XqXqX.X*XcXbX:X[.=XvX&X5X7X7X&XZX.X&XyXyXyXtX=X:XF.%X>XtXrXNXrXXXNX*X>X{.,X,XnXcXcXcXcXmXVXMXcXeXpXrXeXeXeX>X$X'.XXiXiXqX&X>XrXuX>./ 1.-.c.SXJ.U.3.S..XuX-Xk.P Q.b e O O & q I Y.:X*XrX*XU.I &   X   O 7 I 2.( 4.^.a.~ 2 $ & $ $ 6 9 b H H D D H b M m 6 i 7 q r w q i p x Y ( o.j _ n.>.f.>./ U 4.2XdXdXy.| S.#X>XNXMXMXvX:X;X;XvXAXqXqX*X:X}.D.c.$X#X:X;XcX;XlXA.T c. XoX+XG i ; p a.5.2 .                 . . & 1 $ 1 1 1 1 1 1 1 1 2 1 1 1 7 2 2 7 2 2 1 1 1 6 : & & 6 & & 6 & $ & & : & & & $ < 1 1 2 < < 1 < < 1 1 < < < 1 1 1 1 1 q 2 2 7 & 9 6 1 1 1 % % 9 } 2X}.J.U.| S.>XrXcXmXVXMXMXMXmXmXMXMXMXVXBXBXmXCXMXpXrX*Xc.$X>XeXeXcX",
"MXMXMXmXMXMXMXMXMXMXCX-XK.8.>.*XrXcX;XxX*X8X .7 $ # 1 $ < 2 q q 6 6 1 1 1 1 1 1 1 7 7 1 7 6 1 1 $ $ $ $ & $ & $ $ $ $ $ $ 1 1 2 2 7 1 2 4 r : 8 w w ` 1 . . X                                         . .           @     O # 0 O . O . : 6 a r w %.8 % 6 b q S # . % : s i A 7 o X     . % 0 u O . .   .         O . . & s d t N 1 ; 6 I ^.l.R k.k.H.#X$Xh.-.t.#XF.7XZXeXCXpXwXCX*X>X:X>X*XpXiXpXrX&Xh.L.8.h.}.=X*X*Xx.h.I.Z g t. X-X8Xe.Q j.{.tX.X.XlXR.4.w.U.:XbXeXeXcXeX%XZ.;XBXaXpX&Xg.d.7XbXqX'.{.mXrX=Xk.h.{.{.=X[.{.F.$X:X@X>XeXtXtX{.H.j.H.,X;XeXeX*X].eX*XeX;X[.kXxXBXcXxXeXmXMXMXpXqX*XeXbXbXeX.X&XvX0XiXaXiX.X{.&X>X_.[.k.r.3XS.B | y.k.v.qXuX XZ %.q 1 O : b h ( E.6X&X*X|.W 7 % O . % % M 2.d.k.E.i.Z 1 $ 7 w w W 4.i.z.Y.OXJ.U.E.1Xh.u.3.4./ T :./ U k q w 4 q K 1 r ~ _ ^ ^ I j M W K. XG.j.1.t.$XtXeXqXrXeX$X[.qXcX@XH.{.8Xg.9.].tX*XeXeXcXeXcX'.9.8.OXdX=Xu.M : 8 ~ E &   .       X X   . # $ 3 k W U T :.:.T / U Y U ^ ^ ^ ^ Y Y T T ^ ^ ^ ( V V x x P P P U ) ^ U I U U W W W W ^ ( ( ^ ^ ( ) ) ) ) ) ) ) ) ;.;.) / / ) ) ) ^ 4.;.>.7./ k w C L.5XZX7X}.3.j.>XrXrXmXVXMXMXMXmXmXMXMXMXMXBXBXpXCXMXaXrX*X9.}.>XeXeXeX",
"MXMXMXMXMXMXMXMXMXaXAX.XJ.8.c.tXqXNXeXeXeX>Xl.j 1 6 ] K K ` ~ O.A A A A A A F H A ` H H K A A A K H H H H H H H K K H K H K ` X.o.o.~ ` o.%.d : K n $.r & .   X                                       . . .       X X o . . # > O     . % & 9 1 q S 6 # $ t $ 1 J $ % ; u 7 b L %     . # % > y O O . . . .       @   O . 6 q L ` #.a 6 q E L.t.;.g.=XtX&X'.Z.4XD.h.F.@X*XNXCXMXmXqX;XkX;XeXmXpXrXbXlXg.9.7.].uXbXeXCX;X}.P.! k ^ 2X9Xv.w.| t.[.*XrXqX*X{.k.S.R.>XrXeXrXmXxX:X[.;XpXaXMX=X9.7.$XbXeX'.&XpXqX=XD.9.{.tXZX#XH.c.H.}.[.*XeXbXeX'.c.H.@X>X;XeX;X;X{.c.>XcXeXc.kXeXBXeXxXcXBXMXpXpXrX*X;XxXnXrX.X'..XyXqXXX*X{.x.c.$XqX.XzX/.j.1...V.E.x.'.ZXXX XF a $ 1 % 6 p.2.r.zX,X-XuX2Xw % O O . : e V.6X*X>X4XZ p 1 7 w W 2.OX|.-XtXyXpXwX>XZXAXrX=X4Xc. X'.|.'.hX2.5.} q 7 e r 4 g ~ C F H K 9 n ^ 6.c.K.l.4.J.&XXX0XiXqXj.-.AXeXj.T >.[.g.k.-XqXwX0XNXcXmXeX*Xg.-.S.uX0XF.p.8 % e t %   . .           . . $ q A N.N.).n.n.).~.).N.N.N.a.N.~.~.~.~.^.~.~.~.~.a.N.a.).~.~.~.~.~.).n.).n.).N.Q.~.~.~.~.~.~.~.~.^.~.I.I.I.~.~.I.P.T.~.n.I.^.~.n.~.~.P.m.2Xa.B 5 1.4X.XwX*XF.8.y.>XrXrXmXMXMXMXMXmXmXMXMXMXMXBXBXmXVXaXaXNX>X9.J.;XeXeX;X",
"MXMXMXmXMXMXmXmXMXaXCX.XJ.t.=XuXeXcXcXeXeX>XY.^ q S #.B.$.M.M.!.!.B.!.!.!.!.!.Q.Q.Q.M.N.N.M.!.!.Q.Q.Q.Q.Q.Q.Q.Q.Q.Q.N.Q.Q.Q.Q.Q.N.N.M.p.N.!.J d K L $.b &   X +                                         . . . . X X X @ . # . . @ X   O . & 0 & % : q $ & % % $ $.g # O 8 9 M K 7 # . . $ $ = > * O . . . .       +   . . $ 2 A V a.p.~ 9 9 ..E.c.'.>X*XrXAXvX&X'.{.&XbXcXeXcXrXmXcXmXBXrXcXcXxXkX:XR.t.d..XAXsX*X&XxXkX@X<XL.E V V.t.;.9.g.v.tXqXmXqXrXZXc.h.lX>XrXiXaXmXeXkX>XcXrXiXCXtXx.g.$XeXbX[.:XrXwXtX@X6.c.XX.Xj.r.g.c.D.'.eXNXmXrX.X&XkX;XvXeXNXeXxX,X2.<XtX*Xv.vXrXMXrXcXmXNXxXeXrXNXeXxXeXrXMXqXc.g.7X$Xt.j.=Xv.t.J.NX.XE.W.!  .3X{.dX'.v.=XXXb.i o . $ 1 F E.3X[.;X*XtX9Xi.6 @ X   . 7 E G.&XrXwX1Xn e g x / T.1X{.*XrXpXaXaXrX;XeXqXMXqX].v.=X6X5XAXtX{.}.E./.E Z 8.R h g 7 6 8 d J N 4 ..I.8.n.r.J.=XrXiXwX{.1.V @X;X[.j.{.6Xk.;..XqXNXrXCXeXxX;XZXD.3.r.=XyXXXgX9 = % & O   .   . .             O # u e 7 q 2 e j b M b r e p M M C C H H H H H H H H H X.~ ~ X.H ~ X.X.X.~ H H F D F F H H F F H H G F F F A F ~ ~ X.X.} } X.} K M C Z ~ K : 7 P.tXqXwXyX=Xy.j.>XeXrXMXMXMXmXBXNXmXmXMXMXMXVXBXVXVXpXaXrX>X9.3X{.*XeXeX",
"MXMXMXmXMXMXmXmXMXMXqX>XD.D.7XqXpXrXNXeXeX;X=X9.4 e 3 c 5 4 j r w w g g g g g g h g h V h h V g j g g j k z z z z z h B h B z z x x z z h k 7 7 q 4 k 3 #   o X                                         . . . .   X X @ . . . .   +   @ . % 0 y . : t 2 % . @ # k z 1 ; & 9 K ` n q $ # $ # O . * O . . . .     o +     % 6 1 g z U (.Q.i 8 b W E.'.>XtX0XwXwXrXeXrXqXMXVXrXvX;XNXmXaXVXrXcXxXvXkXZ.y.#X{.>X*X{.kX>XkX&X'.lXSX/ V I.A.>.F.8X=XtXpXwXeXbX.Xv.{.&XeXrXaXMXeX.X&XeXrXMXmXqXqX*X$X:XeXnXH.:XxXrXbX&XH.$X*X].g.j.#XlXc.'.eXrXrXwXqXbX;X*XxXeXCXeXxX:X-.G.=X.X{.vXqXmXcXeXeXrXvXtXeXrXeXCXbXeXrX*XD.j.$X1X .) 8X:Xt.J.-XdX8.( e.W.8X.XtX=X7.>.5Xz.7 ; # < C V.#XvXkX;XqXXX7.c . X X   & b z.ZXrXMXqX}.M r q.T.4X X-XvXrXmXMXMXMXBXcXcXVXmXCXvX6X#XlX[.*XCXuXZX].F./.P.v.|.P.3.+.F i 6 e 2 6 b ( ) I x 8.v.0X0XqX7XU.j.@XvX:X[.kX6XW.) {.wXwXsX*X>X&X&X.XlX1.y.:X].uXh.r ; O O     . . . . .   X o o o @   O O : a 6 7 q w r b b p p b j g g j j r e r r w w w r w w j w w r w w w w w q 7 7 7 q q w w w w w w q q w w r q q j g r r r r q g w 4 7 O i J.eXCXpXrX=Xr.y.>XrXpXMXVXmXcXNXNXmXmXMXMXMXmXmXmXMXMXMX*X{.;.R.'.*XxXxX",
"MXMXMXmXmXmXmXmXVXmXcX*X'.5X}..XiXMXCXnXxX*XmX8X! 7 q 2 1 & 9 9 & 6 6 $ & 1 1 7 7 7 q w g g g w 7 & 1 6 q q w k g h h z k h k V x x h g k C 5.0.e.( q.j % o                                                               .     o         . % 0 & $ 7 $ # .   O q X.e & % 6 w o.Q.E m : % ; # # % : & . . . O           . O . & 7 b G ~ B.M e q B 4.|.yXwXaXrXrXqXBXpXMXMXrXlXD.eXmXiXaXtX&XtX>XkX,X;X;X&X7X}.;.D.g..X].d.$X{.=X#X|.qXyX&XF.t.g.rXpXeX*X*X*XeXrXqXqXpXrX;X'.*XrXrXaXNXrXpXpXtXeXrXcX{.lX:X&XZX{.7X=X*Xf.x.lX@X[.[.{.*X*XXX*X*X&XtXvXZX&X&XvX;XvXv.F.6X7.F.@XtX*XlX:XrXMXMXrX*XeXaXVX;XZX%XF.t.9.'.F.g.k.}.5XJ.7. X1X8.1.Y.4Xk.7.6X}.;.k.8X+X~ q r B L.lXcX;XZX{.`. Xh 1   +   O 6 e.].aX0XoXSX/ h a.K.$X5X{.vXrXiXiXrXcXcXrXrXpXVXeX;XH.W.r.4XF.tXeXeXrXmXbXR.8.c..X7X:X,X$XK.w.V B q 2 b X.~ h Y ,.+X8X7X.X*XtX*XtX&X&XrXlX+.| [.rXwXuX1XY.=XuX'.1X8.9.>XuX>Xd. .p ; o + X . .                   O % & N &.B.q.t.h.G.G.Y.E.4XzXH.H.D.D.D.D.Z.k.Z.D.Z.k.k.j.g.t.8.2.2./ 2.2.8.1.) V g C k ( z.h.x.d.j.u.i.y.t.t.3.e.S.j.r.C.C. .k.F.k.u.p.C 1 C 3XeXrXeXbX&X4.8.>XqXMXmXrXCXmXmXBXBXVXVXMXMXmXmXmXCXmXrXeX@X-.k.:XtXeX*X",
"MXMXMXMXmXmXmXmXmXmXcXqX'.'.F.=XaXaX*X;XnXcXmX.X3.q r #.N a { 6 e q q r b r j C Q } ..e.a.a.V.a.m S D r n ~ p.a.V.I.I.W.W.I.L.P.U.T.I.a.V.a.U.9.2.)  .n & o o o                                                                       X     O 0 1 $ e d # O + . 7 L #.1 % % q G 3.( O.i O O & # # & > % . . . . .         . . O % i q G N.~ 7 p q 5.}.uXwXsXeXNXeXcXmXMXaXeX3XJ.*XCXCX*XF.d.{.*XvX;XcXrX*X>X#X8.t.d.qXqXv.$X*X*X@X>XMXiX*X:XK.t.eXrXeX>XeXeXrXrXrXrXNXrX>X'.*XrXrXpXcXrXiXaXrXrXMXcX&X:XkX{.eX&X>X{.*X*XqXvX@X:X>XeXvXtX;X>X>X=XkX,X@X@X;X;XXXqX*XdXlXh.c.{.*X.X:X,XqXpXwXrXxXbXpXmX{.{.[.#XK.D.x.=X{.v.'.8X4X9.f.4Xu.) J.F.6.j.8.r.L.i.T.-.n M j 4.4X;XmXcXZX{.].6.4 . X X @ & F gXqXsXAX Xr.W  .U.{.XX*X*XxXrXVXmXeXxXxXcXmXVXrXbX:X-.C Z U.[.tXrXrXrXrXrX:XH.&X;XcXcXrXrX;X:X4XT.5.n 7 7 b B M.U ) 2.c.=XtXqXXX-XlX=XqXlX} C.:XpXwXXXt.1.h.f.F.4Xj.c.>X*X|.6.P...8 o o X . .         . . . . . O % & 1 q E a.+X>X-X*X>XxXxXeXcXcXcXcXbXtXtXtX*X*X*X>X-X-X>X:X7X5X5X[.5X6X8XJ.gXW.u.V.I.2X-XXXXX.X#XG.E.6X>X>X#X#XkX>X,X3XW.y.tXNX-XK.p.k 4 ( 6XeXxXeXcX{.4.4.>XqXmXmXcXCXBXBXBXBXVXVXMXMXmXBXmXBXpXwXtX[.2.j.>XbXbXeX",
"MXmXmXmXmXmXmXmXmXmXNXuX].f.D.=XwXpXeXkXkX;XrX&X2XW b !.N...O.B ) I./.T.T.T.+X1X X|.|.5X7X7X7X4X-.4.L.2.;.g.hX8X5X7X7X7X7X7X:X:X:X5X6X3X4X<X<X6.8.e.Q m 8 O   +                                                                             O & & $ t ] % O @ . 8 p B.w % . 6 r ..W Q D & # * . . % > % . . .   .             O 0 & 9 H x ~.j r H I 8.8X$X{.*XeXbX&X;XeXkXlXH.v.rXwXqX=Xj.^ 9.=XeXeXmXmXeXvX6XD.Z.D.yXrX'.[.tXeX#X$XbXpXwXbX3Xr.@X{.&X;XcXeXqXrXNXmXNXcX;X'.;XrXrXmXmXpXpXpXrXeXrXmXmXmXMXrXrXyX'.v..X>XqX.Xc.@XeXrXeX*X.X{.[.c.F.:X%X[..XqXrXqXoXyX@XF.x.&XCXMXMXpXrXrX*XxXvX*XbXbXF.c.v..X[.v.v.tXsXuX7X<Xy.2.K.OX .E l.}.'.5X4. .Q.| q.n 1 D k T.7X.XxXxXcX*XT.V 1   X o % 4 t.lX=X}./.! e M L.|.qXwXaXmXcXeX;X>X>XbXmXpXeXeXrXZX4XE p j U.7XrXrXvXeXeXeX:X$XZXvXeXrXeXeXeXvX>X:X}.z.1.B 7 : i 9 H } 1.t.Y.3X|.'.k.OXdX=X! C.@XwX0XtX4.j C h / 9.t.OX7X>X|.6.8XI.6 o   X . .                 @   O % & 1 q ! z.}.:XeXrXmXpXqXmXcXcXcXrXrXwXwXpXmXcXcXrXrXrXeXeXeXtX=X>XvXZX$XE.L.r.t.4XdX0XwX*X$XS. .r.#X*XwXrXrXmXpXeX%XS.3.{.tX8XU...w g a.:XrXcXeXrX&Xr.4.>XqXaXmXmXBXmXVXmXmXMXVXMXMXBXBXmXmXpXrXZX[.j.g.{.qXrXrX",
"mXmXMXMXMXMXMXMXmXMXNXtX{.>.h.1X.XpXnXnXkX@XeXtX|.2.w ` ~.6.P ../ k.OX XoXuXuXwXsXsXpXpXrXrXqX*X'.v.7X]._.x.*X*XqXqXqXqXqXqXeXeX*X*X>X>X}.J.4Xj.i.a.n N a # O                                                                               . % & 1 7 ] 6 O O . % e ` H $ O % 7 o.I C %.m 1 .   . . * O O . .                 O y : 9 q V U !.q r ..1.;.t.R.&XvXvX&X,X6XE.R.$X;XaXwXqXlXC.W 2.=XeXrXmXNXrXtX>XF.4X#XuXqX{.v.bX;X3XF.&XCXiXwX3Xy.D.c.'.*XrXrXqXrXBXmXmXrXeX{.eXrXrXmXmXpXpXrXrXrXqXCXMXaXqXqXv.v.v.F.>X>XrXbX,X>XrXrXrXqX.X{.[.c.g.@X'.v.].*XCXwXqXNX&X{.h.c.wXpXqXXXrXrX&X@X@Xv.&X>X&X>X-XdX=X'._.qXwXsXZXc.8.8.c.9.1.1.g.$X7X|.2.a.M.b b N % 9 ) <X>X*XvX;XrXdXi.4 #   X   & h 8XuX3XW.| m m ..<XXXiXaXMXmXeXvX&X&X;XbXmXpX*X*XbX*XR.w.E I c.-XrXrXeX;XeXvX,XF.;XeXrXrXeXeXeXrXeX*XqXtX8XP...D 8 : p C Z E W U 2.6.P  .z.6.4.-.8XbXqXZXy.b F | w.2.8.Y.$X$XF.9.oXY.7 o o   . .                       O % & 1 q W t.}.>XpXMXMXiXmXNXcXcXrXrXaXMXMXmXmXmXmXmXrXrXrXeXrXeXeX;X>X7X4Xr.t.h.7XyXwXsXtXlXy.I 1.J.qXiXaXMXMXMXmX;XD.t.@X>X$Xt.G q B I.=XrXrXrXrX*Xk.8.>XyXpXmXmXmXmXVXmXmXMXMXMXMXBXBXBXmXmXrXZXc.Y.j..XqXrXrX",
"mXmXMXMXMXMXMXMXMXMXrXtX=X>.g.}.-XrXeXxXvXkXvX*XuXv.k C T.m.x |  .W U 6.}.=X*XyXwXiXpXrXrXeXxXeXtX].yXqXXX_.qXqXeXrXrXeXrXrXcXcXnXbXxX:Xy...r.i. .e.g Z L < . X                                                                   .           . # 1 1 9 y . . O O 7 k o.q & = ; M ( 5.Q.o.7 . X   O O . . .                   O 8 i 1 r w j o.~ b } z.g.U 4.J.{.&XZX>X$X3.W F.bXpXMXrX>Xr.w.y.:XqXpXrXrXqXXX].f.<X$XqXrXuX'.bX*X6Xh.h.tXMXwX:Xj.H.D.{.eXmXrXrXmXMXmXmXrXcX.XcXcXcXcXmXmXmXcXcXmXwXiXMXqX$Xj.9.g.c.[.=X@X*XeX,X@XrXrXcXyX;X>X>X&X{.'.f.'.;X*XeXrXrXyXuX=Xk.9..X*X9.8.&X*X,Xk.F.D.;XtXeX>XF.H.$X@X{.tX*XXXrX*X&X=X6.g.J.$X]..X|.h.6.^.N.r 7 s : 7 P.=X*XvXvX;XwX|.C & . X + o 2 ) -X.XK...b G t.{.yXiXaXiX.X'.[.>XrXeX*X>XrXiXiXpXAX&X>X7X=X'..XuXrXmXcXrXrXbX&Xh.[.*XpXiXpXmXmXrXCXNXmXpXrXtX<XI.| C r r q e e 7 r H H e e n E.>.7.}.].&XK.) w.W./.1.8.<X<X3Xk.f.oX+Xb O O                         o o     O % & r  .U.$XqXiXMXMXeXeXkX>XeXeXpXaXmXmXmXpXmXmXmXmXVXmXcXbX;X'.{.lXK./ t.[.yXpXiXwX&X<Xw.C  .R.uXsXqXwXiXaXpXeX$X}.>X&Xd.W p e Q P.*XpXrXrXrXtXK.8.{.yXpXmXMXmXMXVXmXmXMXMXMXMXBXBXmXmXmXrXeXd.E.k.eXmXmXmX",
"mXmXMXMXMXMXMXMXMXmXrXtX:X7.6.D.>XrXqXrXnXZXnX*XsX].( h >.T.I k O.| ! 4.J.6X-XyXrXpXpXrXrXeXxXxXtX*XbXuXqX.XtX.X>X*X&X>XvXvX>X*XeXnXeX;Xy.(  .i.^ e.h ~ o.4 # .                                                                 . .       o   . . : & # d # . % O & 4 X.` 1 ; O 6 X.~./ _ q O     .       o                   O : $ &.A r g k G p X.a.E.U.4.:.h.x.&X&X$X4.U c.XXrXXXx.h.8.R.H.>XrXwXqXqXqXXX`.x.6X6XqXBXNX*XbX;X=Xd.;.F.rXbXlXg.3X=X;XcXmXrXrXmXMXMXmXcXBXqXNXcXcXcXmXmXcXrXcXmXCX0XCX{.zX! r.A.F.F.H.$X;XrXeX;XeXeXrXeX*X*XeX;XvX*X'.{.>X*XeXbXqXXXeX-XD.j.:X:X3.w.=X*X:Xk.H.6XZXNX0X].;.2.'.*X>X>X.X*XeX.X&XkXk.U.k.c.uX-Xg.8.U.0.H 7 9 1 & b 2XtX;XvX;XtXuX7.2 O   X + ; k k.uXZXC.C ! P.1XyXiXiXaXrXD.t.H.&XrXrX>XtXpXaXaXpX'.x..XqXqX0XqXuXqXmXMXrXqXxX;XF.[.;XMXaXpXaXmXrXeXcXmXpXpXpX>X{.SXgXI.a.Z g p e q 7 J 8 = i a.h.x P.7XdXlX#X[.3XW.U T k.j.J.t.h.0X5XQ % O                       X X X         % 6 G I.hXuXwXpXsX*X:X6X6X5X*XqXqXcXxXeXrXrXcXcXrXrXeX*XvX[.h.h.$Xj./ 9.$X-X0XwX0X=XY.w.V ( U.=XuX-XuXwXwXuX-X$X6X@X|.c. .p i ! T.*XmXcXrXrX>XJ.8.c.tXrXpXVXMXVXVXmXmXMXMXMXMXBXBXmXmXMXpX*X7.K.J.vXmXmXmX",
"mXmXmXMXMXMXMXMXMXmXrXvX:Xh.-.c..XmXMXmXcXxXmXrXrX-Xz.P U Q.%.M O.Q.V.i.A.1X-X*XyXwXwXwXqXqX*X*X>X5X5X$X3X4X1XG.<Xk.g.D.<X<X}.[..XNXwXCX>Xc.8.n.6.a.k ~ N.h < . .                                                               . .       X     . % & & 6 6 # % . % 1 A M.j % o % M s.R Z r %                                 O # 9 K !.B B b 6 8 i Q ~.2X8X[.h.d.v.XXrX:X}.>X>X>Xh.7.9.H.:X*XrXwXwX*XuXtXtXqXXX:X:XqXmXrXcXcXeX*Xv.;.k.:X:X:Xc.kXtXcXmXcXrXrXmXMXMXmXcXVXrXCXnXcXcXmXmXcXeXrXrX>X{.ZX}.C.k 4.t.d.9.8.j.{.rXMXmXrXeXbXeX*X*XeXeXeXbXbX*X&XtX>XtXrXwXyX*Xh.K.K.Z.r.U.{.&X>X@XH.>XXXwXiXqX9.j.tXrX*X&X.X;XH.t.j.Z.S.y.) >..X'.2.e.Q.k 7 & 2 q $ b }.vX&X>X*XdXm.V $ X X   O 7 1.|.XX5XQ b t.|.F.=X0XwXqX6XC.w.@XqXqXqXeXcXNXrXrX*Xj.8.'.qXuXyX-XuX*XeXmXpX*X=X>X$XD.@XrXpXwXwXrXuX>XeXeX;XcXCXBXcXrXeX-XZX}.Y.^.n.T h e : > ; b ..j ) OX{.'.:XeX,X2X) T ;.-.j.2.c.uX+Xo.& O   X                   X   X X + X     & m q.^.1XoX.X|.}.U.U.W.E.1X-X-X7X:X=X=X>X>X>X-X-X>X$X3Xk.g.t.G.Y.G.Y.4X|.|.-X].8XT.u.) 1.n.OXOXE.2X|.|.5X}.J.1X X+XgX~.D 7 U  XqXmXrXrXrX>X<X2.9.>XcXpXVXMXVXVXVXBXMXMXMXMXmXmXmXmXMXmX*Xd.Z.4X;XeXeXcX",
"mXmXmXmXMXMXMXMXMXMXNXbX:XD.-.D.&XMXMXMXrXrXVXmXXXZX4X^ B M S 6 D H C C W -.8.g.d.h.h.c.G.G.A.P.P.u.1.) 3.e.e.p.5.Z h Z  .5. .1.j.4X_.|.OXl.W W a.p.q p N.x $ O                                                                 . . .     o o   . . : 6 # 0 $ # . # # r o.I & ; o 6 ( ).I N # O     @ @         o               . O 1 ` s.I p { J p r  .U.1X|.4XR.[.pXaX*X=X%X$X$XH.SXH.>XeXcXrXyXuX-X:X7XtXwXyXv.{.*XmXrXVXmXcXrX.Xg.J.4XF.@X.XeXpXmXmXmXcXmXMXMXMXmXcXVXpXBXxXnXcXmXmXxX;XrXeX7.J.:X=X4.( P.J.8X6XJ.D.{.wXMXpXXX*XqX*X.X&XeXbXeX*XeX*X>XvX&XeXrXqX&X[.9.4XZ.8.y.A.9.c.{.kXh.h.:XyXqX].>.c.ZXyX&XZXvX=XD.K.#XZ.|  .L.gX}.9.3.M.C q 9 9 2 *.r B F.;X[.=X*X|.) q .   +   6 j Y.-X-Xg.b G Y.'.D.8XuXyX'.U.+.3.*XpXrXeXqXeXeXeXeXkXZ.2.F.>XuX&Xc.c.>XXXqXrX:X#X:X:Xt.h.{.eXqX*X>XZX.X*XtXtXeXeXmXVXVXMX0XwX_.].5X|.'.U.C e 8 : 9 D r k T.8X}.8XtX*XF.6.t.U.D.4X8.k.-Xb.o.& O   @                     X X   X X o   . & q B T / -.2.I B n C W 1.t.z.u.i.i.i.z.P.P.P.z.P.u.i.( ! E W W a.3.e.4.8.8.6.;.)  .( ! ..( U E E W ^ ) ^ W ) ) ^ ) ~ i 6 T 8XXXpXeXeXeXtX3X6.2.6XvXrXBXmXVXMXVXBXVXVXMXMXmXmXmXpXmXmXqXd.j.4XvXcXcXcX",
"mXmXmXmXMXMXMXMXVXMXcX*X:Xk.-.D.tXmXMXMXmXMXMXaXNXvX&XU.b 8 = ; % % % & & 1 7 7 7 q e e e 9 9 9 7 7 7 6 6 6 : : & & & & 1 1 1 1 7 e z B b e 7 7 7 9 O ; 7 1 - o                                                                 . .             . O . % y s 0 # # . O 6 ~ U 2 % - O g M.$.2 6 % . .                             + o % 2 ;.^.q e Q.a.W B 3.P.U.E.#X7XXXXX.Xh.9.j.#XlX#XlX*XeX>Xx.{.|.|.1X|.7XwXCX'.x..XqXmXVXrXqX*XtX7X1XE.8.'.uXrXiXmXMXmXmXmXmXaXCXcXcXaXMXcXxX&XnXrXeXvXxXcX;X) 4.7X.Xd.Y.c.-XXXXX>X7XrXrXNXCXwXmXrXXX>X[.,XZXZX*XtXeXvXeXbXeX*X=Xj. .8.j.k.D.4X-.-.R.:X$XZ. .W P.5X>X.X:Xh.h.*XtXj.j.@XbX;XlX8.r.S.r.8.4.V.E q 6 % : #.b B I.k.[.d.:XoXG.w # O   - ; q u.[.-XY.1.k | i.4.S.<XXX].g.u.L.;.sXaXpXrX*XvX*XeXkXlXzX%X:XZX*X#X( E :X*XcX&XS.y.lX=X$XH.k.9.[.@X>X&XdXoXuXrXrXeXAXcXBXmXmXmX*XyX&X-X*X>X2Xl.1.Z r 1 i r 5.~.~.P.'.dX>X$Xt.S.6X$XS.2.|.+XM : O @   @     @     @                   X X   . . $ $ $ & % % % % : 7 q q 7 7 7 q e r r w w q 7 6 & % % % 6 7 6 : : 6 2 2 2 2 1 1 $ & $ & % % & & % % % & & 6 1 & O 6 P +XeXrXeXeXcXZX$Xj.8.h.*XcXcXmXVXVXBXBXMXMXMXVXBXBXCXmXpXCX*Xv.6.4XvXcXcXcX",
"mXmXmXmXMXMXMXMXMXpXrX*X=Xk.6.J.tXmXmXmXmXmXMXMXrXeXeXJ.Q : o o . O . . . . O . .   o o o o o o O O O O o o         . . O O . O   . & 1 % O O . # % o O 8 a o +                                                                 . .               . . # 0 y 0 # . . . & Z _ g &     1 A Z w 1 & . .                           o + o @ $ x s.~ r W L.T.1.V I ) :.9.:XNXsX*Xv.g.j.F.=X:X:XbXeX:Xd.:.h.c.K.R.6XXXrX{.{.eXNXmXmXmXcX*X.X&X$XR.8.v.rXaXaXMXMXmXmXVXMXMXVXcXcXmXMXcXeX{.xXeXeXvX;XcXZX) y.>XyX{.5X7XyXwXrXeX*XrXcX;X&XwXMXmXeXZX[.'.F.{.&XbXeXeX].*XeXqX{.r. .t.H.}.#X$X6.8.J.dX{.K.3.Q } 2.'.0XAX9.8.dXtXt.r.F.eX*X&XlX4X8.2.4.5.( } p & 8 s D k -.g.2.%X{.8X9.I & O . . O 6  .<X-X=Xi.B h p.p.z / k.8X7./ L.e.1.yXwX.X'.dX>XbXrX,X@XvX&X&X&X>X%Xw.| :XtXXX:X .W f.tX@X}.D.j.}.{.=X=X|.f.|.&X*XeXeXeXcXcXcX*X.XeX*XeXrXeX*X-X=Xb.( r 2 2 n C C W d.oXXX.X4.r.=X=XU.1.v.E.p ; O O   X     @     @                     X X X                 o . O % % O . O . . # # # # # O .   o X o O O o o o o O . # # . O .   .       .   o o       o % % O s I G.tXrXeXeXeXtX$Xj.1.g.&XcXcXmXVXmXBXBXMXMXMXVXBXBXmXmXMXCXqX'.2.g.eXmXmXmX",
"mXmXMXmXmXmXMXMXmXrXbXtX@Xc.j.<XkXcXcXpXrXpXMXMXMXmXAX$XV.e = o . # . . . .                     . . .           X       . . . . X X   .       . 2 q e a Z %.: ;                                                                                   . . . % 6 6 & .     # b o.~ 1   + . 1 n ` q 6 . . . . .                     . . . . O % b N. .q C G.4X1.P :.9.d.&XeXeXNXeX=X@XqXtX6X$X&X*X%Xh.g.k.9.6.Z.4XuXNX;X;XxXnXrXqXmXeX=Xc..XtX1Xc.{.CXNXmXmXmXmXMXVXMXMXmXrXrXmXmXeX.Xv.;XeXvXvX;XeX*Xd.}.*XtX[.h.].x.wXqX{.{.tX,XH.[.rXmXrX*X>XF.F.v.].*XbXeX*Xv.v.eX0X*XD.k.$X7X-X>X'.v.:X>XrX`.>XE.+.r E 9.0XsXd.j.'.lX[.8.^ Z.tXAX{.v.c.Y.t.q.C b e $ 8 &.w  .z.c.t.4X$X1X( 4 % @ O . % r T.tX>X#XF 6 r O.o.W u.G.I.Y :./.D F Y.9X) ) 1XXXiXaXpXCXrXrXAXbXNX;X%X[..X*XuX=Xt.Y f.yX*X=X$X}.=X.X.X1X3.k W 1.k.>XxXCXcXeXkX[.,XvXcXeXZX>XwXiXiX0X Xn.U j q 6 6 C 6.oXsXAXr.y.tXtXE.( c.T.i o . .   X O . .         . . . . . . .       .           X X o     . . . .     . . . . . . . . .     X X X                 . . .                   X   . .   . % 1 7 $./ b.>XeXxXeXeXqX&Xc.-.9.&XNXcXmXVXmXmXmXMXMXMXMXBXBXmXmXMXsX*X:Xt.:.eXaXmXmX",
"MXMXVXmXmXpXmXVXcXrXbXtX{.h.k.#XvXcXcXcXrXrXMXMXMXmXnX@XU.n % o . . . .     X X X X       . . .                           . .   X X X   X     # < 2 7 N B B.m & O                                                                                   . . . % & %     . . e #.X.2 O +   . b $.m & . . O O . . .       .         . . % .   = & q.Q.{ w Y b.W.u.A.1X7XvX*XqXpXqXqXuXrXyX{.@Xv.>X@X#X>.j.D.j.4.g.*XrXeX;X&XvXeX*XrX.Xh.7.{..X[.#X*XrXrXeXcXmXmXMXMXmXmXrXNXrXNXrX*X{.'.:X@X[.;X>X*X].v.=XeXeX@Xh.{.x.tXdX[.h.[.H.k.F.bXrXqX&X;X'.&X&X;XeXcXeXvXv.v.>XNXNX.X'.-X=X[.[.*XqX-X.XwXXXZXJ.+.C Q.T |.dXG.t.}.:X>XF.3.L.&XXXv.f.Y.y.8...L 6 % & u p W l.OXD.E.A.c.g.Z & O @ . % e ( 5XqX;XU.p : e D M ~ p.) E j 1.Q.; 8 5.0.r b 8. X_.yX0XpXrXqX*X.XqXeXuXeX-X-XdX=XJ.9.{.qXqXeX>X-XqX.X.X$XV.n k E t.=XeXrXnX{.H.j.#XkXbXcX,X;XmXMXaXiX0X-Xc.1.C 6 : r ^ b.XX-X2.t.yXyX4X) F.T.i o o .   . O O O .         . . . . . .   . . . .     X X X X     . . . . .         . . . . . .       X X X X X X X                                     . . . . & 1 k Q.^ 8.=XeXxXeXeXuX*X[.2.g.*XBXNXNXVXBXmXmXMXMXMXMXBXBXmXmXMXrX*XZXJ.>.qXpXmXmX",
"MXMXMXmXrXrXcXmXeXeXeXtX[.h.h.[.bXNXcXcXtXcXmXMXVXVXcX;X{.) 7 O .     X X X X X X       . . . .   X       X X X X X             X X     X   . . . O O 8 6 #.$.q .                                                                                   @ . . O % * X   . % 6 S K 7 . @ X   7 b K 1 % . # % . . O     O O .           . O . & 1 M o.~.i.U B  .I.gX|.qXpXeXbXcXqXeXrXwXrXXX&Xx.[.c.D.;.9.}.#X4.9.eXqXeXeX&XvXvX*XeX.Xf.h.|.F.h.6XyXwX;X*XrXmXmXmXBXcXcXqXCXrXXXeX>X*X@X@Xh.h.[.{.*X*X&X;XZX>X:X{.*X{.c.J.r. .Z.3X&X{.eXeXeXvXZX&XvXeXrXrXrX*XtXF.D.6X>XyX*XXXtX[.3.( v.yX7X{._.v.=Xc.T.x a.( (. .W r.6X.X*X7Xj.G.{.dXf.y.p.! N.o.& .   , O e / 8XG.t.A.t.P.( 7 O . O . & C P.-XrXvXE.a   O 0 6 7 N e p 9 K J o > D M : : q Z ^ z.oX-X'.|.&XNXpXrXqXZX=X|.'.lX'.:X-X.XqXwXqXrXwXXX.X=XE.w.( y.R.=XeX.X>Xk.t.1.j.D.&XyXrXeX;XrXMXaX*X.XwX.Xu.G 9 6 j a.F.=X8.k.uXqX<X8.|.P.8 o o   . . . . O O           . . . .     . . . .               . . .                 . . . . . .         X X X X           X X X X         .           . # # . % 2 P ~.Z W :XeXeXrXrXrXrX=Xk.D.eXMXmXcXBXBXmXmXVXVXMXMXmXmXVXaXMXpXqXZX4X9.eXpXmXpX",
"MXMXMXmXcXrXcXcXeXeX*XtX&Xh.h.=XcXMXmXrXeXtXmXMXVXVXBXAXyXb.n % .   X   X X X X         . . . .                                         X   . .   + O d a D M.5 #                                                                                   o     . . . X X . & % 6 a 1 # . X X # 1 #.J & . & & . . O . O @ * O . . .   @   . . $ 7 a b U T.~.I h ( L.1X.XrXeX;XcXNXNX.X*X&XtX{.[.D.$X}.SXK.[.5XZ.j.AXrXqXeX>XkX=X{.*X*X{.6X<Xt.8.$XbXwX;X*XrXMXmXmXBXeXeXqXrXXXx.&X*XdX:X}.k.H.=X'.].vXcXeXnX;X&X*X*X&Xg.4. .r.3XZXtXcXrXeXtXvX>X[.;XeXqXqXrX*X;XF.H.lX{.*X{.{.ZX6Xw.( {.*Xv.|.'.[.}.:.z./ P.T C Q E 8.|.*XZXoX9.G. X8Xt.1.n r k j # > + o : q g.&XlX9.9.j.a.b % O   . O 6 ( 4X*XbXkXE.e   . > % % 8 9 e 1 6 ; ; % 1 1 ; O & 1 q k a.T.8.j.h.=X.X.X'.'.f.;.6.E.1X|.5X&X*XrXqXrXeXeXqXeX#X<Xk.3X>X&XZX-XF.g.Z.t.g.g.c..X*XqX*XqXrXbX>X>XaXsX5XI...p 7 ~ U.6XH.{.tX*X=XF.=X2.6 o o o . . # : . .           . . . .       . .           . . . . .       X                                 X X     . .     X X X X       . . .     X   . . O O % 2 2.T.E ! :XrXcXrXrXpXiX*X<X#XrXMXmXmXBXBXmXmXMXVXMXMXmXmXVXmXMXaXuX:X4X9.eXNXcXrX",
"MXMXmXmXcXcXrXeXrXnX*XtX>Xx.x.dXmXMXMXrXbXbXmXMXBXBXmXmXwX9X! $ .                                   . .   . . . . .             . . .   X X . O . O & N X.w 5.h #                                                                                           . X X X . & O O 8 & # .   @ . % J #.9 % 6 > . . % . O * * O . . O . O   X + # 9 N H h ^ G.T.( B } V.7XnX;X*XeXrXeXc.) ) 8.2.t.2.5X{.4X|.-XZXR.8.*XrXrXqXvX$XD.F.{.uXqX7Xr.|  .Z.qXwXeX;XpXMXcXxXnX;X;X*XwX.X>.&X.X>X=X#XZ.#X7X{.].>XcXeXeXeXeXNXyXZX:Xk.h.=XbXqX.XqXmXrXrX>X{.h.@X,XvXtXNXrXtX{.=XkX*X>XZ.8.k.$X:X=X|.D.c.6X|.h.P.( Q.-. Xx.)  .-.<X-X-X5Xh.4.~.1.x U E p a 1 $ # # O % 9 ..c.tXbX.X_.G.H : O O O . ; p u.:X*X&XF.W.q # % O O % : 1 k h q 4 n 5 4 1 O @ S r : % 7 b Q.i.I W 8.Y.4Xh.:.U G } W.9.k.3X].qX*X>X$XlXeXcXeXAXqXaXwX0X*X=Xd.c.1X5X X'.f.h.d.{.NXsX@XR.R.%XeXwXwX>X4X3.7 7 ! k.=X.X=X>XyXyX=XT 7 = + X   # & s : O O     X                           . . . . . . .     X X                           .         . . . . .                 . O O   X X X X     o O q b.5X .3.kXrXcXrXpXaXaXqX$X|.rXMXVXVXVXBXmXmXVXVXVXVXmXmXmXMXMXaXyX&X<X6.:XvXtX&X",
"VXMXmXmXcXcXrXeX>XlX[.=X5Xf.f.7XmXMXMXMXNXNXMXBXBXBXBXpXiXdXa.g # . . . . . . .                   . . . . . . . . . .           . # .   o X . . O O 1 r B.g 4.o.#   . . .                                                                                           # & O o 0 6 $ $ . . . % & a 0 & 0 0 . O @   . O * O . . . . . ,   + % % 7 %.Q.x Y gX~.! C B U.#X-XbXeX*XvX3Xr.S.Z.A.C.4.1X[.G.D._.*XzXr.[.bXNX*X6XH.c.v.'.tXwX-X1. .r.F.rXCXvX;XrXmXeXkXkX$X$X>XyX*X>.7X.X&X=X=Xk.h..XuXtX;XCXeX&X>X*XcXeX;X{.&XeXrXrXrXtX*XrXwXNXvX[.g.{.&XtX*X*XXXXX].[.F._.-XE.r.t.c.XXtX3X9.8.J.=X7.A.W p.V v.oX4Xz.d.'.uX_.9.^ C } E  .2.Q.J % 6 # # # # $ m p.8XqXqXNX|.~.1 O O . = O i ! hX-X$Xg.1.V.7 . # $ 7 b n V i.l.1.5.n.a...B 7 < w 5 1 8 O 8 n ! H b C E a.3...O.9 e Z P I I.h.[.[.$XR.zX;XrXeXcXpXMXaXCX*X=Xh.|.uXuXXXdXc.9.d.}.7XD. .+.C.U.>XsXpXwXuXk.p 9 r w.lX*X=XZXrXyX<Xz 9 > o o   # 9 ] 9 # % .   .                 o         . . . . . .       X X                               . . . . . . . .           .     . O O   X X X X X o @ = r 1X.X1.w.kXeXrXcXpXaXaXqXF.c.XXaXMXMXVXmXmXmXVXVXVXVXBXmXmXVXMXrXyX=X3X9.=XtX:X[.",
"VXVXVXBXeXeXaXuX1.| 2.hX1X>.f.5XvXmXaXMXMXMXVXBXBXcXmXmXwXbX=X1.1 . O .   . . .   X X o   .   X   . . . . . . .                 . . . .         o   & 2 ..5.k *.%   # $ # .         .                                                                             % < 7   + O 7 $.3 #   O   O O > 0 $ 6 : . + o     . . . .       . . .     . 1 q.~.P I a.u.w.V r | 5X0XqXZX{.>X>X&X>X4X! C / /.3.4.NX0XSX .Z.H.$X6XU.8.].NX{.kXtX*X:X3X:XeXmXrX;XeXrXqX*X&XK.j.k.v.{.-X7.{.'.*XtXeX{.].eXrX*XtX*X-X{.F.{.&X*XCXBXrXrXrXNXnX&Xv.'..XrXyXk.t.>X*XmXrX*X>X0XqX8Xc._.*Xc.K.g.>.&X&X{.D.G.R.5X[.D.^ G E =XuX6X|..XXXiX-X8.Q m 9 Q U.8Xg.e O . . * . t r j E [.AXXX=Xu.r & . O O > : } <XXXoX0.B r a o   1 B r.K.$X6X6X|.|.|..X|.<XY.T.k.h.9.I r 9 8 q 2 6 & : % 7 7 1 1 y 0 7 e 2 j 5.0.t.;.$X@X;XvX$XH.&XrXrXrX;X[.D.:XqXaXiXfX|.F._.5X1.b = = p 5.{.wXNXXX0X'.I b 7 G U.:XyXpXiXuX^.b %   o     % 7 [ 7 9 d & & . O O     o     X             . . . .         X                                   . . . . . . .                       o X     X X + . & B  X-X3.r.:XrXrXrXmXpXwXqXF.h..XNXMXVXVXVXVXMXmXMXVXVXVXBXNXCXmXMXqXtXD.d.qXCX[.j.",
"BXmXMXmX;XqXaXuXZ b 3.U.2Xd.7.8X>XyXpXMXMXVXVXBXBXBXBXcXeXbXtXh.r % . @   . . .   X X o . .   X                                     . .         X   O 1 Z p.C #.> . # $ # . X X     . .                                                                         . # w N @   O 1 ` H $ O     o o O 0 $ $ 8 O + +       . . . .   . . . .     . $ g / Q.! P 8./.e.M w :.8X|.x.{.*XuXrXrX>X4.z v ^.! 1.qXqX}.1.r.t.3X<Xr.-.AXiX'.kX;X].{.>XcXrXmXmXcXcXrXwXqX;XJ.S.J.}.'.x.d.[.>X*XcXeXeXeXeXxXvXkX.X7X[.F.%XvXeXqXrXmXMXmXcXeX;X&X@XtXNX*X8.y.ZXrXaXwX{.7XiX0X&XF.=X=X>.4X<Xh.ZXtXlX[.#X}.&X*X>X<X3.3.-XuX.X'.oXuXoXK.1.G D m 4.8X X:.6   . # X . ] n C w.@X*X;XE.F : O * . . ; D S.=X0XdX-.g 6 ;   O b u.5XNXeXcXAX>X*XtX*X-X=X$X>XtXZX=X2XI.5.B ! I n q 7 9 q 2 4 2 7 < $ 1 7 2 w ~ |  .P.SX6XH.t.j.$XtXeXeX;X[.[.vXrXaXwXwX=X5X.Xv.k % - - 6 E =XwXrX*X*X|.4.o.e r 4.}.uXpXwXdX5.7 O         . r L 1 e a 2 N $ O . O .                                                                         . . .                               X   . . X X   . 7 ( 9X-X4.r.:XrXrXrXBXmXmXbX:XF.>XNXmXVXVXVXMXMXmXmXVXVXVXBXcXNXMXiXpXvXg.F.NXNXY.( ",
"BXmXmXmXeXuXaXuX( G  .4.U.d.6.4X-XqXrXmXMXVXVXVXVXVXBXeX>XtXyX}.Z % . @   . . .   X o   . .                                     X             X X o o & w M.E H u O . # .   X X     . .                                                                         O % q #.: O % $ r #.e #     o . . > % # 9 :   o         . . . . .   X X . . O # q 5 5.^.-.U 3.~...Z k e.8.>.tXyX*XyXwXqX=Xg.^ V.1.t.'.qX>X>X{.x.;.4XI.2.XXCXcX{.&Xc.c.:XbXrXrXmXcXcXaXiXiXqXF.g.$X8X#X#XJ.$X=X{.bX*X;X&Xc.F.,X%X$X[.f.].qXwXpXCXeXcXCXNXeXeXeXvXeXNXvX[.4.r.7XsXpXrX{.=XuX0XrXZXJ.E.t.U.Z.5XyX.Xc.h.tXrXvX;X&X=X=X'.NXyX*X>X:X4Xu.( B ! i.G.-XoXT.C ; o . .   . s M I SX'.kX<Xe.: o   % . & e e.4X-XXX_.R  .F & % 6 B T.&XNXqXCX;X=X:X|.h.h.}.8XtXtX=XF.5X|.oX9XoX9X9X XOX4X+XG.9.P.2.I I C e 6 1 9 7 b Q Q.1.P I 4.OX>XqXyX&XF.[.vXrXaXwXqX{.'.qX|.n : : : q  .dXiXqX>XJ.8.4.~.B w | W.ZXAX0X=XZ 1 % . . O . . a e $ s A g $.2 O O $ $ O                   . . .                                                                                       . . X X . # e p.5X-X4.r.@XuXeXrXcXcXrXbX6X#XZXrXrXVXVXVXMXMXmXmXVXVXVXVXBXmXVXpXaXuX6.<XtX=XV.r ",
"cXcXmXmXeXuXpX-Xr.p. .( P.;.t.4X*XeXrXcXcXBXVXVXVXVXNXeX;X*XqX5Xp.1 >   . . . .           .                                     X X         X X X o o % 7 o.o.C a % . O     X X     . . .                                                                       . & 1 #.a & # # $ r K $ O O   . . * * . 1 7 # .       o O . . . .   X X . . O . 9 A z a.I.8.W E ..p.r M e.r.{.eX{.tX.X_.XX7Xr. .4.gX8X>X*XbXXX*X[.6.Y SXtXrXqX;X;Xv.F.>XnXcXmXBXrXrXaXaXaXqXv.d.'.F.;.K.H.$X{.&X>X,X>X@Xc.c.[.#X2.9.f.yXaXiXrXNXeXxXxXeXeXeX*XXXwXqXtX$XS.r.F.qXrX*X7.>.'.-X-X|.) 3.E.t.6.lX*XqXv.'.rXpXeX'..X>XZX|.8X}.}.6XG.4.E ( 2.k. XoXyX9X( 6 o   . % % u 8 M j.:X7X1XW.b O X   . # q  .E.4XH.:X_.f.^.%.9 & 2 U OX*XpXqXrX;X$XJ.8.^ -.h.F.{.[.D.g.1X'.oXsXwXiXsXsXwXrXqX*X>X:X$X4XA.V.Q.G { b 1 q 2 j g g g ! z.9X-X-XF.t.}.>XuXrXeXeX{.7.v.3X..F B h B g.yXiXqX6Xy.U 2.E.5.g C ! d.dXuX1Xj % % . . . . & N e : J O.P N.q O ; b w % . . .             . .     . . . .                                                                     . .     . .     . # r N.5X-Xr.r.{.>XeXeXrXrXrXeX3XJ.>XrXrXVXVXVXMXMXmXmXVXVXVXVXCXmXMXaXmXuXd.4X7X<Xp.e ",
"xXcXmXcXeX>XtX{.1.a.e.( I.2.8.OX*XrXxXvXnXmXVXVXMXVXmXeX*X-X*X1XI.C :   . . .       . .     . .                                         .     X X o   O 7 M N.W r # . + X X X         . . .                                                                     . O & 7 [ 2 & . # $ S 7 * . . . @   O O # 7 q < .       . O . # . . X + o   O % 1 #.C V p.(.e.C 7 { D } M.| -.}.$XZX5Xf.x.|.L.) / gXJ.h.].eX.XZXdXv.R 4X].eXnX*X*X].].XXqXwXrXeXcXcXmXmXpXqXF.k.c.h.;.<XZX7Xc.7.D.@XeXeXeX&X[.<XI r.{.sXwXrXcX*XcXeX;X;X:X>X*X]..X*XeX>X#Xk.h.{.=X:Xh.6.t.t.w.i.! W Y.h.h.'.'.ZXqXrXqXeX@Xd.{.=X<X4.| Q } e.| I 2.D.-XuX.X`.oXT.q O     . % p m i ! $XXX5X/.o.1   X X # 1 W  X|.w. .#X$X8Xu.C & 1 w -.|.yXpXmXcX;X[.t.^ W r.F.h.9.y. .E C.E.$X*XyXuXqXrXrXqXeXcX;XnX&X,XDX3XY.T.0./ ( _ k 2 1 1 8 b 1.b.+Xm.| Q P.4X>X;X;XkX%X8.t.zXE.OX|. Xk.<XqXrX=XZ. .) c.4XP.z r j ;.=X7XE.e O O . O # 1 S A p : D ).:.~.k O ; ~ V $ . . . .                   . . . . .                                                                   . .   . . . . . % $ w 0.|.>XZ.8.[.>XrXrXcXcXrXtX#Xk..XrXmXMXmXmXMXMXmXmXVXVXVXVXBXmXmXMXpXtX}.4X}.A.M 6 ",
"nXcXmXmXeXtX:XF.-.4.I.W  .) P k.eXrXvXvXnXmXVXVXMXMXmXrXeXeX=XK.2...& > .   @       . .     . .                                         . .   X   o   O : 2 N.s.k $ O + X X X         . . .                                                                     . . O # ` A 1 . O # $ S % . O . @   . O . 7 V w O     .   . . # # . o X X o O % : a *.k C 5.Q.p.C F G G } Q ) g.$X|.T.t.v.|.P. .:.G.g.7.[.ZX&X-X&X{.9.|.-X&XxXvXvXyXbXrXwXpXCXCXbXbXpXrXrXeX=X$X}.[.H.D.{.'.[.c.c.&XqXwXbX;X&XzX .w.<X=X*X*XbXbXcXcXxX>X>X>XeX*Xv.{.eXqX*X{.F.5X$X8XlX1XK.4.! p.a.8.'.].}.9.[.-XXXpX.X>X:X6.F.'.b.P e 9 r Q ! w.4XdXXXXX8X+Xz.V & * o = % 7 ! W G w.].AXD.(.w & .   . 6 w z.dXoXB F E.%XlXP 1 # 6 w ;. XqXrXCXCX;X%XZ.1.3.E.lX'.j.C.| I 3.y.Z.$X>X.X=X;XZX;XnXBXBXrXxXZX@XF.F.f.d.>.b.I.a...C 2 6 7 z ) s._ M C  .j.6X>X,X%XR.r.) R.@XqXwXwX.X&XqXZX#X( G C.8X|.T.I q M i.+X+Xn.6 o . O . # w $.M e 6 n T.f.^.W : u M.~ $ . . . .                       . . .                                                                   . .     . . . . # $ w -.|.dXR.8.c.=XeXrXcXcXrXvXt.;.v.rXmXMXBXBXMXMXmXmXVXVXVXVXVXmXaXMXwX*X[.Z.4XP.r 9 ",
"xXcXmXmXrXtX$XZ.6.j./.( E Z x c.*XrXxXvXmXmXMXMXmXcXmXpXwXtX#Xt.;.u.b 8 O   X               . .                                         . .   X   o     O 1 _ n.W w . o X X X         . . .                                                                   . O *   : w #.1 % o O # 9 % . O .       O O 1 ~ Z & O . O   o . . O @ .   o   . O o : !.W w C 5.8.4Xd./ Z F O.S.>.F.t...| oXuXy.^ 4.E.4XK.8.k.[.$X[.F.f.{.ZXbXkX&X{.&X>X.X`.].*XeXxXcXpXpXiXwXtX7Xf.c.8X{.'.'.:X=XqXpXaXpXeXeXpXbXS.! i.S.3X=XeXmXrXbXbXvXeXeXvXtXc.{.eXqXeX*X_.ZXtX.X.X-X7XK. . .w.D.oXXXP. .<X-XqXyX.X6X3X9.H.5X XR g e k r.S.3X{.ZXK.9.0...A 1 # O O 8 m +.K.F.8.j.*XuXn.E 2 $ # . % q ^ +X9Xz.e m E.3X/.k 1 . O 1 ^ 8XtXcXeX;XnXZX3XZ.r.K.tXXX$XzX[.[.k.r.-.j.lX$XzXK.E.S.@XeXwXaXrX{.H.Z.g.c.|.]..X.X=X4XE.r.Z b 7 i a i k ! I ) D.:X$Xj.S.e.y.3X>XrX0XwXuXtXyXlXW.M b V.7X].OX( 7 p 4.b.G.5.% o   . O $ z N.G e p W +XoX4X^ e a M.~ # o                                                         . . .   . .                                             . . # e C / 9X>X3X8.k.@XeXrXcXcXrX>X) / v.wXpXMXVXVXMXMXmXmXMXMXVXVXMXmXMXaXwX*Xh.k.2X1.q 7 ",
"eXeXcXrXqX>X}.g.2.E.4Xl.} Q 1.8XXXwXrXcXmXMXMXmXCXcXBXpXqX>XG.) F.Y.(.1 % .   X               .                                         . .       o @     1 V n.s.B &   X X           . . .                                                                   . O . + O < [ 2 #     % . > * O O   ,   . O # K X.2 $ # O     . O @ . . .     . .   O C N.k w h Y x._.2XI.Q E G.=X:XK.| I .XuXd.-.2.t.D.J.T t.$X$XJ.Z.v.ZX].rXbX,X#X$XlX*X].].*XvX;XxXmXMXiXwXqXtX>X'.=X>X'.=X=X>XrXwXMXMXXXXXaXqX4XW | E Z.>XmXMXrXeXeX*XqXqXeX>X#X#XtXyXtX_.f.=X&X*XvX.X{.F.4.w.8.F.yXuX .B 9.$X{.{.&X5X6Xg.k.4XhXt.E k I /.4X$X{.7Xi.B q 6 & . & % 8 p } E.*XeX[.:X@X<X! 2 1 $ # $ 7 g U. Xm.W : 8 r.4X(.q #   - & I 8X*XcXeXAXcXqX{.c.j.[.yXpX{.ZXeXcX{.3Xt.t.$X[.E.! G B k.*X0X0X-Xx.6.g.D.$X&XeXNXrX*X*X,X6XG.4.M 9 : : j o.~ Z 2.G.D.6.y.r.R.:X;XCXwXpXpXrXyX{.W.G n y..X-Xb.p.p m s.P.n.V o + O O O 1 P n.q.C | t.-XuXOXV q e o.B . @ X                 X X X X                                 . . . .                                         X X X   . $ N o.-.|.&X4X;.j.@XyXpXcXrXrX;X) 1..XsXpXMXBXmXMXMXmXmXMXMXMXMXmXmXVXaXMXbX9.E.I.V q 6 ",
"rXcXcXpXpXtX#X2.6.4X].4XF G T.-XqXrXrXpXMXMXMXmXeXnXNXcX*Xc.8.t.=X6X^.g : .   X . @ X   X         .   . O . . . . . . . . . . . .     . . .     @     o   & c s.).h < *   o           . . .                                                                     O . X   # 7 e 1   o     . . O O .       O # 6 N $.3 $ . . . .   @ * # & O . O   - O w p.I Z E B 1.y.4X<XP.P.J.f.uX-XP.1.XXfXXXd.6.2.>.h.;.6X>X6XI. .4X*XMXMXCX;X}.K.$X&X.X*XkX&X&X;XNXrXrXNX*X.XuX*X{.v.'.=X*XeXqXrXrXqXNXqXpXbX[.K.4.^ h.bXiXMXpXCXrXrXwXwXbX{.R.3XZXvX{.H.#X3Xh.D.F.=X>XF.j./.Y.D.7Xc.Z k 8.<X4Xc.{.-X{.f.j.I.p.p.W | p.} 3.E.&X=XE 7 O o O % $ e e C L.lXoXCX&X6XY. .p & # # & 1 H 3.k.E.X.9 : 7 2.<XG 6 # . + ; ( }.*XeXbXcXrXmXXX.X[.=XAXrXvXcXaXpXqXZXc.c.*X|.u.r 9 p g.|.}.d.x.c.v.{.-XtXqXrXcXcXcXnXvXkX&X5XE.i.E r 7 9 D F E ^ g.}.8X*XqXcXrXqXcXqXCXqXyXtX}.Z.T 3XdX-Xx.-.p e q.~...b o o % & % 7 ;.+Xr.y.<X5XoXuX(.r q m M N : .   @ . .       X + X X X X X X X X                     . . . . . . .                           X X X   X X X X X + O $ ` } 1.{.-X1X2.t.6XbXpXcXrXrX=X4.w.:XwXaXpXmXBXMXMXmXMXMXMXMXVXMXVXmXiXwXyX6.W.Q.r & ; ",
"cXcXmXrXrXtX3X8.:.$X0X=XC F G..XeXpXaXMXMXmXNXcXNXeXvXZXD.6.t.H.&XtX}.5.2 % . . . .     @ .           . . . . . . . . . . . . .       . . .           o o % 5 q.s.P r #     O .         .     X                                                                 O . o X . & 7 &   o o o   . . . .     o O . O 9 $.B 1 . *       . ; $ $ : O . O % 6 1 B N.I o...e.:.d.5Xh.G.OXx.0XqXJ.9.'..XdX|.K.g.:.x.$XkXx.}.E 3.$X0XiXaXaXeXh.2.f._..X>XkX@X>X;XeXqXuXbX;X.X*XtXtXv.v.{.*XbXtXeX.XeXCXqX*X{.6XJ.t.F.ZXXXCXwXpXrXeXvXZXtX{.7.D.#XeX.Xh.g.h.k.g.g.d.lX.X{.6.-.k.>.>.K.3.e.1.j.E.7.v.-X.Xh.I.G M g / U.C.3. .U f.1X} u - o O d *.w g p.F.uXmXrX{.U.5.b % O . & e G a.W.2Xa.u o ; q 9.U.p . . . o : 3.5XeXcXnX;XrXmXpXwX*X-XyXNXxXcXmXaXeXtX{.&XuX|.! p : p 0.1Xh.k.OX1X].>XyXrXqXrXmXcXxXkXkXxXcXrX=X}.G.4.G b w r m H 5.7._.uXwXMXqXrXeXeXNXrXuX.X].tX{.tX.XtXv.2.r & n Z w < > O 1 e a D 0.+XF.}.tXyXrX=X+.e m %.p 9 % : : O . . @ @         o X o o o + + X +         X                                   .                   X X X X X   O 7 o.} 1.|.-X3X2.8.1XrXpXcXrXrX=Xw.w.>XsXmXmXmXmXMXMXmXMXVXVXMXMXMXMXmXiXrXeX9.C.o.7 O @ ",
"cXrXmXrXrX*X3X8.7.7XiXoXG G J.uXeXpXMXMXmXrXrXrXCXqXvXzXt.r.#XkXeXeX-XgXj 6 % . . O     O % . . O @           O                 + o   o . . + +   + o o o O 1 ~ ~.q.X.6 . . O .               X                                                                 O . o X   O 1 # . X X X   .     .     o .     % C $.1 : . O   @ o 0 N 2 # @   % 1 J & 7 o.( E ~.8X].h.6.c.H.6X.XqXqX=Xh.8.2.8.8.g.1X'.'.&X;Xx.J.C C.qXaXaXaXaXAX$Xh.x._.]..X:X=X{.&XZXvX=X[.F.{.&XeXbX.X>X>XtX>X[.[.6X=X*XvXG.L.3.1.f.>X.XZX>X:XvX&X{.k.8.8.8.g.F.>XCXrX].'.'.v.'.[.$X{..XAX6X2.h.9.g.7.D.E.a.W U.>.<.dX5XP.!.m 9 C c.dX7X8X|.h.x.hXQ & O . & ] B.B V L.ZXrXcX=XA.p.M %   X   % e 3.J.4XI.M = + o p n.P.e O # # ; p 8.&XqXrXCXnXmXMXMXpXvX&X'.*XxXnXcXeX=X'.=XtXtX1XE e 6 r d. XY.g.d.8X-XeXrXNXrXmXmXcXeXeXeXxXcXxX:X:XdX-Xc.;.Y w : 8 K V -.OXoXuXqX>X&X{.eXyX{..XyXwXiXwXXX>XdXz.M 6 7 2 $ # % & g ! { G 2.v.{.*XaXiXrXc.b p b } p J i e $ # .     . .     o                 @         . .   . . O . . . . .                 . . . . . . . . O .       + - > w M.! ) |.XX6X2.4.<XrXiXmXrXrX&X3.w.>XsXMXaXmXmXMXmXmXmXVXVXVXVXmXmXmXaXrXtXK.e.b & . + ",
"cXeXNXrXrX&X<X;.h.uXiX].| G D.tXeXrXMXMXpXeXeXeXwXeX:XZ.1.S.8XeXBXeXeX8X) 2 6 O % % O O % $ # # % O % % % . . . % O O O O O O O O O O O . . O . O * O O . # $ q I z n 1 & O .                                                                                   O . X X X   # # . X X X   .     .             O 2 ` J # % . @   o % #.n $ O > . 1 N J 1 C Z n ~._.AX{.F.h.v.f.{.uX*XtX8XG.j.j.j.}.f.'.tXeX>X$XJ.1.<XwXiXsXqXrX.X4XY.5XXX_.v.{.:Xf.v.>X>X{.c.h.v.ZX*XuX_.{.'.=X>X:X6.g.k.F.zX .w.r.6.vXqXrX>X:X{.=X&X:XD.r.4.4.J.{.*XrXqX.X>XyXuXyX{.5X6XZX.X{.h.<XF.4Xc.-XF.i.| P.h.>.5Xt.! r b } I.DXqXXX-Xv.x.F.P.n & % % $ q B W 4.K.eXqXlXj. .H 8 . o X   & | E.:X<X+.6 O - = p n.0.7 O . # 6 G K.bXmXmXcXcXmXpXaXwXbX*Xh.'.eXcXvX&XH.h.*XuXqX8XL.B C I b.|.3X9.:.7X>XeXeXBXmXpXrXwXrXNXpXrXxXvXvX;X*XqX*X].G.3.M 8 9 2 h / n.G.8XF.4Xk.eXtX[.K.=XqXiXMXcX;XyXY.H : % . . % % 1 ) ^.p.G / OX>XqXMXiXqXh.C } i. .b 7 b !.q & O       O O . . % % & % % % % % O O O O O O O . . . . . . . . . % . . . . . . . . . . . . . . # # # o o = O o % k ~.! ) 5XXX6X6.8.3XyXiXmXrXpX=X .3.-XpXMXmXBXBXMXmXmXMXVXVXVXVXmXmXMXaXNX>X4X( 7 %   X ",
"nXeXcXrXuX&XR.;._.qXiX-XV.! d..X>XrXmXMXpXrXeXeX*XZX#X8.1.Z.>XeXBXcXrX.XP.g 7 . # & 8 6 7 7 1 q 4 4 4 4 4 4 4 w w w q q q q q q 4 q q q q 2 2 2 1 2 2 2 g g w 2 g w g 1 $ O                                                                                     . .   X X X O . .   X   . .     X       X     O # 9 ] 1 % . O     > g B.< 7 . . . & ` V w r w q.5XoXtX*XqXx.v.h.R.F.&XZX>X>XtXtX=Xx.tXNX{.{.zXE.d.].iX0XuX=XZXh.^ r.4X:Xv.v.@X=X'.].*XeX*X@X].&X7X&XeXv.h.>.h.&XqXtXlXt. .gXZ.9.ZXAXoXMX0X0XrXAXeX*XeX*X>X{.k.J.F.h.9.8.8.h..XqXrXbX}.#X}.6X&XZX{.8X7X.XXX|.e...E.F.'.G.G p g e.E.H.eXrX7XhXl.1.I.( q 6 ; ; $ 4 h I.U.d.bXtXS. .r 6 O   X X . 7 E.lX-Xb.C & 8 % O 7 -.T q & % e C 8.=XNXNXmXcXeXeXrXpX0XyX>XF.{.wXaXrX&X'.v.NXaXrXtXDX9.j.G.5XdX}.c.d.kX;XeXcXrXpXpXpXpXpXiXpXqX&X,XcXrX{.{.>XdXJ.E.P.W r & 7 r H E p.| e.1.[.&XE.U ^ 4XeXCXeX;XqXOXF % O . O . . 2 6.+X4.z P E.6X{.rXwX*X{.t.U.ZXx.U g B B.e & o     O . . # $ 1 1 1 7 7 1 1 7 1 $ & $ & 1 1 $ 1 1 1 1 1 1 1 1 1 1 $ $ 1 1 1 1 1 1 1 1 1 1 1 1 q 7 % % 6 & O 8 ^ ^.(  .7XXX6X2.8.<XrXiXpXrXaX>X|  .-XiXMXmXmXBXMXMXmXMXVXVXVXVXBXNXMXrXeX@XE.B 1 % .   ",
"xXbXeXrXeX:XJ.9.uXiXwX-X/.) 7.{.;XeXcXmXpXpXrXeXZX$Xg.8.H.6XeXrXcXBXrXqX1X) 7 # d ] #.%.%.$.$.%.M.M.O.o.o.o.M.M.$.o.o.o.$.$.$.$.$.$.$.$.$.$.o.X.%.%.$.o.M.' A 1 J K #.L & % o o                                                                                 . .                   . . .   X X           O O   O t ] # % . O o . 2 n $.< %     . 5 M.r q 1 n /.5X].rXwXNX.X'.k.k.@XqXqX*XwX*X7X5XZX*X&XlXE.k._.x.].|.8Xk.D.y.I 4.1X-X].{.:X&XvXeXrX*X&X@X&XZX6X@X>X{.$Xc.F.&XXXrX;XzX1.P j.:X].XXqX.XAXyXbXXXrXqX0X0XwX.Xc.H.lX[.Z.G.K.}.*XqX_.tXF.:.6.H.>XyX{.lX=Xf.].7Xa.! h.>.E.W 7 e 4.Y.@XkXCXeXx.R T Q.M.b 1 % . O r O.u.K.#X[..X5XI.j 1 #     X   % M R.;X5X0.4 # 6 $ 1 n s.P 4 2 9 O.T.|.XX*XeXcXxXxXeXcXmXwXyX>X@X>XrXwXqX*X.X.XmXaXmX0XyX&X$X3Xg.Y.4Xk.d.7X>XeXeXeXeXcXCXNXrXwXwXqXF.F.*XrX=X%X>X>X[.f._.K.p.q 1 6 : 8 p p C 1.c.{./.x T 4X{.eXxXcXrX3XH ; O . # . % r z.8XY.-.^ E.3X].qXrXtX7X#X=XXX].h.I.4.W C e . o @ . . & N #.A A G X.X.H ~ X.K M b b M H F M X.X.o.o.X.X.X.X.X.X.X.X.X.X.X.X.o.o.$.o.o.X.X.} ~ H p 9 r 7 % e 0.hX3.4.dXXX=X6.2.R.wXiXrXrXaX>X..3.-XiXMXaXmXmXMXMXMXMXVXVXVXVXmXcXBXrXeX=XE.n 1 % .   ",
"{.bXqXbX>X6Xj.9.uXiXqX'.E./ 6.$X:X,X;XeXaXaXpXqX<Xr.-.k.>XyXeXeXxXCXaXwX9Xn.r & t S ` } X.} } O.~ ` o.%.%.X.` H H K K K K K K K D L A H J D A A m N A A o.` ] 0 8 i L K $ .   X X                                                                               O . . O     o       . . . .   X X         . .   +   > t 0 # O O % % # 1 $.B & . % # 1 b ` 4 7 8 p V.lX*XZX*XqXqX[.{.:X&XbXrXNXeXF.H.=XZXkXF.g.lXyXx.8.i.E.2.E | 3.i.|.tX*XqX>X].eXeXeX{.F.D.F.@XlXR.Z.k.=XZXvXZXvXqXqXyX].f.$X:XyXqX=Xg.-.<X:XvXXXaXiXiXNX.Xv.{.tX*X:X7X>X;X@XH.H.F.6XF.<Xd.].XXbX{.k.R >XF.e.| 4Xh.a.b e ( 9X0XmXBX{.'.&XF.c./.m = o -   % g ).4X=X@X%X=X<X( w 1 # . X X . 1 E 3XkXT.^ 3 # . 1 I s.Q.h c k n C.5XwXqXuXbXxX;X*XnXeXqXwXrXqX;X>XlXv.'.>X*XeXeXnXcXqXrXeX$Xy.F F ~.-.6.|.uXwXqXcX;X:X:X%X,XeXcXeX[.g.v.>XeXeX;X&XZXx._.7X1X/ j 6 & % 8 r W G.{.5XT.2._.yX*XeXBXAXrX<XM O O . # # . m P.=X5Xk.^ t.>XrXrXvX>X$X#X7X*XuX5XOXb.P.^.g %     . # 7 K %.B.B.N.Q.Q.Q.Q.(.(.Q.p.N.Q.(.Q.Q.Q.Q.Q.~.Q.Q.Q.Q.~.Q.Q.Q.~.~.~.Q.~.(.(.(.~.~.~.~.~.Q.B.B.B.~ 8 e Y.8X4.4.7X0X5X9.1.R.wXiXmXpXaX>X..3.-XiXaXpXmXmXMXMXMXMXVXVXVXVXcXrXBXrXeXlXW.n 6 .     ",
"t.6X*XCXqX$X4.2.XXiXdX{.hX2.8.4X#X@X&X*XwXiXiX*Xj. .Z.lXeXqXeXeXcXcXMX0XXXY.G 7 & 7 g h h x v U x h g g w w w w w w 5 w w w q q q 5 w w q q 5 4 w q 4 4 h 5 e % 8 : r X.q & . + X                                                                               . . O O     o X     . # . .   X X   X   . . .   o + . % 8 # % . . % o % w B.S $ 1 7 1 < H K : d ; p 4.J.G.3XNXrXbX>X{.h.=X&XuX.X6.2.9.F.,X>Xv.{.wX].1.W A.E.3.i.( -.c.>XuXyX.Xv.kX:X:X%X:X6X{.F.h.g.t.8.F.tX*X*XAX.XAXwXqXbX7X=XqX.X<XW. .) 3X=XqXCXwXwXyX{.{.>X*XqXeXeXqXqX>X}.6.t.$X6Xk.g.{.lX[.3XZ.-.|.6Xr.^ E.l.r 1 C ~.uXiXpXeX;XkX{.|.2XW : o     o 6 c k.*X&X>XlXH.t.j < # . . . . # q ! E.k.W 3 < 0 $ r n.T.q.c -./.L.SX*XwX*X=X,X&X;XbXlXF.x..XyXqXnX>X5X6.d.7XeXvX;XZXeXcXCXeX,X .m u G U c..X*XpXrXxXkXH.r.r.H.kXvXeX:Xh.h.=XeXrXeX&XkX&X>X-X.X|.^.Q 7 % : 7  .E.2XT.r.;.oXyXNXeXmXcXeXJ.b % % . $ $ & X.gX{.5X$X;.d..XrX=X[.c.;.2.P.G.d.1X|. X|.Y.z %     # 1 2 g B h z V V x x x V V V Z I V V V P V P P P P V V z V z z x P P P V P P U U U U U I Y P k B ^ V 7 n 4X=X4.4.-XqX>Xk.1.R.rXaXmXmXaX=X..3.-XiXaXpXmXBXMXMXMXMXMXMXVXVXBXcXCXcX*X6Xi.q : . . # ",
"C SXXXiXaX&X) 3.&XwXqX].k.1.( W.1X7X*XuXqXiXaXoX4.3.g.>XrXrXrXcXcXqXeXtX>X8XL.B 7 M I.T.4XF.;X>XOX2Xl.4.a.a.3.4.I.8.-.-.2.-.) ) 8.9.:.:.6.-.8.U  .W E I h -.a.M.m H Z Q.Z 2 1 #   X X                                                                                             . . . . .                         . . O O .     o + o $ L ' V P B.w 7 $ 0 # y a D C B E 8.{.NXXXtX.X{.#X1X].dXF.6.U.4X@XZXeX]..Xv.;.A.6X8Xg.S.k.2.K.[.AXrXeX[.E.4.2.9.x..XZX=XdX@XD.H.:X[.&X].xXeXeXrXrXeX*X*XqXXXG.W./.3.D.>XCXmXrXbX&XZXvX;X_..XqXNXaXiXNX*Xd.g.[.$XZ.y.K.E.4.w.G.7.d.6X<Xz...4 # $ Y 1XmXVXmXeX{.&X%XY.! q # . # 0 8 7 y.=XMXmX>X[.A.p.2 $ .   * . & 7 q p.^.) 2 6 . 1 k ).b.m.B w gX6XkX>X*X=X:X>.d.:XoXdXu.V T [.>X*XrX*XbXx.f.ZXeXeXeXvX&X;XqXrX{.Z.! b Z P }.tXcXAXeXxXZXK.n j ) zXkXvX&X@XF.=XuXbX&X:Xk.9.F.>XyX*X#XU.E r : : C ~.} B U r.4.J.;XCXrXcX.XOXG 7 $ # $ 1 r e.1XkX%X{..X].yX>XU.i.n.).n D K G ^.g.'.6XI.b . X . # 2 Q ( ( B B B B B z h B B z h h z B V Z I V V I k k B g r 2 g ^ x V k k n k z x x z h k h x h x Y Y g M.1X|.w.3.:XtXeX@X8.R.yXiXmXBXpX;X .3.-XwXpXpXCXmXBXmXMXMXMXMXMXVXnXxXBXeX0X1Xk % o @ & 2 ",
"q p.oXiXqX=X! | =XqXuXtX4Xr.I ( t.F.=X>XdXuXsX_.1.W.$XtXrXmXcXcXpXwXbXvX;X>XJ.) m F 4.h.{.*XcXcX*X-XF.g.k.j.4.6.zX$X{.=X5X$X#X}.1X8X{.|.5X XOX9.r.i.3.a.u.T.T./ C M W N.q.w 2 &   X X                                                                                                 .   .                                         + o . 1 H M.P p.!.q 6 . : # e b K X.Q ^ 9.v.'.ZX}.<XR.<X}.].f.7.g.9.[.tXqXcXeXvX@X$X$X$XF.[.<X8.8.j.@XeXeX;X8.^ 8.4XdXtX*X&X.X>X:X{.ZX>X;X{.eXeXrXcXcXcXcXrX0X-X;.U C.r.c.&XpXrXrXbX;X;X;X*X{.=X&X*XiXiXwX.X{.'.-X7XH.g.9.t.W  .K.'.f.F.c.~.m # . < -..XmXBXxXtX&X:X4Xe.e : # t 2 q 7 } 3XnX*X{.:XT. .M # . @   . # $ q b Q.q.g % = o & P m. X9.j e.<X>X&XeX;XlX#X;.9.|.oXOX} r -.}.:XdXrXrXrX.X[.:X.XeX;X,X:Xv.qXrXvX[.r.3.(.) {.rX*XnXxX&X*XF.I C -.#X,XxX;Xc.f.&XbXrX*XZXc.k.{.bXmXrXeX:XU.Z 8 : n Z 1 r ^ t.1.Z.&XCXcXcX=XU.E 7 $ # 1 r } u.%X&X[.[.uXuXtX;.B B v Q.jX. % a W :.'.lXV.i . X . $ g a.E.E.E.E.E.E.E.E.E./.E.E.E.E././././.E.E.E./.W.I.(.Q.m L _ ~.G.E.W./././.E.4X2XT.L.V.(.^.W.T.b.d.z a.OX|.r.w.:XxXcX&X2.G.-XqXcXNXrX;Xw.w.>XpXpXpXCXcXBXBXmXMXMXMXMXVXnXnXCXrXwXb.w . o o 2 ~ ",
"6 n T.dX.X6X( 3.>XwXwXXX>X=XD.<X-.2.t.c.$X|.1X9.^ E.=XqXeXcXrXmXMXaXMXmXeXeX$Xy.q 7 j ^ 9.{.;XcXeXcX;X{.%X[.D.c.&X;XxXcXxXeXkX>X:XkX:X,XkX@X#Xj.y.W.1.r.t.t.<X9.3.C n Q N.z & @                                                                                                     .                                           O .   O % # 6 K #.C Z n 2 6 . & 1 2 b O.~.r.)  .^  .3.| y.hX6.;.5XoX-Xv.{.=X&XZX.X;X>XZX1X3X5XZX|.g.1.w.D.;XqXrXtX.X=X{.*XyX$X}.F.1X7X].tXeXeXnXmXBXcXeX;XeXpXwX*X8XJ.t.1.2.>XAXpXpXrXeXeX{.[.@Xc.H.D.|.NXsX-X$X{.].yXpXyXqXoX.XU.;.:XZXx.3X/.E 1 # > m OXyXeX&X$XD.>XlXi.b : . 4 A w r h A.>X&Xr.3.W.e.e O   X . . . ; 6 M E ~.N.4 % o = 6 8.4XT./ P U.lX@XZXZXF.3Xj.) h.OX2X4.i 6 8.'.].yXeXyX*X7X3XD.F.ZX&X@X3Xd.*XrXbX>X|.E.a.U v.rX.XxXbXeX*XdX$X6X-XAXcXcXZX&X*XqXpXrXyX*X{.&XrXNXaXiXmXcX=Xl.Q 7 1 e 7 K :.}.{.kX;XxXxXbX$Xi.F 6 # . 1 K Q w.lXxXvX.XrXuX=X2.r X.GXJXFXt & 1 ! U.-X'.} 9 . X . 1 h z.1X:X,X,X,X>X>X*X-X-X-X-X-X=X:X-X=X*XtXtX>X>X&X$X1Xt.B ~ t. XdXuX.X7X$X=X*XeXeX>X8X8X<XJ.5X8XT.u.z L.1X|.t.8.;XeXcX>X-.l.1X&XvXcXrXvXr.r.=XpXaXmXBXmXBXmXmXmXMXMXVXBXcXnXcXeXuX6.2 O * 6 c ).",
": 6 4.+X<X4X .W.,XrXaXwXrXyX*XdX#Xy.) 2.j.T.C.^ 2.<X*XNXBXmXcXCXMXaXMXMXrXeX>XT.n 9 e E 9.v.{.eXqXmXcXeXvXkX&X&X*XcXmXmXrXcXnXvXkXZXvX;XvX,XkXH.3XE.) t.R.H.lXH.I.E e r Q._ O +     . .                                                                                             .         .                               . . . . . ; % . % 7 2 g r p e 6 6 i K b w I T ( W.S.3. .n W S.-.2.}._.uX{.F.}.$XlXbXeX].:Xg.8.:.>.|.}.U.j.[.bXmXwX.X=X7X.XuXZXk.2.6.g.[.'.vX&X'.vXeXbXvX&X@X>XbXtX'.c.F.}.9.d.>XrXaXpXcXeXrX_.v.:X$Xh.^ 8.>XtX$X$X7X*XrXwXwXNXqX=XT.z.].&XkXzX! q $ & & r }.XX>X$Xj.9.<XP.F : ; # ` E C W -.5XqX=X3.+.Q.M %   + o . . O 6 b o.4.a.M.2 ; o = i z.9Xh.R h.}.lXH.#X9.h.{.j.2. X+XI.B : 9 t.v.x.].*XyX&X8X#X9.D.lX{.{.H.g..XtX{.-X-X<X) ) ].sXoXXXqX*X&XvXeXrXqXaXwXrX;XvXCXwXqX_.F.{.&XqXmXMXrXpXMXmXqX6XL.n 6 J N w l.5X.XqXeXnXcX,XZ.E i O   . 3 $.G  .kXeXcX*XNXsX>XE.} &.JXKXJXPXKX1 q 1.=X+X} ;   o O 1 V T.:X*XeXeXeXrXpXwXwXuXrXrXrXrXrXeXqXwXmXmXpXrXeXeXeXg.C W k.oXaXiXwXrXnXxXcXmXmXpXyXtXvX&XyX7XE. .W E.7X:Xg.8.*XqXrX7X1.i.P.K.>XeXrXZXt.4.{.rXpXmXmXBXBXmXmXmXMXMXVXBXcXBXrX*X5XU $ O % 2 x 0.",
"; & n s./.A. .4X;XmXCXaXpXiX0X0X:X4XZ.y.E Q !  .K.&XqXAXMXMXnXbXcXmXmXMXmXrXtX1X! 7 6 n n.x.].XXqXrXrXeX;X&X&X&XqXmXMXaXrXcXcXxXxXxXxX;XcX*XvX:X3X3Xg.g.[.=X-X{.g.E 9 6 q.o.O o X   . . .                                                                                                 . . .                                   @ . . . O % & & 6 % % s p N a & J X.G | L.4X8X'.8XJ.A.r. .r.t.9.d.F.F.c.D.Z.3XeX.Xf.F.1.e.G (  X|.7X'.*XeXNX*X1Xk.c.f._.F.4.S.t.6.8.;.H.[.c.%XH.$X:X#XH.D.Z.y.j.F.[.>XZXtXeXcXcXrXNXeXeXv.v.5XZX[.4.y.E.h.x.-X-X*XqX_._.=XH.t.-.-.].>X/.} n n 4 r r B <X*X*X$X-.L.a.B 9 O # q H Z ) g. X>XtX7XD.L.o.$ . O @   o = 6 B -.m.z.s.~ 1 = = ; H G..XdX*XrXyX'.gX .3.{.*X:X_.uX5X5.q 7 C h.'.9.g.&XyX*X-XF.9.F.{.v.=Xt.j.{.ZXF.F.-XD. .W.qXiX`.oXXXuX;XvXnXBXrXaXsXyX&X>XrXqX<XW n e.}.*XrXpXeXbXCXmXbX=X|.1.e i ~ U U U.dXNXqXqXrX>X8.r %   X . 3 M.C ! kXrXcXrXMXrXZX<X| H FXJXjX#.jX@.e o.+Xm.p o o o . 6 E E.=XXXrXbXNXNXaXpXuXuXNXmXmXcXrXrXmXmXmXmXpXmXcXnXxXg.E G A.>XsXiXVXcXkXkXxXcXmXmXrXqXBXpXaX*XC.n 4.#XtX>Xk.g.qXqXqX$X4. ...4.$XqXeXdXj.4.v.uXpXMXmXVXMXmXmXmXMXMXmXBXBXCXrX*XT.k % o : 1 q.0.",
"O % 1 Q ~.r.) <XbXcXcXrXiXMXaXMX].ZX6X<X! E  .y.k.{.qXMXiXMXCX;XnXmXmXmXMXmXuX1XL.b 8 p Q.n.+X+X5X6X6X4X<X2X<X<X}.5X7X7X8X8X6X1X1X#X6X$X6X$X4XE.U.E.E.4.g.Y.1X4XT.q.a i X.%.u - o   O . . .                                                                                                 . . . . .                             X . . . . . ; d f % % 7 7 r N p m F b r p.hXv.-XuXXX{.k.1.j.Y.K.<XD.F.#XH.-.%XtXvXF.3Xy.~.Q Z K.x.5X@XeX].qX=Xg.j.Y.g.h.h. .r.gXF.2.Y k.$X:X:Xc.@X>X:X[.k.4. .g.[.7XvXXXrXbXxX;X*XeXyX>Xv.v.:X{.F.u.W.L.-.f.tX*X&X*X'.x.K.A.) 2.,.1XzX} F i.e.( q.p.1.2X1XF.h.9.V...2 O   # q j E t. X&X*X-X}.Y.s.p . * O . O o : C 4.G.d.T V e & ; 8 i p.1XqXCXmXwXXXf.P.I r.lX{.=X|.uX9XE q 7 ( m.v.4.8..XqX*X-XD.t.K.h.x.5X2.y.6X6X2X6.5Xh.I /..X0X`.].XXyX;X,XxXVXmXiXwXqX*XbXrX*X4X .F w.#X*XrXpXxXbXBXmXNXXXdXY.C q E N.W j..XyXbXNXNX'.( 6 o X X . 4 q.} } lXBXVXMXMXwXqX7XW.n @.PXjXS s HX6 w d.0.8 + + + . 7 ! /.|.=X&X*X>X*XqXXX.X.X*X*X*X*X*X;XeXeXqXqX*XqX&X&X@X8.! Z k.=XwXwXCX;XkXkXkXeXmXMXMXMXmXaXMXvXC.M <XZXeX>XZ.k.tXwXqX{.t.I b Z $XuXqX&XG.8.c.uXrXVXmXVXMXmXmXmXMXMXmXmXVXVXwX{.e.q O o % 7 Q.1.",
". # $ j p.4.2.$XxXeXcXcXmXMXiXwXCXeX&X=X6X1X<Xg.4.R.eXMXaXVXVXmXmXVXVXMXMXMXrX=XgX! 8 : A Z U I Z C C C M M F F C G ! ~ ~ ~ Q G E G ! E ! E E G C M F r G } E Z o.Z 7 & q L r #   o . . . .                                                                                             . . . . . . . .                         X X   . # . .   . d #.r 7 $ i 2 U U F p 9 G L.2X8X_.yXuXqX'.f.F.|.1X9.D.*X>X) 3X&X*XD.}.$X4X| C ^.;.u.U.}.[.tXtX7.c.1X>.;.U.e.3.4X=X_.x.=X>XZX*XoXwXaXaXwX.X[.#X-X&XtXNXXXMXAX&X%X{.@X>X{.v.'.-X7X9.B } e.8._.qXZX>XXX{.t.r.I.:.x. X .C j e.K.6X<XgXn.U / r.4.t.K.-.b :   X * & m p.S.:XqXeX1X9.-.B # . . . . : 9 G y.G.gXT 4 $ % % 7 b W J.>XrXwXwX>X|.2Xr.1.l.E.8.4.T. XG.n e j o.T.9.( r.{.qX].5Xg.t.<Xh.F.}.-.j.6Xc.L.1.1Xh.I /.}.|.g.g.F..XZX;XeXrXiXiXyXtXXXcXpXrX*X:X#X#X>X*XpXMXMXMXMXpXmXrXyX5Xz.z 6 7 ( G.7X*X].&XZX4Xn & + X X . 4 ..!. .H.eXrXmXMXVXMXbX=XU D JXjX@.@.FX& 2 s.^ & +   O . e } ^.K.1X}.<X4X<X1X1X+XE.<X1X3X3X<X<X3X3X3X1X3X6X3X4X4Xt.1.2.v.uXNXrXbX,X:X>X;XqXwXiXaXaXuX*XuX6X} M 3X*XqX*Xk.g.>XuXeX&Xc.U e b <XuXyX.XJ.8.x.tXrXCXmXVXmXmXmXmXMXmXmXmXmXMXwX XE : o o % m Q.( ",
". . % $ E 4.8.%XnXcXnXnXcXmXpXaXrXrXCXqXyX].-XF.) U.-XNXMXMXaXVXmXVXVXaXMXMXrX-X5X8.b : & 1 3 3 1 # # % O O O . # # $ 1 1 & $ & 1 $ 1 $ 1 $ $ & & # & # $ $ $ 7 2 2 7 7 & 7 n 4 o o   . # .   X                                                                                           . . . O O O . . .                     X X X . . . @   O # r $.7 e % e a.a.E H O.F h 2.K.f.]..XoXv.J.SX5Xv.-.#XXXvX2.R.ZX.Xg.h.dXoX4.( ~.P I  .-.k.>X*X=X|.4X;.;.E.i.w.K.oX*XyXtX].tXyXaXaXiX0X`._.[.6XtXrXqXpXmXMX*XZX$XD.D.$Xc.c.'.-X-Xg.(  .r.k.*XCXtX{.c.H.8.4./.8.OX2Xw q k /.=XvX{.}.a.h x 4.r.P.P.I $ O X @ . 1 G C.g.:X.X7XP.Z g 1 . @   . : 7 ! A.lXF.I.j $ O % 6 Z 1.k.8XeXeXBXeXD.4.y.U d.b.L.E C I.G.l.q 6 C p.(./ I L.=XbXx.K.1.2.gX}.=Xv.-.P.4X2.( y.OXc.T ^.}.6X4.3.[.>X*X{.$XkXpXwX&X'.CXaXNXCX.XXX*X{.$X[.*XmXMXMXVXVXMXCXwX]. XI 6 i k 8.|.7X-X=X}.1.7 O + X o # 4 _ Q.W g.>XrXmXrXMXMX0XNXY.e =.FXIXHXa 1 A ~.P 1   . . . 1 b W P ^ W ! ( ( ) ) ( ( ( |  .| ( ! W W ( ( ) 3...+.p.! Q.I.U.OX1Xc.6.1.w.S.E.3X-X>XuX-X+XG.+X/.C Q 6XqXyX*Xg.6.&XeXbXtX X/ b C 1XqXrXuXJ.9.h.tXrXCXmXVXmXmXmXmXMXmXcXcXmXaXyXK.b ; o O 6 ~ a.) ",
"& . O 6 4 W 8.=XcXBXnXxXxXcXNXcXpXwXpXMXaXwXXXF.8.U.7XNXmXMXVXMXBXBXBXMXMXMXeX>XqX8XE 7 O O # # . . .         . . . . . . . . . . . . . . . . . .     . . . . . % % 1 e : 7 (.V O + o . . %   X                                                                                     .       . * y . % . O * .                   X X . # . .     . . $ b A r 8 & r !  .4.^.I.^ V ^ r.P.4.( E ! /.Y.J.2.#XXXeXt.Z.&XtXD.F.qXuX9.) V.( | W T $XtXtX=X8X9.6.gXP.) r.<X.XqXXXqXyXeXeXXX]..XtX'.h.2.D.*XNXaXrXCXqXeX*XF.H.y.y.k.c.5X>XuXqX$X6X3X&XeXXX*X=Xt.r.2XU.y.V.Q M w E :.$XrXrXvXD.B k T g.DXj.g 9 .   X . 2 W U.$X@XkX$XL.C 6 . O . . X . 1 E |.{.{.E.N.q % # D E ;.8XH.@X;XvX;XH.w.+.V ;.9X X! r E a.T.^ 7 : H q.N.W I U.tX].4.e.I L.j.7.-X'.G.U.gX/ V E.5Xx./ T.oX>XZ.j.:X&X>X6.4.u.:XvXt.g.cXMXqXyXeX].@X<Xw.I 8.ZXMXaXVXmXVXmXrX*X1XU q &.9 M U.5XXX5X3.b & . + o . $ 2 B ~./ -.lXxXrXmXmXpXpXXX<X..7 &.KXPX{ 5 ~.n.Y 1 .       . # $ 1 1 6 : : 6 1 1 & & & 1 & & & & : 6 6 6 6 6 6 6 : : 7 e r b b e 9 8 u i M F G G G E V V I I k I.=XuXsX.X6.1.$X;XeXeXoX6.Q } }.yX0XuXD.;.h.*XbXNXVXVXmXBXBXBXVXBXcXcXMXwXoX2.7 o o O w ~.gX7.",
"# %   % 2 z n.{.rXmXxXxXxXcXeXqXmXpXMXMXaXrX.Xc.g.H.=XeXmXMXVXmXBXnXcXmXMXmXeX;XwXqXj.r =   . .                   . . . . . . .                                   O $ 9 u e s.5.: o o   . .   X                                                                                     .       @ O y % . % O . .                   X   # # . .       . % $ r #.N & 9 7 C s.0.T V } B O.Q...Q E G 3.i.4.4.4XXXrXD.Z.eX*Xc.}.uX-X9.4.( 5.I.r.D.>X.X&X8Xg.2.9.9.:.;.k.<X{.-X*XqXbX>X>X>X=X].&X$XY.1.8.@XrXmXpXCXeXrX*X{.#XS.w.D.<XJ.7XqXiXqXqX*X*XNXNXqX{.1.4.E.z.^ B e e E I.OX-XqXAXD.U j | P.+Xz.U 6 o     % $ k 2.1X>X&X'.gX| 6 O + X . . . % E j.uXNX<X~.F & . e Q.9.v.tX$XF.v.,XlXU.V.n ^ OX9XK.k C ) E.6.x : 8 H o.| V ) OXqX'. .F W P.t.7.oX].<Xt.V.W U <X-X_.R 9.-XyXkXkX;X;X{./ n ! }.>XZ.H.cXMXrXrXyX.X$X4Xw.Z 1.%XrXMXVXBXVXmXMXXX1Xr.e a u p ) OX-X XC : %       % t p g I.9.1.R.,XcXBXmXCXCXeX:Xu.C F X.%.r I P.m.T 7 O .   X   . O . O o o o O O O O o O O . .     . . O O O . O .     O . O % O o o o o o % ; % % % % < < 2 w x A..XXXuX.Xt.4.$X;XnXrXXXx.e...F.yX0XqXJ.6.x.-XxXcXBXVXMXmXmXmXmXmXcXcXwXXX4XU : o o : E E.1Xx.",
"i : o   & 4 s.OXeXmXnXnXBXcXeXeXBXmXMXmXeX$XZ.8.{.qX*XrXMXMXVXcXnXnXnXcXmXcXkXeXaXwX7XW 8 o   .                     . . . . . .                                 X + O 6 S j T N.p O o @ . .   X                                                                                     .       @ O y d # . . . O                   . . . . # .     X +   O : t ` K ; : : e E W M D r e b } I.T.8.4.| E ( G.{.>X:XlXeXeX=XlX$Xf.6.A.3.u.<Xv.XXqX*XlXE.) ^ j.c.h.'.5XD.k.c.v.[.&X@X:X[.ZX*XqX*X5X1.r.$XyXrXqXBXrXpXqXeXlXR.1.t.k.;.c.qXmXrXyX*X*XkX&X.X=Xc.A.T. .k w e } A.5X>XdXoXY.E g  .z.+XgXE 1 O + X + # 4 P g.4X{..X'.V.b % O @   . % $ B z.-XqXoX3.{ : O $ j hX].XX&X6XH.h.@XH.y.V.C k. Xb.n.j e.'.oXh.h ; = A ( P ^ G.5XqX>XV.b 8.|.h.x.-X.X1X1.} M ) #X-XF.V U |.qXcXCXrXnX8X2.r G oXpX&X,XBXmXpXwXqX.Xh.D.E.k.F.kXxXcXBXnXnXnXVXqX-X^.q : u e z T.T.2.7 O O     O 1 J K w z.G.) y.:XxXNXcXeXrXqX-X1XU.r.V j g j.OXK.^ 6 O . .       . .   X o   . . # . . . . .         . . . . . .       . . . .       . O . # . .     X   . . 1 / }.=X*XuX=XS.j.#XkXAXrXXX|.~.3.h.yXwX*XJ.6.c.>XxXcXBXVXMXmXmXmXmXmXcXrXrXoX^.j : o o 7 i.$X.X'.",
"%.7 O   % < V ^.>XrXcXBXCXBXcXcXcXBXMXcX;X#XC.) uXaXrXNXVXMXCXBXnXnXcXcXcXcXxXxXMXMXbXS.p =   X                         .   .                                   X +   : a j x N.K % o + .     X                                                                                     .       . O : f 0 . O O O                   . . . . . .   X + X @ . . & r %.@.8 : 6 2 n J i N K M h / U.U.r.k Z ^ g.6Xv.f.&XcXrX*X7X6X|.'.3X8./ c.=XqXeXvX$X9.-.-.k.8X7X*XtX[.D.H.[.@X[.D.H.6.>XqXwXqX5X1.L.3XtX*X.XrXrXmXrX].>X[.8.8.t.8.c.tXMXpXrX;X@X@Xv._.-X|.T.p.n 7 e F ~.8X].*XlXn.I 7 M W.OXc.i.r .   X , o q I G.F.<Xh.'.2XZ 1 O @   . O % j i.7XXX*Xd.M : = = 6 k  XXX.X&X:X:X'.F.9.U.} C OX8X/.h n I.>X.Xm.n > o m ( ^ 9.5X-XqX@Xe.Z '.tX{.].dX5X6X1.F p -.}.].f.x ^ 5X*XeXBXcXNX{.2.w I XXiXcXnXnXcXMXwXwX.Xf.h.g.D.=XvXvXxXcXCXnXcXmXrX-XE.b : ; 6 ^ ^.5.j % o     O % 1 K $.g 6.U.! w.lX;XeXcXcXcXrXqX-XdX5Xg.3. .<X5X1X1.6 O . .   X       X X X X   . . . . . .               . . . .                 . . . # # # .     X X X X   1 l.>XtXtXuX].k.U.$XxXVXrXoX7XE.-.>.-XuXuXD.;.c.>XvXcXBXVXMXaXmXcXcXcXcXrXXXOX) 2 % o O q U.:X&X].",
"(.C & % . # 2 q.5XeXcXcXBXmXmXBXcXnXnXcXeX:Xy.( eXaXrXCXCXcXVXVXVXVXMXMXmXcXcXmXVXVXrX4XQ %   X                                                                 X X   % 6 j g o.$.7 o o   .                                                                                               . . O . d s . O * . .                 . . . .   X X X X +   . # $ 7 2 ` O.H 7 % % 6 a e #.N.) z V  .u.L.u.9.h.}.d.f.ZXeXrXrX*X>X>XqX.Xd.T 2.4X#X[.@X>Xv.x.v.|.=X=X*XuX&X.XqXeX&XD.1.-.c.eX0XwX>X<X(  .4X>X{.].pXpXNXeX.XvXvX;XH.J.4X[.eXMXiXwX[.H.;X.X`..Xh. .F : O % } P.:X*XyXJ.F % 1 E Y.1Xr.C 1 .   + o : Z Y.1X}.3Xg.g.s.4 $ @ X X @ o 8  .3XrXXX=X2.r O + o : B }..Xx.>XXXyXtXx.c.P.G 3.OX+XQ.q n I.x.+X5.p o o 8 } i. XXX0X*Xg.^ t.ZXsXqX].5XOX}.) F M t.=X:Xv.:.z.8X=XkX;XAXqX].h.U 2.uXqXeXxXeXeXmXwXrXyX'.OX-.j.#X=XcXmXmXVXmXVX;X&X].Y.} 8 o : P.m.n # o X     O % 1 X.!.h / W.( 3.lXqXeXcXnXcXNXrXXXqXrX-X4XG.=X-X|.u.e : . . X X X X X X X X X   . .           X X X X X     . .       X         . . . . . . . .   X X X X X   q Y.uXtXtX&Xx.8.Y.:XeXVXmXXXtX<X;.>.{.uX>Xk.-.x.tXvXnXBXVXMXaXmXmXcXcXmXrXoX^.n $ % O & j U.:X,X{.",
"U.i.q 8 . . 1 k Y.eXnXcXmXmXMXMXcXnXnXcXrX;XS.2.*XiXpXMXBXmXCXVXVXMXMXMXNXcXBXVXVXBXcX6XV.2 O X                                                 . . . .         X X   O $ e r A M.r O o . .                                                                                               . . . # & y : . O . O                 . . . .   X     X   @   . > . & r ~ N.o.7 & 6 $ $ 1 I Q.Q. .1.l.z.;.g.2XY.k.@XvXqXmXCXeX*X&XeX.X$Xk.6.Z.Z.j.g.lX7Xf.v.5Xc.v.tXtXbXcXMXBXvX$XZ.Z.>XcXiXaXtX#X .( <X7X*XXXmXwX;X[.@X;XeXrX.X'.#Xd.*XrXMXmX%XH.eXrXwX-X8.M 6 % % 2 e.H.:XtX'.1.8 O r q.T.g.C 1 & . * . % r L.$X:X[.4Xu.! w 2 . X X X . % M U.kXqXqX4X5.q : . u p  .3X{.d.ZXXX0XbX'.k.^ ( /.K.l.F p p.P.h.OXp.9 o = e E k.dXuXqX>X[.9.=XyXwXyX|.j.1.J.-.|  .4X7XZX7Xv.OXg.8.Z.k.AXqXtX7XD.|.dXqXqX*XxXeXcX*X.X.X}.2Xj.E.6X>XBXMXmXMXmXAX,X{..X5XQ.9 = & P.>.1   @   . . . . 1 X.Q.x U /.p.W [.rXNX;X;X&XrXpXwXwXiXsX=X6XeXeX{.Y.E e & . X X X     X X X     . . X X       X X X X X     . .       X         . . . . . . .   X X     X   O M $XeXeXkX{.f.;.OX>XrXVXMXqXdX6X9.t.$X*X=Xj.-.c.tXbXcXVXVXMXaXmXmXcXcXmXrX|.~.r : . # 7 } R.vXtX.X",
"{.<X! 7 . . & 2 g.&XbXnXcXVXVXMXBXmXmXmXeX>X#Xc.qXaXaXMXMXMXAXBXVXMXMXMXbXbXBXVXVXBXmX;XOXU 1 .                                               . . . .             .   O . : e b $.b O   O .   X                                                                                         . .   . # # : 0 % O . O                           . . . . . X X X   % : % 9 C O.N.Z < # % . & b p.^.2Xd.6.v P  .) j.>XeXBXwXeXeXZXkXlX#X}.|.[.#XR.Z.y.Z.J.-.9.J.g.d.&X>XtX*XrXqXeXvX%X%X%X.XaXiXpX>XJ.j.k.=XyXqXcX&X@XD.$X;XrXMXaXpX>X'.&X;XrXAXlX%XeXwXaXdX+.e & r ^ >.F.;XrXoX^ j : 9 } ).s.z & o = O $ 4 x 8.U.<XH.zXu.Q e # $ . .   . # w e.zXkXeXvXY...4 w h N.t.K.6X@Xx.vXeX.X7X+X .P d.h.7.~.i e /. XXX].a.q : 8 W 6._.XXtX7X:XlX=XtXXXqXbX}.! B gXc.G.D.ZXXX*X.X-XG.W n Q / dXwX*X;X*X;X*XqXiXwXcXvXxX&Xf.9.k.t.h.{.*XqXmXBXcXcXnXnXcX0X0X-Xn.w 8 6 W k O o . . . . . . 1 ` ~.P x ~.V.^ _.rXCX&X%X%XeX*X*XyXqXrX*XvXNXrX>X5Xk.W 7 O       . . .       . . . X X   . .           . . . . . .             . . .       X X     . . . . : } lXrXcXxX,Xc.7.<XyXaXMXVXeXZXkXg.t.4X>X=XS.-.h.tXvXNXVXVXMXaXMXmXcXcXmXwX X) 1 O . # 2 a.=XBXrXqX",
"eX>XP.w $ @ O 1 W k.>XcXcXVXMXMXVXMXMXmXcXvXkX&XrXMXaXMXMXMXBXcXVXVXMXMXbXnXMXVXCXBXcXeX.Xz.4 #           . .     X     X X                                     . .     O O 8 p X.n &   O . . .                                                                                               . . % % 0 : . *           . .       X X X   . # # .   X X X X . O O % 1 z s.s.A 1 # % % 7 g P i.I.I.i. .3.t.<X>XqXCXqXvX>X{.d.9.g.h.v.>X>X:XzXzXr.r.t.J.4X[.f.D.lX;XeXcXrXrXcX;X@XlX[.rX0X0XqX1X9.;.D.*XqXrX*X,X[.:X;XNXwXiXaX.X8XlX@X[.;XvXxXxX*X0X'.G 6 e o.hX-XXX*X.X+Xn 6 q E Q.) g < O @ o % 4 -. X|.K.r.t.U.W q . @   . @ . # 1 ! 2XkX;XxX6X) k < 3 Y +X|.|.:X>X*X*XZX:X=XOX) ) 2Xd.U X.: e 2.|.dX|.E e 6 r t.8X8Xd.c.lXH.h.>X*XXXZX-Xj.M M u.j.Y.c.tXqXbX*X$Xy.G p F V  XdX*XvXnXeX*X*XuXXX>X>XkX$X9.2.j.6.f..XrXpXmXcXxXxXxX@XZXqX0X].6.w 9 u 2 $ @   . # . @ . % $ G n./ h p.V.-._.qXyX&XD.H.'.x.F.>XeXpXcXeXmXrXCXtXdXk.j 7 % o . .         . . .   X X   . . .         . . . .                         X X X X   . % # . & r i.kXxXcXnX>XH.t.<XuXaXaXmX;XZX>X9.8.3X>X:XS.) f.-XeXNXVXVXaXaXMXmXBXcXpXqX+Xz :   % 7 w ^.*XMXrXqX",
"vX&XdX;.w # O O 6 | ZXrXmXMXMXMXmXVXVXmXmXNXrXqXrXmXmXmXMXMXmXVXMXMXmXBXmXMXMXMXBXcXnX*XyXY.w %     O . . . . . X X     X X                                   . # .       O & 7 k A 6 . + X . .                             .                                                                   . O % % s $ % . o X   . . .                 . . .             .   . # 3 g V ' %.b r 7 1 1 6 6 9 G p.(./.}.>XbXqXeXtXx.9.#XH.{.[.6.g..XqX@X%XkXkX,X,X:X>XeX.Xc.g.:XeXNXrXCXXXCXeX#X$XZXqX0XyX-XK.) 4.}.yXpXwXxXAX;XcXqXwXiXiX|.4X2XK.h.;XrXAX,X$X{.g.j b E E.8X.XXXdXz.B i i W T.~.w 6 . O O ; 6 I Y.:XZXD.A./.4.c < . X X X X   ; e L.lX*X>X-XT.r & # 2 P 2Xh.7XZX*XqXyXf.>XdXx.g.I.n.z a O O 1 V hX8Xg.p u e ) 9X X( B F.&XF.:XtXXXwXtX=X4.e a m ! T G.-XbX*XkXj. .C M b C n.9.h.@XlXvXNXvX;.4.G.OX<X9.g.9.9.D.h.-XqXyXrXCXcXBXcX,Xr.j.XX-X1.q @.0 . . . . . . . # O % 9 Q G.2Xg G L.7.v.dX>X-X.X{.H.:.g.kXcXqX;XcXcXrXpXpXwX-Xg.( i ; O   X X                     . .         . . .                 . . .                 . . o % h Y.@XbXeXxX>XD.1.U.{.CXmXcXeXkX6X>.d.:XNX;XU.) 7.oXyXpXMXVXpXrXMXpXmXCXqX=X^.k :   O 1 0.|.eXrXrXrX",
";XvX0X XV 1 . o % M G.NXrXMXVXMXBXBXBXmXmXmXpXrXpXmXmXmXmXmXMXMXVXVXmXNXMXMXMXMXVXBXnXeXqXc.g & .   . . . . # . X X . . X X                                   . . .       . . % n ` $ ; o o O .         . .                 . .                                                                   O O % t 7 & . o X   . # .   X                                     . . $ 4 j C !.o.A r 7 1 & 6 w B I 2.J.1X{.{.>X6XZ.y.E.J..X'.k.D.*XNX;XkXnXeXcXxXkXeXrX*Xc.9.x.tX.X*XeXrX0XNX#X9.h.{.5X Xd.6.( L.1XuXuX_.NXrXeXAXbXqXwXXXv.k.1.-.x.AXpXrX%XE.A.W B e.K.8X{.>X8X9.n i 8 } A.Y._ 2 .   . O & C 2X=X{.:XE.I...n 3 $ . X X X X O 9 +.<X>X.X=X}.^ 6 O ; $ h 0.1X=X.XtXtX_.tXtX&XF.F.T.E p O + . $ z n.OXL.u : Z 2X9Xm.n b P.v.{.@XZXqXpXtXJ.( e u u m V z..XyX*X:XZ.) n H M k _ / t.Z.Z.#XeX'.Z } i.t.j.T g.D.[.v.c.=X=X.XeXCXBXBXcX[.| e.].9X( q a O     . . . . . . O 8 D ( v.4Xj F ^.>.f.|.$X|.uXoX<X8.y.#XkXAXxXcXrXrXpXpXpXyX>XG.Q e : . + +         . .         . .                                 .                 . .   + % U |.=XvXeXcX&XD.1.A.{.rXmXmXcXvX3X>.f.-XrX;XE. .6.|.yXiXMXMXCXpXVXMXmXcXXX5X-.3 . o ; r g..XeXrXmXmX",
"*XbXXX8X6.5 O + % 2 / 8XqXmXVXmXBXBXmXmXpXmXpXpXrXmXmXmXmXmXMXMXVXVXmXmXaXaXMXMXmXBXBXxX$Xt.I b %   . . . . . .     . . . . . . O O O O O . . .     X X   X X       X X O O + o q L 6 %     X X o         .                 . .                                                                   O O # 7 S e % + X X   . .   X                                 X X X X   O # 1 e X.B.M.Z h x W I z z I Q ! ( 3.U.A.i.e.V.L.-X*X|.|.qXrXeXeXcXeXcXcXcXcXmXrX@XF.c.{.H.c.@XvXrXeX#Xt.4.w.e.| n g I l.v.oX<X;.bXrXeXbXvX*XqX_.g.t.w.t.{.sXqXtX4XW.F b w.}.-XyXXX7X8.j : u p a.gXl.g 1 . O O & r 0.-XyXdXOX .M : 0 # . . .     . 1 W Y.J.x.x.c.e.7 O . 6 q q W 5XXXyX.X'.f.*X*XtX{.<XL.7 : O . . $ B n.OXr.8 : r.+XT.) w M i.7.=X&X{.{.yX-Xl.B e 9 a r z z..XyX&X'.|.6.z C C B W / 9.8.| C.<X8.b X. .) 4.1.k.$XtX.Xv.OXY.c.qXmXcXeXeXh.C e.F.+XI 7 & O   . . . . . . . . i q.-.x.4Xn G hXf.f. Xk.h..XoX<X-.) Z.%XvXxXrXrXpXpXwXqX*X=X8XhX^ g 7 O . O .   . # # .                           . .                                 .   + & 2.=X>XnXrXcX*X'.8.j.&XwXrXmXBXvX<X;.f.oXqXvX4X4.2.OXyXiXmXmXBXrXMXMXmXrX*X8XV 1 O . % F G.qXrXmXmXMX",
"rXrXqX-X Xx % o % 1 k n.-XrXBXxXcXmXmXmXpXmXpXpXrXmXmXmXmXMXMXMXVXBXmXpXaXaXaXmXcXBXmXbXZ.1.0.M.1 .   X X . . .     . . . .     O O O . . . . . .                       O . o   # r &.$ O   o X         . O .                                                                                     O . . 7 S e $ .   o   . . .                                   X X X X X     O % & q A M.Q.).N._ _ a.(.+.! | W 1.) | G Z ^ _.XX'.'..XqXrXcXmXcXcXmXmXmXmXcX>X=X>X[.zXZ.9.@XAX.X7.J.W.3.E } G C ) d.f.$XE.:.=XNXbX;X,X=X>Xf.9.U.E.3XqXuX7XJ.2.V F | SX=X&X=X|.P.g : ; 8 N.~.n.U 1 % O . : 7 ..E.XXyXF.1.b : o o   . . .   . # 4 G.7X'.x.c.i.H : O % r o.G 4.XXwXvXF.d.v..XtX*X{.2X| ; o O . % $ V I.2X4.8 i T.m.a.B q G ) 6.>X=X6.k.-XoXi.g b r K r B I.-XyX{.d.|.d.V F E ! ! W 8.1.C +.E.6.M X.p.(  .E.J.7XqXyXOXP.u.2.XXqXxX;X@X9.n ..G.^.B 1 # O . @ . . . . . . O N ~.7.x.OXG E OX_.>.J.2.2.1X}.G.2.2.K.3X;XxXeXpXpXrXrX*X*X*XtX].9Xn.h < & . .     # #           X     .         . . . .                               . . O 1 n.-XtXNXmXpXqX=Xg.g.dXqXrXmXmXbX#X;.f.=X*X>XzXr.) U.dXwXpXmXrXrXMXMXrXeX-XY.j 6 O O & ..1XyXcXmXmXmX",
"CXrXCXqXuX9.e O . $ 1 I 1XqXnXxXrXcXcXmXmXcXrXmXrXmXmXmXmXMXVXVXmXmXmXmXaXaXpXrXBXBXaXvXw.Z y.~.q .   X X X X X X X   . . . X X . O O O O O O . O O . . . . .           . . o o . r !.h $ . . . .   . . O . O                                                                                       O . 7 b w 2 #     X   . . .                                         X     o o O O % $ 7 r N %.p.a.T.2XY.Y.4Xv.d.g.4.1.6..X0Xx.'.*XrXBXMXmXmXmXmXMXMXpXeXqXeXpXrXZX[.Y D.*X&XY U.SXc.t.U.2XG.F.F.x.lX$Xh.c.$X>X*X>X>XeXf.g.<X:X>X]. XT.U g ! E.#XzXH.L. .) n : = : b /.l.Z 1 # . O # 1 C I.|.uX7X^ b 7 ; @ X X   . . O O : k |.0XuX|.U...: o O 9 Z 5.i.K..XbX=X{.d.@X>XuXoX7Xn.e = o O . # $ z a.E.8.p M I.I.G 7 e ~ ^ h.$XH.E w.|.}...g I W o.n C I.-X*XH.;.Y.6.C } 5.5.G B q.) b Q T.d.E Q (.! W /.}.dX0XdXT.+.} ^ .X0X>X6X#X2.b H s.~.j % % O O . . . X X   . ; M 2X_._.|.e.! F.|.f.<Xy.y.~.2.8.G.|.$X:XZXbXqXcXeX*XvXeXeXrXiXiX0X`.2X5 $ O . o   . . X X     o X     . .   X   . . # . .                             . . % q T.uXrXmXmXpXyX-Xk.9.ZXrXrXmXcXnX1X>.6.5X>X;XkXt.^ l.dXwXmXmXcXBXMXMXrXbX$X4.1 ; O & q i.$X*XcXcXcXcX",
"mXpXBXNXwX5XC 1 . # # 4 z.&XnXnXeXrXmXmXcXrXrXcXrXmXmXmXMXMXVXVXBXmXNXmXMXaXaXrXBXcXmX>X| G c.+XW 2   X . . .       . . . .     . O O O O O . . . . . . . . . O . . O . . O O O O 9 V I $ . . . .   . O O O O .                                                                                     @ . t N k n $ O   o X   . .                                 . . . .             o O % % & 1 e Z P ;.gXg.:.G.4Xc.E.U.E.2X8X-X{.-X>XqXpXaXpXmXmXmXMXMXpXrXeXrXiXsX*Xc.t.R.{.F.8.E.:X&X-X-XyXuX-X&X].dX.X=Xg.g.v.=XZX>XeX{.H.:X*XAXoXh.! 4 q (.OX&X[.t.Q e q $ ; ; r p.a.W 1 . O . O 6 4 a.2X_.9XG.b i ; . @ X X   . O o % 7 V ].0XuXb.5.b O o % r ~ Y c.{.&X;X{.D.D.6X&X].dX4X! : o +   O . < k i.n.T h ..a...e & a X.-.OXOXt.Z V.4Xb.G r P q.~ w n n.=X*X:Xj.E./ n p.y.8.Z C q.W g B T. X4.! e.Z 1.K.$X&X0X|.W b b E 5XXXH.j.T.( e e E o.7 . O . . . . . @ X   o ; F 9X0XqX5X/.( |.-X5X<XE.C.G C 2.1X-XqXqXeXbX*XvX{.F.,XeXuXbXAXoXfXuXm.g % o o o   .   X X     X                 . . . . .             . . .   .         O % C +XuXpXmXmXmXrX-Xh.9.tXeXcXmXrXnX8X6.;.4XtX;X>Xk.E r.-XwXmXcXrXCXMXmXrXvXY.Z % o . & n z.-XeXcXcXcXcX",
"pXmXcXmXrX>X8.g # X   $  .<XxXBXcXcXcXcXcXeXeXrXrXmXmXmXMXMXVXVXBXBXNXmXMXMXMXmXcXeXrX#X} | =XoXm.I % O 2 4 $ # # # $ $ $ % O O O O O O % % % % % $ $ $ $ $ $ # # % $ 1 1 1 & % ; ; $ d       .     . O % % O .                                                                                     @ O 7 K C ~ q &   X X X . . .                               . . . . .       @ @   . . O O # & 7 2 5 G h h | V.e.L.L././.I.P.3X7X*X.XqXrXrXmXmXmXmXmXmXNXcXtXtX.X'.h.6X$X6Xh.D.6X&XqXaXiXwXwX>X&X.XqX0XyXv.h.9.[.*XeXeXxX;XcX0XsXF.5.9 % 2 ~ i.G.Y.1.i ; = ; 7 C 6.~.B &   + . # O 9 P gXOXk.P.W & = O . . . . .     o & n 1.9XoXh.^ p : O % q A ~ U |.*XZX%Xk.g.H.lX=X'.8X-.p % o + X @ . < k a.i.v v ~.~ 7 1 : a F h.9X/.! C I.4Xg.j 7 z N.F 7 j y.-XqXZX1X/.W C V.Z.Z.} Q ..k w h b.dXJ.8.I I y.<X5X|.].G.q : 6 C +XoXg.( ~.Z 6 & b b # O . . . . . . @ X   . : Q |.wXsX>XE.^ F.-XlX[.R. .9 b 4.5X0XaXMXwXrX*XvXF.g.@X>X;X#XE.E.6.x.n.6 o o o o o .   X X o           o o             .                     .       o o . $ _ +XqXmXmXMXMXwX-Xh.g.&XeXcXmXcXcX7Xg./ Y.tXeXxXD.E 3.oXwXBXcXrXmXmXmXrX>XL.r ; o o 7 W K.tXcXmXMXmXmX",
"MXmXcXcXBX;X|.U $     & C E.;XBXBXmXcXcXeX*XeXrXrXrXmXmXMXMXMXMXBXmXcXcXmXaXMXmXrX*X:Xj.Q r.dX0XdX;.7 8 C ~ L S a N n n M N a a a a a a s a N N m b b b b b b b N N A A C n n b s : 0 %   o       . . O % % . . .                                                                               o @   O $ K k I b 7   o o o . .                                 . . . .           . O % % $ $ $ 1 1 2 b C E ( ( B k I V W U Z W h.'.]..XvXbXrXrXVXmXrXcXmXcXeX&X@XF.F.=X{.{.7Xc.;.$X>XwXaXaXaXiXbX;X.X*XyXuX-X{.g.F.].*X;X;X&XeXdXf.v M ; d m ( i.8.a.E : o o & E n.^.^ 1 . X X O . O & ) 4XF.z.( q O +   X . # . . o o ; e | T.+Xt.k 7 %   O # w ~ C 4..X*XlXH.D.3Xh.k.1X8XT.E 7 % O   X X . $ B a.i./ :.~.e : % % : w _._.(.b k W.4X0.q q c Q.D e C j.-XXXtX=XU.) ( E.%XkXr.! } w q 5 f.dX|.g.8.-.t.4X1X3Xh.p.7 : & q a.T.i.E Q.n 6 % a 7 . @   . . . . . @     O & ~  XqXpX*XE. .h.>X=X%XlX4.r p ;.-X0XiXiXwXrX*XZX'.h.,XtX=XE. .U x n.q.7 O O O O % % # . . O . # % O O O O % % % O . . . # % O O O O % % % % % % . . O . # 1 q.|.wXmXmXmXVXrXtXv.c..X>XnXBXBXrXtXc.^ U.>XeXbXH.E 3.oXwXCXcXcXmXrXmXwX'.p.6 o o O b 8.oXuXqXMXMXmXmX",
"MXcXcXnXnXnX*Xm.4 #   . 2 a.>XqXmXBXqXbX*X].tXeXrXrXmXmXMXMXMXMXVXmXcXcXmXMXMXaXpX*XzX1.3.E.*X0X0X1Xw i o.q.o.%.B.%.!.!.Q.M.!.B.!.$.!.M.B.!.o.!.B.!.M.!.!.B.B.M.M.N.p.N.Q.Q.N.!.B.B.$.K # . % .   . O . % > % . .                                                                                 @   * $ b o.h B.1 O + o X . #                                                 O . & @.L k k g j w w O.~.d.9Xf.6.-.^ 1.4.-.) -.h.&XtX*X,XkXnXcXBXcXvXvXNXrX&XF.g.H.:X;X*XqXwX.X:.S.>XqXXX*XqXuXcX.XbX&Xc.x.-XdX_.v.h.1X$X>X;X5XI.G 7 : = u O.~.-.) z 2 O o : C P.m.E 1 $ . X X o @ o : k T.}.k.j & O   X X   . . o o ; e ! ^.n.a.n % - +     # 3 _ I 2.lX{.%X2.3Xk.6.g.K.P.n 7 $ # . . X + X # g ~.~.(.s.C 6 ; u : & B _._.o.e B W.gX) 4 r _ Q.m M  .k.&XyX'.7X1Xd.2.zX;XeXH.r.p.r : 1 T  X6XlX$XF.<X<XK.8.5.C : O % e Z ) q.C ~ p % O : & .     . . . . . *   . : & g l.7XqX*XzX1.h.dX>X*XeX:X( V d.].qXyXXXbXrXmXmXeX*X>XkX:Xt.^ :.i.M.b o.H %.K K %.$.V b ] N ` %.~ ` #.K X.` X.X.K #.K K H X.$.` #.%.K H ` ` ` ~ ` #.#.r < g a.8XrXmXVXmXBXcXtX=Xh.f.{.vXnXBXNXqX X^ 4.>XrXeX3XW 4.|.wXrXcXBXmXrXeXqX4XG % o = % C OXuXeXmXMXMXiXMX",
"aXmXnXxXkXeXwX5XE $ . . 9 | lXeXqXCXrXbX{.f.>XvXeXrXmXmXMXVXVXMXMXmXnXcXmXmXMXaXsX.XU.3.S.:XqXpXwX7X| e n I g g g g h h x x V V x h x V h V h x h c x c c c k h x x x h h z h x k g h h q $ % .   . . . % > & . . .                                                                               X   O # q ` Z o.M % o o X . . .                                       X X     . % 6 t j H B.$.` b K o.) T.v.|.K.<XY.Y.<X<X8X3X[.>XbX*XH.[.eXcXmXcXkXkXcXrX*X[.F.@X>XuXuXrXiXqXj.1.k.=X7X&XeXeXrXbXZX$XD.D.v..X-X5XG.k.k.k.6X9.K 0 : ; ; 8 W n.N.z 3 # ; % G 1.m.;.e . # #   X   o o 8 r e.k.n.q % . . X X X   @ o ; 9 ..a.gX~.~ 8 o + o   @ # n a.8.j.5XZX,Xg.#Xk.k.G.E.W 7 : # # . . X X o # k (.a.o.Z q % O > & 1 I b.OXF 6 E E.u.P k k -.p.w } A.6X&X'.7.3X7X{.c.;XeXCX;Xc.a.b : & I E.4X[.&XXX<X8.^ 5.Q e % . O & q j ~ B b 6 . O % O   X     . . # # % O O # i C 4.<XyX*X4X2.c.tXeXcXmXeXJ.t. X-XtX-Xv.>XeXpXMXaXrXeX;X@XH.Y.E./.g q k Z z I M w W h w w h h x x z V h h V W V k Z j 5 g z V z h V Z V W V P U W h ~ w w B 5.|.yXmXmXmXBXrX*X=Xh.f.{.xXxXcXmXyX|.W 1.tXmXeX3X .1.{.yXcXcXmXcXbXeX.Xz.p O o ; & ! |.wXeXeXrXwXyX].",
"aXBXnXxX;XeXpXdXn.w & % 6 n P.=XqXNX*XvX{.>.>X>XeXrXmXmXMXVXVXMXMXMXcXcXcXmXMXaXsX|.r.3.}.tXrXrXeX6XW.M b O.C I V V C W 8.9.2.-.) ) ^ ) P U ( z I g B C r n r q n z ^ V n C P P B g x T M.B $ . . . . . # & % . . .                                                                                   . . 1 A o.B o.6 o o o . . .                                                 O O . # $ e u u 8 &.7 b Q.I.U.SX1X{.dXtX]..X-X'.=XeX.Xk.k.&XNXrXbXzX:XeXcXxX&XeXrXrXrXaXaXiXtXK.1.4.t.[..XNXrXrXeXH.<X4XK.6.<X]. Xg.t.1.) (.! $ . % : ; 8 n M.[ $ $ . # q m.+XW q % . . . .   o o ; : M ( a.I $ O .   X X   X o = 6 | h.K.U j 7 O o   . # % & ! I.}.=X{.ZXeX.Xh.H.}.Y.p.2 % O . # . . .     & z ^.p.b 1 # # # 0 1 q ~ m.n.7 6 ! I.) I W c :.0.h i.|.ZX7XD.P P.=XvXeXcXeXeXtX$XV.m : : I E.P.2.].uX6X1.B %.M 6 # . @   O 1 G B 1 # O . O     X X     . # # & # % # N X.E P.dXeXJ.6.c.>XrXmXMXwXNXXXuX>X=Xc.6.[.eXpXaXaXaXmXrXXX.X2X! n ( ~ 7 n x -.n b b r 7 2 w h g B I z x U V I Z k g C n 5 V I W I z ! z U V ) x x ~ n b 4 B ^ c.rXBXmXBXBXrXuX>XF.c.=XvXxXcXmXpX.XW  .tXcX;X<X8.) '.uXcXcXcXrXbX-X|.-.6 o O % r 4.-XpXrX*X$XF.gX2.",
"aXpXxXxXnXcXpXqX4X( 1 : $ r ( Y.tXeX*X>X{.7.@X:X>XeXmXmXmXVXBXMXMXMXmXcXcXcXaXiXwX=X1. .[.rXNXeXxX:XE.| F M.p.) i. .G  .Y.5X$X6X2Xk.2XU.z.9./.4.a. .W Q.} M.F H o...gXT.~.~.G.k.i.e.5.p.(.^ < %     . . . % & % O .                                                                                 .   O : r %.h O.p O     O .                                                 . . . O ; O O O ; : e b g Z I ) Z.8XtXuXqXtXZX:X=XtXbX*Xk.g.'.qXrXxX%XH.&XcXvX;XBXmXrXcXmXpXiXtX4Xr. .) 3X7XpX0XrX{.g.Z.4XZ.1.Y.}.c.d.T.I n ~ e # . : & 8 e q L & . . $ < W T.n.r O O * . . O O % 9 6 m H %.o.q #     X X     O o : G I.+XT.5 $ % O O . . # & q 4.1X-XZX.X.XwXsX>.1X<Xu.b & O O . . . . .     & P I.} 6 . O # & S 7 w o.n.) 1 7 ! SXV.B x T n.v I I.{.qX7Xk.h a.J.&XXXtX;Xv._.<X~.M : 9 ) T...x v.oXOX) b K 9 % # . + X + % A A $ . . . .       X o   O . # 7 9 # & e %.B r.$X7XJ.9.v.eXrXMXMXpXiXiXNX>X{.d.6.#X>XrXrXiXpXaXpXeXdXk.n 7 M.~ e ~ 4.P.p.!.m m D r X.M.B j q.~.I.r.3.~.p. .p.M.n k W ) a.p.(.a.(.L.I.u.1.p.( !.A w Z / v.bXBXBXBXnXcXyXZX&X{.>XvXxXBXmXsXoX)  .>XrX;X$Xy.R v.qXxXcXBXcXrX=X+XW % o % 1 C A.yXaXcX;X6XU.L.^ ",
"MXpXeXcXCXBXrX*X7XA.n 6 & 7 k a.7XqXZX>X{.d.h.5X;XeXcXmXmXVXBXMXMXMXMXmXxXxXpXpXuX X) 4.{.rXCXcXNXeX=XZ.Z E I.:.;.) G ! h.oX.X-X=Xf.=X'.'.c.|.c.h.b./ t.4.u.3.a...4.5X-X5X8XtX.X<Xi.p p 0.s.4 % .   O O . # & y % .           .                                                                 .   .   o ; 6 X.E W ` & o   O .                                 X X           . . O O O O > ; : 9 M I z.F.F.F.D.lX6X-X>Xv.>.1.j.@XeXcXtX@X'..XwXmXeX[.c.].eXxXeXCXrXeXxXvXeXwXuXE.w.u.S.<XD.>XrXNX>X#Xj.D.D.D.J.U.g.c.T.n 6 : # . . > 6 A ` 1 % . O O 1 U s.} r =   O *     O % b I 4.a.B.a d % o   X X X . . % 6 m I.J.hX-.6 * . # . . . $ g / c.tX.XtX>X.XiX`.f.3XE.! & > . . .     . .   . 1 4.a.A % o . % 6 J q r O.Q.h 1 r W.J.V.W U q.q.g n ~.:XqX.X6.g !.E.9.>.}.2X;.;.P.(.G 9 M h.OXQ w k.8X2X .M u u & # . X X @ % a a .   . . .             . # 6 N r # & & X.( -.K.6X3Xh.].pXmXMXmXMXiXMXcXtX>XF.c.kX;X>XeXqXwXpXpXeX4Xx k #.6 1 ~ x 2.A.^.a.G n ~ w M.~ B p.V.-.8.U.u.4.i.^.L.a.E z 1.n./ L.u.-.S.8.j.gX2.^ p.Z C n ( 8.$XAXBXBXCXcXcXrXyX.X'.;XxXxXnXcXsXoX8.1.$XvX;X$Xj.R _.qXxXcXBXcXrX:XP.n % @ % 2 -.1XyXmXcXeX>X|.7.d.",
"MXmXmXmXpXrXrXcXeX$X3.q 7 $ 2 I 5XqXZX:X#Xc.6.[.,XeXcXmXmXBXBXmXMXMXMXmXnXxXrXwXuXh./ A.>XeXcXBXmXmXeX6X| k P.h.:.a.M.p.P.8XlX=X>X].{.>X{.:X{.=Xx.5Xh.;.G.G.U.j.A.c.]..X*X*XrXqXZXj.e 6 W N.r . .   . O . . & y % O . . .   . .                                                                 . . .   o O & D q.V %.9 %   O                                     X     X     . . . & 8 & 7 7 F p.P.4X_.yXqX&Xd.R 9.F.=X:X#Xy.) '.XXqXtXkXvXNXMXMXcX@XF.{.eXcXrXBXcXxXcXvXeXwXuXt.W j.Z.2.7.lX>XqX.X:Xj.d.d.F.#XZ.8.G.) e ; O O O . O # A $.0 O o o ; q ).q.e o o o O .     0 b a.Y.b.^.m :               . . 1 n 3.zXOXl.g .   . . . . . 1 I G.'.*Xx.'.6X8X-X<.XX1XI.j ; O . . X   X X o . O 7 ~.4.p O     # & a 7 B M.B.4 1 j <X$X/.V c B.o.4 e e.:XqX.X>.w B./.-.Y P.a.x P ~.^.W e F OXT.b 7 W z.U.( b : 8 . . . X X * # 9 8       . .         o   . & i L q $ & : M I.:.k.R.3Xv.XXaXaXmXcXCXMXmX;X;XvX;X*XeXeXtXvXeXrXrXrX*XK.I n H S i E v t.U.L.w.e...G Q O.C E p.e.L.Y.6.8.k.t.-.y.L.U ( E.>.j.8./ U.2.gXk.k.G.I.) p.k ~ W i.5XnXmXVXBXBXCXrXrX]._.&XxXnXnXrXwXXXk.2.H.kX;X:Xt.;.].wXcXnXcXmXNX5X5.2 % O % w d.-XuXcXcXxX*X.X:.6X",
"mXMXMXaXpXrXcXnXxXkXW.G 7 # # 3 F.eX*X=X$XH.;.[.:XeXrXmXmXmXBXmXMXMXMXMXvXkXrXwX-X>.,.J.=XeXcXBXMXmXNX6Xa.z / n.5.%.&.H Q i.E.}.K.4XD.<X#X3X}.1X|.<X}.6.<XJ.<Xh.>X-Xk.R.>XqXcXeX-X}.V.G r L 9 %       O . . % 0 > . . O O . . .                                                                 . . .   + o % r p.z o.e %   @                                                 . # # e X.I 1.2.+X|.XX'.7X-X*X'.}.1.( / h.>X=XR.D.*XwXrXeXeXeXrXwXMXNXeX;X;XcXmXmXBXmXmXmXcXpXpXtXD.1.2.7.9.c.#Xc.NXqX:X:X&X.X;XAX{.K.i.g & . . . ; O . . 2 q *   o o 8 m M.B %   + o # # # 6 H a.T.J.U.V 6 O *       . . .   O 7  .H.=XE.F 8 .           O 1 ^ +XF.%Xh.[.J.U.8.d.uX$XO.6 ; . . . . X X X o . : b ~.W 9 O     # # % 1 W N.` 1 < k #X{.P.U c ' b b p | $XqX*X>.q { W.8.( Q.K 3 h a.OX-.i F Y.z.$ ; b 3.T.2.b i 0 O .   X . 9 $ : = X X . . . . .   o X   O % 9 A b 1 # 0 p ^.d.8.S.1X].iXaXpXrX;XvXmXrX@X@X;XcXmXrXNXcXeXvXcXrXeX=XE.h H D e e X.V g.k.1.| | | j X.H q Z  .^ ) j.H.$X$X6Xg.8.l.r.8.2XF.K.9.Z./ <XD.g.c.c.9.a.( g ~ I t.$XeXVXVXVXBXVXaXsXXX_..XeXnXcXcXrX-XJ.-.g.lX>X>X8.9..XwXcXnXcXmXpX=XZ $ % . % B  XuXqXcXxXxX7X XR Y.",
"mXmXaXaXmXmXcXcXcXxX<Xe.7 & @ $ -.8X&X7XJ.j.>.kX*XeXeXcXmXMXmXMXMXMXVXVXnXxXrXqX7X7.:.G.{.bXBXmXMXpXCX.XgX .x (.C e 6 6 7 g G W Z p.W ( V.e.u.u.I.i.I.1.4.3.i.l.d.g.E p.W.K.J.G.U.n.~.C 1 d d % O     . . . . > 6 % . O O . . .             X       .                                             . .     o : e o.h C 7 # . .                                   . . . . . % $ 1 1 q C e.:.+X|.dX0XCX&X=XtX].ZX:XZ.E.#XlXvX&XD.7.>XrXtXeXeXcXNXpXrXcXnXnXcXcXmXmXmXmXmXpXrXrXrXtX5X6XH.$XlXg.) U.=X-X[.}.=XZX{..X}.gXE 7 # O . @ O O   @ # . .   o o : a D 7 . X   . # $ 1 2 P a.P.t.a.j & . O .     # # . . : b E.ZX@X4.9 o *   X X X   . 2 / OX$X:X{.lXy. .z ^.'.1XF : O O . .   X X X   . 6 M p.g 1 O @   % . O 1 5.a.r & $ j G.8Xa.V z M.n b F  .8XuX.XR 2 m W.j.-.M.e $ q W gX9.C G T.0.# o J Q z.6.w i & % .     O 9 $ O + X X . . .             . # $ L #.1 # 8 b g. X:.8.=XqXaXaXwXcXkXkXcXcX,X&X&XrXVXMXMXrX*X*X*X>XeX$XL.B b J q K H !.I.u.Q.C G Q H X.b b Q p.~.i.1.E.k.g.U.L.~.e.) ~.-.i.P./.i.W././.A.g.n.4.W E g p.) k.&XcXVXVXmXBXmXpXCXwX].{.eXcXmXVXpXuX1X/ 1.4X>X>X2.g.XXwXcXnXBXBXqX Xn & > . 6 ! 5XrXqXcXeXvX6Xg.v 2.",
"mXmXpXmXmXmXBXVXVXeXkXU.G 9 X   e u.5X-XJ.2.'.rXqXeXkXvXmXMXMXVXMXMXBXBXBXcXcXeX=Xd.T U.dXwXeXVXMXrXNX.X.Xk.w 6 6 $ # # 1 $ . . % & & & & & & 1 1 1 1 1 1 1 1 1 2 2 1 6 7 q q q 2 q 7 & # % % # . O     +   . # s $ # # > . O       . .   X X X . . . *   o . .     .       . . .   X X           @   .   % N w k G 1 d # . .       . . .   X X . .   +   .     o - o : 7 V L.I.E n  .E.:XtXbXXXcXBXvX,XCXmXmXCXkXkX>X;X>X@Xd.9.r.Z.@X>XbXeXeXCXeXnX;XcXmXmXBXeXcXrXMXwXXXdX0X0XqX*X=X6X8XA.| G ! r./ 2.-.i.gXn.-.E p 6 # .     . .     . . .   O   % y y & . O O . 1 2 K 4 B.N.E b 7 & % . . . . # . . . & m V.3XZX<X( 9 .   X X X   o O b z.-XyXqX6Xy.} F W l.d./.b ;   o # #   X X     . 7 #.K 7 # . O . . @ * < -.).q . . 7 n.6.E r C a.E | ..r.|.oX+Xv 4 w <X.X|.T.A & 6 7 5.L.t.U.T.U &   8 G |.|.E m ] $ .     . 0 %                           . % # 7 #.m 7 p G G.7Xx.h.*XrXiXaXcXcXNXrXcXmXcXeXcXBXcXcXmXaXpXyX-X|.oXK._ q N e 7 K 2 A $.o.` A b b m L L K X.~ ~ o.o.Q Q ~ ~ G M M b w A n C o.r H K C o._ I V C B k q.w.D.*XmXVXVXmXCXCXcXMXqXh.D.eXMXVXmXMXqX{.-.( W.8X5X-.t.=XrXeXmXBXeX-X9.7 . O % q a.$XcXVXpXxX:X2XU 1.( ",
"BXmXmXmXmXmXmXBXVXmXxX#X .7   + % G OX|.U.-.xXaXrXeX>XvXMXMXMXVXVXVXBXBXBXmXcXeX*Xc.^ u.=XwXqXmXMXMXcXeXuX XQ 8 % . . # # . X X X               . . . . . . . . . . . . . . . . . O O . . . . . : % o   +   O # 7 2 $ & y . O       . .   X X X   . . # % O O .     . .     . . .   X X               O . % b Z k X.8 u 0 # #       . . .   X X . # X X   @ . O : & 6 X.L.OX.X{.E.U.R.:XeXeXqXeX*X;XlXkXcXrXaXpXeX*XeXeXtX:XF.D.t.k.'.*XeXeXeXcX;XxXnXcXMXmXeXvXeXCXrXuXK.c.uXiXaXqXc.k.F.g.W C C 3.W.P.U I a.V g 2 # . . . . X             . . . . % , % . . . . . 1 K H g ` K p 7 % O O     . # . * O & b V.Y.@XlXP.C & O @   +   . & & Q E.].0XyX3Xw.G } r.U.;...1 O   X . #   X     O # 1 $.a # . . . .   @ * < T N.7 . O 1 / -.C r Z I.4.y. .t.1X1XT.c 3 j Y.&X`.K.Z 8 ; 6 +.E.=X-XT.z $ O % G 5X>X! m J < #   X . 0 O                       . . . . . # S M.C q C l.|..XtXqXpXpXmXcXcXMXmXmXmXMXMXmXeX;XeXeXeX7X1XP.8.9.s.r # & # $ 6 & 1 6 1 1 $ $ $ 6 9 $ 1 7 1 1 2 1 $ $ 1 : & & & & # % % & e & % & # < 3 3 4 r r G e.) }.bXMXVXVXVXBXBXNXmX*Xj.k.uXMXMXmXmXrX:Xt.| V.5X=X4.8.&XcXeXcXcX;X8X^ 1 . O % C E.:XcXVXaXcX5XY.:.u.-.",
"mXmXmXmXmXmXmXBXVXBXeX$Xa.q % @ % q 9.2XL./ vXrXcXeXeXcXMXMXmXmXMXMXBXcXmXmXmXrX*X}.1.4.}.yXwXpXrXCXqXrXuX Xa.r O   . . . . X X                               . . . . . .             . . . . . d % o   +   O # 1 t $ & y . *       . . .   X X X X . $ S 7 % . O . . . .     .                       . . # e X.k $.6 8 a # # . . .     .   X X   . X X + + . $ n U n.OX-XyX0XNXZXZX&X*XbXqX.X-XZX{.J.<X[.*XsXwXCXrXpXrXrXrX=X@X.XqXrXaXmXNXmXmXmXrXBXwXpXyXc.#XeXAX[.2Xu.-..XwXsX&XZ.Z.{.=X[.K.8.j.gXgX~.I B 4 < #       .                       @ , % . . . . . % & J q r K q 7 & . . .     . .     > q u.=XyX{.U.! 7 # O O . * . 7 q w Q.U.F._.tX#X4.! w.}.G.0.B $ . + X . . .     . @ % 4 %.1 . . O .   o o O 1 x -.1 . O 1 -.0.G b ( U.k.J.8.j.2X^.~.5 $ a a.<X|.2XZ 6 % 6  .<X*XXXY.V 1 % 1 ..|.|.| p e # .   X . 8 % .                     @   . . . . q ~.n.M e } W.8X.XrXmXmXpXpXpXpXrXNXrXiXpXrXvXvX&XF.j.e.X.D e 7 7 %     . O . O O . . . . . . O O . O O O O O O O . . o     @ o     . O % o o . . . # # # & & F E / 3XcXMXVXVXVXmXcXBXpX*Xj.j.tXmXmXmXrXcXvXH.3.r.:X-Xk.8.{.bXrXcXcX=XgXg $ O . % G /.kXrXMXrXcX>X|.c.4Xd.",
"cXrXpXmXMXmXBXBXVXBXcX:XP.n $ O ; 1 P gXa.-.&XrXcXcXxXmXMXMXBXmXMXMXmXcXmXcXmXrXqX=X4.) '.tXrXpXrXCXqXrXqXoX+XI % o O . .                                       . . . . .             . O . O : s & O     o . # $ t $ . > O % .       . . .   X + X . 2 [ N # . % . . . .                       .   X     . 1 ` E o.9 8 t 6 . . . . X X . .   X O .   @ o O $ B l.|.dX0X0XiXwXwXqX*X-X5X6X<XK.U.8.-.) 0.r.T.5X>X*XXXNXpX0XwX;XvXrXaXMXaXqXeXcXcXBXpXrX0XqX{.6.t.{..X2.L.C.-.{.0XrX>X%X#X>XuXqX7Xg.g.P.I.a.B q e % O o X X                         * , . . . O .   O : $ 7 2 J 1 & O .         X . o o 8 w.{.pXwXh.^ 4 $ # % % 7 2 r 2 q g 4.U.h.'.tXH.9.6.c.=Xf.p.w & . @     . . . . . o # A ` $ . O O .   X   . 2 h ~ &   O 1 n.I.Q C t.J.[.$Xk.G.j.i.q.4 # u G e.z.z.E 1 % 6 ( }..X.XY.( 1 1 r q.|.F.| 9 & .   X   . 8 & . .                   @ .   O . . 1 U n.q.r r p.4X{.bXcXNXrXiXiXwXqXtXtXyXqX*X>X*Xx./ V e : ; O O .   o     +   @     o     +       @ o o @ o     @   +       o o       O . o       . . . . O & $.E 8.6XqXaXVXMXVXVXcXCXpX*Xg.t.dXrXmXcXeXcXeX=X8.6.-X-X#X6.F.vXxXcXeX5Xa.4 # O . & Z E.;XpXVXrXcXeX].{.7Xv.",
"mXcXmXMXVXVXBXBXVXBXcX>XG.) 2 % O . 4 q.3.t.@XbXcXcXcXmXMXMXNXcXMXMXmXmXcXcXmXaXwX.X8.) K.>XrXmXNXcXpXpXqXuX-Xd.8 o o O                                                               @ . . O y S 9 O .   @ . . $ 0 0 . % y . %       . # # .   + X . < A $.$ % : % . .                             @     . $ N N.I K 7 N 7 : . .   X X . . . . > # # $ 1 w ( 9.|.yXqXwXyX*XqXXXNX-X2XL.Q M C n w k w q 7 n W t.4X|.tXpXiXmX;X@XeXrXcXrX;X>X:X{.*XyXwX0X.Xx.9.8.j.t.) S.U.k.*XpXqXcXvXxXmXwXXX].t. .| ..B A J 0 O   X X X X                       . @ . . . .       . & S $ 6 : O .   o           > : } 6XeXsX_.T w $ # # 1 b q.s.q.N : b p.j.{.qXuXF.h.v.oX8X6.~ & %       X X . .   .   # $.k $ . O @   o +   . 7 z B %   O 1 ~.0.C C Y.[.=X>Xv.K.-.E ~ 1 O ; p M E W q.w 1 6 E gX.X-XY...& 6 B 0.J.Y.+.9 # # X X   O u 6 & . .                 o X   . . . # 1 ~ ^.;.r m w.DXkX;XeXeXiXaXiXyXv.K.J.1X:X.X.Xc./ Z e : O = = O         @   . .         . .     .       . . . .                   . O . * . . . . .   . % e Q.^ j.6XqXaXVXMXVXMXmXCXrX{.8.t.>XeXcXnXxXcXrXuXg.7.*XqX=X7.v.;XeXeX*X4XE 1 # . . 1 Z U.*XpXBXcXcXrXXXqXyX*X",
"BXmXmXMXMXmXmXBXBXmXmXtXF.n.k 1 . @ $ 4 I A.7XuXeXxXcXmXMXMXmXNXmXMXMXmXcXcXmXaXwX.Xt.) Z.=XeXmXNXeXmXpXqXyX0X+XM O o @   . .                                                               O 0 S S % O   . . . # $ y # % s # # .     . # # .   X X O $ w B.N 1 6 6 $ #   o o           . .     . . o     % % q Q.z %.7 A r 0 O .   X X . . . . . # 1 2 z -.n.b.x.eXtXvX*X{.8X#X}.8.( G r b M q n ` ~ n b n h P  .8.U.1X.X*X@XkXcXrXrXcXcXvX#X9.v.>XuXuX'.g.J.J.H.Z.k.#X5X&XqXNXrXcXcXcXVXMXwX.X6.T h E C n 1 .         X X                             .   .     + . % y # # % O   o X X     . o : b U.&XtX$X/ 4 < . . $ r 3.gXT.^.e i %.i.J.'.bX.Xc.F.oX-XOX) q . *     X X X . .   @ . $ B.4 #         o X   # q ` g %   . 7 Q.U j Z 4X{.&X=X'.2X( G ` 2 O = u i N n N.h 7 6 C /.F. XE.p.& 1 M.6.;.u.O.i # @ X X   . u 9 $ . .                   X       . . O m T.b. .Q ( zXkX&XxXeXrXyX].}.J.g.) j.6X&X-X5X<XI.p.C 1 # .   @   .   . . . O . . . . . . . O . . . . . . . . O . . . . . . . . . . . % . . . .   X O : b ~.T 9.$XNXMXMXVXMXMXmXpXyXv.2.j.=XqXxXxXvXcXpXpXF.h.>XtX>Xv.'.;XxXeX.XT.q 8 . . % r E 2XeXpXBXcXCXNXrXrXmXmX",
"BXmXmXmXMXmXmXBXmXBXmXeX{.Y.1.w . X % < g I.=XqX;XxXcXBXMXMXMXmXmXmXmXmXcXcXpXpXiXXXA.) y.:XrXpXcXeXmXrXwXwX0X5Xe.e o o . . .                                             X X X             X % r ] $ . O . . . . # > % % d & # .     . . . . .   X @ . $ K o.w 1 e r 1   o +       X   . .   X . .   X   . % 1 o.I O.j n H 9 O       . . . .     O : r i.n.u.l.D.H.J.R.$X3XU.| M e r Z 2.G.^.a.I q.n.m.gX^.0.Z m 8 8 m C.zX$X{.cXwXpXpXiXrX{.;.c.{.tX=Xj.k.dXyXeXxXeXbXpXqXwXrXmXBXmXcXcXrXqX].x.m./ N.N.5 $ > o X         . .                         .   .     @   . . . O . .   X         . : e j.{.>XD.p.q # . . # j  .F.:XG.U e p ~.J.x.'.{.f.h.|.|.OX5.m % . O . .   X X . .   o . r ` 2 #           o   $ r %.4 % . % r B.n r | 1X.XF.v.|.2XI G X.4 # > : 8 u 9 N.x 2 6 b V.w.( L.O.6 7 (.R x ..X.i & . X X . O 0 & # . .               X           .     & W z.|.[.j.R.ZXeXmXeX*XY...| hX|./ 2.1X{.&X.XdX-X9Xf.U q O         . . . . . . . . . . . . .         . . . . . . . . . .                         X O & H /.>.t.c.bXmXpXVXMXMXMXwXdXx.2.Z.&XuXcXeXnXcXMXmX{.c.>XZX>X*X&XeXcXeX X5.1 O O % 9 H ^ 4XuXpXNXxXCXBXrXrXrXrX",
"cXcXpXmXMXmXBXBXmXVXmXqXtX1XY.z &   . 6 2 (.].yX&X;XBXVXmXmXMXMXmXmXMXMXcXcXmXiXaXtXE.) r.3XNXpXrXCXcXrXpXwXXX.XE.Z % - . O .                                                   X X       X . . 2 [ $ . O . % # . * % * # 0 7 #       . . . . . . .   O % 2 M.k < a A q .   @ .     X   # #   X . .   +   . * $ W a.o.} k %.1 ;   X . . . .     + - & n gXG.1.u.U.2.y.W.E.P.! b p G +.l.|.-X|.T.V I >.>.f.x.n.E M D D D Q  .y.lXtXrXCXMXiXmXkXD.#XF.6XH.r.J.yXwXrXNXqXiXaXiXMXpXqXmXBXcXeXeX*X5XgX2.z E ` < &   X     .     # # .                   X           X     @ . . . . o o         . # e | 4X5XT.~.e % O   . 1 q.OXrX.X/.Z n I 2X[.{.>Xh.;.c.5X+Xn.F ; O   . . .   X o . . X + $ K r 2 .   o @     o O 1 j B.< O . $ m %.g r e. X.Xd.9.2Xn.w b ' 3 # : : > - 6 N.R r 6 j p.O.j +.Z 7 M q.h z p.X.7 % . X   @ O % . . . .               o           @   @ O q 0.-X.XH.%XnXwXMXrX&XA.G C 6.$Xt.g.6X*XeXqXyX0X0XuXm.I $   . .   @ . . .   . . . . . . . .           . . . . . . . . . . X X X X X X X X   X X X * 7 ..hXx.k.6.&XbXcXCXaXVXMXqXdXh.2.J.&XbXNXeXAXcXMXpX@Xk.@XZX&XZXeXeXcX*XG.W & . % 6 m o.^ <XeXrXNXrXmXmXcXNXcXcX",
"cXcXmXMXMXmXmXmXBXBXVXmXqX*X1Xi.q # . % $ E  XuX>XkXBXVXBXNXMXMXmXmXMXmXxXxXmXMXiX*XK.^ t.$XrXpXmXcXrXpXrXeX*X-X].l.6 O ; O   o   .     .           .       X                   X X           . < #.7 # O . . % . . % . % # ] #     . .   . X . . *     . 6 ` o.1 1 %.N % . O .     X   # #   X . . X X   . O 9 k N.V 5.h !.M & o   @ # . . o     = 6 p.Y.c.4.r.2X2.( ~.p.C j | E.J.1X{.NXyX-X4X! b B z ^ 1.W e.~.L.P.y.( n b G r.H.=XyXqXXXZX:X:Xj.r.y.y.D.;XcXeXqXbXwXiXaXaXiXmXBXrXmXNX;X:XP.b 6 % O & & O @     . .     . .                                                           . . $ C I.gXn.~ q & . O O ; o.E.{.rX&Xw.j U J.7X{.{.[.9.g.$X4XI.C : o     . .         . . +   < *.1 # .             . 2 ` ` 1 O % 1 $.o.j k /. X5X2.V 5.q.q A X.5 $ O O ; o & N.~.j e I Q.{ 8 p.5.h q._ h j O.%.e & .       . .                                       O . % M c.uX>X,XpXVXaXiXuX'.g.;.-.k.$X;XeXpXMXMXpXsXwXoX9X0.q % . .   X   @           .   X                     .     .         X X X X X X     X X @ # r a.}.&X4XT F.&XAXcXmXMXiXyX5X>.2.#X&XrXmXrXCXcXaXCX[.j.Z.$XvX*XeXbXqX{.n.g # O : $ !.^ / 3X*XCXcXrXmXcXcXcXcXrX",
"cXcXmXMXMXMXmXmXBXBXMXmXrXuX=XU.I 2 $ . O q d.8X=X;XMXVXBXcXmXmXcXNXMXMXcXcXmXMXwX&Xk.1.k.6XcXpXMXmXpXmXcXeX;X*XoX XG : ; .     . @ . . O . . .     . .   . O   . .                     .   . # < J 6 % . . . % . . O O % & ] $     . .     X X . .   + . % A X.7 1 H K a 8 O .     X   . .     O .   X     O 0 4 ..3.a.I ..} 6 O   . @         o ; j I.6X:Xc.9.v.z.( G B h W U.'..X{.F.XX.X].%XC.G | C.L.4.w.W.9.c.-X8Xj.E F } w.8.8.}.ZXqXqX*X{.H.H.H.[.,XxXeX{.{.:X-X0XMXaXwXpXVXmXrXeX=XJ.+.& o     o .         . .                                                                 . . . $ ..n.n.~ 7 . # & : : i e.6XbXvXlXW W g.=X>X:X>X=XH.}.5Xm.} 7 O o     . .         O . X   r #.% O       .     . # w o.A 1 % % q B.o.g V I.+Xc.W r C M 6 a B.4 # . O O   $ ^ s.Z w ) (.u : ( 9.Y a.I w p %.M.b & # .             X                                 . O o 8 ( g.H.>X*X.XMXpX*XdX=X|.k.}.>XcXcXmXVXMXpXpXwX0X9X6.q O . X   X   X       X   X   X                                         X           X X O 1 E U..X&X<X;.9.=XvXxXmXmXpXyX4X2.6.$X>XNXMXpXNXcXrXbXH.r.r.3X*X.XqXyX*X<X^ 3 . O & r Q.) -.6X>XcXpXrXpXrXrXrXrXeX",
"cXcXmXMXMXMXmXmXBXBXmXmXmXrX*X5Xg.U 1 .   # V P.=XrXMXVXVXBXNXbXeXcXMXMXcXeXpXpXqX{.9.t.H.kXcXrXmXmXMXmXxXkX;XeXsX-XL.r % O , O . % . . O . . . . . . . . . O . . .         . . . . . . O . O # $ e : O . @ . @ . . O O % & J 1       . .             O O # e L ] e q A ~ j # o   o   . .       O .   X     . & 7 Z ~.n.4.W Q.j $ @   +       . O e s.2X'..X>XyX0X9XW q ( 9._.oX].}.3. .F.*XXXeXD.U.SX$X'.&XSX2.g.|.uXoXh.6.9.E.Y.t.E  .=XiXwXwX*XvXrXeX;XkXxX;X4XU.U.4X].qXwXMXmXrXcXeXeX#X| e 1 % O   .   X + X X                                                                   . . O O & H C B 3 # . $ r M g | U.vX&XZ.E.9.F.-X=X[.{.*XqX-X8X+X^ q & ; .     . .       . . O   . K N O +     . .   . . $ h B.r % ; % g N.o.g U P.hX;.b 6 1 6 : 9 *.3 %   O . O & 5 ^ q.P 8.Q.; 8 6._.f.^.k 7 b M.Q.C $ # . .         X X                                 . O   o : M t.8XE.1.H.c.f.&X:XZX@X>XvXeXxXnXnXcXrXaXiXyXb.W : o     o         X o X   o   @   o       o                   o o           . . . . X   # 4 2.J..X*X#XZ.2.$X;XxXCXrXpXbX4X2.9.:XtXmXMXiXmXbX*X>X<X4.1.4X.X`.qXqX>XU.g $ . % 2 ~ ^.2.;.zX>XeXmXaXrXrXrXrXrXrX",
"xXcXmXMXMXaXmXmXBXBXmXmXVXrX*XtX|.z.w & . % < W <XyXVXVXMXmXcXeXeXrXaXaXrXeXrXrX-XF.>.c.$XvXcXrXmXmXaXpXxX;X;XeXMXqXT.C & O o . . % . . O . . . O . O . O . . . . . . . . . O O . O O . O . . . $ # : O   . . . % . O . % & N 6 O     . .       X     . . # & 6 &.a 2 B 5.V 1 O o o . .       . . .         . . 6 j I.9.u.W /.W 1 : . @       . & r P.1X6X>X;X*X0X X! n u. X0X0XXX3X| | #XNXrXNXkX:XbXbXqXtXJ.R c.=XuX-X X9.9.<XK.U.| E h.dXuXXXdXdXqXqX>X[.H.E.3.Z V ( L.SXuXXXmXqXcXeXtX}.! p 6 : % .     X X X X                                                                 . . . . O . 7 1 2 $ # 1 7 X...1.U.6X>Xc.Q | 6XyXtX;X@X[..XqX7XOX4.k & O & .     . .           O # 1 $.3 O o     . .     O 1 P !.r O O & h N.~ w U n.^.U 2 % O O ; & #.< O   @ . . % 1 Z ^.9.n.| ; 7  X0X|.n.4 1 M Q.Q.G 1 . . .         X X                                 . . X + o : ( /.u.U k.c.x.>X&X*XqXrXeXeXkXnXnXcXrXmXpXdX4.r o + +       +   + +                                                 O . O O . . .   X . 1 k y.v.{.;X:X3Xd.:X;XxXNXrXpXtXA.) 7.=XrXpXaXiXrXvX{.$XzX3.1.4X&XXXqX*X3Xe.2 # O & w I.E.7.2.4X>X*XmXMXmXmXmXaXpXpX",
"xXcXmXMXaXaXMXmXmXBXmXmXVXrXeXbX*X4X( 2 # % . 2 l.=XcXmXmXmXeX,XvXrXMXaXrXrXmXyX$XZ.6.}.>XrXmXcXcXmXmXmXxXkXxXrXpX*X5Xi.7 ; . O . # . . % . # # % & % # % O O O % % O O O O O O O O . % . . . % & . * @   . . O % # O . % & r e & .     . . . . X   . . O % . O s 9 7 B n.T q O o o O .   X   .             . . % q i.6.A.) U.8.4 7 # .   o     % r 8.d.G.K.t.Z.2X2.n ! OXoXfXwXoX7Xr.u.5XbXqXNXNXXXqXCXtX3X1.4.K.{.XXdX|.-.^ W.h.1Xl.I E i.Y.+X XOX^.^.T.3.M p e r b q b p.E.'.qXrXCXeXqXuXv.a.7 : ; O @ +               X X X                                                   . . . . .   . O O 6 $ $ 1 q O.i.G.1X|.D.3.m r <X>X>XvXnXrXwXqX4Xw.C p : . # #     . . .         % < K L $ O       . .     O 1 _ s.e O = : z N.n 4 P ).N.B & O O @ o O S $ .   . .   O O b n.OXI.j 8 w 9X0Xh.I $ 1 G ~.~.E 1 . . .   X     X                                   X X X o o % b p.OX].qXwXtXtXqXrXiXiXpXcXmXBXBXnXcXbX>XY.M ; o o O O . . o o         o     o o   o o o o O O O O O O O o o o o o O . % ; . O o   o . 7 W U.F.%XkX>X>X@X,XvXcXrXpXwX.Xr.^ 9.&XeXrXiXaXpXeXc.H.4X2.8.<XuXrXqX-XE.F $ O o $ P 2X|.h.6.4X>XqXBXMXMXMXMXMXmXmX",
"xXcXmXMXaXaXaXmXcXBXBXBXBXmXcXnX&X:XU.h 1 . O $ ! k.>XcXpXmXxX;XtXrXaXaXrXrXpXtXK.j.h.:XyXpXNXmXmXmXmXcXcXcXcXcXBXyX-XI.b % . y 0 d y d s y d s 0 y 0 : 0 > % 0 0 0 0 > > : : : y % % d y & & s % . @       . . % % O . % & e S 6 %     o . . # . . . . . * O O : & p I T.6.n % o o . O X X   .             . . O 9 n.h.E.t.c.E.j q r $   X X   % C G.f.g.t.y.zXV.V r | OX|.oXoX].|.) 3.|.*XqXyXXXwXaXwX[.U.( i.g.[.qXqXF.2. .C.d.|.Y.W r m W 2.n.s.~ w w w 8 : 7 } Q.} 7 7 | E.qXaXcXXX.X7XF.2.4 6 1 % . o . O . .         X X                                                   . . . . .     X   O : p F C | i.G.9X+X4.k i G G.*XtXeXrXmXpX-Xg...m 0 . . . .       . .         & c B.2 6                 O 2 s.U & o - % V a.q 1 z M.H e . O   +   O t # .   . .   + - 8 -.Y.p.q 7 I  X9X) r # 1 W ^.W.W & . .   X X                                         X X   . O O & n T.8X]..X>X&XeXMXiXiXpXmXmXBXBXBXmXbX3Xi.7 8 ; : 6 & & & % # % # % % : # % # % % % % % % & & & & & & % % % % % & & $ & 6 $ % O   - O w 5.4X:XkXkX;X*XvX,XxXcXrXMXaX.Xw. .h.;XcXrXwXpXyX{.g.Z.E.2.9.#XtXsXwX5XV.e . @   1 6.uX-XF.r.K.tXqXNXaXMXMXMXmXmXmX",
"xXcXmXMXaXaXaXmXcXcXBXBXcXmXNXxX,X:X5X:.4 . * # 9 ..$XcXcXcXnXbX>XeXaXMXmXrXrX>Xy.r.}.>XpXaXmXcXrXmXcXcXcXmXmXcXcX*X_.g.M & . > & 8 6 6 0 6 6 6 8 0 : : 0 > % 0 0 0 0 6 > > > > y : : d d : 8 s .   @   X   . . . % O . % & q K e &   X X X # 1 1 # O     @ . % ; : M U m.z.Z 6 o o   .     . .     .       . . o 8 I.OXE.G.x.4XC 7 ` q O + X . 1 ! 8XuXtXZX%XE.! G M ! 8.6.2.8.+Xg.z Z z. X-X&X].].iXfX}.-.E ~.2.c.&XtX=XD.w.1.d.[.gXe.p 8 & 2 5 5 4 1 $ 0 6 $ q 5.9X8XW F M 1.uXiXqX&XJ.u.! g z I V g $ # # # . .     . .                                                       . . .         X X   8 X.V.e.w.1.6.+Xn.B 2 7 M.S.#XtXeX0XrX>XD.-.( m : . @ X X X X   . .   X X o 7 ^ s.< ; . o     X       O 2 q.x & o - % _ ) 1 % b #.7 & O .       O 0 $ % . . .     + ; U I.Q q g s.n.s.M 8 . 1 ^ 2XE.W &   .   X X   . . .                                   . . . . . O & q G E w.#X;XcXrXqXqXrXrXcXmXMXMXMXNX<X .w X.V V B B j Z w k w n w r n w j g j w g g j j k k k k j w w j j w g k n w j n g r 9 % : $ z G.tXeXvXkXrXwXCXeXcXcXmXMXMX*Xr.w.}.vXcXmXrXrXyXv.9.U.U.8.8.$XyXwXsX1X| 8 O o o e OXwXuX=Xr.Z.tXrXNXrXMXMXMXmXmXmX",
"xXcXmXMXMXaXaXmXmXcXBXBXrXcXmX;XkX>X*X+Xj 6 # O O D U.*XeXcXcXxXeXrXMXMXMXmXpX>X4.2.6XuXwXwXrXcXrXcXxXeXrXmXmXcXeX{.c.z.q.q & . . & $ 1 6 1 1 1 & : & & : % . % # # # # % & $ 1 1 1 1 1 & & % % . O @   +   O . . O     O % 2 K r &   X X X # 1 7 # O X     . > O % N W d.m.C 6 o   . .     . .     .     . . . o & i.J.U.J.f.}.Q r M.g O +   . & E oXiX0XZX%Xw...Q.G C 6.c.1.U I.r.I ( A.h.{._.|.].wXuXE.U 3.E.<Xd.7.}.8Xc.r.y.|.5X/.G : ; : 6 2 < 1 0 > > 1 3 V T.0X`.v p.} W {.qX*XlXV.C n P 9.OX^.N.} b q 1 $ .     . .                                                       . . .           + o o p } a.a.z P s.P 2 e r q.r.h.&XbXrXeX}.2.4.C 1 %   X X X X X   . .   o   ; q N.^ 1 O   o     X X X   % q q.I & o o & N.V 6 % N K # . .   @   O . t 1 % . # . @   o : E ~.p q x ).q.M 8 O o $ W ^.T.U $ .     X X   . . .                                   . . . .     O % & 6 M u.4XZX.X-X=XqXrXNXVXVXMXMXmXE.! j !._ W ' $.` B.~ o.` B.` o.%.X.$.$.$.X.$.$.$.%.M.B.M.B.M.o.o.%.%.$.o.M.B.$.%.%.$.#.@.J & 2 U 5XXX*XxXeXmXpXcXnXrXrXmXmXmX&Xy.C.#X;XxXcXrXtX>Xf.d.4XR.g.6.5XyXoXyX}.M : O   O b dX0XqX:Xr.r.*XrXpXrXMXMXmXmXmXmX",
"cXmXmXMXMXMXmXmXVXVXBXmXmXmXmXcXcXrXqX=Xu.m % , + % -.oXiXMXxXnXnXNXaXaXMXMXmXbXZ.8.&XyX{.{.tXeXNXeX;XvXeXmXMXrX{.g.1.i.i.} 9 : O . S C k C k w 7 p r e & % > . 0 & $ $ 9 p j w g k C w e 6 8 % a $ O , @   . . .   X X   O 2 n q 1 O o X X , . 1 6 @   O . . . . % & F U.Y.n a ; . . .   X   @         . .       1 P ^.6.<X@X3X..n _ ~ . X o   > r 7XiXeX6XE.4.) V.E i.oXyX-X4XW.| Z.{.$X{.=XtX>XyXqX>XL.E K.7XoXh./ 4.OX>.P ^.9X XV 6 = > p L & : > > & 1 w z n.].iX_.U V.C.Z.g.{..XY.G r l.|.wXZX<X4./.^.I.W q # + X   . .                                     o         X X   . . O     . O O X   o % m N.P 2 7 j 5 j ` Z W 2.c.kXZX.X{.9.s.C e %           X X . % @   + o 7 X.M.g 1 O   X . .   X +   1 ~ N.w O   O 6 M.k & & B.B $ O O   @   . . J < O       . o O & I Q.8 1 :.^.n % O = o : q 5.~.T 2 %   X X       . .                                       . . .     . . & 7 C 1.z.J.1X.XtXNXpXVXAXmXVXyXgXE 7 6 9 9 1 9 : : 6 9 & 9 2 p : : & s 6 p e 7 e & u 9 $ e e 1 9 9 : & i i : : i & 0 % 6 s % 2 :.]..XqXNXwXaXqX&X'.eXrXCXrXrX>Xy.S.K.ZXXXrXrXZXF.7.'.=X#X6.8.%XtXyXXXz.q O . & 1 Q.|.wXXX:X1.^ 7XNXrXpXmXmXMXMXBXmX",
"mXmXmXmXmXmXmXmXmXmXmXmXmXmXmXpXiXpXrXvXR.} 8 o X # h m.0XaXnXnXcXNXmXMXVXMXmXxXZ.y.-XuXc.c.&XrXNXeX;X;X*XrXMXpX$Xj.4.i.6.a.p : > : b ~ ~ p.a.Z p { %.M 1 8 y : & 1 1 e L $.M.Q.4.4.i.q.~ 7 & 8 #.S 0 >     O . .   X X X . 2 A b e O @   X @ . 6 0 O   . . . . . . : m 2.E.e.D 9 # # . . X   o   X     . O     . $ h n.:.#X@XlXL.E W X.:     o o 9 8XiX*X$XG.) 4.^.I ^ ].AX.XH.| E F.tX>X&X*XqXqX*XDXk. .4.5XuXuX1X .h ;.h.-.:.f.7.q O = : k W q & % 8 7 w W n.8XyXsX].r.W.<X3XF.$X4X8.j | 6XXXiXiX$Xt.H.3X3X2.4 # X X   . . .                                 o o o   .   X X X   . .     O . . .   O . t [ k $ % e &.*.G B  .g.kX@X&X{.x.0.q.q & O o X   . . X X . .     o O j o.A 2 $ O     . . X + o > m o.E 2 %   O e %.r & 6 B.B $ . .   X   X . L < O       . O O 1 V !.: 1 >.m.r O @ @   = 1 Z N./ 4 #   X         . .                                 X X     . .       O % $ r E ( R T. XtXNXMXVXrXcXpXtXW.C e 9 6 6 1 & 8 % & $ 7 1 w 2 6 & a 1 1 e e $ % % % : 7 7 1 7 1 & 9 e r e 6 i e a # # < q 8 p m.uX-X*XsXpXrX.XH.c.eXrXrXeXrX;Xt.t.#X=X*XwXyX.Xh.d.XXuX$X9.Z.%X>XqXoX-.2 O % $ w ~.oXwXXX:Xr.( |.tXrXmXMXmXmXmXmXmX",
"mXmXmXmXmXmXmXmXmXmXmXmXmXmXmXpXpXaXcXtX:Xy.m % . # 3 / oXwXnXxXcXcXmXmXmXmXrX=Xr.r.7X-Xd.g..XrXaXrXxXxXrXpXaXwX>XJ.k.t.z.0.o.1 . & 4 ~ E I N.E r K B.C 7 a u 9 7 t a r b H ..5.u.2.-.s.O.F 7 1 e $ .       O . .   X X o O 1 N n S O   . # . % 6 0 % . O . . . . . : p W W.V.G D $ . .   X       X     . .     . $ 5 a.:.#X=X:XE. .B K 6 . . O o 9 K.yXXX7XD./ -./.3.^ c.4X3.e. .) c.tXrXCXMXMXMX*XE.E 2.1XdX-XuX8XC.I / G.l.2.;.5.p ; = 6 / T.n.I b r b W 7.=X.XwXpXrXlX#X3X@XwX*XW.G U G.=XuXwX0XkXk.8.#X7XT.k # . X       .                                     . . . . X X X . .   X + % # . @   @ . % y % % % % S H q B 3.K.lX:X@Xh.g.p.k q & O X X   . .   X . . O @ o : ~ o.7 % . . . . . X X + O 6 m ` Z 4 & . % a X.4 6 6 $.j $ O .   X     . N < O X     . . O $ B B.% 6 6.7.2 O * o o O 1 g q.o.q .   X                                             X       .           . & r ~ q.p.I 1.$XbXMXVXnXvXuX-Xi.B 5.5.B g G ` A C B o.C ~ U U .._ q. .I k H q w H r G ` B o.! I ^ 5.).a.i.8.P.z.).g A :.s.q m OXuXqX*XeXuXuX&Xg.k.eXrXrXeXrX;Xk.2.<X{.yXwXrX_.h.'.dXuX:Xg.K.%X*X*X+XV 1 o O 1 W +X-XyXqX-XA.( k.=XrXMXMXMXmXmXmXmX",
"mXmXmXmXmXmXmXmXmXmXmXmXmXmXmXmXMXMXcXeX>XJ.} 7 % # 1 k K.&XnXeXxXxXcXcXcXcX&XD.W 3.5XoXg.k..XpXaXaXcXcXpXiXpXqX7XF.J.Y.2.~.E j # % 2 ` H g ~ o.b p G C j r q q $ 7 e e b H o.e.1.8.8.a.q.o.M e 1 $ O   o O O . . O O     O $ N n K O   . $ . > 6 0 ; O .       . # : e } I.u.( X.7 . X     .           .       . # 5 N.9.5X,X@X#X4.j M 1 # . . = 7 8.-XXXZX@X9.g.E.3.I ) r. .~.E.J.'.*XXXrXwXwXyX1XZ B K.oXx.[.=X{.4XA.j.J.3X<XT.V.e : 8 b b.-X8Xh.i.(  .U.{.XXuXpXrXrXvX,X>XtXiX-X| j k.ZX_.bXrXrXZX{.d.{.].T.I 1 . X X     .                                       . . .         . . X   . . . O   X . .     . ; = 8 b C ( 4.<X@X$Xh.8.a.! q a : .               # . O O % r M.' & . . . . .   X X   & 1 r n $.q # . 6 J K 2 & & K w # O           . t $ O o       . . & k %.% 6 0.:.1 . O . o O $ q ~ ' 1 .   X   .                                               .         X   . % 1 q H M.( ) j.>XwXpXbX@X*X5X .k n.n.^ W o.n ~ Z P 5.q.Z ~.n.a.a.t.T.u.1.M.Z E ..W q.q.! ..x ^ n.9.n.0.R 9.h.hX:.B c m.d.r M J.XXeXeX;X;X>XlX-.K.;XrXnXrXNXeXH.;.D.$XtXrX.Xv.'.:XdXXX>XD.Z.#X&X7XP.g & . O 7 t.-XuXyXwX>XR./ 8.#XeXmXMXMXMXmXmXmX",
"mXmXmXmXmXmXmXmXMXMXMXmXmXmXmXMXMXMXmXqXqX>Xy.B $ . & 7  .4XvXxXcXxXcXxXeX;X#Xr.n ( OX].t.Z.&XmXMXMXeXqXwXwXrXtX[.h.c.k.u.U q.E 6 % < N X.M n #.J i w A S q e 2 7 t e 7 7 b Z E ( 4.4.e.| } n 2 p u > o . O .   . . # # . . # q n ` % . # 1 # 0 1 7 : . .     X . # & e Q u.A.4.p.j # .     @               X     # q N.z.8X>X{.&Xg.j a e < # . . 6 ( 2X{.eX;X,X1Xr.Q Q ) t.j.2X'..X.XdX@X:XkXlXu.5.B i.8Xv.R U.$X{.>X,X[.kXAXqX>X2XE e u G }.uXqX-XDX[.F.ZX>X>XrXrXrXqX*XeX*XuX0X|.G n $XAX.XvXcXrXvX;X*X>X7.2.^ 2 .                                           . . X X . . . .     . . .       # # X X @ . # % O o - : G e.j.}.:X=Xg./ a.5.w K 0 O     . .         . . . # 4 _ M.n O X % # . X X X   O S 2 r M $.q $ # 9 #.K 7 % & N 2 # O           . t $ O o         . % r #.; : q.T 1 . O O o . & 7 n n # o     . .                                                       X X X   % % 1 2 B ^.y.W y.eXqXkX@X.X=X) g ..^ I q.b b F g W ..C n Q.1.4.8.j.9.8.i.Q.W -./ ) 5...} O.C  .Q.) 5.( B  .3.n.( b r s.( b } R.&XrXcXeXvX=XlXY E.&XeXNXrXpXeX:X2.6.#XXXyX'.F.&X>X*X.XtX'.t.<X@X1X .2 . . O b  XiXyXbXrXtX<X) 1.<XtXmXMXMXMXMXmXmX",
"mXmXmXmXmXmXMXMXmXMXmXmXmXmXmXmXmXmXmXrXrXtX X) 2 # O 8 r I.{.cXnXcXnXxXeX>XR.3.j ! K.v.8.Z.;XmXpXmXeXeXrXrX*X5Xc.6.h.h.( 5.) !.6 # $ $ a s 1 a u u 7 N a 2 e 1 d a 0 8 e N K X.q..._ q.p.o.A r q 0 *   O % @ @ O # 2 1 . . . & j K 6 # # $ # 6 6 9 8 % O     X . . 6 e b  .4X9.5.n $ % .   O       . .   o X     # 1 o.T.|.>X.XtXk.C p N 3 . . . $ b a.}.tXeXnX=X-.| V.e.8.T.|.uXuX.X$XH.k.j.r...k E /.|.].T w.4X@XeX*X@X;XmXaXXX7XU.e.m +.$XsXpXrXAXvX;XbX;X,X&X*XrXcXeXbX*X.X1X8.C 3.&XrXnXvXnXnX;XeXyXuX7.2._ 4 .     .                                     . X X X . # # # % . # # . X X   . . X X X . # % ; o = 6 ! U.{.dXdX|.2.w.Q.b 2 s O     . .       .   o   O 2 T ).~ < @ X . .   X     O 8 J 2 j A b 6 & $ 4 %.L 6 % : r 1 . O       X   . e $ .             . q K ; % q.P 1   O O   . % 1 q 2 .       . . .                                                     X X X   . % 8 7 4 T ^.Q E =XrX=X>XXX XW j ' B B o.r e ` O.I p.G n ! ( 1.i.t.g.2.4...I ) / 4.5.! Q G } e.5.) 5.E G p. .B Q j H o.W C V.4X;XrXcXxXZX%X#XY 4X&XeXNXrXmXrXZXg.) K..XqX{.@X>X*XeX*XtXv.9.4X$XA.n & O . ; } -XaXrXbXrXtX1X-.1.4XtXmXMXMXMXMXmXmX",
"MXMXMXmXmXmXMXMXMXMXMXMXmXmXmXmXmXmXMXmXrXuX-Xz.B & . > : Q G.>XcXcXcXcXeXkXE. .g ( G.h.4.A.eXmXqXcXeXvXbX>XF.D.t.g.k.2.3.W i.p.a % : # . : O % O O & & & # & # : % O O % : 9 p r r M A M r r a 1 0 , + ; %     . # l l $ . . O 7 S 9 $ . . . 6 q e 8 % . .   X @ . 6 m M ( F.f.^ C q & .   .       . .   o X     O $ B T.v.-X*XrXF.} e N 4 . . # $ 1 G P.kXrXrXvXc.F.E.! Z U.|.oX_.d.9.Z.t.j.r.r.V Z u.oX0X9.^ j.K.:X&X@X@XqXVXrXqX-X$X .W.6XqXaXwXeXxXxXbXnXxXbXxXxXxX;X&XZX<Xa.C ^ <X>X*XnXvXeXnXrXqX.X|.z.p.~ 7 #     X   .                                     X   . % : 6 9 r j q %     X X X X X     O . % 6 i Z y.5XsXwX'.d.g.a.} 6 : O O O O .             o + . k f.m.g .   X . . X X O & 7 J a 6 G ~ 6 % & $ 5 M.p % O > 7 $ . .       X   . 7 $ .             O 1 J ; % o.h &   O O . O . % $ #         . # .   X X                                               X X o     % 9 9 2 5 M.#.n g.-X.XoXuXh.b 9 X.B V ~ q q ` k o._ k n  .a.4.r.2.z.8.V.B n B _ ..E E C g W ~.i.l.n.-.^ P.-.B w W ^ N.W B W.H.;XeXrXxXkX:Xg.2.4XkXcXcXmXMXpXtX#X1.y.=X.X@XlXbXeXcXeXeXc.h.<X4X4.q % % % 8 V.yXaXrXcXrXtX<X2.2.6XtXmXMXMXMXmXmXmX",
"VXVXMXmXmXmXMXMXVXMXMXMXMXmXmXmXMXmXBXmXqXqXyX1X..1 O o ; 7 V.}.xXcXmXcXqX>XU.| g _ Y.h.4.G.eXmXeXtXeX*X=X[.g.t.9.k.T.4. ... .W K & & % O O o   @   O O . O . O . . . O O O . : 6 $ 1 $ 7 $ 1 & # %     % %   @ . # L L 1 # @   % a q $ .   O & r b 9 & % .   X   . 6 K M.) f. XY E j q & . O X     . . o o X     O # q I.h.&XXXrX|.p.7 N s * . . 1 # 9 e.#XqXmXcXeXbX8XW k i.9.OX Xh.D.<XD.3XzX4XG./ 9.sXwXlX4.E C.3X[.@XxXrXmX*X].*X6XW P.{.qXaXMXBXcX;X;XBXcXvX;XkXvXvXf.J.) M C g.=XqXrXnXkXxXeXrXeX{.Y.I.I r # .     X . . .                                     . 6 r m C } p.Q.%.s % O O X   X . . % % % 9 b p o.W. XwXwX>.;.I.E 7 % O   o . .   X     .     o O $ z f.,.< o   @     X . 1 q j &.: i q.o.6 O . 1 h M.9 % . ; 6 # .         X   . 0 # .       .     O $ S ; & $.4 %   * O O @   O % . + X     # # .   X X                                                       O > 0 9 7 e q J b -.5XXXoX9X1.& O s q H &.r 6 e r C X.q r q.q.N.o.Q.( ( q.m D 2 ` A b X.A G Z N.q.5.s.p.5.5.M.r b g M.$.k z U.g.@XeXmXxX,X>X:.Z.#XbXNXrXmXMXrX&XlXw. .6X'.F.:XvXeXmXrX>X'.f.c.^.W 6 O O & p E.pXaXcXcXrXtX<X2.6.8XeXrXVXMXMXMXmXmX",
"mXmXmXmXmXmXmXmXmXmXmXmXmXmXmXMXMXMXBXcXcX*XdX}.n.w : - = & C T.*XmXVXmXpX>X2XI B a.2Xf.4.J.eXcX.X;X*XeX[.Z.E.r.6.g.^ V.( 3.(.5.G J & % o - + o                               . O . . . . . . . . .     % . O   O # 3 #.2 #     O 6 J $ O X   % q j S & % O     X . # a } n.5X|.l.V E *.6 . ,       . . o o X   X . # q I.7.ZX_.*XlXi.n M t . . # . O : p y.bXaXrXNXeX@Xj.V ^ / ^ 4.g.}.'.>X'.&X'.7X&X*XqXXX*XR.E C Z.$XdXeXqXuXdXv.9.8.| L.tXiXaXiXrXAXqXmXmXBXxX@XF.c.>X7.W n m } OXqXrXNXcXBXcXxX].&X>.0.(.r # .         . . .               X                 . . & n ~.P.P.C.y.3.a.Z 2 7 # . . . $ q K & : b #.: 8 M 4.1X'.6.(.q.q & ; .     X   . . .     +   o % 1 $./.x # - O O   @ . $ c 5.o.b : D p.Z % o O < _ M.i ; O * & % .       X     . y # O       .     . % a : % #.< %   . > y O     . . X X X   # # .   X X                                                 + . O O y 6 S r 2 q K g ^ hX X+X1.n % o = ; : > % . O O % & & 6 r e 7 6 7 e r p 7 6 : & : & & 1 & & 6 6 6 9 e e 9 8 ; % & & : 7 V G.H.$X{.eX.XNX.X>.9.6XbXmXBXmXMXpXvX#X! ! 2Xf.d.,XvXcXpXrXvX{.f.h.~.b % O % 1 e.#XNXMXcXcXcXtXU.1.v..XbXcXcXBXmXMXMXmX",
"mXmXmXmXmXmXmXmXmXmXmXmXmXmXmXMXVXMXcX;XeX&X7X}.d.I 8 o O & 2 5.5XcXaXpXrX-XA.W ^ n.2Xd.2.J.vXNX'.&XrXbXlXj.j.g.J.G./.( 3.I.T 0.q.H 7 & > o   +     X X                                       . % O     % . > O . # 3 ` j $     O 8 J $ . X o O e r A e . . .   X   . e Q i.|.|.z.I ( o.1 O O       . . o X     X . . 7 a.6.7X_.].1X4.E M 7 . . . . . O 8 } $XrXrXeX*XZX<XT 8.W.W V P.k.ZX.XZX'.&XbX*X;XuX*XtX1Xw.Q B U.>XwXXX*X-X:./  .} W.=XNXwXCXqXpXpXmXrXmXeX;Xh.%X@XR. .G } Z 5XwXqXrXVXmXcXcXv.4XI.E b 9 .           . . .                           . . O % & j ) 8X$X{.lX<Xj.y.! } O.w & % $ 2 ` n 1 8 q J 8 : n V.P.-.i.q.n $ : O   + X X   . . .     O O > & q !.q.g ;   & # % O # w :.n.} e e X.M.n % o O $ _ q.9 = . O % .         X X   O y . O . .   .     . % a 8 & K $ O   . > y O         o X X   # #     X X                                                   O % > & s S J 1 7 J M ~ Q.0.5.g & O   o   . O .   X X   . . . & % O o O % % & % % O .   . O . . O o o o o O O o o       .   % I. Xc.}.{.vXpXCXqX_.H.:XeXrXmXVXMXpXeX#XG Q T.x.c.;XxXcXMXpXvX{.d.m.p.7 O O & 5 A.;XmXmXcXcXrX>XC.1.{.wXmXcXcXCXmXMXMXmX",
"MXMXMXMXMXMXMXMXMXMXMXMXMXMXMXMXVXMXcXeXxX&XZX|.d.I.F & % : $ C 2XtXwXwXwX&X9.1.1.T.+X7.2.J.vXeX.X*XaXXX{.<XE.;.7.J.2.1.2.t.g.6.i.~.w 7 : ;     . .               . .                           . . @ , y & : . O . < L K <     O u J $ .   +   6 w G K # . . .     O 6 B 2.|.|.A.^  .E 7 % .             X         O 1 q.8.8X'.v.}.8.3.F 9 O O . .     O p t.>X*XeX*X7X1Xd.'.7Xh.-.! W.[.-X9.9.rXrX@X#X6X=XtXtX:Xr.p } =XiXiXXX5X6.8.V.} | 2.f.].AXwXwXCXrXrXMXXX.Xc.H.}.R.i.| i.-.dX0XsXAXVXMXrXAXD.r.p.g % O     X X   . . .                           . . O O & k 8.oXyXXXeXXXeX>X<XW ( ^.~.%   # 4 M.V 1 : e r ~ I i.^.3.E o.n 2 $ %   X +     . .     . . & a u $ k $.r % - o 6 1 1 1 q V T.+XH 7 Z a.M.q O   . $ I ~ & o . O . .           X   . > . O . .   .     . % a 9 1 a # .   . & > .   X     X X     . .                                                         . . . # $ ] 9 6 # . O O : 9 q 2 & . # # . . # # .   X X       . # .   o     . O O .   X X     . O .         O O O . o o . . o 1 ^.f.6.k..XrXrXqXqXeX>XkXcXmXmXmXMXmXqX3XF F L.x.{.eXeXcXMXmX;X}.d.T.` & . . 1 V 5XcXxXeXrXcXpX=X3. .qXaXaXcXnXnXmXMXMXmX",
"MXMXMXMXMXMXMXMXMXMXMXMXMXMXMXMXMXmXmXcXvX:X7X'.7.gXp.7 : O # 2 0.|.uXwXqX{.2.y.2.Y.<X7.6.#X*X.X&XbXrXqX=Xh.6.OXc.7.z.2.2.z.9.6.6.0.M.q & .   O . .       .   . . . . .                         . . . O > % 0 & O . $ N #.2 . o % s J & .   +   % 7 E B.& O . .   X . & n 2.<X=XJ.8. .G m & . X                     O 1 } r.1X'.x.OX9.u.Q p ; O . .     o : ! OX.XtX&X&X:X{.*XXX*Xc.E Q A.+X1.6.qXqXF.H.#X[.{.qXyXF.X.p h.yXyXoX'.6.T I.L.V.U./ 2.6XqX0XuX.X0XrXyX&X[.F.J.k.S.1.P.9.]..XyXNXpXMXqXtXE.I r 1 %       o     .                     o     . . . . % : e 1.5XNXwX0XBXAXqX{.#X .r.|.7.e ; q k j < # 0 7 j a.m.^.2.n m p 1 $ # O o X X   . . . .   . # 1 #.6 1 ' C & o O > p H w ` M W OXz.M 7 ;.n.~ $ O     # k k % o . . . .                 * O O .     .     . % a a 1 $ #     . % & .   X     X X     . .                                                         . . % . # 1 $ # & %     o o % % O . O O   . $ 1 .   X X       . . . X X X     . .     X X X   . .     X X   . . % O     . . O q T.f.9.Z.tXwXrXqXqXuX&X&XNXVXmXcXmXmXeXlXF D r.x.*XeXeXcXVXmX;X#X9.~.b % O . 2 ) dXmXxXeXrXrXrX=XQ ! uXaXiXcXnXnXmXMXmXpX",
"MXMXMXMXMXMXMXMXMXMXMXMXMXMXMXmXmXMXMXpXkX%X=Xx.>.<XP.V 1 . & $ B l.8XuX&XH.2.Z.9.}.OX9.9.1X=X{.*XvXuXqXF.SXc.;.h.b.9.8.I.-.t.;.h.9.g D 7 % *   # # .   . .     . . . . . . .                 . . . . . > % 9 6 O O O 6 $.2 . O 1 K S 7 O O . . O 1 Z B.e % . .   @ . : b 5.<X=X=XD.( Q X.$ . .                     O & C i.}.'.d.OXk.u.! F :         X + O j 0.<X>X&XtXvXeX;XuXqX>XS.k | +.4.t.$X.X{..X@XF.h.'.0X-Xe.F I W.'.oX5Xh.:.E.<X|.4X-.! V.3XdX-X.XtX-X-X Xh.J.#X3X1XJ.2X;.>.7X{..XcXrX0X{.^.M # . # .   o     .                             . . . . & m p.E.=XqXrXNXeXeXcXZX3X^ 2.oXh.O.r B w # * O & 4 _ hXm._ j 1 & $ # # O .   X   X     . . . O % r X.6 7 !.n % = % e n ..z O.n E I.) e b x. XG % .     . q q . O . . . .                 . O . .     . .   . % a K q & O     . # $ .   X     X X     . .   X                                                     . . # . & . % . . . .     o % . O X X X X   # $ . .     . .   . . .   X         .             .           . . . . . . . . . * r  X_.g.9.{.]..XqXrXqX'.'.eXmXrXBXmXmXrXlXM p 2._.yXrXxXcXmXmX;X6X9.p.7 % O # g l.tXmXxXxXrXrXiX=XC E -XaXiXBXBXBXmXmXmXrX",
"MXMXMXMXMXMXMXMXMXMXMXMXMXMXMXmXBXBXMXpXtX,X>Xv.7.1XY.i.q & * # 2 ( OX8XJ.j.4.Z.c.=X<X9.g.$X>X&X{.ZX&X7X$Xc.6.A.g.2.2.L.4.i.4.8.c.2.q.p 6 O @ . # # .   . .                                     . . . * y & q 2 . o   % #.3 . % w ` L t . . . . O : n ' n < .         % e ! K..X*X#XQ X.X.1 # . .         . .     . O & p p.G.'.d.OXY.t.1.} 8 o   .     X . $ C a.4X>XuXqXeX;XvXrXrX<Xu.j n E i.E.<X7XtX7XF.8.d.0XyXG.e.G B d.-X'.>.8.E..XuX{.2XE ! K.:X{.{.7Xv.Y.9.;.9.#X[.[.c.9.g.7.F.c.$XlX>XXX5Xp.7 .   . .       . .     X                     . . . . # 1 G I.8X>X*XtXlX@XeX*XZX<X) y.8XK.z w ' j O   , 0 4 q.s.R w # : . % .   @ X   .         . . . O & K n q b !.A % : b k ^ -.( E w H M.B 7 E 9X9XG %     X . 1 1 O   O . .     .               * . .     . . . O % a $.w % O     . . $ . . X     X X     .     X                                                     . . . . * . % . . . # . + + o .     X X X X . . .       O .     . .     . .                           . . . . . . . . @ @ . % j +XoXF.k.>X>XeXrXrXrX&X&XrXrXeXCXmXmXwX6XM e 8.=XrXrXcXcXmXmXeX8X8.E $ % O # x T.*XrXxXbXrXpXiX5XF G -XiXaXVXVXBXmXmXmXrX",
"MXMXMXMXMXMXMXMXMXMXMXMXMXMXMXmXmXmXMXpXNX>X6Xc.c.=XOXI.Z 2 . . # j 0.+XU.4.w.r.{.>X#X9.g.|.:X>X@X@XD.k.h.c.E.2.u.2.4.I.| e.3.4.k.I.G p u ; @   # #   X                                         * . . . * % r r . o   O [ 5 # # k o.A S . . $ & O : j B ' 2 . X       O 6 Z c.*XrX:X} { X.q # . .   X   . . .     @ . & 7 N.k.'.f.OX2X9.r.p.u O . . X   X . . 6 M i.[.XX.XxX,X;XxX].eX8X1.k C o.+.e.A.K.OXJ.9.d.uXwXdXG.3.V c.:X1X6. .t.{.NX].|.4.1.8XdX4X<X}.G.Y x I / -X*X7X#XR U.g.6.9.G.k.H.*X5XG %   X . . .     . . . X X                     . . . # $ p E S.$XZX[.Z.r.y.7X*X-XOX| e.J.k.j M M r > O > # 1 e 2 1 .   . O @       .       . . . . . O % 0 s 7 g } X.p ; 7 a.>.T.;.p.C b $.K 6 r 5.uXoXC O   X X   # # .   . . .     .               , . .     . . . . % N B.q # O     . . 1 # .   . .             X X   .                                   .               . . *       + X . . .     X X   . . . X X o         . . O   X   .     . .   X     . . . .     o     . . .     .   X X X . & j l.h.F.{.:X,XxXqXqXrXvXvXnXcXxXcXmXmXpX@XF p z.-XiXwXNXcXcXmXeX5X3.w $ . . $ ^ OX*XeXrXcXpXiXiX5XG G =XiXpXMXVXVXmXmXpXrX",
"MXMXMXMXMXMXMXMXMXMXMXMXMXMXMXmXmXmXMXiXaXXXH.8.&XeX8XU.a.g # % O 1 ^ P.L. .r.4.%X>X#X9.d.[.oX7Xc.k.j.9.h.6.U.r.1.I.2.( (.B a.-.g.4.M 9 @.0   @ # #   X X                                       . . . # y % q 7 . O   % ` w $ # j o.C L % . # & O > r k N.g %   . .   O : M G.bXrX:X..{ H b # . .   X   . . .     @ . % 1 M.g.F.f.J.4X7.j.a.9 ; . . X   . O . o ; i ) OX3X3XH.lXkXeXrX*XJ.8.I Z h z T ;.k.Y.h.v.XXXX-X}.y.gX|.].7XK.1.1.h.XX*X=X2.-.=X_.t.1./ :./ a. .L..XNX.X{.8.C.E.z.9.8.4.L.Y.0.q %   X     . .     .   X X                     . . . & L B.z A.|.=X6.) ( ( d.[.4Xy.E V.W.4.n *.r a & O : % . O . . X +     X X o     . .       . O . . : d % 7 c Q.H : i b ^.b.hXT } e q #.8 : M n.9Xb.j O   + X   . # O O & & .     . .     . . . . y . .       . . . & N B.4 #       . . 6 # . . . .                   . .                                                   @     @     X   . . O o X +   . # .     X o   o   . . O o o       . . .     X . . . . .   X                     X X   O p ~ a.8.F.>X[.@XnXcXXX*X*X;XeXnXcXcXcXmXpX&X} C c.-XpXwXNXcXcXCXqX$X| 1 1 # O q 4.|.eXeXeXrXrXrXiX=X! Q =XwXrXmXVXVXmXBXmXrX",
"VXVXVXVXmXmXmXmXMXMXMXMXMXMXMXmXBXmXVXpXaXqXZ./ kX;X:X#XU...1 O O 1 w (.2.8.P.8.@XkX:Xt.t.3X5X'.Y.6.g.j.2.k.k.8.4.i.l.P.) e.L.-.8.1.b p K 1 % . . .   X X X               . .           .   . . . . * % S 1 & > O O O & K n $ $ 1 N } ~ & O . . O 0 2 ~ a.I $ . . .     ; H g..XeXZXZ.! H a % . .   X   . . . . .     O & X.g.'.9.K.|.f.g.e.p & . o X   . . o o + = & r ~ | 1.g.|.=XqXqXtX>X:X=X$X[.6.-.) J.{.tX].-XdX>.R b._.fX0X.Xg.R 7.OX6Xh.^ A.9Xx.P I ;.hX>.g.( L.=XeXCXeXK.( w./.Y.T.L.V n e 1 & .   X X + X X X X X     + o . .     . .   X . .   6 s.n.I V.G.d.6.J.K.K.6.S.(.W  .V.3.I E K r 1 # O O           X X     X     . . .         @ . . # a J % e R ~.K : 6 ~ n.m.l.I q $ #.p % & k ).^.T 7 O o +   @ O # a $ e @..         . . .   . q K o o X X X   . # 6 m B.2 O o . . . . 0 % . . .     X             . . . .         X   . .       .                                                       . . .               . . .             . .       . .               .       X X     . . # 6 M } i.G.#XH.D.{.*X>Xh.c.tXqXbX;XxXcXBXBXrXvXS.r.7X*XrXrXmXeXcXCX*X4Xk 6 # & # q t.>XbXmXrXrXvXtXiX*X .( 6XtXrXmXMXMXmXmXmXmX",
"VXVXVXVXmXmXmXmXMXMXmXmXmXmXMXMXBXmXCXaXwX*Xj.j.,XeXkX%X$XS.M % % # < ~ I u.l.t.>X,XH.y.g.h.h.J.6.P.T.6.E.j.g.4X4.4.L.2.1.r.2.n.T ~.b M X.n $ % # . X X X X     o o o . . O . .   X     . . . . . . O . s 1 & > O % . $ L S $ # . r ..! 1 O   X O 0 2 E L. .6 % . .     % m 8.].>XvXF.( F u # .         . . .   .       % K 9. Xk.J.dXv.k.e.F 6 .   X   . . X X X X   O 6 q k ( T.2X5X&X.X*XrXrXrX*X'.H.E.zXtXqX=X>.<XgX1.L.hXx.dX8X^.4.2.-.6.2.-.A.dX'.1.) 9.OX9.z.1.j.=XqXwXcX#Xr.3.e.4.5.| r : O # $ # . X X   X X X X X . .     . O O . . .   @ . . = N n.T.^ 3.l.>.F.8XZX#X8.1.3.! 3.^ P q.$.K 2 $ . . @   X X X                 . . . .     X o   % $ J J & q 0.I.p : p Q.Y.h.5.g & & S 7 : 6 h N.q.B $ .   +   @ O & S 7 q { % o     . . . .   # 5 X.O o   X     % & 1 m %.2 o o . . . . > % . . .     X             . . . .         X   . .     . .                                                                                                                       . .         X X   % # 7 b C E E.K.Z.D.[.=XeX>XK.<XuXmX&XbXeXNXcXNXrXvXD.j.tXwXrXrXmXcXcXbX*XT.b # $ # 7 n Y.>XcXrXrXrXtXtXpXqX2. .:XeXeXNXMXMXMXmXmXmX",
"VXVXVXVXMXMXmXmXMXMXmXmXmXmXmXmXcXcXmXpX&X|.6.R.,XvX;X*XqX5Xe.q & . . 1 k (.y.F.ZXlXC...h.v.2.2.P.8.9.G.g.2XZ.8.j.1.r.r.u.1.gX2.I.( n ~ g ` N $ .     . .                         X X X       . .   @ O S q 6 0 # % . % t ] . . . 7 o.! 7 .   X . & q V L.i.e & . .   o . r 6.'.eXvX%X( H a # .           .       X   . % M 6.|.k.D.ZX'.k.3.X.6 O       . . X X   @   . % & 1 b } p.I.4X6XtXuXqXrXeXeX:XzXD.eXqXH.^ ^ ( p m } E Z M H F G V ) 8.S.c.dX].A.u.G.b.1.a.u.d.XXiXqXuXyX|.3.C M a 8 %     # # # . .   . . .       . . .           . .   , % & i M 3.u.l.) 4.2.{..XtX:XF.:.g.r.| ..n.~.A q $ # %                             . . .       X   . % $ K N 2 j ~.q.6 : r Q.T.6.Z 1 % > 1 $ % 6 w o.I w # @   +   o O & S r k ` % o               # 3 $.6 % .     . % $ 1 A $.1 o   . .   . % . . . .     X               .                                                                                                       X   X X X     X X                   X                 X X X X . 6 3 %.n E gXc.g.k.@X;XeX>Xg.h.uX.X*X;XNXrXeXcXpXcXH.c.eXrXqXrXmXBXcXeX:Xi.r # & # e ! 4X>XeXrXrXrXeXeXpXeXt.8.:XeXeXmXMXMXMXmXmXmX",
"VXVXVXVXMXMXMXMXMXMXmXmXmXmXmXmXcXxXrXrX3Xj.;.#X@XvXeXrXrXyXOXI & o o % r Q.2.}.-XlXw.} D.}.2. .2.6.9.9.k.k.j.t.S.j.1.) ) I.i.2.i.a.j } M.~ B 1 O o O # # # .       . . . .     X X X X X X . . .   O % S q 6 : # . . # 1 @.. o . 7 q.! t .     . $ q B l.L.j & . .   O O q 8. X>X>X:X1.} N # .           .       X   . ; M 8.|.k.g.7XoXt.1.X.7 .       . .   X . O . . ; O O % 6 r G 4.U.1X=X{.*XtXtX>X#Xd.qXeXt.y. .E m u i p D p D } +.w.U.Y.E.d.].].9.1.9.g.( p.^.7.v.7X8Xx. Xz.E 7 : O     o + % # . % . % % # . . . O # # .   X X X . . # 1 J i 6 e r ( l.Y.6.j.<XZX*X*X>XZXF.5XG. .p.a.W 3 $ # . O                               . . .     X     % $ a r 4 G N.C : : w p.n.2.q % % > # # % 9 n Z w 2 . O   +     . . t r C ` & O   @ .         . < $.b q # . O . % & 4 o.#.7   o . .     . . . . .                                           . .                                                                           X X X X X X X   X                               . . .         X X . # 4 B.H E Y.c.g.c.{.&XeX;Xd.F.]..Xv.bXrXmXeXrXrXcX@X{.cXmXeXcXmXVXrX;X4X) 2 # # $ r 3.F.tXeXrXrXrXeXrXaXrXH.Z.kXcXrXmXMXMXMXmXmXmX",
"VXVXVXVXMXMXMXMXmXmXmXmXmXmXpXrXcXNXwXtX4X1.d.:X%XkXxXmXiXwXuX9.1 * o O 8 H U K..X$X3.} L.j.3.n.t.G.8.;.1XK.8.t.t.j.i. .4.l.6.-.3.W ( (.^ N.U g % + O # $ $ .   . # # . . . .       X   . . . . . O . % e 2 & . O O . # < &.# O # 2 ..E p . X   . $ q V j.P.C 1 . .   . O e a.|.;X;XkX8.} J $ .           .           . : M g.|.g.g.=X7X6.4.} e % .     . .     O . .   @ +   o > : 6 b ( i.E.4X1X7Xv.F.8.g.uXqXg.E.4XE.} p { D Q.3.e.W.4X$X6X3XE.6.c.4X3.Z ( V.W ( T.;.) Q.(...M 9 & O .   X + X   O O O % O . # # O O     O %     X     . q B -.a.M 6 8 r 1.2XlX&X7X>XeXuXeX&X=X6X}.g.0.! 7 & # . % .       o     . . . . .         . . .     X   o   % $ 7 4 5 $.X.7 : 6 k s.2...$ = * O . # : S #.b 2 # O     X       O & 7 B Z 1 . .   . @     O # $ #.~ B 2 # O O O $ k M.K 6     . O     . . .   .                               X   . .     . .                                                                                                         . .         . . . . . . . . . .   X . # h Q.~ ! K.'.c.c.{.;XeX*X[.$X]._.x.*X*XrXeXeXrXcX;X;XcXmXcXcXpXMXrX>XE.Z 1 & . $ Z 0.c.tXrXrXrXrXeXrXaXpX$X3XvXNXrXmXMXMXMXmXmXmX",
"VXVXVXVXMXMXMXMXmXmXmXmXmXpXpXrXrXCXpXqXA.^ [.vX,XkXcXmXpXwXrXOXg : . O O 7 P OX.X7X4.! y.y.4.u.G.Y.G.<Xd.h.t.8.j.9.3.a.u.6.P./ e.I ) ^ 4.^ ^.E %   O # 2 7 > * 1 1 1 & % % O O % . * . # * . & & . O . 1 $ . O . . . # < #.$ # # 1 ..W N . .   . # 2 E K.Y.E q # .   . O e a.'.&X;X>Xk.! L 1 .           . .         o : M z.{.k.g.&X7X6.i.Q b : O     . .     . .       o o + o o % 1 q k I ) w.P.d.k.) j.-X*Xg.G.8X4X( r H } e.U 2.1XdXoX*X=XF.:.7.<Xe.} Q +.M.} p.W q r j < O     O . . .   O : s i 6 7 1 r q q 7 6 : & 1 1 $ & & & 1 n 5.T._.T.F : 8 7 W t.6X{.tX].tX&XZX:X[.4Xg./ Z b % o . . @     + X     . . . . . .           . .     X   @ . % 0 7 4 5 !.N % ; & B s./ ' O - O . . . : s @.7 & . @             . # 2 A A 1 . .   O O     O . # S o.P A 7 % O O 6 I p.b & .     .         . .                                     . .     . .                                                                                         . . . .     . . . .           . O . . . . . O .   +   1 V (.G E OX.Xv.v.{.;XeX*X|.v.{.v..X.XqX*XeXeXeXrXcXcXmXmXNXcXpXaXrX:Xa.b % % # < M.t.{.eXrXcXrXrXeXrXaXaX>X>XrXmXpXMXMXMXMXmXmXmX",
"BXBXBXBXMXMXMXMXMXMXmXmXpXrXpXpXpXiXwX*Xr.2.>XxX;X;XcXcXcXrXqX-X2.r O o o 1 Y +X].8Xt.1.j.y.8.8.k.k.D.k.#Xh.U.8.z.l.^ ) / T.T a.p.Z x 8.) I.-...i ; % : t s y y t r e 9 0 > > > y & y 0 0 y & y : % O O # # O +     O # 3 [ 2 $ . 7 +.( N # .   . # 2 ( <XJ.| j # .   . . e a.d.&XeXtX<XW A 7 . .       . .     .   o O ; M T.'.k.g.>X&Xg.S.E H 7 %     . .       . X   X X X +   o ; > 6 1 1 2 7 H 5.^. .L. X|./ A.1X|.z.U P  .| x 2.5XsX0XwX0XdXx._.5XI.V.5.} p 8 : 8 & 1 2 1 o o @ % $ $ O % k _ ~.5.^ 4.4.n.8.1.^ ! | | ( U I W ( 3.t.c.oXuX9X2XM % & $ 2 g 1.9.{.@XlX|.}.1X4XU. .n : O =       o X X @     . . . . . .                         @ . & 6 e 2 5 &.6 O O % j ~ U A O +   .   . . : s # .   X     .     o   . 1 K n 1 # O . . .     . O . & q.U E b & > O 1 ) s.7 %                 .                                       . .     . .                                                                                                                           . . . . . .       * $ s.0.} C }.].'.{.&X*XqX*X{.v.c.5X>XZX*XvXeXeX;XeXNXBXrXmXNXcXMXaXrX|.| 9 O O < C Q.8.-XrXrXcXcXrXrXrXMXMXeXvXrXMXmXVXMXMXMXmXmXmX",
"BXBXVXVXMXMXMXMXVXMXmXrXrXrXmXNXMX0X0X=X8.K.vX*XxX;XcXeXvXvX*XtX+XP 6 O . 6 B n.x. Xg.A.E.8.8.G.9.H.4XlXc.g.k.j.8.t.I.4.l.-.g./ Q.k U I.n.) -.5.b 8 O O & 1 # # q q 2 $ % % % % : # 0 & & 0 # : ; O O ; # #   o     . # < K 1 # . 7 5. .N # .   . # 1 ..4XH.1.n # O   . . e s.>..XvXvXlXI M t # .       . .     X   + O % b E.'.c.g.ZX{.D.U.( X.e %     . .           X   X X   X     . O O . % % : r Z g ..n.^.W I.2XY.^.i.1.Q.E B 5.T.9XoXdX XgXG.T.8.) Q G q % > o   . $ $ #   @ # < q b e g ;.x.Y.6.7.hX5X|.|.}.Y.Y.E.2X1X4XR.<X#X=XeXwXwXwX-XY.M & < $ 1 t } L.S.9.:.>.:.9.8.( 7 : O o   + o   + X       . . . . . .                         +   . % # a < 3 J . O . % q g ~ g O o   O   . O . & .   @ X X . . .   o   . $ t r 6 % O . * > . O % O o . B.T V j $ 0 O 1 s.s.1 O .   .                                             . . . . .                                                                                 . . O . O . . . . . . . . . . . O O . . . . . O . # # # # . . O O . . 1 0.h.! B F.]..X>X>X&X*XyX7Xh.h.h.=X[.{.:X,X;X;XxXNXmXrXcXcXmXCXpXuXK.C : o % 5 N.a.2.*XrXrXcXmXmXmXmXMXMXrXCXrXMXmXVXMXMXmXmXmXmX",
"mXmXmXBXMXMXMXMXmXmXmXmXrXrXrXrX0XAX-Xd.F.:XrXrXcXcXcXxXkX,XeXqXuXT.j ; O % q V hX_.9.8.4XD.9.<Xh.h.lXlXd.k.h.k.z.I.1.l.r.1.8.4.(.g a.u.u.a.) ( M.r O o % # # & 1 7 7 r 1 6 & % % % O % 8 & $ 8 O   o . % 8 . o +     O 6 t *   . e p.5.n $ .   . % 2 ..}.[.-.Z $ .     . 9 ( 6.{.*XbX$X( o.q # .       . .     X       ; q E.=XD.d.&XtX$X4Xi...b & . X . .                                     o O & 1 6 7 e p r C ) 2.-.E b 7 1 6 q j V V n r e 9 7 7 & % % % O     @ . . # . O & g N.o.| -.h.oX-Xx. X[.=X>X>XtX>X@X{.=X>X*XtX&X>XvXeXrXwXwXvX:Xi.j 7 g g < q 7 m G a.I.7.>.-.} a O   . . . .                 . . . .                             . . . : t & $ & . . O % & 7 $.q   + . . X   O . % . o X X X . . .       . . 6 & % O   . 0 s & # & O + O g ..~ j e 8 u 1 5.s.& . O .   X   X                       O . . O   @ +   * . . > . . .                                                                 O O . . O . $ < < 2 q 2 3 4 4 w 3 r 3 3 q < 2 r 1 1 7 1 7 2 4 4 4 w 3 4 2 1 . ; O 2 z.b...Z  X`..X&XtX*XrXXX{.c.F.7.h.1X$Xx.F.%XvXxXeXeXcXNXrXmXpXrX-XU.p O - % V I.) -.&XwXeXcXmXmXmXmXMXMXpXmXMXMXmXmXMXMXmXBXBXmX",
"mXmXmXVXMXMXMXMXMXmXmXcXrXcXrXqXuX>Xc.9.{.eXeXrXpXpXcXeXkXkXxXrXrX].5.7 O o % q P.OX-.i.g.D.c.D.6Xf.&X'.F.g.h.9.4.3.P.i.r.-.2.I.} b V /.u.1.4.( e.~ 8 o   . 6 1 p &.K F H F m 7 8 0 ; % : e b p a > O % 7 e . > O     . & 6 o   O 7 V.3.n 1 .   . # 1 ..$X=X8._ $ .     . 6 W 7.{.*XcX=X2.o.r # .       . .             ; q E.=XD.g.*XtX$X<XS.| b & . o . .                 . .           X X X     O . . O O O & 1 4 5 4 3 # O   . . $ 2 1 % o o o o .         .   X X . . O % 1 C q.I.W 4.$XvXXXXX[.#X6X:X;XeXeXcXvX;XeXrXaXCXyX*XXXqXsXtX@XJ.S.( Q o.~.N.V 2 & 9 X.Z U ^.^.N.m :       . . .                 . . . .   X X X                     . . . 0 0 & O O . . O % % : ] 1 . o . . .   O O % .   X + X . . .       . . % O O O   . $ t t $ $ . o o r B C H e 8 : 6 T N.1   O . . .                     @ . . O O % % O o @ . O $ $ . . & .       .                                                     O . > O y % y & S K S S *.q #.j #.$.n *.K K L K A #.K L K [ #.&.#.%.%.B.$.#.#.K 8 % % C G.OXp.C c.*XZXZX.X].eXvXlX$X'.h.k.4XH.c.9.#XtX.X'.;XnXrXcXmXrXtX1X0.e O o & / +Xi.4.eXmXeXeXmXmXmXmXMXMXmXmXMXMXmXmXMXMXmXmXmXcX",
"mXmXmXVXMXMXMXMXMXmXmXmXNXNXrX*X7Xc.2.j.,XNXcXmXaXaXaXrXkXkXcXmXpXXX2XZ % o + % ^ z.) ! t.6.<X9.F.[.ZX@X7.g.D.Y.r.4.t.4.L.) l.a.} n E 1.0.4.W a.8.5.9 =   . 0 1 a K M.( ^ q...j 6 8 u : p X.p._ ` L 1 q k A 7 y O . . . $ &     O 6 Q.) n 2 .   . . 1 | $X&Xg.q.1 .     . $ I g.'.>XrX=Xi.~ N # .         .         X   ; q Y.oXD.h.*XtX:XH.E.( M 6   X   . . . . . . .                     X X X     . . . o o o   . . # .   X X X X   . .                   X   . X . # . . & W I.Q.+.3.D.vXrXNXqX#Xg.%X@XeXVXmXBXCXcXrXwXiXiXfXfXfXuX$Xj.} H G G a.L.4X5XG.W e & j I x x ~ N 7 # .                           . . .     X X o                     . . . f 8 %   o   . % O @ * s $ . O . . O   . O . % .   X X   . .                 @   . # 1 J 2 $ s o o 9 r b #.r 6 : 7 x !.:   O . . O                       . . . % 8 & & O > O % 7 t # % 0 %       .                                                   . O O O & # 0 8 & : : : % s & s 9 u 8 9 8 s % : 9 6 e 9 6 u 0 8 s s S p r p 9 S s u % 7 q.b. Xa.Z }.-X=X&X*XZXyX*X{.7X&X[.1.r.d.H.1.U.tX].x.@XbXrXmXmXrX>XT.E 6 O O 1 f.9XW.r.;XcXeXrXmXmXmXcXmXmXmXMXMXMXmXmXMXMXmXBXmXcX",
"BXmXMXVXMXMXMXMXMXMXmXcXrXrXeX*X5X6.( U.vXCXcXCXaXaXaXaXvXvXBXVXpXNXdXi.8 - + O w Q.Z ! P.j.g.c.F.&XtX=Xg.<X}.k.1.I.2.P.) 4.g.I.E w W 4.1.4.e.) l.) p : . . & $ 6 M } 5.-.-.~.B M i u u e H ..U _ ' k 5 c o.2 & % . O . 1 7 . . O $ ~.^ n 7 #     O 1 ( $X&Xg.5.7 .   . . $ V P.c.>XrX*Xl.Z N # .                   o   % q +X=XF.c.*XeX>XH.4XW G 7   X   . . . . . . . .                       X X   . . . X X X X X X X   X X X X X X   . o X . .               . . . # # O e t.gX| M E.ZX;XrX*X&X3X2.#X%XeXmXBXmXeXeXcXpXpXwXoX|. Xh.2.E M F } e.E.h.x.*XZXE.H 2 j !.o.4 2 $ # # . . X X X X                 .   .     X X X                   . . . . J : . o X   . . O @ @ > # . . . . O     . # 0 . O   X     .       .         o   . # $ N w 1 @.> o & i 9 #.m 7 : 6 h B.:   . . . .                       . . # a 7 7 a O > : 6 r ] $ # 0 &       .                                                 . . O O % & 6 $ 1 & 6 i 6 6 6 6 6 6 6 9 9 6 : 9 : 6 1 7 6 $ 6 9 & 6 1 1 7 1 7 1 7 9 8 & w p.f.v.e.E k.:X=X&X{.tXuXeX>XtX*X=X) y.k.D.4.U.tX].h.F.eXmXpXrXqX5Xa.r : O : g  XoX2X8.[.eXrXrXmXmXmXmXmXmXMXMXMXmXcXrXpXpXmXmXmXmX",
"BXBXMXVXMXMXMXMXMXMXmXrXeXeXeX>X X;.-.4XvXmXxXBXMXMXaXaXcXcXVXVXmXBXtXY.M % % O 8 9 M p.t.h.G.j.:X[.;X=XlX}.D.6.1.4.L.2.-.y.9.I.G n z 5.1.a.) 4.n.) o.7 ; O . $ 7 b O...0.0.1.o.H 7 6 9 e n _ -.5.q.' g c B.1 % O . . # 2 r 1 # O 1 ~.) C q # .   O 6 ! $X;Xx.5.7 . . . . # B ^.h.>XrX-XA.n a # . .               X X   % r 2X-X{.[.*XeXvX[.4XT } e . X         . .                         . .             X X         .   X X   .   X     X X . . X X . . . . . . . . o O e | G.hX..B U.6X,X>X.X=XE.^ Z.%XcXaXqXrXvX>X=X{.=X8X4.W b r Z 1.9.c.4X<X'.v._.nXkX$X^.Z q 1 4 j 1 6 . . . . X X X X   .             .                               . . . . . f % . X X . . . O   @ . . . . .   o     . & a 1 #   X     . .     .             . . $ w b 1 ] 0 : % : & a H e 6 $ w ` %   O . . .       .             O . : $ ] q q K % O 8 6 q #.S $ 1 & .                                                       . . % # t s a 2 e n C M...q.p.V p.( ( ....Z Z ..G G n Z Z 5 n ` C B Z z W h B C k H 6 7 j a.x.F.3.W 8.$X6X{.v..X.X*XvXeXNX>X) C.4Xj.4.Y.dX].h.D.eXrXmXrXuX1Xq.1 % % 1 P 9XoX4X8.F.kXcXmXMXMXmXNXnXBXVXVXMXmXcXeXrXpXrXrXmXcX",
"mXBXMXVXMXMXMXMXMXMXmXrXqXeXeX>Xh.;.8.3XxXmXcXBXMXaXaXaXmXmXVXVXVXBXrX$Xe.4 6 . o O a Q 4Xx.6.R.:X;XvX=X[.F.D.g.9.1.u.^ L.t.g.1.M.4 I a./ 4.r.4.r.1.Q.r & O . . : p b X._ z _ ~ #.e 6 a 7 2 w k ~ I ` n k #.1 > O   . # q l 1 # O 6 ~.1.C 2 .     O 7 Q :XxX X0.2 . .   . # k ^.g.=XrX*XA.n e % . .     .         X X   % r 2X=X=X:XeXrXvX{.$X/ ..p . X                                   . . . .           X   @ . . . . X X X . .   X X X X   . .     . . . .   . . . . 8 ( 2X8X5XA. .1.j.lX{.-X5XS.U t.{.BXMXCXqX[.<XSXE.2.U V n p F a.E.-XuX5Xx.f.].>XZX@X4Xa.Z 7 e K J 1 # O . .   X X                       . . .                         . . . . . d : O   o . . O . . .     . .         o   6 r 2 #   X     . . . . .               O # q K 7 e 9 S % O % 8 K j i $ e S ; O % # # .     . .             O . : $ #.w w K 8 % 0 2 < K #.2 $ % . .     . .                                             . . . 6 9 ] r N b ~ U u.r.n.i.r.P.P./.l.I.4.L.a.e.p.p.o._ ! ~ ~ Z _ p.q.q.I W _ I $.e p V n. XOX4.I t.J.F.c.].qX*X.XeXqXCXeX;.r.E.4.6.<X7Xv.g.}.tXqXmXmXuXK.G % O % g 2.9XXX5Xt.Z.kXxXpXmXMXmXnXnXnXVXVXMXmXcXcXmXmXrXcXmXmX",
"mXBXmXVXMXMXMXMXMXMXmXcXrXeXrXtXf.f.F.=XcXBXBXCXmXaXiXiXmXmXVXVXVXBXNXqX XU 7 O o : 9 o.G.|.9.6X,XvX{.{.v.$XG.t.2.l.1.I.8.8.8.u.Z C ! e.I./ r.4. .) ~.V 7 . . . O % : u $ 1 e 7 6 # # : % . % # 6 & : 6 1 e % o @     O 1 t % . . 6 V.r.C 2 .     O 9 G %XbX$Xs.2 . .   . # g ~.g.&XrXtXU.Z 7 % .       . .             ; r +X].=XkXrXcXeX@X[.8.| p o o           X                             X           . . . . . . .       # # X X X       # #     . .   X     X O : H G.dXwXXX*Xc.U 1.DXoX]. Xr.4.Z.&XrXwXXX-X2XL. .B w C ) r.S.E.lXdX0XXXG.>.x.5X<XU.K./.C 2 2 #.@.6 : O   o X X   . . . .                 O O O . . . . .               . . . # % 0 > O     . . O . . O   X O O       o +   7 j w $ . X X   . . . . .       .         # w K e 9 r ] : O = 8 K j S & 7 a ; = > & # %   @ . .       X X     . & $ #.B w ` 9 % a q 2 b $.w # # . .   X . .                                           . . . # & a q r b H Z 3.r.i.8./ A.-.g.P.4.U u.1.a. .p.p.C j H F q q j n ~ H G G n r b i r U T.OXJ.r.( r.J.}.x.].*X*XbXAXmXrXeXF.U.W.^ h.5X5Xx.g.$XtXqXmXcXuXk.r O   # I T.oXuX>Xh.g.%XxXpXmXMXNXnXvXnXVXVXmXcXcXcXmXmXcXmXBXmX",
"mXmXmXMXMXMXMXMXMXMXBXmXmXcXtX>X'..XZXeXBXBXVXmXmXaXaXaXmXMXVXVXVXBXmXsXXXh.4 ; O O 8 M u.h.h.H.H.[.&X;XtXc.g.8.A.) 4.4.P.l.8.^.k w M.W ^ L.-.P.( ( 0./ b $ . . O > . . O . . & & % % O     O   o     % $ $ >   @   @ . $ 6 # O . 9 C.L.E 1 . .   O 8 C [.cX|.0.2 . @     # w I.g.{.qXdXE.! 6 O .       . .             % e U.v.F.:XeXrXeX&X{.Z.E 9 O +         X X X                                       O . O . . .       . . . X X       . # #     . .   X       # j i.-X0XuXqXZX<X^ ^ '..X Xk.-.j.D..XwXwX-XD.) V k k Z e.zXkX,X&XXXXXXX9Xt.^ P.I. .Z | Q 6 & J #.9 . O O   o X X O # . . .         X X     O & & . . . O                     . . O O ; .     . . O . . . X X . .       o - O p A N $ O X X     . . o   . O O . .       O 1 q q e q S . O O 8 L w s % % u ; ; 9 6 % O . @ . . . .   X       O # 1 o...h ` 7 & M j e q o.h $ . . .   @ % % .                     . .     X X         . . . & a 7 q 2 A A k i.l.L.4.P.j.z.8.A.-.Y 4.4.w.4.3.G j q L L L H 4 j X.b A A r j r i 2 U 2Xb.d.i.4.D.3X#Xh.{.&X>XbXrXVXpXcX{.Z.w.( }.5X$Xc.c.{.tXeXrXeX-X8.7 ;   $ / 8X].tX>Xc.t.H.tXpXMXMXBXnXnXnXVXVXmXcXeXrXrXrXeXxXcXrX",
"mXmXMXMXMXMXMXMXNXAXrXrXMXrXc.g.tXcXcXNXmXBXVXMXMXMXMXMXMXMXVXVXVXMXNXrX*XF.! 6 % . O & E 8.7.g.y.y.'.XXtX:X9.8.z.8.i.i.1.j.U.1.k Z q. .( ) W.8.1.1.^ a.o.4 & . # . .     . . # # .   X     . . .     O S j % O @   . . t 1 1 8 O 7 T.J.} 8 O     . : C F.qX|.) < . . . o O r a.k.F.ZX|.4X^ 7 o .     X . . O . . .   X O 1 ~.t.8.4XeXqXeX*XqX}.C 9 O . . . X                                                 .     . .         .               . .             X   # 4 T _.0XuX#XE.i. .1.h.-X XW ..Z.@XdXXX`.dX-.Z B V ) 6.J.[.eXrXqXNX*X=X4X/ h Q A 2 1 e q 1 # > 0 : O . . . . .     . .     .   .     X X X @ : L 4 & O .                               .                   X X             o u n B.e # . @ @     @   o , o O > & :   o   O % & t 2 $ s . O . 0 7 a , o O % O & ` 3 % @ O @     . .   X     + O : e I.;.h X.1 1 N.q.8 6 :.n.< > . . @ > s 8 O     X .   X X . . . . .   X X X         . # $ $ [ K w n A n C i.i.r.t.t.y.l.l.4.2.T u.8.I.4.4.) B r 7 N A I V h X.q b M n %.b 9 7 P m.F.b.r.4.$X7Xc.k.H.[.vXeXeXrXMXrX&XZ.u.U g.}.1X|.F.:X&XyXrX>X2XI 7 . ; 7 z.XXpXrX%X6.h.8XtXcXMXMXmXNXVXVXmXBXnXcXmXmXcX;XH.[.xXmX",
"mXmXMXMXMXMXMXMXcXnXrXrXMXXXc.k.*XrXrXmXmXmXVXVXMXMXMXMXMXMXMXMXMXMXBXcXeX:Xi.b % O . % D p.G.k.r.4.&XrX.X=X}.S.t.L.) 1.t.P.) V.k ..( p.W ( 4.2.4.3.a.P s.c 9 % # .   X X   . . . . X X X   . .   @   % n ~ 1 O o   . # d e e u O i Y.}.} 8 O X   # 8 F =XuX<X .< . . . + o r a.k. X1Xd.+X/ 7 O O .   . . % = o . .   X . 6 ~.4.) 4XuXwXrXqXrX1XM 8 O . . . X X                                                                                                 X   % 4 9.oXuX=Xr...G  .F..XXXD.! +.3X*XXXdX|.6.V V ) L.2X}.eXrXpXwXrX*XF.g.) I ~ K a & # % % # . O * O         O . . . .         . % .   X X X   . n 3 # . . .                               .                   X             ; 8 C ` 6 O . O   X @     . % 0 % a K $ o + o   O & S < # f # . . $ $ : ,   o O . & H 2 O X O . o   . .   X . .   y @.b 7.7.z !.r g a.a.F n -.n.3 % * . % s m p O   . . .   X X   . . # .   X X X X       . . # 1 K S q b N p b O...| | ....5.5.p.a.| ..( Q.p.p.o.H u % 0 r B V j L e e p n ` b 1 e I ^.OXJ.r.-..X*Xd.<X<Xd.&XeXnXcXmXwX=XH.A./ ;.Y.5Xd.h.6XZX.XrX7XL.j 1 . % r }.wXMXcX#X8.x.=XtXrXMXMXmXmXVXVXBXBXnXnXMXmXcX>X8.K.vXrX",
"mXmXmXmXMXMXMXmXNXcXNXNXrX].c.[.eXcXmXmXMXmXMXMXMXMXMXMXMXMXMXMXMXmXBXcXeX7XL.M % ; # $ e X./.K.S.j.qXsXqX=XJ.r.u.1.l.8.h.;.| } C p.W e.1.0.1.1.-.L.W p.a.I 1 . .   X X X     .     X X X   . .   @   % n ` 1 O     . . 0 e i u O e z.J.} : O . . . : b 1XXX}.) 1 . .   o O g a.c.|.}.>.4X8.j 6 O .   . # y ; O . .   X . 7 ~.1.^ R.>XeXxX;XrX6XC : O . .   X X                                                                                                 X   @ 1 a.OXU.r.I 3.y.|.yX0XuXSX . .{.fXqXlXV.n | i.J.dX8X=XvXCX*XZX[.Y.W.W k M %.J q $ # . . @ . . . .   . . . . . .           O . % .   + X X o % N q & O   @                               .                                 ; 1 ~ B & . . . . . . . O % 2 #.r e o.A O o o @ . # s # # f $ # . . # # %   . O & & N $ O   . . o o . . . . # # & d s q l.n.n H o.h ) E.A.^ n $.r $ @ O w ~ n H % O # # . X X X X X . O . .       X X X       . O : : # % > ; O 9 7 1 1 7 7 7 7 i 7 1 1 1 7 1 7 e 6 =   . . 1 1 & O * o O : : : 6 M W I. Xv.l./ lX'.[.k.G.R.v.vXkXxXrXwX>X5X1X6.-.T.1Xd.6.K.-XXXqX5X5.2 % % & Z 1XwXmXbXH.t.'.&XeXrXMXMXmXmXVXMXVXBXnXnXmXmXcX>X) K.tXrX",
"MXMXmXmXMXMXMXmXBXcXmXNX*X_.'.>XeXcXmXBXVXmXMXmXMXMXMXMXMXMXMXMXMXpXBXcXqX:XL.n : % $ 1 % i a.2X<X$XqXqXtXv.9.8.3.u.j.g.c.6.G b k W ~.) /.0.i.^ 1.0.3.P -.Q.e % .   X X X           X X X X     . . . % ` C $ O       . & 6 7 8 O 7 2.U.X.: . . . . ; r 4XXX|.1.1 .     o O k n.c.}.J.>.8XG.! r % .   . & s > ; % .     . 7 (.4.^ R.>XeXeX*XrX1X! 6 O       X X                                                                                                   o   : ..n.1.W 3.U.3X:XyXXX}./.a.P >.|.1Xt.F b 1.2X7XyX.X*X;X&XlXY./.| n q 7 *.K 7 $ $ # . X     .       @                   . 0 . . . . . X X @ % r 2 & O                                 .                                 . # p X.n : . # & % . % . # $ 3 A $.w z $.8   @   . # s # . % $ $   @ % # % O   O a $ 0 O +   . .   o     . . # # # s 8 r n.;.B j Q.T R $XtXd.r p D $ O # z ) P E 6 : 6 & . . . @ X X   .     . .                     . .   @ +   O . . . O . . . O . . % % . . . # O + + + . . . o   + o o o o % i H ! 4.F.h.W.^ D.#Xc.k.y.t.F.[.%X,XrXpXtX7X=Xd.T E.1XF./ y.{.sXXX XZ 1 O % 1 q.-XwXcXvXZ.t.=XuXqXrXmXMXmXmXVXMXVXmXxXnXmXpXrX>X2.J.tXqX",
"MXMXmXmXMXMXmXmXmXrXpXrX{.c.].yX*XeXrXmXmXVXMXMXMXMXMXMXMXMXMXMXmXcXmXmXqX=Xl.B J $ 2 6 O % E T.:XtXtX=X|.6.9.Z.j.r.-.t.b.8.o.q E U 1.i.3.~.) 2.3.( ^ / a.( X.& . X                             @ . O & ` A $ O @     * & 1 8 8 . < ^ L.X.8 . . . . ; r 2XoX$X-.1 X     o % h z.h.D.Y.6.1XK.5.g # .   . & J d : # . .   . 7 ~.t.-.<X:XeXcXqXrX:Xp.e O     X                                                                                                   . . #   % M | 1.2.G.3X<XD.x.6.! p.~.x P e.! b b E g.dX-X*XXXcXbXlXgX..g q 6 & 8 8 6 # # & . . X     . .                         O ] & . . . .   + O # 7 1 & y                                                               . . # < ` L e : O & e & % * . . $ $ 3 ~ ! h ~ r $ > . . . S $ O . # &   + O # $ %   O K 2 %   o   % # O           . . & a : e I.-...V U.[.v.XXwX&XW r m 7 & 7 C ^ / ( 7 9 8 & # # 1 0 O . . .       . . . . .         . . . O     @                     X X     X @ . . .   o   . . . + o X o + o o O e G Q e.v.x.P.P 1.R.c.J.y./ k.h.H.,XrXrX.X&X.Xf.Y <X7X}.( r..XsX-Xz.g % O % q ~.-XwXrX:Xr.t.dXsXqXrXmXMXmXmXVXMXMXmXnXxXcXcXeX:Xj.A.-XuX",
"MXMXmXmXMXMXmXmXmXpXpXeX[.F.*XNXeXrXcXmXmXmXMXMXMXMXMXMXMXMXMXmXcXcXMXMXrX=Xl.! $.q < $ O O q 0.5X].>XlX<X9.G.g.P.t.-.;.G.) X.p q./ n.u.( W ^ W. . .a.0./ N.K & .                               . % O & M K & O       * $ 7 9 8 O $ I s.K 8 . . . . ; p W.|.1X^ $ X     + % h u.k.D.U.2. XF.0.j $ .   . $ s J 6 % . X   . 1 V.j.9.6X>XeXNXrXsX7XI.j % .   @                                                                                                   . # # O O i G T.}.1XF.Z.g.6.U n ..~.Y ~ K e m e.S.{.yX{.&XqX&X#X/.Z 2 i 6 % % . . O . # . .   X                               O % @.6 . o % .   + > & 6 1 1 d O                                                           . . . # g ` 2 & # & 7 a p 1 O > 1 $ # 2 Z I.V k ` < $ #   * ] 2 % O % O     O # & :   o #.w # o   @ > # O .         . . a e : r ~.I.M.V c.>XtXeXrXtXA.+.C r 7 X.q.T 6.n.n M i & # & 6 s 0 % O     X   . . . . .           . . . .         X X X X     X   X X       X X O .     . . . .   X X     . o % H o.Q a.x.'.y.I 1.U.}.h.t.u.y.6.k.,XeXrX.X=X8Xc.7.}.dX}.C.1..XqX+X-.2 %   % k T.uXpXrX%X4.t.tXpXrXrXmXMXmXmXVXMXMXVXbX;X;XxXcX=XS.2.|.uX",
"MXMXMXmXmXmXmXcXmXmXCXtX[.$XyXpXmXmXmXBXVXmXMXMXMXMXMXMXMXMXMXmXnXCXMXaXyX[.r. .a.Z 1 # O O & Z Y.v.].{.<Xj.P.1.u.4.9.T.R -.K p Q.2.-.u.~.a.^ 1.i.1.1.0.2.Y o.7 # . . .       . . .             . % . & b K & .       . $ N a : . # V ! 9 > . . # . > a V.4X8X/ $       + O g i.l.U.E.;.|. X4.j # .   . $ e #.6 . . . . . 1 e.Z.g.8X>XeXMXpXaXtX2Xk & O . O . O                                                                                               . # . % O : M gX5XOX2.1.i.L.i.-.6.7.s.{ i M i.4XlXF.=X[.F.|.4.F i : & # O O . ,     o X         .                           . O % J &     # #   o ; & 1 $ $ s % . .                                                     . . . . $ L B 1 7 $ 9 p m M.~ 6 s K 1 O : ! W.V B B.w $ .   * K w 6 ; = o o O 6 # # O o > B.z % O   O > O .   X X   . . $ n C p X.o...o.V K.{.&XtXyX*X5XgXt./ P a.E.7.v.5X9.5.F 1 & % % 0 a 6 .         . . .             X X . . . . . .                       @ O     .   .   * . % . X X + X   O . % 6 %.+.! e.x.'.A.) W /.g.7.9.i.I.T F.;X;XtX{.7X4Xg. X{.*X|./.) '.oXT.V 1 % O 1 I G.uXaXeX@X4.j.qXwXrXrXmXMXmXmXVXVXMXVXxX@X{.;XbX=XA./ -XyX",
"MXMXMXmXmXmXmXrXpXpXbX>X}.5XNXwXrXcXcXmXmXmXVXVXMXMXMXMXMXMXMXmXnXCXMXiXeXc.1.1.l.q.e % % O : e a.F.x.7.D.r.C.3.^ u.T.;.7.s.e m ) I.8.-.4.^  .V.) ^  .1.g.-.M.e $ . .         . . .           . . . . % J r # .   +   . 1 K J & . # A n & 0 . . . . O i | U.4X^ $       + . q p.e.W.W.;.dXOX( r .     . $ 7 *.7 % . . . % 1  .j.d.8X:X>XmXwXwX-X2Xz 6 O . O . . .                                                                                               . . . O O m P.F./ U 8.P.L.L.i.l.R N.b e e.4XD.ZX}.4XG.6.8.Z u = o O . . .         X X X X X . .                     o   . O % : 6 #     . %     & 6 6 1 1 J 9 : .                                               . . . . . . . $ K 5 N K q M D F z.P.w e o.~ u 1 I T.i.p.E 2 $ % . # k g q % o - o > s 7 .   o s M.V & = O % 0 .   X X   . . . $ ~ ..w %.F q K B /.Y.J.K.$X|.8X<X5XF.7.h.|.7XbX*X7X2X..e 6 % . 6 S 7 O                   X X X X   X     . .     O . .   . o O .   O . . . O O     X . . . .       X @   . # % 7 O.I | ^ OXv.E.w.V w.4Xv.g.l.3.4.[.eX*XtX{.$XS./ c.=X.X'.L.4.@X|.n.w $ % # r 1.K.0XNXqX@Xr.Z.qX0XrXcXmXMXmXmXVXVXMXVXeX'.F.=XyX&X2X:.ZXyX",
"MXVXMXMXNXcXcXmXmXrXZXc.[.>XqXMXrXcXmXmXmXmXMXMXMXMXMXMXMXMXMXmXnXcXVXiX.XD.1.n.7.6.H 9 % O O & n u.OXc.8.L.e.E I.2.r.n.0. .q r 4.-.9.L.1.i.(.W  . .( n.R n.M.2 s # *   + X   . . . X X X +   . . O O % S s % .     . # 3 %.b 6 . # K r u > * . . . O : F L.E.T 1 . .   o . 7 X.+.3./.>..XF.C : O     . $ e %.e % O . . . 1 V.j.g.<X#XZXrXCXtX5XOXI 1 .   . . .                                                                                                 . . . . O 6 E ~.C I J.F.^.| G Q o.n n e.SX:XZX&X<Xt.:.8.q.b ; o                   X X X                                 O O . & 0 . +   . .   O s J a 1 1 K #.1 .       X X X   X @   .   X X X                   . . . % . . d N A ~ g  .p.D F 5X.X1.e.~.1.E ! U U.K./.H & % O . $ g $.$.1 > o O % B.q O = % N M.V : O % 6 6 %   X     . . . $ _ a.z o.m 7 b w C ....p.1.^ 1.8.{.tX>XZXrXcX*XxX.X{./.j 1 & 0 1 b 1 O     o +         X X X X X         . .     . O .   . . * . . . .   . . .     o . . . .   X     @ % . & $ r p.^ W l.>.K.Y.1.| u.G.h.x.9.Q.( '.eXbX&X>X6XA.^ g.'._.5XL.S.-X8XI < & % 1 ` ~.d.qXpXqX&Xj.R.yXwXrXmXmXmXmXmXmXMXVXmXAX'.c.6XeX>XD.;.{.uX",
"mXVXMXMXcXcXcXmXaXrX=Xh.c.*XrXmXrXcXmXmXmXmXMXMXMXMXMXMXMXMXMXBXnXBXMXpX>Xh.-.U.b.P.! 2 % O   % e } 8.2Xr.( p. .W I.1.-.^ p.n o.1.t.z.-.a.3.x  .~.5.e.T g./ B j A 2 #     @ . # # . . X X @ . . . ; O % u 9 O O . . . # 3 $.M & . . J p u : . . . . O ; b e.T.^ 1 . . . X   : K F G I.>.oXK.r O .     . $ r $.r O . . . # 1 Q.y.t.t.8.$XqXqXc.G.T.I &     o . .                                               X                                                   O . . O & m O.! 1.9X]./ V F M b Q L.<X,X&XrX>X9.4.s.o.b # . @                                                 X X     O % & 6 0 % + + % . o ; @.r 7 7 2 b K 1 .       X X X     .   .   o X X                   . . . . . % S 7 w ) P.I. .p } '._.P.~.8.;.6.u.-.U. XT.H : O . . # 5 B.M.4 % o O : #.4 % O < j B.B % O % 6 e 7 O     . .   X % g U P B 7 6 q w q r r q X.~ Z I.$X>X;XeXmXmXkXxXAX{.L.j q e p q n q : * o X     .         X X X @   .   . .   X   . . . O   @ . .       . . .   X o   . . .   +       . . 1 2 A Q.P 8.2.9.E.;.L. .(.4X|. XY.W V '.*XrXXX*X=XS.( 8.c._.|.r.4.&XOXk $ % $ w q.n.h.*XrXqX&Xc.$XvXrXcXmXmXmXmXmXmXMXVXaXnXF.k.3XtXtXR.6.{.tX",
"BXVXMXMXcXxXcXNXrX*XD.g.v.qXpXpXmXcXmXmXmXmXMXMXMXMXMXMXMXMXMXBXcXBXmXrXZXg.:.2Xh.U.a.Z & O O O 8 H Q.-. ./. .1././ 3.3.( I g o.2.P./ 2.) ( u.^.( W 1.gX:.s.O.B q.o.r 6 . % $ 2 3 < # # # # 2 2 # % . % & % O . . . . # 4 M.X.1 . . i p i : . . . . O : e ..I.^ 1 . . .     % S i r V.;.oXG.6 o       . $ r M.b O   . . # 1 Q.r.w.) I S.=X@X1.e.~.B % o X X                                                           . .   .                                   X X     O % 6 C ) G.0XsX|.L.H m V t.-XrXeXcXpXqXj.! A $ . @   . . . .     X X     . . . .     X                 X o     O : 9 6 & %     O O   O e r H b 1 b %.w #       o X       . . O     X o                   . . . . . % s q ! n.OXk.3.F F /./  .~.1.2.6.G.9.K.|.j.n : O ; o . 3 $.o.5 % o O 6 K q 1 1 B B g < % O O a ` w # . . . .   X o j ..(.W e p 4 !.~ w 2 6 : 9 H e.E.:XxXxXcXxXkXkX>XF.P.B r n E Z A 7 %   o X X X . . . . .       . . . . . .       X     X       X X   X X X     X     . O       . .   . . $ w o.( ^ / U.E.2.L.U ! ( 4Xx.|.Y...E }.&XrXqXyX-XH.4.3.y.5X5X8.2.-Xb.2 # # 1 z u.g.h.*XuX*X&XF.&XtXrXrXmXmXmXmXmXmXMXMXaXnXH.y.<X>XeX<X6.].XX",
"BXVXMXMXcXrXrXyXeX{.g.F.{.rXNXrXmXcXcXmXmXVXVXMXMXMXMXMXMXMXMXBXBXBXmXrX5X7.9.4X9.k.P.5.i % O . O 7 o.a.U ( 3.4.u.r.) ( Q.V g ..L.P.j.-.1.1.) 1. .~.) / ;.2.n n ^ 1.g 7 : 0 J K K L t s s t J J J f s 0 a u % O     . # w M.%.9 . . 7 e a 9 O . . . O u p o.I.U 1 . .       . a u 7 V.-.|.G.6 o       . $ n N.M O   . . . 1 Q.1. .! B y.$X1XE } Q.n . X X X                                                           O O . .                                   X X   . O O % 9 ! ^.b.+Xd.) e 7 ( 1XpXaXqXeXqX5X) b 1 . X X . # . . .   X X X   . . . . .   X X X       .         o o   O & 7 9 & & . O O O O % 1 H B.M 1 b M.Z & .     o X     O . . . .     X                   . . . . . . 9 q a.Y.}.t.4.+.X.V. .p.O.V i.2.9.hXK.h./ j q 6 8 ; O 2 o.' 5 & % & J S 1 w C ~ o.b 7 8 % O s M.E # . . .     o o 1 o.n.-.q #.%.o.q.I #.7 . : j I 8.F.eXeXxXkXnXZX:X4X/.z q K !.B.H e % . X X     O . . . . O O * . O % . O O     X X   X X     X X     X X X     + o O % O O O . O O     O & b M...) Y 9./.r.I.V.G e.c.>.v.E.Z +.E.&XrXaXNXuX-XD.! 3.1X=Xt.9.1X2.< . . 2 ^ U.j.k.tXeX;X{.'.&X*XrXrXmXmXmXmXmXmXMXMXMXNX{.4.G.*XqXlXh.*XyX",
"BXBXMXMXpXrXrXtX7Xc.9.@XeXpXrXrXmXcXcXmXmXMXMXMXMXMXMXMXMXMXMXVXBXcXNXtXF.>.F.$Xc.J.9.( X.i . * O % w s.~.1.^ a. .r.L.l.n.a.w %.3.1.-.8.r.I.3.( e.V 5.U 9.n.C b p.q.b & ; O : . 6 & O O % O 6 1 $ $ 1 & 6 8 O . . . . # 5 O.#.& % # N b F a % . . . % J D p.~.V $ . .   X   # t u 7 M./ |.z.1 =       . $ M Q.C O   . . . 1 Q.) ( G n u.$X<Xn D M.k . X X X                                                   . . . . @ O . . .                                 X X   O % % = ; 7 e i p w r D q  .SX>XrXwXqX}.1.q 6 # . X   # # # . .   X X X   . . . . .   X X X       .             @ # # 7 S & & & # O O ; : p H ~ r : e q.p.2 . .         O . . # . .                             . O . . 1 I gXY.z.L.Q.X.M ~ M p p C !.Q | z.,.Y V ^  .( o.8 % q $.o.4 # # 1 &.d & n M.I X.i % % : = & _ _ # X     . . O % 7 ..T.T.GXKX&.n ).-.k LXJ < g 1.h..XNXrXnXxXcXeX>X<XI.j 7 { %.K 1 8 8 O     . .             . O O . % . O O o o           X                     O O O O O O * O . O o o = : A N.(.x T /.u.i.a.| G e.F.v.f.l.Q Q E.@XrXaXaXqXuX#X| 3.$X:XF.G.Y.I 1 O % 7 l.1XZ.k.bXrX>X[.{.eXeXNXrXmXmXNXmXmXmXMXMXMXNX$X1.j.&XuX'.>..XwX",
"BXBXmXmXaXpXeX>X3Xg.g.=XuXrXrXcXcXcXmXmXmXmXMXMXMXMXMXMXMXMXMXVXVXmXNXtXh.;.3X[.lXg.g.u.E r 0 .   : g ~.s.-.I.4.4.) 2.E.z.^ r M ~.4.T i.u.4.V. .4.I.I 1.:.4.X.M 5.5.H 6 : o O . O O O % > 8 9 9 $ $ e 7 9 u % O . .   # 4 O.K : . 6 X.M H p # . . . & { H O.~.x $       X . # e : 6 $.W  Xh.q O   X   . $ n N.n =     . . 7 Q.W ..Z B I.$XJ.r D M.k #                                                       . . . . . O * O . .                                 X X   O . # % & 2 7 8 : m X.M.! ^ Y.{.XXuXdXn.r & O . . @ . # # . .             . . . . .               . .     o     . . $ e ] # $ a $ . O % 8 r C k j : 8 ( N.q # . . .   . . . $ 1 # . .                             . O . 1 / OXt.^ ( o.M 2 w g 1 7 e q 9 !.(.l.I.I./.Y.K./.F 7 w A K $ # # q X.: : q B._ j 1 O : u d 9 q.o.# X X X   . . % 6 ~ hX+XJXFX&.L q.) #.FXjX2 4 p.U.8XCXmXBXcXrXXX5Xg. .w 1 i q 1 e s t . . . . .         O O & : 6 1 6 1 & & % : : & 8 & # & & # 6 & & 6 : # # % & & $ 9 & & 7 $ $ & O o O 8 _ s.a.5.x i.2.1.p.n b V.|.x.OX4.Z ! W.}.rXpXaXwXqX@Xw.y.=X-X=X4XC.n $ . ; p Y.:XZ.Z.eXeX6Xc.{.rXeXCXcXmXmXNXBXmXmXMXaXMXbX3X) y.-XtX X>.].XX",
"BXBXmXmXMXiXeX:XK.8.'.*XqXrXrXNXrXcXmXmXmXmXMXMXMXMXMXMXMXMXMXVXmXVXNX>XD.-.4X[.{.:Xy.4.a.E $ * * . q B  .~.:.8.l.i.y.2.E.n.j H p.) L.U (.( ^ 4.^ ( I.) -.(.r b 1.8.p.H 7 % O ; % : a t a S S J K N K D a S & . .   @ % 4 %.m 8 . 6 #.M ..p # . . # 1 #.M } a.z $   X X X . $ q % : { I b.d.B 8 . X X . $ M N.k = o   . . 7 ~.W ..I Z W.'.}.r D M.z $ . . . . .                                         . . O . . . . % * . . .                                 . . . . $ 4 b k q.p.p.E W U ;.P.^ 2.5X-X.XG.Q 9 % O X X   . . O                                       . . .     o X     . $ r J 1 6 #.2 % O ; t r G E X.; : V 5.w % . O O . . . # 9 S 1 # . .                             . @ < P.1Xn.I w 2 e 2 T N.g 2 g q 8 p E  .I.I.OX'.XX8XL.C r 7 d . % $ w H 8 8 1 A M.g q 8 O % a r ! V $ . X X   . . O O K G.v.! M KX&.K @.=.KXLXa 2 2 ! S.qXiXqXyXwX*X4X1.F e & : & e &.$.N & % O   X +     O # 9 ] &.o.o.o.' ~ o.X.$.~ n ~ ~ C G G M H G F G G C M C B C Z o.G n ` B B n a 8 6 j 0.d.( V P ~.8.~.p.r M V.].uX9.4.C Q P.H.*XrXaXwXqX{.8.D..XXXXXOX} 7 % . ; F <X-Xj.D.eXeX6Xg.].rXrXNXpXmXmXNXBXmXmXmXMXaXeX3X( r.-X-X/. .t.g.",
"MXmXcXmXaXpX>X$Xj.6.6X>XeXrXrXNXrXcXmXBXmXmXmXMXMXMXMXMXMXMXMXMXcXCXrX*XU.) #X{.ZX'.r.r.i.5.m # O % $ 4 k p.n.2.z.t.2.t.:.8.C H e.a.8./.I  .) -.~. .) 2.8.p.G j 1.2.i...q 7 % ; 6 0 s 1 1 q 7 9 a 2 e 7 j L 6 O O O O & 4 %.i 8 % : X.n p.M & . . # 1 X.e F p.z $   X X X . $ 7 & 9 { V n.9.E t . X   O 1 M Q.n = o   . # r (.^ ) W W n.f.Y.r p M.h $ . . . . . .                                       X O % % . . . * * . . .           .                   . # $ 6 q k ^ a.n.n.T ;.l.1.-.f.5XT.U v. X2Xs.7 : O   + X   @                 .                         . . .       X + . . & q a $ 1 &.3 # . O 6 b B C &.: : U a.j 1 # % 6 $ $ $ 6 J #.b 2 # O                       @ @   . . < G.5XI.k M FXPX=.I N.j N #.b i 6 r B ( 2.v.].0X`.hXW r % f   > $ 5 !.e & 9 1 ~ ~ r 8 O 8 #.B Z w # .       . O O o 9 T.oXP.( %.FXFX=.jX=.*.2 2 g I G.yXCX*X>XXX5X1.j b K J s % 1 j k 2 $ % . X X X   O # # 1 r B B V I I I E C H } n } o.H } X.~ } Q ~ o.o.o.O.O.o.o.~ o.Z Z M.o.o.#.@.i 7 C ^.z.a.I h a.i. .b p p p.7XXXU.a.} e.y.k.{.qXsXwXqX'.6.#X>X*XuXY.C 8 % % 9 o.3X>Xt.D.eXeXzXt.'.bXrXNXrXmXmXBXMXmXmXmXMXMXeX3X( r.*XXXgX^ ! E ",
"MXaXMXNX*X*X:Xc.6.}.=X>XbXeXrXmXmXmXNXBXmXmXMXMXMXMXaXMXpXVXMXVXmXBXeX>Xr.^ 8XuX].h.j.r.2.a.N.p ;   . % 2 B s.I.-.4.2X6.g. .n j p.1.8.t.u.2.) L.1.) ) ^.2.s.G ~ a.-.8.U Z 2 % > @.e # 6 1 < 9 6 9 6 % $ ~ ' 1 . O % # a 4 $.e : o : ` V _ w %   O # 1 &.6 e o.w #       X X . $ 6 a C Z 5.q.o.w .     O & N M.g % + + % 1 Z a.^ ( _ I ) 6.0.e b N.k %       . . .                                       X   ] < # O * * % . O . .   X   . . .   X X X     @ . & & r W n.T.Y.OXK.T g.1X<XP.2.v.-X4X/ t.^.p.C 1 % .   X X                                               . . .           . # # $ 6 0 & A 2 O @   & H h Z M 8 6 1.I.Q 2 % a !.W M 7 7 X.p.p.C 1 O o .   X X X   . . .             < b.7Xy.C b #.jX=.] =.@.=.&.n JXjXm H E -.F.XXiXiXdXu.i o d O 8 2 c (.O.7 : u n B.e : o 6 q.U o.e   X   . O . . O , 1 z.dX.Xc.w.M.+.F M.E C W I -.9XuX0X-Xc.K.F.U.M 1 K K K LX&.$ 3 n $ # # . X X X + $ 1 . & g g n 4 2 2 2 7 : % $ 7 & 6 & : % % : & $ 7 1 q 2 q 1 7 1 $ & 7 2 2 1 . o O 1 Q a.) ) I g O.q.E 7 9 p  .].=Xy.|  .( U.H.*XqXXX*X>X{.D.%XH.=X=X9.r % > & z hX1X|.Z.9.tX&X2Xj.F.&XxXcXcXcXcXmXVXVXMXmXpXmXrX6X| w.*XwXuXb.b 8 ",
"MXaXmXqX.X7X$X7.7.[.=X;XbXeXrXmXmXmXmXmXmXmXMXMXMXMXMXVXmXVXmXBXBXNXeX:X .1.=XXX'.h.l.l.9.y.i.C % O - O & N _ P ^ i.g.h.R a.~ r W ) 6.g.T.-.a.3.u.1.-.;.6.1.Z j E u.9.l.( j 8 ; s 7 & y 9 6 0 8 : O ; 9 ~ ' 1 ; O % $ p 2 #.7 % o ; ` c V 3 .   O & < #.& 6 X.q #   .   X X . $ 6 b E I ~ E ~ 4 .     O % N M.g % o o ; q ! a.T U W Z ......7 p N.j %   o   . . .   .                                   X . [ 4 & O O * y . O . .   X X . . . . X X       . # $ r p.P.+Xc.:.1Xc.6.}.ZX{.y.1.'.7XgX-.e.p.~ e $ .                                                         .             . . . & d 8 6 ` 4 . o o 6 ` c B b : 7  .T.n.G 8 i ~.m.u.E r H a.^ _ n 8 O . . X X X   . . .       . . . < +XdXhX( j F S @.=.f =.J jXLXLXKXjX7 n (.|.XXaXiX0X<Xi = a m 9 2 W 5.a.} m 6 n A q J % $ 5./ O.: o + O . % O   . ; A l.].pXqXR.W./.W.E.Y.I.V.a.l.<.-X,.+Xl.Y J.i.e : K 4 r FXJXJ 2 L & . . . X X X   2 q : a X.E o.C p 9 N $ . % : 1 0 # s . > ; . % : 6 1 e q r 1 2 1 7 e r g r 6 O + O q ! i.1.a.( k G _ k 7 i e V.|.$XU.( ( u.y.H.].yXuX.X:Xc.D.%X[.[.OX^ 2 % O 7 6.|.$X1XF.6.9.<XY.9.c.;XnXnXcXcXmXMXVXVXMXmXmXBXrX>X| w.-XiX0X+Xe = ",
"pXrXNXyX&X=X'.>.c.=X*XeXnXrXmXMXMXMXMXMXMXMXMXMXmXmXBXcXBXcXcXcXmXNX>X#X^ j.=X&XJ.k.j.j.9.8.4.| 1 : . . % e q.^ ^ i.6.9.8.5.H n W i.-.-.1.V.3.(.1.8.g.;.6.) n j e.4.8.i.(.B 9 O % # & 0 : % 0 : O > 0 7 B B.a . O O # a 3 &.$ % o : $.h ~ 4 O o O % 1 #.6 7 O.j # . .   X   . 7 e b G E C j n < .     O % a M.w % o o O q ..a./ ..~ Z ~ C M 1 b M.g &                                               O     O #.4 & O O % ] # O . .   X X   . . . @ X     O # 7 w E Q.L.1.| E ..4.:XeXyX{.4.I t.gXu.E ! G q 1 # .             . .                                       . .             O O . 6 ] : 7 q.h O o O & K k H #.m r W m.8X:.6 m T.oX-XK.g m !.E C !.q t $ &   X X   . . .   X X . . . 2 Y.].7X2X^.p.r 9 d =.jXHX@.J ] @.6 p r W K.uXXXwXiX5X9 : ..~.~ 2 b o.^.:.U } H 2 K ` < N !.V J u o o O . O .   . 1 M.u.7.yXrXzXzX:X.XXXuX4Xu.Q G x 8.P  .! I E.A.w e r b K HXIX1 2 S >   . .     X . N w # 6 M.N...!.X.b ` n i e p A N S S 1 7 s e J J K N #.` O.5.4.0.p.p.q.a.~.B 2 0 9 B 1.9.9.a.W B ~ q.V 9 6 n I.g.F.4X2.( w.r.H.c.-XuX].5X9.H.3X@X[.T.V $ % % r Y.].-X>X.Xh.) gX8Xv.'.vXnXcXcXcXmXMXMXMXMXmXmXNXrX:X .r.>XiXoXhX6 o ",
"eX*XtXZX&XF.v.x.{.ZXeXcXCXmXVXVXMXMXMXMXMXMXMXMXmXcXcXeXcXeXcXrXpXrXlXt.8.1X=X=Xt.t.t.g.g.t.r.p.o.< >   . u g N.e.) U.z.P.5.$.n a.g.I.8.) e... .-.G.U.T.t.5.n X.Q.3.( 1.a.o.1 ; O O . % . . % O O O % 9 g A 6 O O . O a 3 #.# O o 8 *.B o.r O   . # 1 K 9 i B.n # . O     . & a J m C E b e r $ .     O % a M.w O o o O 2 ..Q.5.M.H C A 7 7 6 m M.g $ . O                                       X   . .   . #.3 % O O & #.< . . . . X X X   . . .   + @ . 1 ` E e./.8.-.w.W.| j.bXwXpXZXU.) 8.u.Q r r 7 $ # . .             . .                                       . . .           . O . : f 8 7 _ x &   O # L Z k X.H w B I.|.R q { OXXX0X9XM.i X.q w j 5 B.3 q .       . .   X X     . . < 8.}.5XF.t.U Z M q 7 7 7 7 D p b o.! ! e.2XlXtXqXwXv.b m n.^.o.r 1 K ~.R I B.r 7 j N < N #.j 9 8 % . # . .   + . 2 N.~.;.*XrXkXkXxXwXMXiX$XW.C G | i.V.4. .S.#X3X3.j B b jXJXLXe 2 7 O X   . . . . . q b 6 9 o.U V M.C F Z ` K N A ` n $.p L r N q m r A j ' V 5.g.h.b.j.4.;.9.n.Z r s e V 0.6.9.0.( k .._ W p i n I.g.<X}.2.4.w.j.D.h.&XqX.X$X6.R.#X{.}.p.j # # 6 G 4XXXtX*XwX{.I 3.5X].*XeXeXCXcXcXmXMXMXMXMXmXrXmXwX>X1.y.>XuXoXn.: o ",
"*X.X&X&X'.c.'.=X*XtXeXcXMXMXVXMXMXMXMXMXVXVXVXVXmXcXnXeXnXeXmXmXiXqX4X/ }.7X@X}.2.t.k.j.k.S.j.u.N.n O @ O % 7 o.1.u.l.8.z.~.C j U z.-.1.i.1.|  .9.k.9.n.0. .g O.| 3.3. .1.p.r & O @ O O     O .   . % 7 2 2 # * o   O 0 < ] . o O 8 X.g ` q   o   . $ J a p !.n #   O     O 1 S K b C X.p 9 u # . . . O & a M.w O o o % 4 o.N.o.H r p N 8 : 7 M M.g $ . O . X X                                   . # . O # ` 3 # O . 6 &.2 #   . . X X X   . # .   @ o & M !._ / E.f.{.@X:X,X;XnXcXmXqXoX X+X8.M 7 6 % # O .               . .                                         . .       @     . . . : N w ^ I 1 o o % j ' g ~ p.h g Q.u.U n +.K.oX`.h.r 8 e q p q x s.h L # O     . .   X X X   . . $ n I.^./ Y / L.u.r.w.) ^ u.^.Y.m.hXh.U.U.-.6..X-X8X^ h ..^.a.A < 1 9 J 7 & 7 7 q # % O : 6 e b j e $ # . .   O . 2 ~ /.d..XbXcXnXxXcXaXqX{.<X1. .C.U.4X6X>X*XmXrX8Xt.8.P Z D { 1 A 1 . X @ . . . O . 2 J : 9 } V k G w H n Z H M H k j A b A X.r b j g B Z E z  .P.K.U.S.4.4.8.5.C a s 9 G a.0.i.a.1.B W ^ I D { B /.g.<X=Xh.y.r.Z.D.H.=XqX0Xc./ K.J.'.OXC 6 % & q e.1XuXrXwXaX*X| G 6XeXrXrXrXCXcXcXmXMXMXMXmXmXmXBXpXtX1.r..X.X2XW % - ",
"lX7X{.c.c.{.-X>XeXcXrXmXMXMXVXMXMXmXMXMXVXVXVXVXBXcXcXcXcXcXmXmXwXqXS.^ 7X*X'.k.Z.E.J.g.g.j.j.t.n.I & o ; % & M a.2.4.4.2.a.r q ~.P.8.L.2.i.5.e.t.6.2.2.i.I g o.p.a.3.W ^ I o.N O +     . . O .   o % & j r % .     % 0 $ d O o O 9 N 4 H q . o   . $ N a p B.j %   O     . 1 N D r G o.i 6 0 O . . . O & a M.w % o   % w M.p.G e & e a ; ; e A B.g $ . . . X X                                   . # % > % ` 4 . O . & $.g #   . .   X X X . # . . o O r q.(./ P :..XsXqX.XCXeXNXcXwX0X-X XT.5.e ; % O . O X               . . .                         . . .         . . .     @     . . . & F z ) q.7 O o ; r B.I 5.(.U w %.Q.C B V.T.OX>.^ 9 : 7 X.=.JX_ s.x ` $ .     . . X X X X . . . $ r E I.8.K.zX#XH.6X6XR.4X}.5X`.sXuXZX'.;.t.4X8X}. .j Z N.P c < $ % > % % @.% N N 6 0 O O % i o.M.H 7 # % .   O . 6 n ^.F.{.eXcXBXeXAXrXaXcX:XD.2.k.H.=X;XbXmXVXaX].7XF.2X1.E H X.B.r O o O . . . . : 7 K % & X.o.M M F C n n K r H j C n q r #.m A r H b %.B B ( i.r.r.r.r.i.4.I q 9 8 1 Z i.8.8.I.( j z s.U m m B /.7.c.7X}.4.8.#X[.#X$XqXqXc./ 9.K.|./.q % O & w T.:XrXrXMXMX&XV.Q 4XtXpXVXmXmXcXcXmXMXMXMXmXmXrXNXpXtX1.t.oX|.a.5 O o ",
"=X=X'.x.'.*XtXqXcXNXpXMXMXMXVXMXmXNXmXmXBXBXVXVXVXVXmXBXmXmXaXpXwX:X2.r.tXqX[.g.3X4X<Xg.8.r.j.g.h.n.r : % O > & q.i.8.1.I. .7 q 5.-.i./ G.t.( 3.i.6.L. .a.V I p. .e. ./.5.5.^ j O o     O . .   , . O 0 $.g . o   . $ 7 & % O . O s p w K q @ X   O 1 p a q M.w %   .     . 1 A K j Z o.9 : u O . . . . & a %.q %     # w N.} b 6 & e 9 O O b ` %.q # . . . o X                                   . . # 0 # L q O @   # ~ z %   . .   X X X . . O o O : C ~.P.T ) / ZXiXrXcXcXcX;X*XqXdX8X;.P r % .   .     X                 .                             . .         . . .           O O . 6 _ W ( M.e 8 O % r M.-.Y l.) j X.!.b k (.T.u.k p i & jXJXLXJXh M.x #.$ O     . . X X X   . . . $ r B P.F.ZX>X].*XeXbX6X6.j.$XsXiX0XwXtX.X{.-X6XL.D 8 b F $ # $ $ # . & ] JXs N A w ` 1 s 0 b s.n.o.w # % . . % . ; 7 0.}..XqXrXrX;XcXiXMXNX{.[.7.tXuXAX{.%XZXcXwX0XsXwXuXSXT.~.N.!.j & O O . O     O # J f > J p p a @.e e p J 1 p m m N 1 1 s a s i J e &.b b ~ p.e.u.I.~.~.~...j m r g 4.T.G.D.A.^ w n ^.:.r 7 g ^.h._.}.h.-.j.[.#XH.$XqXXXJ.;.:.T.OXa.6 O . $ E <XtXwXaXVXiX*XS.}  .H.wXVXMXBXcXrXmXMXMXMXmXmXeXpXpXtX;.t.5X2XI 1 O + ",
"h.x.c.'.*XeXeXrXmXmXpXVXMXmXVXMXmXmXNXmXNXBXBXVXMXVXMXVXpXmXrXeX-X1XT <X*XyX:Xc.v.[.#XD.r.t.j.g.d.n.O.r % = o ; g 5.0.2.0.W e q p.u.2.9.c.9.3.( P.t.a.Z ..B W 5.e.( i.i.) e.2.E % o     O . .     O > 6 ` q %     O 1 7 & . * O % S q 4 N 1 @ o   O 6 a a 2 M.w O       . # 2 H $.b B o.e 9 d O . . . . & a %.4 . o . # 4 q.Q r % % p e ; : B O.$.1 # . . . o X                                 X @ . # 0 # N 7 . + o # V V & . .       X X . O . O ; e W 2Xk.R  .^.-XwXbX;X,XnXeXZX>XD.8.h 2 & O     + X     X                                             .           . O . . .       O . . 1 N.1.I o.7 p 9 7 7 ~ a.R z.I.G X.+.B U ^.a.q.6 : M X.] HXPXLX` Z h #.% O     . .           . . % & C 0.g.7X*XAXeXCXcXc.g.g.kXqXiXwXwXyXeXwXeXD.| i i X.q %   * . % & L q @.u d 1 j A < FXFX4 h a.M.w # O . . O O O & W K.qXrXAXnXZX*XAXrX>X%X=X=XwX0XrX>XlX@X;XqXaXaXaXiX].8X1.V N.g & O # . @   o . . 0 ,   0 & & % 8 : & $ & % : & # & 0 # % : % & & # 9 $ $ r j w B Q F C E B q a 1 w 8.c.h.h.G.4.r C n./ r { G a.h.oXF.c.8.g.h.[.k.6XyX-X4X-.;.^.d.V % + . 1 i.{.eXwXVXVXqXbX<Xr.n P.qXMXrXCXrXrXmXMXMXmXmXmXcXCXaXtX;.8.OX/.4 6 . o ",
"x.].>XvXyXeXrXmXmXmXmXmXmXmXmXVXmXpXBXCXcXcXmXVXVXMXMXMXpXNXeX&XzX:.k.8XXXqX&X{._.ZX6X8.r.P.r.z.2.8.n.o.& o , O 9 C n.6.a.n p e (.L.-.n.,.9.e.V.u.t.1.p.~ n I 4.e.3.y.) 1.1.P.5.e o @   . . . . . . . $ #.4 .     O N q . O . % % J 1 7 S $ .     O & a 7 e o.r O +     O . q ` %.g B o.2 J 0 O .   . O % a &.1 . O . # 4 O.` 7 O % q r % 7 V N.r $ .   O .                                         . # . 0 2 7 .     # g ' $ .               .   O 8 b gX1X6X-.Z a.|.tX}.Z.r.zXrXXXg.! r : O                                   o               + o o               @   . * . . .         . . $ _ ~.g !.m K M.B 6 p ~.7.>.I.| W P.4XG.-.B p ; 9 ( N.r &.KXJXr r M #.. O +   . .         . .     O 9 M ( k.=XbXcXxXkXvXkXZX&X=X>XeX*X;XvX*X=XW.C j p.~.V 8     O . 7 ' C = o = > > % S PXPXFXq Q o.4 . . . . .   O & C 8.tXqX*X;XtXZXk.G.y.t.$XdXqXwXrXqXuXrXrXpXMXXXMXMXwX&X;.Y T.x 7 % . O   X     . .     . . .   . . O . . . . . . .         . . . . . . . . . . % % % & & & % O % q 1.t.Z.U.l.I.b M.^.T w { M | 4X].OX6.-.A.6X>.h.$X.X7Xh.8.R ^.-.w . @ O w A.&XrXcXrXrXrXeX:XZ.M ..{.aXBXrXrXrXaXMXmXmXmXBXcXNXsXuX6.-.gX5.1 O @ + ",
".X*XeXyXrXrXpXmXpXpXrXmXmXcXcXcXMXaXNXNXcXcXBXMXVXMXMXmXeX>X=X#XL.) F.ZXqXrX&X].qXyXc.k.l.4.u.t.8.G.d.v e y - o % m 0.;.W w e 7 ( ^ u.8.z.z.( 3.P.2.1.( %.g W i.) 1.r.-.4.8.z.5.b O O     O . .   O & 7 #.q % .   . N q # O . O 6 J 1 7 S $ . o   . $ a 6 e $.q O +     . . 2 A X.w B o.2 s : . .     O % i #.1 . .   # 4 B.L 6 . % b r & q I N.w %     .                                           . # . 0 $ &   +   . w #.1 O     . .         o O 9 ..OX-X:XZ.Z 5.K.=X3X8.W SX*X_.( i ; +                                           @     .                     X     . . y . O .           # C a.h M.H Z n.2.e 7 5.G.6.h.u.T J. X X9.q : : m T N.A jXHX&.4 O.A S O o o   . . .       .       o = 8 m 1.F.;XeX;XkXnXeXrX*X4X4X[.{.@X;X;X:XK.I 1./.T.4.& - o o o q 0.n.D d : : : : FXPXHXJXq B.` 2 . o   . o   O & F i.c.*X;XtXXX=Xr. .| w.1X-XrXwXXXyX.XtXqXqXbX*XrXrX*X>X'.}.OXT 7 O O .   X   . . .     . .                                                 X X       . O . o o O i p.y.r.w.y.a.M o.).1.j K M n J.'.J.8.8.8.c.D.c.5X=XF.2X-.v )._ q O . $ E }.qXeXcXcXcXrXeX*XF.C E <XtXqXBXrXrXMXMXBXBXmXmXcXeXwXqXk.-.I.V $     @ ",
"NXyXrXrXpXmXmXmXMXmXmXmXNXcXcXcXNXpXpXpXrXNXVXmXMXaXmXnX>X$X<XE. .1.{.uX0XyX*X*XNX*X[.t.4.u.i.-.P.g.c.l.n % % = O e W a.o.r 9 e ^ 9.r.I.8.1. .W i.2.8.1.b M p.1.r.u.1.1.^.6.R ~.H 1 % .     . .   . $ e J 1 # O O # S 7 # . . O 6 J $ 7 S $ .     O # a 1 p %.2 O +     @ . < b A q C O.7 t % . .     . % 6 S & O     # 4 B.p % . # S q 1 q P N.q O   o             . @                         o     . # 0 # .   o o . q [ t %     . . .       + O p ~.F.tX;X4X| ..Y.F.'.F.g.E.}.8.b ; o o   .     . .   .                         @ O . . O O . . .             X   . % . f % O O .         % 7 X.Z | q.x h.T.F 7 C (.K.v.OX:.t.U.1Xg.r 9 Z B.W o.S =.HX{ ) n.k 6 = o     . . . . .             . o : F i.{.qXZXeXrXwXmXZXW.} | j.&XrXeX>XtX'.'.7XoXT.q > O o - 8 G.9Xc.z.1.W Z X.K @.p M ) n.E 1   +     X o O 1 C Q.( k.>XrXrXXXD.L.e.W j.7XiXiX0XZX#X}.7X{.%XzX:X:XlX6X=X7X-X9.q O         . . . .     . .           X           X X X X X X X X           X X         .   @   O m V.y.w.w.L. .j o.Q.^ w %.p } l.h.6Xh.^ 8.k.F.=X=X:XH.2X2.v q.A & O O w a.=XrXeXxXcXmXcXeXrX{.3.! P.3X.XqXqXrXmXMXmXcXmXmXNXrXsXuX2X) ..q .     . ",
"NXNXpXmXMXVXMXMXMXMXmXmXcXeXeXuX.XXXyXyXrXrXmXpXpXNXbX>X[.D.S.r.E 4.-XwX0XyX;XtXAX_.D.A.u.r.) 4.y.U.h.8.q.N # O o % 5 q.o.b 9 q 1.z.2.-.1.V.( (.4.9.;.a.m m W i.i.r.w.i.2.9.6.) o.r 1 %     O .   . $ q 7 # # O O # S 2 $ O . O 1 S $ 6 s # . .   O # s & a *.1 O       @ . 1 p N q C X.1 & . . . X     % % 8 # O     # 3 B.6 % . # J 1 1 q I M.2 O o X       .   . O @ .   .                         O # 0 . .     o   1 J N $ .     . . .       ; b /.'.yX;X$X .! L.;.7.OXT.8.i.E 6 o + o   . . . . . . . .                     . * O . . % # % O O .             . . % . d # . O .         O & m ..U n.v >.gXp.Q r | 5X*X-XF.t.T T W 1 & Z M.jX&.K PX@.e P /.g r ; o     O . . . .           @ .   o e ! j.{.qXqXMXMX*X[.r.Z 3.R.cXMXeX;XrXrXwXqXfX|.} 6 : : > 7 8X0XuX.XdX<XT.Q.C F b V z.^.V $ o X     X o . $ k Q.E ( :XrXrX_.k.L.i.V 6.-XpX0X].7.-.^ 4XD.H.zXZ.g.H.@X-XuXuXT.e o       . . . . .     . .           X                                   X X X   . . . .     . : r 5.l.C.S.w.3.B | 1.^ k ~ M } P.}.v.c.) 1.G.h.&X'.6X#XG.8.T o.e . ; & V G.uXpXeXxXnXnXcXrXCX.X/.|  .U.dXXX*XqXpXpXcXcXmXmXrXeXpX.XE.x M 1 O   . . ",
"pXmXmXMXVXVXVXMXMXmXmXrXeXqXeX>X7.h.$XtXqXwXpXrXcXZX&XD.t.8.8.U I y.tXiXrXcX*X&X&X'.9.A.P.) 2.t.4.y.2.2.a.~ $ O O O 1 n E C N r (.9.9.1. .3. .3.i.-.d.^.i e ..;.2.4.3.a.2.t.1.( p.C 7 %     O   o   $ r 1 . O O O # J 2 & . . O 7 J & 0 S $ # . . . # s & s #.1 .   .       & a 9 7 b K $ # . .   X     . # O O .     # 3 $.# O % & ] $ 1 q I $.1 .   X     . . . . @ * O . .                         . # 6 O @ . . o   # a K < .       . .       : r L.5XuXeX@X8.W | ! i.-.U N.A 7 # . .         . . . .                         O % . . : 0 & 8 : % O .           . O . % & # . O . . .       O 8 M.Y T.:.Y I.z.C.C I &XsX*X=X}./ r 8 o @.jX&.K FXLX!.o.E ..Z k $.9 ;     . . .             X   o O O ; p ~ i.dX0X0XqXF.K.j.2.#XZXmXpXbXxXrXwXaXiXaXXXI.j e D G U ZXwXyX*XNXtXU.w.T.gX^.E.G.T.g # o X       X O # w Q.o.V 1XtX*Xv.4.W ..4.[.*XqX.XF.:.U I L. .4.<Xj.8.H.=XyXwX0X4Xr O o   . . . . . .     . .     . .                                             . . . . . .   y s 4 ) U.P.r.r.i.B ..8.) B q m } L.k.'.F.4.4.t.g.F.'.:XD.U.-.) ~ 6 . = 6 / '.rXpXcXvXxXxXcXpXMXXX2X^ I y.3XdX*XrXmXpXrXcXmXmXcXeXsX.XT.h q & .   . # ",
"mXmXmXmXmXMXVXVXmXMXmXpXrXrXrX7XY W j.1XqXwXpXpXeX>Xc.g.t.g.z.;.1.J.yXiXpXrX*X&Xh.H.k.t.t.8.9.k.j.1.1.i.0.U w $ O O : i E Z p M ^ g.;.8.i.) 1.i. .u.9.a.i D ^ ;.8.n.^ 1.L.2.P ~.5.! 7 % o   o   o o $ e 6 # O   . # S q %     O e J & 0 s $ # . . . # a & s J 1 # . .   X   % 0 # & e S & . .     X   @ O % O .       # 3 [ . O % : f . & 1 B A & .       . . . . . % > % . . . .                 o   . # 1     . . @   O 0 X.5 #       . .       % w 1.4X.XeXtX1XT b X.%.k w ` 1 . .   .       . . . .                         . . . # & d s 7 t 7 & # .       X   . . . & # 0 & . O . .       - % M.R x.h.V e.G.Y.y.1._.rXqX&X|./.J o , =.HXFXPXJXHXj ( Q.%.C I !.e ;       .                     . . . % e G 9.].7X5X8.8.D.5X&XvXrXrXrXeXNXmXMXaXiXqX4X) W C.S.c.eXmXeXeXpX*X2. .6.c.8.u. X9.4 . O     X   . @ . 2 O.Q.U A.|.uX-XZ.1.r.R.ZXyXXXtX$X#XZ.W.W.) 8.zX%X{.>XtXpXwX0X4Xb ;   o         .       . .     . .                             . .     .       . . O O O . @ * s g 2.G.t.8.E.u.j p.P.9.! r e } u.:.8X}.r.a.8.d.=X'.'.H.S.( W b ;   o q d.0XpXmXNXbXxXxXcXaXiXwXJ./ 1.t.9.5X&XyXNXrXeXrXmXpXCXrXyXoX/.B 8 O     # # ",
"mXmXmXmXmXmXVXVXVXMXmXmXmXpXwX|.n p | G.-XrXpXrX>X[.9.j.U.Y.8Xx.G.3XwXwXpXeX*X%XZ.4.A.A.t.g.7.b.Z.E.3.U z.n.x <   + o 9 C ~ 1 M 5.-.Y.g.-.4.2.r.e. .-.~.8 a 1.d.8.0.1./ U  . .) 2.5.e O o       X o # 1 1 . .   @ % L w O o   . q N # 0 d $ # . . . & 9 % s e 1 # . . . X X O % O % 6 t O .     X   X + O ; O     X   # 5 ` .   . 6 >   % $ r q # .       .   . . . % > % . . . .                 o   . # 0 X   # # O   o & $.h $   X X . . .   . % H ^ k.{.eXrXdX;.7 d e 2 2 $ # . X X . . . . . . .                     . . . . # # # 7 J J 2 a e 1 # O .         . . 0 # & 0 0 % . .         + % M.>.>.T.F G 4XdX}.h.v.XXbXZX|.n.9 o ; @.jXjXFX#.q w H X.e +.1.a.r & .         X     . .         . . . O % 6 M } 5.i.6.k.J.$X=XvXcXcXrXqXrXeXeXeX*X>X=XF.F.7X=XkXqXmXcXxXcXkXr.3.) ..p } G.2.1 . # . X X   . . O % b T.h.1.y.>XqX=X$X}.@X*XpXaXNX*X>X{.ZXkX{.=XZXrXqXrXwXpXMXwX1Xn : . @   X                     . .                     . . . . . .             . O o o o   @ . t n 0.h.6.j.K.l.M ..m.2Xq.r p Q L.7.v.}.L.r.S.d.8X{.F.1Xj.^ C 2 % o o b 9XiXaXMXmXcXxXeXcXaXiXsXG.2.g.G.1.t.[.qXpXrXeXeXpXrXcXqXqXoXI.n % o   . # # ",
"mXmXmXMXVXVXVXmXVXmXrXrXpXrX.Xg.m 8 M i.1XuXrXqXkXH.9.H.4X}.].d.J.=XqXiXNXeX&XH.y.S.G.Y.d.g.T.;.y.y.i.i.6.>.^ n O , o % q %.2 M p.-.z./ P.1.T.2.! 3.n.W 9 i n.m.2.2.r.4.) 3.5.^ 2.a.n % =         o O . # . . o @ & L r . +   . 7 N $ 0 d # & . . . 1 9 & S & : % . . X X X . . . ; % % .   X X X   X + . * .     @   # g K %   . 0 @   O # t 1 . .             . . & 0 % .     .                     O $ y @   # . .   . & B.B $ .     . . . . % 6 N./ :.$XqXXXoX^.i O % % . # # . X X   . . . .           . .             . . & & # $ p X.K 2 b e 1 # .         @   O J < 6 u s 6 O .       o   : o.t.R ^.} C k.>X-XtXvXeX;X.X7X2.m u & FXLX&.b 4 ~ !.M e r 3.I.2.C 1 O   @                   . . . . . .   o % a b C ^ L.T.4X:X>X*XeXrXeX>X#X4X#X7X&X<X#XyXqX*XbXrXmXAX&XcX;X4.W.| M.u 9 a.P $ . $ #   X   . . O * 2 m.5XU 3.=X.X.XZXZXbXqXpXMXmXNXeX*XeXrXrXqXqX0XwXMXaXqXpXiX Xn : . O   X   o                 . .                           . . . .           . . o o       > J g / g.t.S.h.) C M.T.G.E r b Q.I.t.h.OX-.y.2XD.g.3X{.c.I.Z Z < O o ; G ZXiXaXmXmXmXxXxXmXaXiXfXk.-.7.4Xk.-.D.|.yXrX>XkXcXrXrXrXyX5Xa.r O o     . # ",
"mXmXmXmXmXmXMXVXVXBXcXcXrX*X6X^ m : a n T.oXXX.XH.Z.@XvX&X-X5X>.v.-XwXrX*X,XD.Z.t.G.}.|.J.9.;.y.u.r.u.i.h.;.) } 8 ; O % & 1 n M.6.m.;.i.W i.^ 3.a.) a.^ q M a.,.g.l.I.-.L.8.8.u.( ( p.n %     @ y 0 % O .       O 0 t 2 # . . % t 2 2 S 0 # . O O & t 2 2 t % O .                 . . . .     X             . . .     . K r : O . % % .   O 0 & .   . .         O # 9 t %                             . $ 6 * .     o   O 6 C %.: O % .   X . # $ g I.>.R OX=X Xa.` 9 . .       . .     . . . . X   @   * & # #   X O . + o . 0 S # & $ !.E g o.A 2 1 $       .   X X O %.B $ 8 L < . @ + X X X   & V 0.^ I.^. .1.3X*XuX.X>XNXcX{.6. .M 6 &.=.2 U s.7.~.G b E z.U.2.} 1 %       . . .                         . ; 8 J K C V | u.h..XyXXX.X1Xz. .G ! '.5X3.4.-XiXmXrXqXqX>XeXrX;XD.S.3.| H r w 4 %   . . % .   + . . . 1 _ I.T.j.}.{.tX.X*XbXqXmXMXeX;X@X,XvXwXwXwXwXeXbXBXcXeXqXaX=Xb O . O . . . @   o     O .   O . . @ @ . O . . . . .   @   . . . . . # .     . . . @ X   O . 6 n ^ ;.9.K.K.Y.Y C } u.i.3.Z k Q.E ( 6.<Xy.1.9.2X1.A.lX7.L.B 4 1 . . 6 p.@XrXeXrXpXrXcXcXmXpXwXdXz.) c.&X:Xg.T l.].5Xt.W.#XZXrXmXXX2XC 6 O @ X   % # ",
"mXmXMXMXmXmXMXVXBXBXcXcXrX*X4XE p 8 O 7 Y OX+X|.j.H.;XcX*XtX5X<.F.>XrXrX&X#Xj.r.K.>.v.].c.k.4.r.1.8.2.j.9.A.I.5.p : ; ; % & w _ d.OXt.1.1.3.e.( 1.n.) ~.n X.( 1.R u.4.4.l.j.j.8.e.( 0.W $ O O O : & % O       . O > 0 & # # % y 7 2 a e 6 O     O 6 t 2 7 t # .                                 . .     X   . . O     O ] r 6 . O O % .   O : %     . .         . . r r % . o           .     X X X   . # 1 & .       O % 1 n *.p : % .   X   # 6 C n.>./ /.T.:.k 7 $ .   X X X         . .         + o O 0 $ # X X O o o o # t s # $ e M.| Z O.H 2 $ #   X . . .   + O ' W & : &.A # .       @   $ g (.5.1.K.k.( y.&XqX>XtXrXeXkX%X<X4.w 7 N H q.n.-. .Q  .g.}.OX2.o.7 %     . . . .                           O ; u N b b G ..n.g.v.oX+Xn.( g 6 j c. Xn b h.NXpXrXqXqX>X*XwXrXkXD.w.Z ! 4 3 # . O : 6 & .   X   @   . j 5.l.9.c.'.ZXyXqXcXqXmXmXcXvX:X@X&X0XiXaXrX*X*X;XxXxXcXiX].b O . . # # . .   . O   . . . . . . . O . . . O . O     o     @ . . # . .     . . .   X   . > 6 B -.l.2.k.J.h./ C !.( r.u.^ x p.!.B / 4X4.t.k.9.4.^ 4XD.a.X.< $ . % r V.:XcXeXrXmXMXmXcXmXrXyX{.4.4.=XeXbX=Xr.Y 4XG.P C.4.D.eXqX7Xu.r % . X X   $ 1 ",
"mXmXMXMXmXmXMXVXVXBXBXcXrX*X2XC r u O 1 c n.+Xc.9.%XnXcX;XdX-Xf.c.=XqXrX;X%XZ.r.2.c.1X5Xc.G.U.1.E.1.l./ t.l.T a.Q 7 = o . 1 r ' ^.>.n.u.y.3.} Z ^.;.n.W w G p.^ ^  .W 3.3.r.-.i.e.( -._ w $ & & # % % % % O O . O ; % % . . & s 1 7 K $ & O o   . 0 t < 7 0 . .                                         X   . . .   o O #.7 & O . . % .   O & .     . .         . . a r % . X           .     X X     . # & * . o     O % $ r %.o.n &   X X   . # b n.t.Z X._ w < # # O .         .     .         . o o % 0 $ # X   o O o o $ s 1 # 1 H O. .( p.~ 2 # .       . . . . $ V X.O O r A $ #   X & # . # w (.V.) c.}.! | 6X*XtX*XeXNX@X:X7Xx.>./ / q.' G e e ! K.-XqX|.-.p.2 %   X   . . .                           . O % 8 9 e r M ! 4.z.g.) ( Q q 7 n h.2Xi 8  .c.eXrXrXrXtXuXpXaXVX*XZ. .a.g $ . O > r r & O @       X % q Z u.gXd.d.`.oX0XNXrXrXpXwXuX*X:X7XXX0X0XwXrXcXmXmXeXqXaX9Xb -   . . # . . . O O . .   @   @ @   @ @ O O . + o + X @     . @   @ +   O   . O O   + @ O . ] ! v P.j.g.c.c.2.C } 3.P.u.4.x a.o.I 8.<XR.t.j.8.1.y.h.k.p.4 $ # . & b L.>XcXeXrXmXMXmXcXrXrXNX'.1.w.7XqXeX>XY.-.t.t.T 2.y.9.=X'.SX( 7 # . . . # 3 ~ ",
"mXmXMXmXmXmXMXMXVXBXBXcXrX*XE.B r 8 % & w W I.6.g.,XcXeX;XtX-Xv.h.|.uXrXeX,XD.j.t.k.8Xc.h.k.4.E.S.8.W.1.1.1.n.1.p.` : o # $ 2 n T 9.T /.1.W.O.Z / z.6.^ g n p.3.a. .a.( V.( 4.u.2.) 1.5.~ 2 r ] # . % : : % O . O * O O . . & d < q ] # . . . . . y 6 # 6 & . .                   @                     X   . . .   @ O @.1 % O . . O O   O & .     . .         . # S r % .             .     X X     O . # * . X   o . . $ 7 ` I.W &     X     . 7 a.(.H 6 e 1 # . O O . . . . . . .             O o o 0 0 $ . X   o O O % & 0 # $ w q.| 3.4.i.~ 2 . .   .   . . . . $ w X.O o 6 J t %     $ $ ; # w p.L.c.v.5Xw.| K.=X;X*XcXCX;X;X*X].+XT.) V n 7 9 b r.$XqXuX X-.M.1 #         .                             . O O . : & & 6 6 p 5.a. .( Q j r | 2XgXr i w.<XeXrXrXrXyXrXmXVXMXVX:XE.^.B # + * 9 n n & O > . .     O 1 w W t.l.h.ZXZXXXqXwXqXqX*X7XK.8.2.9.OX*XwXeXcXmXmXcXrXCX}.e o   % 1 1 # # . . . . % . % % % . . . . % & : O     o O % # % O O . . . # % # # & . . . O & p }  .u.t.Y.g.9.l.g } /.j.P./ U a. .1.g.8XR.Z.G.l.y.r.7.U.k 2 # . . & n L.;XeXeXrXmXmXcXcXrXrXNX.X1.4.=XuXeX&X5X1XT / k.9.<Xt.D.J.^.k 1 . . . . $ h ~.",
"mXmXMXmXmXmXMXMXVXBXBXcXrX*XE.k N & % . & 2 ..2.'.tXeXeXcXeXeX.Xt.J.vXrXrX&XH.j.j.G.7.d.j.6.r.j.8.j.4.L.I.1.-.L.1.M.8 o > # & q q.T ;./ gX3.C M.8.7.2.a.j X.B .. .5.a. .| e. .1.8.r.5...q.g w ] & # % % % # . O . @ O . . . # $ 1 r d # . O . O . y & . & % . .             . . . . .                       . .     o . J $ . O .   . O . * & .     . .         . # J q % .             .     X X     . . # # .     X   . # $ k ^.2.e O . . .   * O n %.f o % .         . . . . . .       X     . . O O J 6 # .     - O & 9 1 # . $ V n.( w.c.z...7 O   . .     . . X @ $ S O o ; u 0 . o   . # % % r ) K.dX.XZX#Xt.2.[.eXmXBXrXAXqXuX8XI._ r 1 e M i.g.<X:X*X*Xv.-.M.2 .   X                                     O . . O O O O O % e E o.~.).U x 0.5X XP 4.<XZXpXmXrXcXMXMXBXVXMXVXNX7XT.B & , : p ^ W 6 O > . . X X   : A W V E ! P.8XoXuXqX].8XG.e.C 6 & 9 Q Y.*X>XeXcXmXmXrX0XF.e ; y ] #.&.K [ L L K K [ ] [ @.] S J J s ] m #.L { q J 7 ] #.w #.K q #.q N $.Z Z ` L a 9 8 1 X.X.| V.i.w.L.z.2.B p.w.j.c.6.h Q.I.P.2.g.[.zXU.) S.A.k.U.o.& % . . $ n P.;XrXcXcXmXmXmXcXmXNXrX{.2.4.=XNXcX*XtX7X2.^ 1X$XJ.Z.6./...7 & . . . O 1  .^.",
"mXmXMXmXmXmXMXMXVXBXBXcXrX&XW.j a # . % . & M  .1XtX*XxXNXrXrX>X2.S.tXrXrX.XF.k.U.8.G.g.t.U.t.2.j.8.u.i. .u.t.6./ p.p % : . : 7 $...6.9.2.^ +.Z ^.6.:.s.g b o.I ( ^.W I.| e.V.i.t.8.) W q.V 4 e 6 % # # . O . O . O O . . . . # 2 a : % . O . O # y % . O O . .             . . . O .     .                 . .       O y # O O       O O * % .               . . # ] q # .             .     X X     . . . # .   X X   . % # 4 a.u.M & . O O   o   % 0 O   o     X     . . . .           X   O % # ; ; @.& # . .   o O 7 b 6 . . 1 ) U. .y.|.OX} 6 . X . .     O   o @ # 9 : % % : 6 & O @ % % % i b 4.=XqXuXeXvX{.9.$XeXmXBXrXmXqX7Xz.B e 8 8 b e.lX&X>X>XeX*Xh.8.O.2 .   X               . .                               o + = & 2 5 O.N.) 0.^.1Xv.;.G.1X.XaXpXeXxXMXMXmXBXVXMXMX.Xn.j 6 : 6 G a.) 7 : & .   X X   : J o.p.} I T 6.c.3X4XU.u.E e % o - . 2 z.{.;XxXmXMXmXrXuX2Xm ; % 1 w 5 4 w 4 4 4 4 w 4 w w q 3 2 2 2 q j g j w w j 2 r b q j C 4 A r q ~ k k C A r 6 : p H O.a.) 8.L.2.z.n.B q.C.;.}.6.V p.8.;.t.G.ZXF.r.r.-.G.6XP.X.% O O # 2 B U.tXrXcXcXmXmXcXcXmXmXqX'.-.t.=XrXeXcXyX-X#Xj.$X7X#Xk.;.~.p % % . . O ; 7 I.Y.",
"mXmXMXmXmXmXMXMXVXBXBXcXrX=XW.g e # . , . & 6 G OX*X*XcXmXrXcX:X( t.>XqXpXXX[.k.gXt.8.z.t.4.j.S.g.j. . .i.2.j.g.8.a.o.r % . . # 7 G i.>.T.1.E p.I / 6.0.w F E i.n.v z./  .e.E u.9.2.E E ) q.w 1 S 9 % . O     . . % . . . .   . 1 S # O     . O # > .       . .           . . . O * .     .                 . .       O % . O .       . O % % .               . O # ] q # .                   X o     . . . . .     X   . . . 1 ( ~.} w : O . .     @ . . O . @ X X X . . . . . X X         O % & 7 9 u @.% . . .   o ; F A 1 O . 7 n. Xt.G.tX1XE &   X . .         + . # 1 M w m #.Z Z % * > : : D W g.-X0XwXqXwXrX*XtXbXcXmXVXrXZX4XW q i a e  .J.8X&XeXqXcX>X7.a.o.2 .     X             . .                       X   X X X   . $ 7 $ $ 7 C a.gXOXf.-.2.k.:XrXrX;XxXNXBXmXMXMXMXaX=X+.e 7 2 j ..^.^ q a : . @   X X . $ n p.^.G.d.>./ P C M 9 6 : ; O O # g E.-X*XqXwXaXMXCX{.P.i o % i b w 4 q q q q q w 4 w 2 w w 4 w w q r 7 q q q e 1 : & 1 r 2 2 e $ & 6 & & & 6 & O % 7 !...^ gXd.R Y.d.6.E ..gXD.g./ x  .^.:.-.Z.@XkXE.) t.J.d.P.e ;   . & w I U.>XrXcXcXmXmXcXcXcXpXqX'.1.y.=XqX*XcXwXuX>X7X,X&XZXF.9.5.6 o O . . . ; F E.<X",
"MXMXMXmXmXmXMXMXVXBXmXrXqX=X~.w r & @   . : % p L.}.*XmXmXrXcX,X( r.=XqXMXXXF.g.t.i.8.-.8.t.2.t.j.S.L.r.W E.;.;.2./ )._ & > . O % r n.z.9.8.^.3.p.V Y ~.b H  .1.i.z.-.z.3.| ..W t.2.! o.^ ~.C 2 [ S 6 % @ o     % % # # . .   . $ S . o     O . & > @ X X   O .           . . . . * O .   .                         o , . . O         . . % % .         X X   . O . [ 2 # .     . .           X o     . . . . . X   X     . . 6 n ~.s.B 6 O o   .   X   . #     X X     . . . . X X         % 1 1 N p i J % . . . . O u o.~ $ O = e 2XoXk.#XyX|.Z %   X         o o O . % 7 q.P w !.0.~.1 ; > # e M 3.9.].NXXXwXiXiXNX.XbXcXrXVXwXtXU.E p D H W J.tX&XeXcXqXcX>X-.N.~ 1 .     X             . .                 X     X   X X X + . . . O . O $ g Y -.i.~.i.2.g.>X*X*XxXNXBXBXMXMXVXiX5Xb : 6 r E i.^.P w X.9 .   X X X . # 6 k n.+X5X8XP.| p : 8 : 6 7 1 1 < j U.&XtXNXMXMXiXqX{.I.8 = i #.X.B C K X.X.X.X.` C ~ j ~ o.G o.M.Q ~ ~ X.%.b #.m #.p #.K b X.7 p 9 8 u : % 6 6 O : b E Q.4.>.h.SX>.f.8.j p.8.}.T.1.W ~./ 8.2.9.ZX&XK.8.}.1X1X1.6 o o * e B ( E.tXrXnXNXMXMXmXcXcXrX0X{.4.L.&XrXeXNXrXqXeXeX;X;XtX-Xz.Z : +     O % 7 p.G.lX",
"VXMXMXmXNXNXMXMXVXmXVXrXqX|.a.w e $   O # 6 O : n T.].iXMXmXxXlX3. .=XNX0XNXF.J.T.4.8.I.1.4.t.t.8.U.t.W.P.1.8.2.^ 0.t.q.r % y   o a q.R G.;.l.V.Q n 5.W 7 M V.l.2.:.T.8.( p.W V.g.-.E ..^.2.Q 2 2 a ] . O     o . # % # .       $ s O .     . . . .   X X     .         . . . . O @ . .   .                         . @ .   .           & 0 # .         X     . . % K r # O     . .           X                 @     X     . . e p.n.0.7 O o o O . X   # #   X         . . . X X X . %   O 2 w q b p M m & .   . . ; i p.B 6 % : F OX*X[.:XqX Xb : .             +   .   1 a.>.g Q hXY.C 6 % 7 r ! U z.}.$XF.-XNX0XdX>XtX.XBXpXiXAXE.C 7 F t.-XuXNXpXmX*XeXeX:Xv N.r $ O X   X             . .             .   .           X           X X   . & 1 p M E 3.i.1.w.K.vXMXmXcXmXVXaXCXwX+Xq % d r e.I.V.Z W M.2 %   X X X . . # 2 B T. X'.OXu.i 8 m Q.^.>.Y U 4 4 ^ G.lX,XeXmXMXrX$XV.6 u e C ~.V Q H C Q } o.! Q | | a.V ~.a.e.) 0.(.p.j Q } C O.C !.~ w E G n %.b r D b X.M & p C W ) 2.}.v.c.2Xd.1.G k Y.c.u. .x /.i.1.y.D.>X=X;.E.$X8Xd.5.6 = o O r E ^ Y.kXeXeXcXMXMXcXcXNXNXwX{.2.y..XrXeXeXrXCXrXeXxXeXpXuXg.k .   X o . & j E.5X*X",
"VXMXMXmXNXNXMXMXVXmXVXrXuX|.p.q 7 $ 6 & 0 u O : e ! |.wXaXrXnXkXW.^ {.qXmXAX$Xt.2.I.^.8.L.y.t.j.4.4.t.2.k.t.-.1.^.2.T.-.Z 1 > o + & o.l.7.9.T i.C q V !.r F I.2.2.8.R i.p.Z ( w.:.n...! P.;...M < 1 0 . O .   @ . O # . .     . & s O       . . .     X X     .         . . . . . . .                               . @ o               1 t # .         X     . . . S r . O     . .           X                 O   .   X X   . 8 ~ T.f.C 8 o o . . X X . #               . . X X + O # O % r ` w C G F F 7 % . > $ 6 M p.G 7 O 6 } |.uX*XeXqXG.r % .     X     o     X + $ R m.C G  X'.W r 1 b ..a.W 4./.9.^ U. X5XF.}.{.bXcXmXsX-Xr.k n e.oXsX0XiXaXmXeXnXxX:XY M.q # . X                 . .             . . . .                   X X X     * O O J o.1.2.1...w.{.NXBXBXCXmXMXwX7X) 9 % : e i.E.+.k ) q.7 9   X X X . . . & r B 9.8XK.y.+.+.a.U.|.5XK.0.h g P j.3XkXnXmXpX*XJ.( 7 & r h ^ I ~ Q Q C } ..E | | ( e.i.P /.1./ 2.T | ! Q C ..z W | } Z M.Q o.I %.M M g C n p K Q W Q.8.6.g.t.6.g.I.b } k.c.i.B U ~.a.3.2.<X=XZX3Xh.f. Xj.p.& - o % Z ^ / U.kXeXeXrXMXmXcXcXcXrXyX{.2.t.&XrXeXrXrXmXrXnXxXeXaXuX2.w .   X X O 1 ) 1XuXwX",
"VXMXMXMXNXNXMXMXVXMXVXrXuX}.5.q 9 1 K 2 6 0 & 8 : 7 n.-XqXeXnXkX/.) =XsXwXqXF.2.8.4.8.-.8.8.j.t.y.1.6.c.:.P.1.3.t.z.-.) ~.n % ,   . j 5.0.;.8.W j q } C M } -.t.U a.) ^ O.Q W 4.T.;.W ) 6.:.a.X.1 # & . . . . .     X         . # y .       . .       X X                   . . . . .                             . O . X X   .   o o o 7 S % .         X X . .   . a e . @       .                           . O . * . O @     % j OXx.e.p O o . . X X . .     . .         . X X + # 1 8 & C M.g E e. ...p : . y 2 j o.p.G 6 % q p.$XrXrXeX>Xy.7 O .   X X   . .   X X + & c ~.} C g.6XU.4.b w 4.i.E C V.| M M.(.4.I 4.lXeX&XZX6X2.W I g.OX7X*XwXiXmXrXcXxXrX@XU %.1 # . X                 . .               . . . . . . .     X X . . . .       o - ; b p.b.7.( E t.kXCXmXmXnXvX|.I.g q & ; e n.^.Q j i.) q s . X X X   . . % e O.Z z 3.gXK.$XdX-XF.g.r.L.8.;.;.D.:XeXmXMXaXqX2X} 8 % e %.B B o.C O.C G G E ! W I U w.r.1.l.1.) p.g C X.~ G C B O.Z H o.n n C ` A M n X.M 6 p H j I a.l.2.i.1.i.a.} j A.Y.3.( x a.( ( 4.2.ZX{.7.d.=Xx.I.w u o % 7 q.2.-.J.vXeXeXrXMXmXcXcXcXrXyX=X1.r.-XNXqXmXpXrXeXbXeXrXaXoXU 1 . . X   O q G.-XwXaX",
"VXVXMXmXcXNXMXMXVXMXMXrXuX}.( e 8 q M.B & ; 6 & O & ( +X.XrXxXkXr.-.{.AX.X*XD.t.-.r.8.t.8.6.2.U.i.4.z.;.G./ w.4.9.j.I.2.2.N.6 o o O 1 C ^ T.2.5.n M $.C b C I.z.a.I a.V.F C ! 2.z.2.(.) 6.h.^ o.2 # & # # . . .     X X     . . O > .   .   .                               . . .                       .         . O . X X   .   + o O q S % . .       X X   . o   6 7 O     o   .                           . % y # . O @     O 2 t.b.I.C ; o O . X X X     . . .         O @ X + q n i 6 ! 5.z ..^.l.V.M % O 6 2 B N...b : : j W.&XrXBXeX$X .6 .     X X   . . O + X X * 2 p.Q. .g.:X8XY.5.U l.n.O.e F F i 6 q w j E T.=X*X6XI.G 1.z.SX|.<X7XbXmXVXeXcXeXrX@XI { $ O   X     .                                   . . . . .       . . . . .     + o o & C t.m.4.U E y.tXcXrXeX=X/.G 6 1 $ 6 A I.I.M b (.^ w S O             . & m %.M.V 6.7XsXiXrXF.-.^ T.4X{.F.:XtXqXrXmXaXtXT.w 9 O a j 4 ` g n Q w } E ! p.I (.) ^ ^.I.^ 4.5.5.! B ~ B o.n ~ ~ E O.k g B C L q M K m e 6 e K j ! 1.n.I.) 3.i.3...V l.2./.( P a.! 5. .Z.'.*X8X[.f.Y.a.4 0 o : j ^.h.9.#XvXeXrXmXMXmXcXcXcXrXyX-X1.8.-XNXqXMXiXpXxXvXeXrXyXh.j # . . . O % F 4XqXiXMX",
"VXVXMXmXNXNXMXMXMXMXmXrXtX}.E p & e n.n.q % 8 # . % q p.|.eXxXkX2.8.{.qXXXtXk.4.I.8.6.9.;.A.U.t.L.8.9.2X;.t.i.r.U.6.2.n.P.) M : : . $ b ~ p./ N.b M X.} b Z 2.n.( e.1.a.} b 3.n./ y.1.r.z.9.~.} $ . . % . . .               . . . O . . .                                                               .         . . . X X   . . .   O l A # . . .     X X   . o   & 1 O     X         .                   . . # S # % O . o     1 U T.^.I : o O . X X X X . O . .       . . O @ O B _ p p M.W V 5.2XY.~.b % % 1 4 Y ~.! r & 6 Z gX*XpXCX;XR.E &         .   . # % .   . # & M E.[.@X;X>X=XK.G.0.Q.B.e 9 9 6 & s 6 7 n P k.[.4X+.G K.-X1X6.t.U.$X;XmXrXmXeXrX1Xk a % . X X     .                                       . . . . # . .   . . .   + X X @ % $ w _ n.0.n b Z.ZXmXqXJ.p.8 = O $ 2 $.I.8.g C (.U n N . . . .         O & n N.~.OX].wXpXwX=X}.Z.<X=XtX&X>XvXeXcXrXqX.X^.n & : 2 &.K H B k ~ Z o.E Q.q.U ( x ~.s.1.4.4.5._ (.N.U P o.B o.z q.s.5.^ ~ n q j b n b 7 7 #.X.B P T.E.-.2.I.2.a.E  .k.9.3.! ^ a.o.Q L.k.{.tXF.$X5XT.g 7 O O 1 I 9X].c.$XnXrXNXcXmXmXcXcXcXrXyX:X1.8.-XmXwXMXiXaXxXkX;XvX=X/ 2 . . . . # 6 } 4XqXmXMX",
"VXVXMXmXNXNXMXMXMXMXmXqXtXY.C m 6 q 0.^.Z 1 : O O % # n T.{.bXkX4.j.-X.XtX>XZ.4.4.n.t.;.A.6.2.P.L.8.t.9.j.A.1.l.2.6.t.-.t.^.G e $ & . & #.E 1.1.r m M.h Z ..Y 8.W a.4.e.Q C L.8././ 2.8.2.8.3.n 1 & . % . . .                       O . O . X   X       . .                     .                       .     X   . . . X X . . .     O n B # . . .     X X     o   # # O   X           .                   . O # s & : . O @     & w N.a.C : o O . X X X X   O . .       . % & O & U _ r p Q.V V i.}.}.I.j & : a n -.T.} i % 1 ( 4X*XpXBX;XU.M %   X X . . . . # # . *     O 9 Z.eXvXxXxXtX-X+X^ ! C 7 9 i 6 FXHX=.=.m g T c.<X|  ..XXX}.8.( W D.&XmXMXmXeXqXY.q : O         . . .                                         . . # .   X     . .   X @     . . 2 ^ ).o.m 3.6XNXqXY.C :   . & < M.~.^ g Q Q.I ~ D # . . .           % 1 j P 0.OX-XuXyXtXZX:X7X.XeX*XtXeXeXcXrXqX5Xa.4 6 6 7 < N S N ` n k #.k H Z ~ B !.E ..o.B _ ~ o.W M.B o.w X.F k W _ q.o.g j q 7 N K 2 1 m X.C g 2.9.;.G.z.l.n.U W V.2.P.e.W T (.B ..w.j.&XtX'.>.d.^.A % . > 2 1.-X0X&XkXBXmXNXrXaXaXcXrXrXrXwX=X1.r.*XsXrXMXiXMXxX;X;XlXU.B $ . X   . $ 7 p.1XeXVXMX",
"VXVXMXmXNXcXMXMXMXVXmXwXuXY.n m e n a.8.4.n ; + . # . 1  .D.cXcX2.9.=XXX>X:XE.u.8.-.g.m.gXj.9.6.t.:.t.-.t.8.y.8.r.8.9.U.1.1.e.k < # # O : %.U ) b N N.V Z } (.^ 0.a.i.4.! B T t.Y 4.r.1.1.e.+.F e s # .           . . . .   X X X   O . . . X X X X   . . .                     .                       .   X X   . # . X X . . .   o . K k # O . .     X X   . o + . # .   X     .     .                     . % u s & O O o     . 1 X.X.i o o # # .       o   O .       O 1 7 # 7 1.4.b e !.V V I. X=XU.k 6 : J ~ d.T...9 % 1 3.1XqXaXrX=XL.b %   X X . . . . O . . X X X @ 6 r.kXxX&XeX>X]. XV n q q r K i JXHXKXPXJ j I <X$XH.[.wX0X-Xk. .! Z.&XrXMXrXuXXXG.q O     X   . . . .       X                                     .   X X X X . . . . . . @ o   $ 3 _ N.e. .j.*XqXY.g 8     # $ L N.V B q.O.C o.M % . . .   X     X   . & $ r | t.'.uXrXqX.XvX*XrXpXpXrXrXcXrXrX8X) r # . # 6 & . # $ # & $ # 6 $ $ $ 9 e 9 1 $ a J 1 1 & & u 6 a 9 $ 6 S & a & # 0 y 7 q $ 1 p #.K Z / z.9.9.g.9.4.^ P u.L.4././ ^ ..o.| 4.k.&XvX:XF.;.n.1 % , % j n.0XiXvXvXmXVXmXrXaXMXmXcXrXrXqX.X4.y.-XsXpXMXrXMXcXcXkXR.+.e $ . X X # < r p.:XeXVXVX",
"VXVXMXmXcXNXMXMXMXVXmXwXuXY.j m q ~ (.:.I.p.8 . # # . % r C.&XvXZ.j.'.>X'.=XD.1.t.t.j.k.;.k.W.l.;.^.6.t.8.t.P.l.u.u.Y.6.L.I e.N.q $ % % O p -.4.r m p.x B O.) 2.) 1.l.4.k E n.l.L.a.1.a. .! O.r p J . .   X     . . . . .   X X X   O . . . o X X     . . .                     @                       .   X X   . . . X X . . O . + . K w # O .     X X X .   X + O . .   X                                 . % & ] $ % ; o   O . % a a : o o # $ . . . O     . .     O & q r 6 M n.n.M 7 M.P x /.K.8XI.g & % m W f.b.~ : % 7 a.=XrXaXrX@Xa.7 %   X X . . .     X .   X X o : n R.xXeXbX'.6.) j e j H B !.N jXKXKXHXe n i.1XuXqXwXaXwX'.6. .W.S.#XqXMXeXvX*XU.e O   o X   . . .       X X     . . .                               X X X X . . . # # . X +   . $ 3 _ a.|  .J.4XI.g # O . . % 1 $.g V N.Q b o.w $ # . .     o o   @   . O 9 p Z 8.|.tXrXrXcX*XNXaXMXpXmXmXqX*X4XB 1 O   # . . .   @   .   O . . O O . O O O O O % % ; O o = O O O : O o O O O O O . # 6 # 6 a F G o.u.n.z.k.6.E.4.x 4.T.y.r.P.U k ! W p.( 8.7X.X{.:.z.! 1 O   O Z gXXXiXnXxXrXMXmXrXmXVXCXcXrXrXqX{.8.S.&XpXmXMXpXMXmXcXlXL.H : $ . X X 1 w n V.:XeXVXMX",
"VXVXMXmXcXNXMXVXVXmXBXeXuXhXj p r Q u.G.3.C p 1 # # . . $ C W.J.S.-.D.[.{.>X[.D.j.S.k.9.h.G.4.i.i.8.E.G.;.gXl. .4.y.8.P.W p. .E n 1 . > O 1 s.8.G b V.E ! ..0.6.1.i.1.e.B Q 1.) e.....p.2.1.b 1 e 7 O @   @ . . . .         X X                                                                                     .           O O % 6 ] < # . .     X X     .       .                             . .         . & d 1 $ : > . O . @     = - o # $ # . & & > O . . O O % 6 O.q.r p.T.g.r 6 Q.x Y ^.i.u.Q.4 6 6 M ! v.T.j % O 9 i.lXXXsXiX X..& % O           X X   . X X o o = 9 3.-XrX_.hXr : : 6 ~ Q.~...D KXLXjXe r ) d.`.iXrXrXwXrXZ.i.8.W. .8.0XaX*X,XkXS.1     . . . .       X X X     . . % . . . . # .     .     X   o       X       .   . .           . # 1 n o.C W N.n 7 # . .     % S 2 G Q.G H %.7 $ # .   . .             O & N $.z ^ h.&XeXcXxXeXVXpXcXcXNXuXdXT.q O   o . .                                     O . O O . . . O O O . . . . . .   X # # $ S J r V 4.L.I.t.T.Y.t.3.! r.z.g.d.8.5.q ~ ^ ^.a.4.c.;X@XJ.~.w < . X ; 5.x.&XcXeXcXCXpXmXmXmXmXmXcXrXqXqX{.t.U.=XCXVXaXmXNXpXrX:Xu.6 ; % . X O 1 X.+.1.kXmXVXVX",
"VXVXMXmXcXmXVXVXVXmXBXeXuXOXj m e C h.}.3...p.b $ . . . % 7 | I.) 2.Y.}.ZXf.g.R.4.U.A.J.d.:.0.) 5.r.G.>.G.8.r.1.2.4.z.-.4.~.^ ..n r & . O 7 I s...+.p.C G | R 7.5.U (.P b X.^ 4. .+.! ( 8.s.j 9 b 7 O     . . . .           X X                                                                                                 . O % 0 J $ # .     X X     . .                                     . . .   X X   . 0 7 1 6 > O % O X X     - O . $ . . 6 S 0 . . O % % : 6 p. .b ..Y.8.e 6 N.v x 5.! ! B.2 $ & } i.}.h.2 O O 9  .%X*XsXwX5XH % O O .   X     . X   . O   o - o u G 1X0X-Xz.u = ; J C V 5._ *.PXFXb 2 ~ 8.f.oXsXrXcXaX*X8.y.z.t. .^ v.dXF.zX%X1.&   . . . . .     X X X X     . . . % # y # # # O . .   X                                       X   . 1 b A n #.e & . .       . 0 1 M o.B ~ #.6 $ #     . .     . .     . . 9 L M.x / 4X=X&XvX*XMXmXcX*XuX-XOX5.6 o o   . .                                       . . .                         +   . $ $ N K n  .u.) u.8.2.G.t.| ! I.;.v.h.P.U r w N./ i./ h.{.,XK...2 < % o % i.v.&X;XqXrXsXwXmXmXmXmXmXpXrXqXuXv.8.E.vXrXaXMXmXNXmXqX}.( & o . . o : q p.w.6.&XrXrXcX",
"VXVXMXmXNXmXVXVXVXmXNXeX-Xk.j D e E G.{.g.G./.Q : O . . $ 1 j V.4.z.<X5XF.d.Z.y.w.y.W.j.k.k.;.9.W 4.Y K.g.z.4.i.i.-.j.2.2.1.n.^ q.g $ > O # w .. . .e.n G p./ 0.1. .1.| 7 p I.-.5.| e.4./ 1.F 7 K r 0     . . . .                                                                                                               . O . 0 s & # .     X X       .                                     . . .   X X   . & 9 1 1 : ; O ; . *   o - o   @   % q $.t # . @ % O ; 6 M.W b G G.-.6 8 $.V c G C M #.7 $ 1 +.U.|.6.< O O i ..}.tXqX].T.r % O O . . @   . # . . . . .   + o ; b T.-X.X:.b u ; IXFX*.X.` JXLXX.n C 5.y.F.:X>XxXxXcX&Xd.F.1X7.5.Z ) ~. .(.W.E &     . . .                     +   > & J e 1 # .   o o X                                           # $ 2 N 2 m 7 % . .       . . $ r C V ..K & # .               . . . . . % q o.s.4.1.y.R.;XNXeXnXCXqXtXOX4.j %   . . . .                                                         X X X X     X   . & 1 N X.! ( 1.n.l.g.K.g.r.Q ..r.J.f.5Xj.1.j M ~ ^ i.2.>X&X{.A.C 1 1 %   % L.[.;XeX*XeXrXwXmXmXmXmXmXrXrXqXeXv.8.E.ZXrXpXMXrXcXCX>Xz.j &   . O . & B ~.P.D.vXcXNXBX",
"VXMXMXmXNXmXVXVXVXmXmXeX=X9.j N q p.}..X=X6XE.e.i % @ . $ 1 6 K p.P.}. Xf.$X4Xy.S.w.t.A.t.k.+X6.Q.V T SX/ 2./.3.r.E.2.g./ 8.4.2.) Q.7 % O O $ n a.) Q.b G ..0.-.1.a.1.I e p ^ 8.e.! ( a.I.W q #.K r d o   O . . .                                                                                                                 O . y 0 & # O     X X       .                                     . . .     X   . # 6 $ & ; O o ; < 2 * o = o   X   & n M.4 # . O O . ; 6 N.W p b n.^ : : K k 2 N D i N 1 $ w w.<X5X-.1 O % i | J.ZXXX'.0.2 O O O . .   . # 0 & . . . .   o o O e ) |.].c.W e 9 LXIXFXFXLXjXq G Q.a.1.t.#X$X,XvXkXxXeX{.=XOX6.C r b F n p.I.I &                                 * . & a #.7 # # O   X   . . .                                   . % # < r < e 6 # O           . % 6 r W p.D % .     X X X         . . O . . $ k o.Q.5.U 8.7XZX,XkXnXqX7Xi.M % .   . . . .                                               X   X   X X X X X X     , # # 7 2 g  .W i.l.G.D.F.J.y.Q C P.h.'.d.h.i.G r G  .1.4X&XZX[.^.b 6 & # . e a.|.>XxXeXrXpXpXmXmXmXmXpXrXrXuXeX{.t.Z.>XrXmXpXeXeXcX5X3.7 & . O O . 2 1.2X4X[.eXcXcXmX",
"VXMXMXmXmXmXVXVXVXmXcXbX=X;.j p q p.|.qXCXxX@XL.H % O . # & & 9 m } U.f.'.{.[.#Xh.H.g.t.r.4.t.r...I / g.U.r.w.4.l.t.k.6.6.l.6.8.:.(.b O   @ O 2 a.2.Q.j B  .u.8.g./ I.W F b W 4.1.e. .| a.o.i u w q d .   . O .                                                                                                                 . O . y 6 % . O             . .                                       . .         O . & & & 0 O o % r 4 9 : = o +   + : ! ..3 # .       O 6 p.( p e ~.^ & O e e $ 0 f 8 8 $ # b l.$X1X) 6 O : m G Z.-X-XE.I 1 O . . . .   . $ s y & . . .   o o o 9 V 2X X5Xt.! b @.PXLXKXjXe j 4.E.F.9.r.j.H.vXnXcXxXxXZX5Xu.G 8 ; : 2 V 0.T./ < .             . . .           . * . # 1 @.0 : 1 & .   . . .                                       . # $ $ a ] & O .           . % ; 7 ) ~.p % .     X X X   .       O # # # # # 1 H Q.i.;.9.J.zX:XeX*XK.I & o X   . .     X X   . . . . .   . .                                               X . . & s e z ~.W 3.u.K.F.f.g.y.! E 8.OXc.v.h.I.Q q W 4.4.J..XtX<X~.e % # & a C 1.D.;XcXcXBXMXMXMXMXmXmXrXrXrXyXeX=Xj.j.=XcXMXrXeXcX*X<XG & % O   . 6 j G.|.[.g.;XeXrXcX",
"VXMXMXMXmXmXMXVXVXMXmXvX$X) b e g 4.-XMXmXrX;Xk.+.7 # % . . . % : b i.d.x.oX'.{.F.7.J.j.) w.8.4.E k U T.t.P.1.4.t.:.g.6.g.8.T.:.z.2.` 6 .   + & V 5.Q.n B ..1.l.;.z.1...$.r W i.n.^  .a.p.k 1 9 4 j t O     . .           .                                                                                                     . O O y % # . .               .                                         .         . . # 6 6 s ; = % n 5 e 6 : u ,   O 9 p.W < # . .     o 6 ..5.m 9 Q.W % o & 6 # % u ; O % # b E.$XOX( 1 O 9 H Z G.|.|.a.q : O     .     . 1 S s & # . .   X X   % n ~.OX}.}.E.V k k jXe i C e.OX{.*X{.t.j.,XxXcXBXcX*XvX$X4.p ; = 8 4 2.+X+X/ < .             . . . .         . . . . # 0 0 0 9 6 : % . . .                                       O . & # s ] % O           . . . * 6 ^ N.q O       X X X . .       . # # # . O O 1 C ~.n.-.2.<X#XtX:Xn.g O X X   . .             . .                                 .   .   . . . .     .   . . . : d #.Q.a.W ( T.h.x.c.7.j.a.Z ) Y.}.v.g.I.} n U P.y.t.>X=XG.! : O . 1 ` B ) D.;XcXBXBXmXMXMXMXmXmXrXrXrXrXrX&Xt.t.>XeXmXmXcXbX&XL.i O . . X . q I 1X{.&Xx.xXcXcXBX",
"MXMXMXMXmXmXMXVXVXVXmXvX}.^ M r C n.yXMXmXrX;XF.G.( q % .   . . : b  .T.>.|.}.F.h.J.8.r.L.r.k.y.o.G ) i.8.2.1.u.-.E.R z.8.l.8.6.h.G...r & *   . 4 ` !.n C +.! 1.r.2.( M.i p ..a.^ r.t.1.s.B 2 K w ` 9 O o   .             .                                                                                                     . O % y % . . .                                                         .           . % s 1 S 8 = 8 k z b 6 e { 0 O % e p.Z & O . .   + o 6 U a.S 8 p.V % o . 6 % . = O O % . q E.|.E.W & . m Q ! E.|.OXE 1 % O           O 1 N s & . . .   X X X . 1 E P.4X$X1X^.x U B M G ~.Y.7XqXCXpX'.@XZXeXBXmXcX*X*X{.y.C 6 6 n ^ b.9Xb.v < .     X X     . . . . .   X   . . % . O O y 8 : 6 7 6 # .                                         O O % # : > O .         .   X   , # z q.1 O         X X . .     X   . . . . , . . 1 k p.~.-.K.[.7XG._ 2 .   . # # .     . .                                                                 . . % # $ X.M.V E a.z.7.g.h.<XA.L.V P j.F.h.8.L.a.V -.E.r.J.@X6Xn.w ; o % 1 q.P 1.K.vXNXCXBXmXmXVXMXMXmXrXrXrXyXcX&Xt.t.kXeXrXmXmXxX$X .6 . . . @ # g 8.=X*XbX;XeXrXcXcX",
"MXMXMXMXmXmXmXMXMXVXBXvXJ.I M p Z gXyXwXAXBX*X&X=XE.G $ O X . . % p } (.2Xf.x.8XD.j.j.r.y.A.h.T.Q n 3.T.U.8.i.L.A.A.A.A.-.8.8.8.h.8.V !.7 % O O $ 3 #.w B p.V. .u.-.) ~ 6 7 p.u.1.i.P.1. .G b D g $.7 . o   O .     X   . . .                                                                                                   . O * y % O O .                                                           .     +   O : J 1 D 7 : p x q.D 7 C B.0 % $ r p.C % +   . o @ o 6 V ~.J & ~ j %   O > # . O - . . . q U.F.^.G # # N E I /. XgXb : O   o o   X + . 1 a a % . % . .   X   O & r ( E.[.=X|.1Xh./.!  .4X].qXwXiXaXrX;XeXrXVXqXbXeXXX.X$X2.Z B 4.2X9X9Xz.x $ .     X X     . . . .     X X   . % . . * f # # & 6 6 # .   .                                 @   @   . * O O             .   .   , . 4 ' 1 O             . .         . . . .   @ O . 1 g ( /.c.[.Y.) 4 $ % . # # . .     # #                                                                 .     % 7 A ~ E E  .Y.g.G.G.g.k.U.2.-.z.h.<XP.^.^./ T U.S.k.lXZ.(.2 > o % 2 ~.;.) A.>XrXBXBXmXVXVXMXmXmXrXrXrXrXcX>Xk.g.ZXeXcXeXmX;XE.Z %   . . . $ B +X-XeXcXcXeXcXcXcX",
"VXMXMXMXmXmXmXmXMXVXBX;X2Xz D r ( J.uXrXcXxXxX;XeX5X~.C $ .   . & & r !.^.G.x.v.}.t.A.r.8.A.Y.r.C j -.gX6.6.P.4.t.U.8.-.L.) r.8.r.i.h } X.$ % O . 1 B.k P 1.u.y.;.9.u.W 7 D W 1.I.4.1.W ~ 7 9 a X.` 6 O *     .   X X     . .                                                                                                     O * * % O . .                                                           .       . . . &.b n j e } N.N.9 6 a.p.6 . 1 H p.b ;     .   + o $ U Q.a 6 A n .     O . * O o O : # n Y.3XV.r 8 . q B I T.OXn.7 % O     X X o   O 6 e 8 > O . . . . X X . % 1 b 3.G.7XyXXX-X|.8.t.=XyXqXwXiXiXyXuXrXiXaXrXvX>XrXNXeXtX$XSXF.1X|.4X1.j # @   X X X       . . .   X X X X @ . % * . 6 0 . O % % O . . . .                                                             . .     O 1 7 % .     . # $ 0 O       . . .               . 1 B 0.OX}.4.n 1 . @ . . .   X X X O O O       O     @   .   O   O       o       @     @       . @ . . .     O 2 H n j W 8.Y.g.P.r.9.K.;.j.Y.Y.2.P.2.U.-.Y x T.t.K.D.U.q.1 o O % j n.6.^ E.kXBXBXrXVXVXVXMXmXcXrXrXrXNXqX*Xg.j.&XNXqXcXeX>Xw.q % @ . . O 1 2.1X-XeXcXcXNXcXmXBX",
"MXMXMXMXMXMXNXBXMXMXmX;XE.k D r  .3XbXrXeX;XxXbXwXuXj.( w $   X : & 7 n Q.g.F.F.9.4.r.r.t.k.9.1.Q n i.9.d.G.2.-.8.t.8.W.1.I./ 2.) W Z E o.4 # . . . S 5 W 2.w. .E.g.0.I m X.5.2.r.) 3.(.H 7 6 2 X.Z 9 O   @ O     X X     . .                                                                                                     . O O O . .                                                                       . 0 @.C C E 5.N.5.P 7 m V.W 1 # 2 ~ p.b =   . .       & Z M.p 6 b r .     . . . o o % # $ $.G.4X .q # . 7 k P g.Y.) 6 O         X o   O a r 8 > % % . . . . X . . % 7 C 1.}.qXwXpXeXF.[.eXrXeXwXpXrXtXuXiXaXaXrX7X@X.XwXwXcXcX;X,X:X7XJ.e.e # @     X     .   . .       o X X o . O ; % & # O O O O . O % . .                                                             . .       & & % .   . . $ q L % o     . . .   X X X X     . # 4 I T.P.! e % . . . . X X X X o   .   .     . . . . . . . . O . O .       @   .       .   .         O     % n E e b W 9.6.A.i.w.Z.h.A.9.G.6.y.) K.D.P.^ ^ ^.2.j.6./.n & O > 7 o.P.R I W.;XrXmXrXBXmXMXMXmXmXrXrXrXrXrXeXc.k.;XbXeXcXqX1XE 1 O   . . & n g.-X>XeXcXrXcXrXrXmX",
"mXmXMXMXMXmXcXNXmXMXMX-XW.n m r 1.3XZXcXcXeX;X;XeXyXv.9.^ 3 .   # 1 & 7 ~ a.9.9.l.4.4.W.-.c.g.2.Z E a.g.h.d.z.8.l.-.t.i.4.( W.4.3.1.z a.-.W e %     % 7 W ( | ! 4.4.Q.C q F q.1.;.j.C.Q o.b b 4 M.w 6 %   @ . .         . . .                                                                                                     . O O .                                                                           o 8 D C 1.l.E.I.P 5 j O.M.e % # 4 o.M.b %   O .     . # j X.m 1 q 7 O       .   o = % $ 4 N.G.4X! e .   0 r I t.^.k :           X + o % K p 8 d & : O . . . . .   O % 7 n l.=XrXMXmXeX;X;XeXeXrXrXeX=X=XiXiXsX*X#XF..XrXxXnXNX;XkX:X>X}.V.e %   . . O . O % . . .             o   . % % % . % % O * > . . @                                                                         O * O . . @ . 1 V o.& O       . . .   X X X X   . # # 2 o...p & O O * .     X X     O O . O O     O O . o   O . O . O . O     . O . . . . . O O O O O O O O * % H o.M H  .9.8.gX .3.U.h.g.9.G.gXD.g.k.8.G.-.Z G /.2.Z.V.q & . : r N.gX6.I E.>XqXmXmXmXmXMXMXmXmXcXrXrXrXpXqXH.D.eXrXrXbX>XG.q : .   # # 7 | }.>X>XkXcXmXrXrXrXmX",
"cXmXmXmXaXpXcXcXmXMXMX*XI.n m r 4.:X>XeXcXeX&X{.rXuX-Xv.P.z %   O % % & A o.8.2.W.y.u.) U.9.k.L.j G n.>.c.d.2./.-.l.4.4.L. .4.i.V.V E 5.8.5.r & O O . 6 ~ ..} }  .( +.n r X.p.^ z.t. ...M b A B $.w & O .   . O           .                                                                                                     . . O @       .                                                                 @   = % m Z A.OX}.9.c 5 ) a.X.8 % # w O.M.n & O . O     . # 2 N J 7 1 & O .       X o o % 1 w ) A.U.Q 7 O   @ 1 U n.M.2 ;             o O % #.q e J 9 a . O .   . .     O % q 5.<XbXpXpXmXcXeXxXcXcXtX>X=X*XiXiX*Xx.9.g..XmXkXkXcXmX;X,X.X3XV.9 % . O . % # # > % .       . . . . O o   . O O O d t % 0 s >                                                                       .     o O O . . . . q U N.e : .       . .   X X X X   . # . # b r % O . O > * . . . . # $ $ # # . # # # # # # # # & # % # # # & # & # 6 # & $ # $ $ $ $ $ $ # O O > & ` } F O.8.A.E.2.W.4.8.Y.h.g.Y.hXh.J.t.j.U.1.j G e.2./.V 1 % O 9 G s.z.9.W /.>XXXpXmXmXBXVXMXmXmXrXrXrXpXiXqX{.F.eXrXcXtX6X1.1 % . . # $ r u.:X;XkXkXmXMXmXrXcXmX",
"rXcXmXaXaXpXxXcXmXMXMX-XL.n b r r.:X*X*XqX*X@X@XrXqXdX Xb.5.6 O   @   > 1 o.0.b.D.7.8.S.4.r.u.e.M r 5.z.7.d.g.8.t.8.y.L.) u.-.4...Q B p.a.( ~ 1 & . . & K N. .3.i.4.e.W b o.0.l.4.3.3.p.i : n ~ Z L : .     O .           .                                                                                                     . . @ o       .                                                                     > ; M 1.$X|. X-.4 k z.G.H ; O $ w p.N.B $ O O O     O . # 6 J r & % O   .   X X @ o . 1 5 v I.i.O.7 .     # P I.H % O   X   . .   . O & %.w j o.b J # .       . @   @ O $ H W.lX>X*XmXmXrXcXbXvXvXvXtXeXpXyX#X8.2.h.eXNX,XkXcXVXqX*X-XG.} : O . % & 2 2 1 t 0 .     o O . % # # .     .   O t J t # 6 0 o X                                                                           O O . . . % N T n.G 6 # .               o o     . . # # % .   . . 0 7 $ < w A ~ P z h n j j N N n N A w b N n w g j A g k C j n k B h B B B B V z h 4 & . & i X.n k p.n.l.8.P.r.E.t.k.h.d.2X;.F.g.G.j.9.3.~ C ! e.r.Z $ . % 7 ( ;.9.2.W W.>XXXpXmXcXcXVXMXmXrXrXrXrXaXiXqX{.'.rXrXcX=XT.n &   X . . 1 C U.;X;XkXxXsXMXmXmXmXmX",
"cXrXpXaXaXaXxXxXmXMXMX&Xu.M p j 4.$XtXeXqX.X{.=XrXqX&XF.>.V.e : O   , . 8 r a.z.g.c.9.8.L.3.1.p.b X.( n.G.9.l.:.t.8.P.4.w.4.t.r.! Q ..p.! p.! n 1 # % # a X. .w.i.i.3.I n M.2.:.^ e.p.} J : j ~ C J %   @   O .                                                                                                                 . .                                                                               o o : M L.=X&XG.W 4 V m.K.} u O # 4 p.a.Z $ O         O O . % N r # . .   . . X   o o O $ g ( Q.+.%.6 # X X 1 U ~.i o o   X   . . . O & r !.j z N.B #.%   o     O X   X @ . r e.E.$XeXMXMXrXcXcXnXxXxXcXcXcXeX3Xk.D.%XbXnX;XnXVXaXwXuX8X/ e O O O & e w j 2 S y .     . % # 9 6 # .   o O . . $ t e $ # .   o                                               . . . .                   . O . . O   * N ,.m.5.q $ .     X       . .     X     O . O @ - @ % 0 t $ 1 q L ` ` ~ ~ ` N A K ` K K ` K X.X.$.K ` ` $.A ` $.` ` ` ` ~ $.o.o.$.M.$.o.` 6 # 1 D K g ! ^.1.y.8.2.<X9.U.g.d.K.d.8.G.j.A.2.n.^ } H ! ( Q.n : O % q 4.j.G.8.I u.>XwXaXMXcXrXVXmXcXrXrXrXNXaXMXwX=X@XrXpXrX{.5.2 %   X X O 2 ) $X&X;XxXeXaXaXMXmXmXmX",
"cXrXrXpXaXNXxXeXmXMXMX&Xi.C p b 4.:XrXrXtX.X'.'.aXwX=Xt.) ~.} 7 # . O O O 6 M ( g.G.t.W.1.4.8.i.M e Q.l.g.h.t.t.6.t.j.P.8.r.U.-.! C 5.E } G p...2 & & # % i ..4.I +.p.V k ! / 2.l.( Z B.8 6 k ..H e . o @   . .                                                                                                                                     .                                           .               @   o 8 G E.qX>Xe.b g / P.z...{ % # 3 p.n.U $     X     .     O w l O X     . . X   o - o & n B.{ m D $ . .   $ ^ p.: o +       . # . # 1 H !.z P a.z $.% o o o         X X . $ C r.|.uXaXMXrXcXMXmXcXxXcXcXcXrX*X.X>X>X;XxXeXmXMXiXiXuXn.g %   . % 9 K B ~ 4 S 0 O O o . % $ J 0 . # . O % # 9 & # 1 6 & . . O                                             . @ . . .             X     O O % .     O r 6.b.L.n $ .               . .         o . . @ , * % 0 a : % . O * # # $ : & & 6 6 & : 7 & & 6 6 $ $ 1 6 % : 8 8 & 6 : & : & & 6 9 9 9 6 : 7 7 K N b s.z./ i.i.t.c.f.U.9.v.5X>.K.4.I.C.8.G.n.w H q.q.G q O O 6 E I.2XU.4.E r.:XyXpXmXcXrXBXmXcXrXrXcXNXaXMXaX>X>XrXpXrX$XC & O X X X . r j.>X&XxXnXrXaXaXMXmXmXMX",
"tX-X@X&XrXmXxX;XmXMXMX*Xi.F p n A.>X*XXXqX&XF.c.pXwXZX8.8.I.Q.r 1 & . . . % & M ) j.P.u.C.) g.a.p 7 | ;.G.;.2.L.g.U.G.:.6.L.-.u.| h 1.| +.} ) Q.n 7 # O @ % _ ) e.E Z C o.! ( ^.2.4.| H u 6 Z N.H $ %     @ . .                                                                                                                                                                                                     = 9 p.4XqX$XH 6 k s.T.9.( #.% # 2 p.n.T & o   + X         . 2 N > @     . . . . o o   & B $.9 u 8 6 . . . $ I ~ > o o     . . # . # q ~ !.z P a.g #.%     X @     X X X   # 1 E z.oXwXiXcXnXVXMXmXcXBXBXBXmXrXrXCXxXkXZXcXMXaXaX0X9XB 1 O   o : b o.W o.c A 8 . = O % & 6 @.8 # & # . # 7 @.r 2 $ # . O # . .                                   . . . . * > . . . .       X   X     . % % .   @ . w z.|.4X( 1 . .             . .   @ o   o . . . O O O ; : % O     O O O . % % % % & : : & 8 8 9 & 6 & 6 & % ; O ; O ; % : 6 : & & & & & % % 1 2 %.N q ) / ) /.u.8.F.|./ t.J.f.K.G.L.i.C.2.h.:.n q N.N.b 6 O % 7 | g.F.j.r.( 4.$XuX0XpXcXeXmXmXcXcXcXNXNXaXaXaXeXbXqXpXrX$Xw %   X X . 2 C 1XnX,XxXCXrXMXaXMXmXmXMX",
"1X6.V L.tXCX*XnXBXrXMXqXy.Q m C j.[.eXAX*Xf.^ zX>X*X=X$Xk.U.( } p % o @ $ < * % ( 9.t.4.y.L.t.Q.D 6 ) d.9.y.a.| U.g.F.c.h.8.1.W ~.P  .p...p.1.i.I b : o   & V s./ 1...M M.} +. .) 8.^.I : 9 o.E N 6 . O .                                                                                                                                                                                           . .             = e OXqX.Xt.& 0 G ^.v.6.w 6 # # $ ~ ^.U & o             . . & e s . . O   X . . + o   % _ I 6 > 0 & . . . # A r O     . .         & z a.Q.h P Q.e 0 % . . .       X X X . . % 7 ^ K.dXqX*XxXcXmXmXmXAX*XrXaXmXcXeXCX;XvXbXrXaXaXXX^.7 =   o ; { q.) T s.x H % o ; : 2 b 7 i p p i & & 9 $ A a.q.6 > . . * . . o O O . @   X X     . . . . . . . . . # . d t . . # # O   X X X     . % 0 O   +   & C G.{.>Xg.r % O O   @   X             . .   . # 8 9 % : ] 8 # % t j K p i a p p m D K D p K D K #.e D #.e e a 1 e p p K j %.G Z ~ n r #.9 : $ N X.D m F G ^ ) A.G.g.J.l.^ -.9.j.Y.z.8.W.j.c.j.C r p.V q & O % I ;.7.1XY.U.) ) F.tXiXMXnXeXmXmXmXmXmXmXmXmXmXmXcXcXmXmXcX3Xr O   X X $ P 4X,XkXxXnXcXmXmXMXmXmXmXmX",
"T./ k e.{.BXeXxXnXrXMXyXt.! b C K.ZXeX*XtXF.r.4.$XZX&X{.=X3X4.3.O.p o . $ < @ ; o.0.i.L.r.2.U.e.i 9 / K.;.r...( j.}.h.h.c.G.-.( i.x 1.W e.4.r.8.i.C : o , # z ).,.I.G e O.+.} ..a.:.-.( 9 9 Q o.a & . . .     X                                                                                                                                                                                 X   . .     X   . O O b OX0X'. .& O b C.OX2.1 > . # & F ^.Y &               O O & & ] & % . @   # . X X   % o.x & ; > % . . . $ J q .               o & U n.p.g z B.& > . . . .       o X   . . . : g U h.5XkXvX,XkXeXcX*XeXMXpXrXcXeXnX;XxXnXbXrXuXF.( 6 o o = : F W.G.l.n.2.~ : O O 6 j B.e e F O.O.7 & t & 4 7.n.p ; % . . . O ; O . O o + o X X   . . . .   .   . . # & e s : : 6 & O       o     O % 8 O   o O 7 B E.lX;XH.Z 1 :     X   .         . . . . X . # 9 J u ; & 7 $ $ q B.I n D D A p M r F M C C n j ~ b r X.M H q m q M q n ! | z q.~ n H N 9 & 1 b A r D K F  .t.6.t.Y.k.U.2.8.-.g.9.-.A.r.G.}.P.G F N.x $ O ; & a.c.5X{.H.j.E.t.9..XpXiXeXvXmXmXmXmXmXmXmXmXcXcXcXmXmXmXcX3Xm % . X   7 >.>X;XxXxXnXcXmXmXVXmXmXmXmX",
"T.;.E w.{.NXNXcXcXcXmXtX8.} b Z 8XeXNX*X.X{.D.F.&X*X*XXXv.1X4X) V.C & % $ # O . e !.~.) k.J.9.V.p D 4.>.T.4.8.Y.D.}.h.h.2.t.U.n. .I h a. .1.8./ ~.k 1 ; O # g 5 1.5.w n | ..| 3.^ 0.I.W 7 m O.p.e # . . .                                                                                                                                                                                           . .     X   O . % H P.|.A.Z & . 7 ! Y.8.1 y # # : b ^.T &               . . : & ] 0 % .   . # . X X o % M.h & O % % . . # 1 J 7 .             o O 1 _ n.( B h B.1 6 . . . .       o     .   o @ % 7 G 3.D.lX%XZ.j.lX,XeXNXpXrXbX&XvXnXcXrX*XlXU.e.j M 1 $ % u F P.d.-.^ s.s.2 & % $ B Q.w C B V.u.h 1 > : 1 V a.H 1 e #     . > # # %   @   X     . . .       X X   . $ 6 u % % : %   X           . % > O     O 7 B T.$Xh.1X1.w : o + X O .         . .   X   . # 8 d 8 6 r 2 7 $ 1 A ` b M e e M r b w M n ` j H H b j b D b N K m K w n n } k ! n r { 7 1 e a 1 1 2 M D C r.g.SX2.2.t.g.-.0.n.9.d.2.r.6.6.Y.8.w F N.~ & . % 7 n.c.-X{.1XG.U.A.9.{.qXiXbXbXmXmXmXmXmXmXmXmXmXmXmXmXmXmXcX:XF : .   X q z.*XxXcXcXcXmXmXVXVXMXMXmXMX",
"f.9.3.4.@XqXrXcXxXcXrX&X1.} r G }.rX`.bX'.d.:X7X&XtXqX.X[.$X1Xg.A.W b $ & . % . 6 7 | r.9.d.6.u.D q -.z.2.8.G.}.5X1X<XE.L.6.OX9.p.n ! (.u.z.;.8.1.Q.X.7 % & $ 4 ' | j } .. .e.e./ 6.n.B r C q.} 7 # . . .                                                                                                                                                                                                       . # & X.a.I.p.r $ & 6 g y.n.q y & & % e n.1.&               . . : 0 d s # . . . # . X X + # B.g & o % % .   # y t $ .             o % q p.a.W ..k o.g 2 .                             : m E 8.H.#X4.W U.lX;X&XtX*XZX$X%X*XqXrXkX^ B Z E %.r 2 1 e | OXv.8.x ) W 1 # % 1 $.!.b C ^ Y.OX6.C : O : q o.o.g j 6 % . . 6 r 1 %   o       . .           X X   . 1 S 9 % : 0 > + X   .       . % : O .   . 7 ~ n.9.6.4X^.G : o o   O .       . . . X X   . # O o ; b $.w 2 t 1 < #.M b M M #.A H r C n M w H b n b r A n A r L r #.q K ~ H j r q N 6 & t N 9 9 X.F r G 2.F.z.-.t.j.A.-./ 2.g.k.L.L.8.g.G.i.B ~ ` w . O 6 H P.x.x.{.[.D.t.Z.6.{.qXaXNXcXmXmXmXmXmXmXmXmXmXmXmXmXmXcXcX:X} 6 . . . q T.*XcXcXcXmXmXMXVXVXMXMXmXmX",
">.b.u.1.:XeXeXBXeXvX*Xv.^ ~ q E 8X.XuX&Xc.8.d.f.7X{.*X&XJ.Z.D.1XF.9...A 1 . % % % 6 H V.9.h.SX4.D r i.hXG.c.G.h.f.'.8.8.Y.G.|.z.! r B V.i.6.9.9.) Q.C 4 1 7 . # j B.o...i.i.3.1.9.l.p.g C ~ p.~ 1 . . . .                                                                                                                                                                                                       # # 1 { } O.X.6 $ 9 6 q ) ~.r 9 & : O 9 2.a.6                 O & s 7 d 6 . O O . . X X + . B.g & o O O .   @ 0 & # .       @   @ O 1 M p.5.^ ~.B H o.3 . o X X                   @   % B 5.y.t.R.y.!  .$X].D.J.|.c.-.-..XBX;XH.Z.2.2.4.b # . $ C U.yXuXn.C C L % O . . r t * 9 4.1X-X+Xa.n % O : H p.I j e t & % 6 X.k & O . O . . . .     X X   o o O & e *.r % % & % X X   . .       O : O . . . 2 M.i.6.r.E./.p.p : o   O . . . . . .     X . . . . - > C q.g 5 a & : 9 S r M A n A w B n ` g X.n j C q K j N j 2 q &.1 K J r K b N e 6 & $ 1 e 8 6 *.n w p.G.>.9.T.r.l.gX9.) I.9.2XL.1.9.7.K.P.I H b < . O p p.OX7X_.ZX:X$XK.j.R |.uXwXeXNXmXmXmXmXmXmXmXmXmXmXmXmXmXcXcX:X+.7 # . . 2 T.&XcXBXmXmXMXMXMXVXVXMXmXmX",
"f.OXj.2.lXnXxXCXxXvX*Xh.W ~ q Q c.x.'.=XzX2.$X{.:X'.=X}.2.j.#X{.'.F.i.M.e : .   . % 2 ! I.9.7.I.q b i.f.8Xd.;.9.=XDXD.g.g.1X1Xj.O.r } e.-.z.6.z.a. ._ !.w $ > O $ H o.p.r.4. .( ;.^.p.w B Q.p.C $ . . .                     .                                                                                                                                                                       X           . # 7 D b F p : $ 7 8 i I p.k 7 & * o 6 U N.7 O .     X X     O % d 9 1 0 # O . . . X X + . #.g %   . O     . * . . O       o   @ . 2 ~ O.W -.^.} b B.3 . o X X   .       .     . . . # j W 3.g.<X#Xj.j.6Xd.2.P.6.9./.J.*XeX,XlXH.#X5X/.e ; . $ W 6XrXdXa.M 1 8 O , . > # & o # a.}._._.b.5.8 O ; 9 q._ w e N r 6 1 p._ 6 > . % O O O .   X X X     O & 7 b B.q 7 & % O   X . # .   o   O % . . . # 3 M.-.i.C. .-.I.G N : % % . . .             . .     - > C q.x $.7 # ; O a 7 D L r m q N L X.r #.b q r q J r r q r e J 6 9 9 9 s s t t 0 % 8 a r % & X.n g p.OXx.G.l.8.u.6.z.^ -.g.Y.3.W.:.D.Y.u.B n r 0 , O r 1.v.*X.X*X*X:XD.j.2.<XtXrXrXmXmXmXmXmXmXmXmXmXmXmXmXmXmXmXcX:Xa.q # . . 3 n.&XcXmXmXmXMXMXMXVXMXMXmXmX",
"x.}.j.;.F.kXcXeXvX>X=X6.! ~ w E SX].7X3XS.4.g.ZX'.DX'.9.r.U.|.>X>XF.9.a.B 1 . + O # 9 w ! I.h.L.p r g.9Xf.h.k.h.v.F.'.}.f.c.v.2.} M Q  .2.:.k.;.a.3.^ N.B.q .   % 1 F p.1.2.3. .6.4.n q ( Q.E q # . .                     . . .                                                                                                                                                                     X X   .     O # a r 1 i 9 9 $ 0 0 e n p._ 4 : o o % h N.r & .     X X     . # & S $ t # % . . . X X @ . N q .   . .     . O . . .     X o   . % g p.} Z g.T.a.w $.q # X X X           . . . . . . % O % n 0.5XuX0XdX4X^ ^ I.E V +X5X*X{.g.%X*XtX|.3.&   X 1 P.ZX.Xg.C 9 : > > . # 0 . . * 1 p.U.v.x.`.m.p = : 7 o.q.q e B ` N 4 2.a.p 0 6 0 & % . .   X X     O $ M I _ Z q o.A 0 * . . . . .       . * . . . # 4 o.^ I.e.Z T L.( G K 7 1 # . .   X X     . . . X   o % n p.5.Q.2 % . ; 8 6 a 6 0 & 6 # & % # & : % # 0 ; 0 e s 7 $ & # 0 # 0 & 8 # : 0 % 0 J e 6 K #.C k  .F._.7.8.u.r.P.2.1.t.k.U.w.C.8.7.b.g.E m 1 . + O O.K.-XrXeX*XeXZXg.8.j.4X-XNXBXmXMXmXMXMXmXmXmXmXMXmXmXmXmXmXmX>X~.q # . . 3 6.{.eXmXmXMXMXMXMXMXMXmXmXmX",
"{.=XH.d.g.,XAXcX>X@X|.-.E H q I |.bX&X#X-.S.g.=X.X-X6.g.4.t.=X>X;Xd.j.l.N.w %   % . # 6 q ( E.4.b r T. Xh.6.K.k.5X'.'.'.8XG.g.l.E C w Q.) l.t.y.( ) ) 1.p.q > - ; : M ! 1.l. .5.n.s.X.q ..^ n e # . @                     . . .                                                                                                                                                                     X   . .     O O s 7 & 9 e S $ y d 1 q M.~.g : o , # 4 %.n 7 . .     X     . % # ] a 6 0 % % . .   X @ % q 2 O       o @ X   O   . @ X X o   O $ C Q.+.W <X}./.g ~ e %                   . . . . .   o o 7 Z T.-X0XXX4.E ) a.o.h }.0X&XF.8.zXeX*Xc.V 8   X $ 2XrXyXJ.} D a : % & HXPX=.. # 1 w W k.v.uX9XC 8 a b a.p.r r k o.X.w :.^.H a S N 1 $ # O     X   o : r p.z./.j b o.C & . # # . . .       . % . . . $ 5 o.) /...! A.2X^ E p.w q 7 % . o X     . . . .   o O & q _ ).x 2 % O   O % O O . O O . . O . O   * @     O & # # % . % O O O O % . % # # 0 d $ e *.M w B i.K. XK.9./.8.-.L.r.t.G.8.C.i./.9.h.;.B a & O - % ..<XXXrX*XxXrXtXH.) 6.#XZXbXmXmXMXMXMXMXmXMXmXmXmXmXmXmXmXmXmX>X/.w # . # < / [.eXmXmXMXMXMXMXMXMXmXmXmX",
"-X7X{.7.g.:XbXcX>X[.h.l.~ F g  .7XeXvX[.H.Z.d.].uX.X<XK.t.<X*X*X:XzXZ.Y n.M.$ O O . . & & b 1.0.r b 6.b.E.t.2.9.=XtXtX>XF.9.U.^ p.B } p.U I.l.4. .W -.i.U ~ & = O O a %.e.^ E ! 4...q 6 W 5.Q 7 .                           .                                                                                                                                                                       X   . .     + . ] 6 : & j N & y ] 2 2 G a.h & o , % 1 b %.2 $ . . o o     . O & # d 0 s % . .   o   @ . 7 6 .                   . .   X   . . 2 E 5.! i.}.{.U.I r @.%     X             . .   X X X     # 1 n 4.+X1X! C 3.(.C / dXfX{.D.t.4X@X1XL.n & O X $ OXwXiXXX2Xa.H 6 & @.PXJXKX@.1 $ 8 M /.v.].Y.G 9 K C 1.I.B b Z M.G z d.hXQ m M b K < 1 : .       > & j ~. Xm.F e n o.t # t # .   .       . O O . . $ 3 ' / a...| <XF.L.e.Q.! W A & o   + . . @       X   . $ b o.).x 4 : o     .                             o   . . . . .         . O . . # # # # 6 w o.r q q.^.z.7.G.g.G.U.i.i.4.U.8.A.-./.^ i.K.z.C 6 % % O : V.6XqXpXrXeXCXeXzX2.9.#XtXrXpXVXmXmXmXMXVXVXmXmXmXVXmXVXrXmXcXvXE.g # . . 2 P <XvXmXmXmXmXMXMXmXVXMXMXMX",
"*XtX=Xg.h.:XeXqX7Xc.7.A.Q m k 0.tX].=Xc.g.D.1XDX`.uXJ.1.j.h.XXuX%Xj.4./.R 4.*.# .   . . O S q.5.p w T.F.t.4.1.R.=X].]..Xd.<Xr.i.^ ( g p.| 3.u.4.3.i.e.) s.E r & O O 6 M ..5.| ( ) ..7 $ o.p.C J .                                                                                                                                                                                                       . . .   o   s & % 1 C B . % t < $ b a.U : - , O % 7 ` Z $ . O .     o   . % # 6 & s : % .       @ . 6 :                     . .       O % r p.i.| r.=X].h.( q d O . . .             . .     X X     . O : 7 _ i.5.Z ! E h 2.oX0X=Xg.2.E.G.i.} e # .   < 2XrXaX0X=Xz.4.E j X.LX!.FXKXHXd = i 1.c._.K.3.b p C t.z.B j C Q.! ^ v.5X3.b C j ~ n $ : > O . O o 6 B n. XOXH 8 m A w 4 $ # @ X X       . * * . . $ 5 o.T 2.( 4.dXdXU.x 1.a.) O.s O     . O   X X     . . # 2 n 5.^ B 1 O +                                 X                       . O # & 7 0 % & h q.D p ( -./.G.:.h.9.8.4.V.E.t.E.2.U.P.W ^ z.0.p % O : . 1 e.$XpXCXNXeXmX&XR.4.6.8XtXrXpXpXMXmXmXmXVXVXMXmXmXmXmXmXmXmXcXvX2Xk %   . < B E.kXmXmXmXMXMXVXVXVXMXMXMX",
"uXvX7XD.D.:XeX*X7Xg.>.T.G r B n..XCX@X}.g.J.;.v.uXuXk.4.1.g.]..XD.-.C.w.<X6._ m O   . # . : H O.M C 7.d.OXt.3.C.>XqXoXuX'.K.1.( a.^ h 5.| Q.1.3.e.( e.3.U ..~ 2 . * % 1 G ......5.B 9 $ } ! n K .                                                                                                                                                                                                       . . .       > # O 6 ' h .   $ < & 7 a.4.: o O . % & C B.2 # . O     o   . % . # # y > % .       O . % %                 X   . .       . $ j N.2.1.t.ZX_.'.i.e : O . . .             . . . . .     X X o   o % b n.6.r 7 z T.oX0X8X8.) (.u.! b & . . . 2 E.;XaX0X.Xv.'.J.2.z H J J JXFXs o ; x v.v.|.W.C 9 H T.b.Z b I ~.w.j..X-XP.I E Z ! $.1 6 s # O O o 8 V z. Xn.M : ; & g ' t @             . * , . . $ 4 _ T 6.r.<X*XqX3X) ) I.i.W %.i : O . O   X X     . # # 1 q _ p.o.w O +     . . . . . . .     .     . . .                       . . . $ t s O $ I q.p i | 8.8.9.z.g.h.6.W 3.U.Z.8.t.E.8.5.V T.i.p ; % % $ j  .H.rXMXrXeXNXtXj.2.;.lXeXrXmXrXMXmXmXmXmXmXmXmXmXmXmXcXmXcXcX;X4XB % @ . $ k /.=XrXmXmXmXmXBXBXVXMXmXmX",
"rXvXkXF.k.:XtX*X{.d.f./.F 7 I +X*XbX:X7.#Xg.;.c.7Xv.8.w.1.R.{.>Xd.E.w. .k.Y.p.w %   . % . O 9 { D } d.5Xd.t.w.1.'.qXqXyXZXJ.4.| e.U N. .3.I ~.3.3.V.) 4.1.1.a.C # O O & M ~ ....M.j 6 9 ` g r J .                                                                                                                                                                                                         . .       % % . 6 M.h % . # $ % 1 i.L.9 O % # # # q B.N $ # O     o     . . # . > % O .     . . . . .                 X     .       # 2 G q.^ 8.D.bX].-XT.p : % . . .               . . . . .   X X X o , o % ) n.C r I E.=X-X8X;.^ (.p.M : O O . . 4 E.;XmXwXqX.XwXuXT.V.H 9 6 @.KXPX, u ^ |.{.8XSXQ 9 F b.v.Z G ) U.J.1XZX*X<X8.( ..W N.w 7 N $ # . - : V T.T.1.7 : > i B W J .   @     @   . > > O . # q q.z.}.J.>XrXpX@XK.1.8.L.W E n $ % % . + X X   . . . % 1 e X.N.p.G ; o   @ . . . . . . . .   . . . . . .                         . . # 7 0 O $ ..( 1 6 | u.4.8.U.8.D.t.( 3.S.j.8.k.g.y. .! n.s.a = = & j O.( j.*XpXeXeXrXZXj.1.d.7XqXrXmXmXmXmXmXmXmXcXmXmXmXcXmXrXBXrXcX;X1XI % + . $ j /.@XrXmXmXpXpXmXBXBXmXmXmX",
"rXeX=Xh.g.$XtX*Xc.h.v.gXF 7 / 1XZX{.[.g.G.t.A.2X1XG.1.( L.y.{.7X6XU.( y.6.Y. .G 1 % $ # O O % : : Q 8X_.v.Y.r.E.c.].pXqX'.4X( p...h ) ^  .e.V.3.u.4.L.) 0.1.1.I 2 . O : p ` o.W o.K $ 1 X.w j K .                                                                                                                                                                                                             .   O % %   : $.k # . . . . $ 5.V.m ; & 1 $ $ 6 K #.e & % O         . . % . . . O . . . . . . .                       . .     . % r M. ./ k.:XtX*X:XU.C 6 % .   .                 X X   . .   X X + X   % 1 ~ a.2.W w.{.-XOX:.R ^.W e o o   . # 4 E.eXMXaXMXwXiXqXk.p.F p e 6 a u : i g.-X=X:X4X! 8 e h._.n +.j.@X:X:XvX*X&X}.( 3.) ~.g j q N : O o : U 2XP.I 6 : : { ! o.K & %       . . O > > .   . q ..Y.ZX>X;XmXAX.X:XZ.t.8.1.I E r & O   @   X   . .   . % 7 ~ q.e.E % X   .                                                         . # & & % & O.I & : E ) a.P.) z.U.j.3.w.U.Z.D.c.b.2. .W )...8 o = & V a.E r..XpXeX*X*X{.t./  X-XuXrXrXmXmXmXcXrXrXrXcXmXmXrXmXeXBXrXcX;X$X( & @ . $ w /.&XrXmXMXmXmXBXCXBXmXmXmX",
"rXqX$Xg.9.$XdX.Xd.F.|.hXM e -.5X-X>Xc.#Xg.g.-.z.2X2X-.4.w.1.6X{.F.g.W.U Z.U.! F H r # . % % o O i G 4X_.c.4XSXJ.F.*XNXXXv.g.1.3.E V U 4.1.4.( V.3.3.1.i.4./ u.P 4 # O O & M o.^ Z H 1 6 L n o.D .                                                                                                                                                                                                       X X   . . % & >   % K j # .   X   $ W V.H : $ 2 q 1 : 8 { m 6 % % .         . . . . . @   . . # . %                         . .     O $ j M.( 4.}.ZXqXeX@XA.| e # .       .           X X X   . . . .   @   @ O O 7 s.P. .( k.4XE.-.R ~.k 1 + X   . . w 4XrXmXaXMXpXpXXXk.)  .a.E G b p q V }.=X$XJ.U.e.i r b. XB p.[.eX;X;XeX;XqX7X1. .t.~.k M 4 $.9 O o 6 6.2X0.n 8 : p H B o.g 4 6 O     . . . % *   + % q W K.tXnXVXMXaXcXZX@X1Xg.-. .o.X.1 . O           .     O & G 5.5.C O   @ .                                                         O # & & & 7 $.B 9 i } 1.-.u.8.u.L.r.3. .S.<Xh.G.Y./  .h N.C % o = 6 ^ i.Q 3.{.wXqXtXXX|.1.P |.XXrXrXeXmXNXmXmXcXrXcXmXmXcXcXcXcXmXcXcXeX=X4.& @ . $ w /.=XpXMXMXaXmXmXBXmXmXmXmX",
"wXqX6Xk.d.:XtX_.g.4XoX4XD e 2.-X*XvX.Xx.D.6.7.Y.K.d.2.y.W S.DX.Xx.d.8.S.J.4.+.p M.E $ . # .   = i (.k.5X>.F.h.{.].rX&X$XJ.;.k.r.O.w a.R I.i.I 3.1.l.2.2.r.I./ a.j 1 % O % 7 I ..E b 7 e q A B.r #                                                                                                                                                                                                   .   X X   . . % & > o o a q $ . X X X & B V.X.e < 2 L 4 ; = N K a & % .   X X     . . . . @   . . & # *   X                       .   . O $ H p.E u.$XyXeX*X#Xt.i.G % @ X X   .         X X X     . . # # # . o @   > % b p.L.4.( L.(.U Y Q.r # . X   . . b 6XcXvX@X;X*XrX*X}.h.ZX{.F.<X4XG.>.f.-X:XU.w.w.~.G B T.h.! C.@XcXeXeX;XeXpXuXk.( g.^.! C C ` i ; o e m.9XE 7 p p M G G p.T ^ < . .   . . . # O     O e ( 6XrXmXVXVXrXxXkX{.tX:Xd.W H J % # % . . .   X X X X @ & G a.| r O   . .                                       . . . .           . . & 6 $ a $.w 9 9 o.e./ 8.I.( 1.4.4.-.g.k.F.c.g.0.V V _ 4 % o = i a.T.Q ..].qX*XtX*X5X( P '.0XrXmXcXcXmXNXmXcXcXcXcXmXrXcXcXcXcXcXcXeX-Xu.&   # < q I.-XpXaXaXaXmXmXmXMXMXmXmX",
"qXeX6Xh.g.6X:Xf.h.8X.X+XD e 2.7XtXrXbX*Xc.g.|.5XG.;.A.T ) gX=X.Xx.G.g.j.j.W.X.p ) _ n $ # %   O & n P.f.f.F.[.ZXuXvX'.4X9.g.6.L.C C 4.P.t.) e.( L.S.r.-.4.u.4.5.o.N # % 8 1 w _ ~ B 7 7 w C G q #                                                                                                                                                                                                       X X   . . # # > o   % 6 $ . X X X # q M.N.G < 4 $.w ; o & K K 1 # O   o . . .   @ % . . . . . > % *                     X X       . # < B.O.C a.$XqX=XD.J.-.j.5.7   X X   .                     . # # # . @   @ . . & b (.e.g ..Q.h h B.e # . .     . M 5XcXkXH.H.H.:X$X}.=XXXAX&XtX*XXX|.5X.X{.4.V V i.} B T.>.8.A.#X7X@X@X[.=XtX[.gX) g.E.Q.B M.w i ; o e m. Xn 6 H } | Q.Q.v :.).q # .   . . . . .   + . 6 E 1XqXpXVXpXAX&X;XbX*XyX].:...M 9 6 # # . . .           % V s.G 1 =   . # .                       . .         . . . . .     o o     O : t 2 N #.1 8 : F P 2.l.1.V.u.l.u.^ 8.J.|.c.P.1.( W X.q > - O 7 i.E.Q ..=XyXtXtX.X{.i.3. XdXrXmXCXcXmXmXmXcXrXeXeXxX;XxXeXCXrXNXrXcXeXA.1   . 1 2 Q.7XMXMXMXMXMXVXVXMXmXmXmX",
"rXbX8Xd.c.1XK.8.R.|.uXK.b 7 4.:X>XcXqXeX'.{..X.X=X:.L.) B 4.7X].1X6.9.g.S.i.O.n q.s.U 4 : . @   . 1 U OXv.{.@XkXH.F.=Xf.8Xh.d.W.r m 4.z.-.1.! V.4.r.) 4.8.n.( p.s._ 7 % 8 $ $ #.` ~ #.q 5 ~ X.e .                                                                                                                                                                                                               . . .       . . O . . .     ; m a.2.7 1 U o.: o O 6 K j $ . O O # % o @ O % $ $ . . . O @     O . .           X X X X X X . $ b $.H m E J. X) ) r.g.'.U.r O o o   .                       . . .           . . # b L e b Q.h C &.& O . O @ . 1 B }.rXqX>X6.2.3.W.K.@XeXuX;X;XqX*X8X7.<.9Xc.>.d.U.F m E._.=X XY.i.) ) n.T V ! L.Y.7X$X/.B N.4 # @   1 n.h.k p M.Q.~.^.8.;.v.^.r .     . . .   X X   . % n 5XMXcXrXwXpXvXeXeXrXmXpX*X|.~.~ 7 t q $ .       . . . $ z Q.N ; o X . . # .   @ @   . .   X     . .         O O . . @     O o     O 6 r 3 K s : ; : j I 1.I.L.-.g.E.( W 8.K.].F.3.C _ g ` 1     8 w 4.U.W i.8X.X{.{.*X&X4.I.2X{.tXCXqXVXmXrXmXeXeX&X:X{.:XkXbXeXBXrXmXcXwX4X6   . # & X.1XpXMXVXMXmXmXmXMXMXmXmX",
"mXeX8X>.d.OXy.4.R.}.oXx.r 7 r.:XvXcXCXeX*X.XyXqX:Xd.u.E } a.5XoX6.D.3X|.8.4.O.M 5.2.n.V $ ; O @ X # h ~.F.'.F.:XD.t.lX8X:.c.4X^ q H a.6.) 3. .3.W.w.4.P.2.4.W ( 1.a.q 9 & & : 7 n B q 4 c M.X.1 O                                                                                                                                                                                                                                 . . .     + 9 I.d.j 7 B !.9 O . # p ` j e % O : & o   % 0 t S & % . . +     . . .     .   X X X o   X X . < A H r M ..g.c.x ( U.[.-X1XG : - +   .                                           . & 1 # 7 M.I w s % . . . + . 7 ! 4XyXrXuXD.u.+.3.j.].qXeX;XkXcXeX{.7.>..X-XoX|.2X{ p k.qX.X1X1.w w w B.k b H V / F.}. .B Q.g : o + 7 n.z.n r ~ ..) ^ 8.}.h.U.H #     . . .   X X X @ . w  XiXcXbX0XqX*XvXcXCXmXrXMX*XE.( 7 9 J 2 .       . . . $ g $.9 O X X * . . .             o X X   . .   o   o O . .         . o     . % 2 5 #.0 > O & B.V ^ r.a.8.6.Y.i.W r.c.f.1X..G E k 4 # X O 1 o./ A.^ 1.<X|.@X.XqX.X^ z 4.4X>XrXMXMXBXrXmXrXbX;X@Xk.F.:XvXeXmXpXmXpXiX4X6 o . # # H OXpXVXVXVXmXmXaXMXMXmXmX",
"VXqX7X>.d.OXr.j.3X$XoXd.r p y.:X>XeXNXqX&X.XyXqXx.:.W. .Z a.8Xf.g.E.3XF.;.^.G r ! 5.2.5.q # > . * . 7 M.J.$XH.3X6X[.}.d.9.7.j.^.n p.I.6.p.| r.u.....L.l.-.2.r.i.) p.~ r : O . 0 2 n e 4 I O.X.& O                                                                                                                                                                                                                               .     X X X o 1 n.z.E q e %.~ 4 6 # # a q.o.e % O = ,   O # t @.6 $ $ # .       .       . .       O .     . 3 ` E k e.W.h.2XY 1.3X>XuX5XO.: o   . .                                             . . . & G o.1 : O   . . o O 7 p.Y.-XrXqX6Xj. .) h.{.eXeX;XxXmXmXBXqXXXuXqX-X$XW.} G :XtXU.W g 7 $ 6 $ 7 @.M B Y t./.+.M N.w . X   2 0.9.b 9 p r j Z C.SX7.U.o.$ .   . . .   X X     O w  XwXeXeXZX{.c.{.&XbXxXeXeX>XOXU 7 6 t & . .         . # 1 e % O   . . . . @ @       o o     o             O O O O O O o           . O # j #.6 : ; % K V U r.l.l.6.t.3.I t.D. Xk.V.Q o.w 2 #   . A W 4.T.3.P k.|.H.@XqX.X8.V W A.=XqXCXcXNXcXmXrXnX>XF.>.g.@XtXrXrXmXrXpXpX4Xe o # # . M OXrXMXVXVXmXmXmXMXmXmXmX",
"VXrX7Xd.g.J.g.#X:X:X9X>.r M j.kX*XeXqXeX].&X*XXX=XY./.! G  .c.f.j.K.6Xx.F.t.} M ..V -.).~ e % O . . # b 3.U.G.k.{.=XJ.8.k.8.t.L.h N.-.u. .e.2.G. .a.) 2.-.E.2.4.Q.E 5.B 6 = % . & S J w _ _ D : .                                                                                                                                                                                                                               O . X X X X o 1 -.T.e.w 9 m N.x q #   . q.).o.1 % = +   O # 1 t a q q 1 . o . .     X X   .     . # . . . . 4 o.I W E.<XJ.hX-.6.=XeXwX|.V.6 O   . .                                               . O % 7 A $ % o   . .   O 2 !.g.{.qXqX=X9./ 8.'.qXNXrXeXcXmXpXVXVXCXtXqXqX:XE.y.j.eX.XgXB q &.@.s > O # 7 X.p.U i.B.r s.c . @ O q g.h.! F } Q E i.E.zXv.4X5.2 .   . . .   X X     % w +XuX*X;X=Xh.9.#X*XtX&X[.[.3X1X/ n D & % # . .   X X . . O O % % . . . . . . O . .       . . O . @ . O % . . O . O . O .   o     o O . . r J 7 : > : e k  .I.2.j.E.T.3.V 4.Y.k.j.3.} H 1 $ # . 6 %.W 2.u.V.z t.K.Z.[.*X*X}.P.! ) =XqXrXcXcXcXmXrXrX>Xc.:.9.{.>XrXrXMXrXrXrX<Xp O . # O b Y.rXMXVXVXmXmXmXMXmXmXmX",
"MXrX:Xc.d.g.k.kX;X>XOX/ w F j.>XeXcXrXNX.X>XuXqX$Xg.r.! +.e.Y.1Xt.Y.7.v.8XU.p.b Q z R I.q.b & > . @ O : m p.S.c.{.v.g.U.2.t.8.-.h N. .3.4.9.d.h.g.8.1.) t.t. .e.E N.) W 7 O o o O y e r ^ N.e ; .                                                                                                                                                                                                                               & % X X X o O $ B n.^.Z : 6 ~.6.4 : o - e M.q.I 7 %     @ @ . $ J N L t # O . .   X X X   . . . . # . . O # r o.W 8.:X{.3XG.9.c.*XpXiX.X~.q % o . .                                                 + o $ 1 % .     @ . . . < M.-.[.yXrX.Xc.d.F.*XyXmXrXeXcXmXpXcXxX;X;XnXcXeX*Xv.bXMXMX X^ C FXPXLX=.y ] . # N Z p.$.h n.v 1 O O q b.XXH.K.8X|.F.$X,X;XNX7X0.b .   . . .       + . % q G.uX&XkX{.7.2.E.qXqX].c.j.y.1X7.P B.i 8 % . .   X X   . o o u u 6 & # * & $ 2 t a & . # $ 2 $ 1 & # 7 1 d 0 % O % % # .   o o   . O @ O # e 7 i ; 8 #.w I n.4.y.P.I.p.! 8.k.t.P.4.Z e 6 # % % 1 I a.U w.(.z 3.j.k.}.*XtX'.hX( I 8XyXeXcXcXmXmXrXeX>X'.7.h.=XeXcXrXVXrXrXrX}.M O # # O r T.qXMXVXBXmXmXmXMXMXMXMX",
"MXNX=Xc.;.g.'.>X;X>XOXU w ! Z.tXcXrXCXrX>X&XyX*XF.8.u. .Q ! j.;.g.K.F.h.x.J.( C } ! Y z.a.Z e % .     O % p 1.K.5Xc.6.8.r.8.y.i.V Q... .0.8.h.F.9.2.I.4.2.-.i.p.! ( i.q.j & - o o ; 6 4 ^ M.6 O                                                                                                                                                                                                                               . 1 0 @     . O 6 q  .gX4.: 9 2.T.V e % % & C n.n.h 7 & O     . # a r L p # . . .   X X X   . . . . . . . . # C ..3.U.>X.X4X-.d.5XyXaXaXXXT.g & O . .                                             X X X + % # O   X X . . . . < o.^ R.vXrXqXtX=X=XuXrXrXrXeXcXMXMXmXnXkXkXbXeXqXqXVXaXiXiXqXOXp.~ jXLX=.@.PX=.d < n M.B _ n.P q . O q  XrXeXeXsXwXrXqXrXrXVXvXU.g #     . .       X . O q z.-X'.$X3X9.t.J.0X0X].g.I.1.4Xh.v (...p % O . . X X       O s u 6 % & 6 6 1 q S S 0 # # q N 2 t y 0 S e S s 0 > 0 6 & O o o o   . O   o O $ 7 7 % 8 N j B 5.u.l./ 1.p.E r.j.L.i.a.C p : . & # < W 2.^ i.(.B ( w.G.$X*XyX-X}. .Z F.&XrXrXcXmXmXNXeXvX=XF.#XkXvXcXmXMXrXrXpX1XQ & # # O q U.qXmXVXBXmXmXmXMXMXMXmX",
"VXcX7Xd.R G.=XeXeXdXE.I k p.J.tXrXrXBXqX*X.XuXXXh.U.i.Z } E 2.h.8Xh.4X,. X}.1.k O.E 0.9.i.Q.H 7 . X . O - : ( hXF.h.z.2.l.y./.( U ~.^ e.^ t.;.U.8.a.e.L.T z.4.1.e.U 5.E M.A o + o = 6 2 _ W 7 O                                                                                                                                                                                                                               . 1 S 0 . # % O 9 7 Z Y.z.b e x n.n./ U n 9 q T.9Xd.U j e % O O . & 1 S a # % . O   X X X   . . .         . & ~ 5. .S.{.=XG.^ t.:XNXpXiXXXP.B & O . .                                             X X X + O % O   X X   . . . < C  .Z.>XqXpXNXbX*XrXrXrXrXcXcXmXMXrXcXlX%XZX;XeXrXNXrXMXwXiXXXJ.W q @.HX&.jXKXjX4 2 b 2 X.N.h 1 % O b |.aXcXeXaXwXrXrXcXcXrXbX4XV #       .         . O r 0.{.h.[.R.j.$X-XsX0X'.R W.i.4X7.:.E.E...6 O . . X X   . . : e & % . & % . O % 6 ; . . O % % % O O ; % # 6 & # % % # # .   o     . . . . % # 7 7 : : 6 M o.! ) n.8.4.o.n 4.k.4.i.1.~ 6 O   O $ r a./  .3.I.I C | <X-XeXuXZX}.i.E g.[.yXrXcXmXpXCXeXvX=X[.:X>XvXrXMXpXpXmXBX5X..6 # . . 7 T.*XmXVXBXmXmXmXMXMXmXmX",
"mXeXZX>.v 4XtXeXrXtXT.V B V.$XvXeXpXrXNX.X>XqX-X<X2.1.3.e.C ) t.x.5X9.<Xv.}.l.( G B 1.9.2.3.Q.M # .     + ; G I.G.h.;.t.P.2. .( z a.~.T l.8.a. .) 1.V.4.A.;.2.P.T 8.5...( C u o o > O 7 ^ ' 9 O                                                                                                                                                                                                                               . < L r $ $ % O u a G b.OX5.w z 2.5X]. X/.p e 9._.+Xh.i.o.7 % : : & $ J a # % . .     X X   . .     X X   O 6 q.4.( w.H.6XD.t.H.>XNXwXrXoXm.I & O . .                                               X X + . O   X X X   . . . 1 g p.y.=XXXMX0XrXqXNXpXmXNXcXeXrXmXBX>XA.r.1X>X>X*X*XnXeXmXiXrX$X/.p.M jXa @.jXFXjXe 1 q o.(.k & O O r F.wXeXeXMXaXqXbX;XCXBXcX@X4.$       . .       . O q / c.7.#X4XJ.dXoX0X0X1XY r.I.A.Y d.[.=XA.e % # .   X   . 1 t 9 & O . : . O O % . O O > f 0 # 0 % % y # & # # # & & # # % .     . O O O O . : 6 S : & #.M b k I ~.P.^ n } L.9.2.0.~.E 6 O   O 1 w U a.! q.n.W b Q <XeXqXqXqX=XI.E y.$XeXqXmXmXrXMXqXeX{.F.@X@XeXqXMXrXmXBXmX=X5.7 # . . 7 I.=XcXVXBXmXaXaXmXmXmXmX",
"mXCX=X>.;.3XbXpXrX&Xn.V z 4.[.uXqXrXNXrX.XtXXX-Xg./ i. .V.V.I.-.f.'.k.9.|.|.g.P.E B ) 4.) i.~.Z 1 .   +   O 7 C ^.h.9.j.8.z.( e.z e.^ l.g.I.! Q | 1. .) 2.t.I.-.9.6.W ! I E a O o o O 1 _ ' 1 O                                                                                                                                                                                                                               . 1 b $.w $ # O : K ..1XoXE.) z ) v.dX:X4X} M C W.G.'. XT._ r 9 & 8 8 7 &.0 & # . .   X X         X X o . ; b T.K. .W t.D.g.H.6X>XrXrX*X5XT.W & . . .                                             .       . .   X X X   . . . $ m | r.[.yXMXiXrXCXrXrXrXrXcXcXcXcX7Xt.C C m.5Xv.8XtXeXrXmXeXbX[.}.<XG.I M q jXFXKX& a b p.~.P & = O q 4XeXnXkXrXeX=X:X,XkXcXnX&Xj.1   @     .       O O 1 1.4X:X#X}.lX-X-XoX8XK.k.U W./.:.'.*XbX$X} 1 & % X @   . < J a % % > # & $ 9 &.9 6 $ e @.7 e a 7 a p 1 @.& % # d 0 # d # & % O O O % & 0 * . # J s 6 ` G p q I a.2. .M j i.6.t.n.5.j $ ; o - D E W a.C ..n.1.b p.H.XX*XbXrX.X) ( A.3XqXwXmXmXpXmXeXeX=Xx.v.7XbXrXMXaXmXmXmX7XV.4 # O   6 -.7XrXVXBXmXaXaXMXMXmXmX",
"mXbX5Xc.J.8XqXmXmX&XL.V z 4.'.AXrXpXrXeX.XtX*X>Xk.2.1.u. .| ) 8.:X=X4X2.6X8Xd.;.L.| e.i.8.8.P.5.4 # . O % % $ 2  .;.h.h.P./ (.E O.! ^ I.,.2.G o.W ^.W 1.) 1.3.i.;.E.5.Z ~.E q 9 ; = O & ~ _ $ O                                                                                                                                                                                                                               . # r B.c < % ; : X.) >.-X|.+X) ) }.*X=X$XP.C...! <X-XuX-Xz.5.G 7 8 9 & a 0 . # & .   X X         X X   O 6 G +X|.l.3.A.SX3X:X:X;XnX*Xx.h.gX..& @ . .                                             . .     .       X X     . . & m Q r.[.qXpXaXaXrXqXrXeXeXcXcXrXeX'.-.w n 8.d.-.k.:XeXrXmXeXxX&X;XNX-XT.W z g k A q D C a.T.P 6 o O q OXeXnXxXeXqX-X>XvXxXnXnX;Xk.7 . + o . O       . O 1 ) OX}.F.d.'..X].9.z.l.2.-.W.W.2.&XqXrX-Xu.B & %     . # 1 S 0 O 0 d 7 t q r S 6 7 2 A K 7 7 r 2 ` w r a . > 6 ] & % ; % % # # . O . $ 0 . . # 0 8 1 B M.K 7 k  .I.5.b n ) Y.;.I.! j 1 O o = H W W | j o.n./ b Q D._.uXqXMX.X1.W l.6XXXmXrXrXpXmXrXeX>Xc.F.kXbXrXmXpXmXcXcX>XP.5 $ O   $ ) 6XeXBXBXmXmXMXMXMXmXmX",
"BXvX$Xh.8X=XqXmXrX>XW.B V E.=X*XNXrXqXeX.XeXXX-XG.4.8.L.e.I ( L.oX>Xk.Y.6X{.v.c.4.L.i.a.i.2.:.I.I q . O # $ . & w ~.6.d.u.a.( E } b p.^ x.9.H F ~./ ~.I i.e.E  .l.g.) a.I q.!.4 % o o % ~ o.6 O                                                                                                                                                                                                                                 O $ q.T r % % i a.9.>.tX.X7Xz.8.c..XZXvX,X$XH.8.d..XaXsX5XT.i.n 7 a 9 9 : O . # . .           X X X . % 7 3.7XuXG.) 8.J.[.{.&X;XeX>Xg.;.z.q.& @ . .       .                                     . . . .                 . . % a | r.[.uXpXaXMXrXeXcXrXrXcXcXeXeX.Xf.U ( 1.P z 1.$XeXmXmXeXcXeXmXrX*XDXD.5X7./ W U 5.E a.^.P 9 ; O q E.xXBXBXMXMXwXwXrXcXcXcX;Xk.q O +   . O       . . & ( E.#X[.7.x.XXv.I Q ..1.c.}.A.8.$X&X*X*XF.4.1 % .   . . $ 6 O o d a e N b N a 2 2 3 ` B 2 r q j $.w L 7 O O 0 ] # . O % & $ & % . . 6 a . . # % : 7 z N.p e C I 1.( M M L.k.E.i.z b 7 % o > F z W Q.F G ~.-.C | K.'.bXqXpX.X1.! A.5X*XrXrXrXpXmXrXeX>Xc.v.>XrXrXmXpXpXrXcX>XE.g 1 O   & W 6XeXBXcXNXMXMXMXMXmXmX",
"eXvX}.>.|.*XrXNXrX>X^.z P gX6X.XcXrXeXtX*X*X.X-XZ.4.t.L.I.^ 3.P.7X'.D.4X'.*Xf.6Xt. .) 4.w.i.9.2.a.~ 7 # # # O % 9 } z.d.1.p. .Z w n p.1.z.I.M 7 | i.P e.a. .a.W u.T 4.3...! ^ (.9 ; = % A ` & .                                                                                                                                                                                                                                 o % U ).A i 6 F E.$X{.uXuX.X5XF.{.{.tXtXrXeX;X&Xv.*XpXqX}.U./.Q.r e p @.% * . . . .         X X X # . : q i.uXwXOX2.;.9.d.x._.{.;X>X3Xt.6.| 6   . . X X   .                                     . . . . o               . . O e p.8.F.bXMXaXMXCXcXnXcXrXcXrXeXeXqX7Xb.P.0.x V w.:XrXmXmXeXcXrXmXCXNX*X].yX5XP./.P.T.) L.^.h 6 O . 2 l.&XxXcXVXMXiXiXmXmXmXcXxXR.j .     . O         . & E E.3X@X'.'.7XF.Z M ..P.1X{.c.g.$X&X*X*X].T.F % % . . . . .   O s q 2 q L L t 7 2 4 ` n q S q ` A w b 6 O   y : % O . % 6 & % % O . 9 S % O : : 0 e I p.p i X.! V E X.F ( A.z.a.%.q 1 & O 9 Q W  ...n o.I.6.Z a.K.'.tXqX0X7X .W j.}.tXqXrXcXpXmXrXeX>Xc.c.>XrXrXMXaXmXmXcXkX4Xh $ . o # I 4XeXBXcXNXMXMXMXmXmXmX",
"&XvXH.>.-XyXcXeXbX@XL.V v j.{.bXcXrXeXbX*X*XXXtXk.4.2.z.L.^ W y.$X&Xg.F.*X.XdXF.U.i.r.) /.l.b.k.i...M 7 $ . . . % D L.g.4.! V.W Z B  .V.) U C r q ~ I 1.( e.) P.L.u.8.2.3.! ) I b & O % N J % .                                                                                                                                                                                                                                 o : x n.W H H ! E.lXvX*XAX.XtX{.5X:X*XyXrXqXqXbX[.#XJ.<XE.i.| G ! h j X.8 O . * . .     .   X X . . . & w L.-X0X}.9.9.d.9.g.x._.eX>XSXU.k.1.&   . . X X   .                                     . .     o         .   . . . . 9 ~.g.v.yXmXiXmXmXcXnXcXrXrXrXeXcXqXNXuXuX'.>.g.}.rXaXpXmXeXxX&XeXqXmXcXZXtXD.E Q /.k.-.I.(.g 6 . . 2 i.=XkXxXmXMXqXwXrXpXcXcXcX4XB #     . O   X   @   & B U.$X&X'. X1X2.C F w.zX7X&X'.v.*XtX:X{.].OXO.& : . .       + O a 1 $ 1 S 7 1 $ 7 N K 7 a S 1 J < 7 $ # *   > . % O * > % . O O O O & 0 . % y d % 7 ^ 5.K e b C k ~ K C ! 4.2.~.j $ & & & X.M.W U q.B E 0.:.k V.G.v.&XeXqX5Xw.Z ;.|.=X*XrXcXpXBXrXeX>Xv.v.>XrXpXMXMXmXNXcXvX3Xx $   o # V <X;XmXcXcXMXMXMXmXmXmX",
"kXkXD.f.uXwXcXxXvX[.i.I Y g.{.vXrXrXeX*X].XXXXdXZ.1.9.g.U.T P l.$Xv.h.v.qXAX>X#Xj.1.r.L.) -.9.6.8.1.E r # .     : 6 ! ~.( a.a.h ..! E  .( B ..o.e r ~.-.3.( 2.l.) w.2.T.1.W ..M.n 1 O O 9 s % *               @                                                                                                                                                                                                                 o O h 9.0.^ 5.e.t.$XeX*XbX>XqX-X|.}..XtXqXuX.X}.J.r.^ W ) U E ( L.2.W w 6 O   @         . . X X . .   ; j ^.8X-XDX1X4XE.P.A.}.ZXeXvXH.;.h.s.$ o .   X X   .                                             o o o     . . . O .   8 ^.{..XrXpXMXVXrXcXNXcXrXmXcXeXbXeXmXrXwXuX.X=X>XrXaXmXmXeXnX;XeXNXcXrXXX&Xk.Q E E.6.6.E.(.k a * . q i.zXkXkXcXrXqXuXwXrXrXcXrX1XI $ .   . O   X   X   & k U.:X*Xx. XY.U Z 3.Z.:X>XeX*XXXqXtX[.g.'.|.p.7 : . .   X X   . & # . % 0 # & # & 0 0 $ 9 & # & # % . O .   * O O % O > O . . . O O O O . . 6 9 . 1 ^ ^ K N q 4 q K b g ..V.u.U 2 % # 9 M o.} ( -.s.k I 0.;.B p.<Xh.&XZX>XD./.W / 4XF.].eXrXpXMXrXrXtXF.v.tXcXaXMXMXmXmXcXxX5XY $ X   # B <X;XcXcXcXMXMXMXmXmXmX",
"ZXkXg.h.0X0XcXbXkX$Xr.I / G.5X.XeXrX*X&X].*XXX>XY.8.G.9.gX2.U u.#XkXc.>XrX0X{.D.t.L.8.P.4.z.;.9.9.r. .k #   X @ % : p C e.~.W z W p.g Q E p.1.p.H r a.n. .| r.1.V.! /.-.6.a.G H ~ g : O % : O                 @                                                                                                                                                                                                                 - % V m.+Xd.6.L. .Z.xX*X{.&X*X>XY.;.f.|.-X5XW.Z E  .| 1.d.f.h.G.+X+Xn.g & O X X         . .   X . . o ; b (.2XF.1XF.G.z. .( 8.{.qXbXD.R d.n.1   .   X X   .                                             o + o     . . . O .   : T.*XuXrXaXMXVXcXcXBXmXpXmXmXeXxXxXkXkXeXpXmXeX>X>XxXmXVXrXBXrXmXcX*XeXqXyX&Xt.4.zX6.v.4Xn.h e . . 2 1.#X%X%X;XXXuXuXsXmXCXCXNX8XW 1 .   O O   X X X   & k E.5X-X_.OXgX/ -.<XZX*XrXrXpXrXqXqXF.7.F.<X4.C 7 . . .   X O . . O   o   . % . O . . O % . O . + + O O . . @ . O O . *   + + o O O .   O . 1 1 % 7 V ^ M K K r 7 K A n Z p.i._ e . d & j Q.p.W Y n.V W 0.l.B Q.4Xv.[.6X$Xg.E. .^ U.'.].eXcXpXMXrXcXtXF.v.tXrXpXMXmXmXmXcXxX=X/ < @   % k E.>XcXcXcXMXMXMXMXMXmX",
";X,Xt.h.0XpXnXeXvX$X1.W ) 9.:XvXrXcXeX;X.XvXqX>X<XA.G.h.K.E.U 4.H.:X:X'.NXqX{.7.-.y.I.) 8.6.P.l.t.z.i.E 7 O o   O : ; D ( -.N.B ! ..F G I / ;./ M j U i. .1.4.C.! ..) y.z.4.} %.~ g : . O * . .             . @                                                                                                                                                                                                                 o 6 -. XoX-Xf.D.y.Z.kX'.c.[.tX.Xk.P u.E.h.;.p.g n p.~.P.=XuXdX7XoX].4Xa.2 O o +   X X   . .     . . o O r V.A.d.d.>.d.g.e. .r.6XeX*X7Xv.v.g.q O . . X X                                                 o +       O . . O .   & L.{.qXpXMXrXcXCXmXBXcXrXrXeX&X@XkX%XlX;XrXiXXXtX;XeXmXmXqXrXqXrXeX;XeXvX.XtX=X6XR.-.'.+X7.h a . # 4 ) H.H.[.;X*X{.].XXqXcXcXeX$X_ 1 O   O O   X X X   % w ~.}.v.1Xb.E.-.;.6XZX.XrXrXaXmXwXyX:XF.'.8X .O.m & % .   o . # . @ X X     . . . .   @ . % . @ X X   . O   @   , . . .   X o   . O @ @ @ O s e 6 6 5 o.k b %.X.p r H C C 5.e._ 1 % . 8 ! ~.W E / ^.V U >.z.g Q.K.'.c.#X3XD.9.1.I 4.lX.XrXmXmXMXrXrX>Xv.x.;XrXpXMXmXmXmXcXxX=X6.< *   # g T.>XcXcXmXMXMXVXVXVXMX",
"rX>X8.8.*XMXnXeXrX7X| C ) 6.kXnXqXCXeXvXeXvX*X{.D.k.9.4X3XOX9.t.#XzXt.3XtXXX=Xg.k.r.3.w.-.-.W.1.2.L.4.Q.o.7 O   O . O i q.~.j j ! p.p M L.d.h.0.j M _ x i.P.j.L.3.a.I.r.^ i./ p.E q % o o O . O .           O @ O . .               .         X                                                                                                                                                                               . # r 9.oX-X.X'.,XkXzX@X1Xt.6.XXXXG.V.} q W h / s._ W ^.h._.AXuX].ZX*X:Xz.Q & - X X X X X . .     . . @ O e Q.t.>.<.-Xv. X}.c.y.Z.kX;XnX*X.Xh.k a $ #     @                                                       . . . .       & Z SX*XqXAXrXmXVXVXVXrXeXvX=X7X3XE.E.#XZXXXqXtXeXaXmXeXcXeX*X-Xf.*XtX>X>XeXrXrXeX#X-.oX|.I.B N # & 4 >.8X$X&X].7X8.k.$XXXyXNXeX1X..1 . .   @ . .       . 1 o.3.T 8.P.E.6.6.[.=X*XNXrXmXrXrX*XbX_.x.4X( } X.2 $ .                   . . . . . . . . .                     . . . .         . . . . @ > e 1 6 9 9 K C ~ o.o.X.n w X.n | !.w & . , % W ~.Q.E P ~.W 5.b.8XZ V.E.SX$XlX{.,X=X<X1.r.F.-XeXeXmXmXqXbX>Xc.g.=XcXmXNXNXVXmXcXnX-Xg.3 . X . e 3.lXrXBXmXMXVXMXmXmXmX",
"iX-X8.8.*XBXcXcXpX=XE M i.h.vXcXmXrXeX{.eXeXxX,X[.H.k.h.$Xx.g.K.c.c.R.-.v._.$XJ.G.8.e.3.8.U.U u.y.1.W.4.4.I & o o o o & Z p.X.g p.p.e p.) h.h.R o.M B p.-.;.t.^ I.w.) -.e.W ;.2.W q % o     . .             . % O . .             .           X                                                                                                                                                                               . % j 6.|.>X;XeXxX{.ZXc.2.V.3.>.hX^.E e p X.!.x V B.z h n.T.c.G.SXH.#X>XOX) 7 O X X X X X . . .   . . . 8 p  .E.'.v.-X].=X7XF.4.4.%X,XeXNX.Xb.x r $ #                                                           . . . .         % j E.>XNXBXVXmXmXMXwXAXDXU.P.) P k W 2.x.7X.XyXrXMXMXcXeXqX*X}.g.'.=X>X>XcXmXMXmX3X9.].8X2.~ e % : 2 -.K.'.5X{.}.1.r.J.7XyXrXeX3X..2 # .   @ . . . X X . % D | ^ / ;.6.;.9.$X>XtXqXqXmXmXcX*XeX_._.1X( ~ p.w & .     X             .                                         .     . . . . . . .   > e 1 6 6 : s n h I _ G n C } k M.C 2 & . o d V ~.| B -.2.x 5.v.v.| +.i.8.g.=X;X.X&XH.w.4.}.ZXeXrXmXrXqXtX>XF.k.:XBXMXcXcXVXmXBXcXuXh.3 . X   6 | lXrXmXmXmXMXmXmXmXmX",
"wX.X8.r.>XrXeXcXmX=XZ b 4.d.kXBXmXqX&X'.eXeXcX;X%Xg.g.SXc.6X4X9.3XDX@X[.ZXc.g.R l.r.I.i.2.1.U.-.1./.1.n.G.;.b O   @   # w Z M.g e.a.! z W.8.1.5.O.w B a.4.I.1.P.I 4.l.-. .W ^.n.q.M 8 O @ O . .             O O O . .           O . . .                                                                                                                                                                                       . O e 1. X=X;XcXrXeXZXD.U ..O.n j M w E $.1 8 0 7 7 e 6 & a m 9 9 m w.}.}.U 2 #   X X X   # #     . # # K o.-.4X=X{.7XoX'.k.8.T 2.lXkX;X].dXh.^ j < # .         .                                                     .         # q w.7XpXiXMXNXeXMXMXqX}.B K FXFXFXm k ^ b.-XAX0XmXcXnXxXeXdXU.i.8.H.>XtXcXmXMXmX=Xc.oX7X^ $.6 % o & Z -.6.J.}.G.w.) 2.$XXXpXrX6X..2 # O     . .         & q  .2.Y.F.F.F.{.>XeXeXrXpXmXrXrX*X>X.X].OX^ ! Q.g $ O                                                                   .     . . . . . 0 a q 7 9 8 a b ` n B ` j j O.C Z ` 7 % O O 9 k (.O.B ( 1.V /  Xc.3.Q  .E.$X.XvXv.d.K.( w.c.XXeXcXmXrXrXeX*X'.g.%XrXaXcXcXVXVXBXcXqXh.4 . X . & ! 5XrXmXmXmXMXmXmXmXmX",
"wX-X8.r.*XrXxXcXpX|.B j 2.7.,XBXrXrX.X&X*XNXqX*X=XD.g.h.|.$XJ.:.k.F.[.[.$X}.6.j.2.1.2.I.u.r.j.E.r.1.L./ f.z.g 6 . @   . 1 4 H h ~./ u.r.8.4.r. .p.E p.( i.w./. .w.( 1.^.) ^.I./ W r % . . O . .           . . O . .             , O . . . .                                                                                                                                                                                     O p n.5X$X>XeXcXAX{.P.p.~ p 9 6 & p C 4 6 O @ . # % O > O O = ; i e.$X8XI q & O   X   . $ #     . . # K a.,.g.J.|.|.|.g.g.A.j.<XkX&XbX{.<Xz.(.o.1 % O                                                                         O 6 G 4X0XwXqXlX6X>X7Xb.U p 8 KXPXKXPXFXn U 2X_.eXeX;XnXnXrX7Xr.| ^ k.:XeXrXmXmXrX[.v.uX=XW %.6 %   ; b V V 4.Y.Y.e.E U J._.qXcX5X..2 # O       .   X   O 6 r V.G.8X7X7XdXtXeXrXmXmXMXmXrXcX*X;X=X:X}.-. .~.j % .                                                                             . . O y a q 9 e 9 e r A j M p 2 n } o.o.H 2 % O u q Z p.Q G h (.B P f.}.u.| Z W.8X*XtX{.h.8.W.4.f.tX*XcXrXqXrXrX*X@Xg.%XrXaXmXcXVXVXVXmXuXh.5 . . . & G $XrXcXmXmXmXMXmXmXmX",
"qX>Xy.t.&XNXcXcXqXF.k n I.v.;XcXrXcX*XvXrXCXqX*X;XlXF.c.=XF.k.T D.#X3Xg.[.|.h.c.k.z.r.r.8.S.j.1.E.r.W.z.7.h.~.n O -   % & 1 q Z / g.1.I.L.4.1.3.5.k h 5.~.1. .I.4.L.i.Y a.^ / n.( n 8 O . O . @             . . . .             , O . . O . . . . .                                                                                                                                                                             ; e T.uX{.3XD.H.{.k.k e a & . O % & 2 < $ s . y =.=.] FXKX& > : F S.=X1Xj % # .       . # . o X   . 1 C P.>./ gX1X}.K.6.D.DX<X:XeXrXbXlXv W 5.B 9 % % O     .                                                                   = 9 z.9X5XY.u.a.Q.p.4 7 . f # # d @.HX=.r W DX{.:X,XnXcXpX*X) C W j.:XeXrXmXpXeXh.c.yXoXW %.& % + * a n j E l.U.| Q ( 2XF..XeX6X_ 2 # O           X   O 7 B /.6X{.qXuXyXrXrXmXMXmXMXMXNXbXvX@X[.5XF.6.8.(.h %       . .                                                                       . O 6 7 1 1 7 e 7 q L r N S 7 Z M.o.M.q $ . : 7 Z k E Q.B C W Z ..c. Xh.t.W ) v.qXyX-Xc.Y.g.h.v.ZX>XrXeXeXrXrX*X@Xk.:XmXMXmXmXMXMXVXmXuXb.w # # # & F $XrXcXmXVXmXMXMXMXMX",
"qX>Xj.9..XcXcXxXqX}.B n I.v.;XcXrXeXvX*XnXeXrXqX;X,XF.7X@X6X<XT g.$Xd.D.H.K.k.9.t.8.2.4./.8.g.U.8.U.t.g.x.b.;.o.6 > O O . 6 $ H 4.R z.2.L.i.W e.Q.z E Q.^ u.(  .) u./ n.2.4.2.1.q.~ S > O O . .         .   . O . .           . , . . . O . . . . . .                                                                                                                                                                           O 1 h..X&XlXZ.j.;.I.m % & . @ o , % # s KXPXHXKXHXIXPXLXLX1 # q w.:XtX3Xb : % .       . . . X X X . 1 B +Xv.W W.6X=X<X>.g.5X[.v.qXrX].c.-.C.P.~.F 8 % %     X .                                                                 o : U T.z.u.k M r e 8 . . . y f . % y PX=.Q t.$XkXkXcXrXmX*X9.-.4.D.:XeXrXcXrX>X2.Z.-X|.U o.$ % - O e M M C 4.4...o.! u.k.'.*X<X_ 2 # O           X   O 1 Z T.=XqXmXrXmXMXMXVXaXMXMXmXrX*X>X{.F.}.h.7.b.^.x : o   . . . .                               . . . . . .   .                       . # 6 6 1 1 7 t q 1 J & : J 7 w q.M.n e % O 9 r ~ B Q.! C Z M.Z E z.F.G.t.l.T d.{.ZXv.k.9.c.f. X|.>X;X*XeXrXrX*X{.k.$XrXMXmXmXMXMXVXmXyXK.j $ # % & M }.rXcXcXVXmXMXMXMXMX",
"*X>Xj.g.*XcXxXeXuX1XC k n.v.eXBXeXeXeX*XNXwXrXrX*X&Xv.d.:XF.4X2.H.7XqXZXt.u.2.P.i.) U.G.) W.c.[.j.2.K.D.c.h.T.5.M 6 O . . & % a q.n.:.l.i.I  . .V.! Z ! ^.) 4.1.^.8./ i.2./ 2.a.E n e % . . .                 . .         . . . @ .   . O . . O . . .                                                                                                                                                                           o & 1.5XtXvX:XD.8.B : ; : . X X   % # HXJXKXPXHXHXjXjXFX] s # w c.*X0X XM : % .         .   X X X   . r b.5XE ! <X=X5X7.d.|.tXuXdX'.h.;.#X1X{.8Xp.p % O X X X .                                                                   % 4 _ s.1.h C n b 7 1 % . f y . # # &.FXb y.7X,XnXxXrXMXyX.X XF.@X>XeXcXrXrX7X .e.OXx./ Z 1 % % % e H Q C  .( 5.p.M C 4.D.:XY.W 2 % O         X X X % 2 ^ J.uXwXaXwXmXVXMXVXMXVXMXmXqX_.;X%X#XD.9.f.1XOXU 8     . . . .       . . . . . . . . . . . . . . . . . . . .                       . O : : 0 1 1 a e s a 8 u a q z ..!.r 6 % : 1 !...z (.p.B V Q.} I ) A./.1.F.;.) u.K.8X2.-.4Xc.:.4X:X{..X>XeXrXqX'.9.H.qXaXmXmXMXVXVXmXyX+XB $ $ # ; m OXrXcXcXVXmXmXmXmXmX",
"eX>Xk.D.ZXcXeXeXtXOXj j ^.5XnXrXeXrX*XbXcXCXpXmXbX;X>XZXv.c.4XR d.=X*X.XA.3.L.1.1.u.6.g./.t.|.>X9.<X2.8.G.9.6.~.o.7 O O & # O # Z 2.6.A.C. .I V.3.( j k 5.u.^ l.( ^ ^.8.t.l.2.^ q.~ J 9 : : .                 . .             . , .   . O . . .                                                                                                                                                                                   : W 4X*X].>Xc.A.Z 6 ; # . X X   . jXKXJXjXKXHX1 =.LXJXJXS q V $XcXwXoX! i >       . . .   X X X   o q ;.Y...! <X|.|.f.k.#XrXqX{.,.h.1X{.ZXyX.XE.C : O X X X .                                                                   . $ w Q.4.1.l.E.1.e.( 4 2 $ # # * % : u K A.&X;XAXeXrXcXqXwXuX*X>XeXeXcXrXeX6X} | E.:.1.g 6 % % 1 n ~ } C o.| W Q.M e ..u.<XE.E < % O         X     % 2 ( v.yXmXMXpXVXVXpXVXVXMXMXVXrX_.>X:X#XZ.6.f.7X X^ 8     . . # . .     . . . . . . . . . . . . . . . . . . . . . .                     . % % > % $ e 7 & a > % a q h Q.B 1 ; O 6 F o.) P 1.p.C P (.5.( r.I.I.-.5X1XI ! P.k.I.P.G.:.6.Y.$Xv.'.*XqXrXuX'.8.H.*XaXNXrXMXMXMXmXyX+XC 1 $ # ; p Y.tXeXcXVXmXmXmXmXmX",
"bX'.h.{.eXcXcXxXdXt.j j ;.5XnXBXcXAX&XvXrXpXmXmXeXvXvX=X&X&XD.-.6.D.>X@XD.U.8.E.k.c.h.9.4.t.4Xh.<XZ.y.j.g.J.t.i.q.A : = # %   . 7 ..T.9.) e.+.3.u.a.g G q.) E.U.^ I.4.2.8.8.1.3.q.B b e 6 : O O                 .       .     . .         . .   @                                                                                                                                                                               o ; B Y.uX.Xh.6.9.^ q 6 0 # # %   f HX=.d @.IXJXJXLXPXKXLX#.3 _ 4X&XuX-X6.M.% o   . . . # .   X +   % D ! i.I.U g.4X|.>.y.R.qXsXXX'.4X#X$X*XtX&X<X( 7 ;   X . .                                                                   @ . 1 B I.8X-XuXyXtX|.z.0.^ w # . & : 8 n 1X0XmXqXcXxX;XyXwXiXwXeXcXqXmXrXrX|.Q } /.Y N.q & % # 2 Z E F H O.V I O.b q G | 8XK.B q & O       X   X   # w ) =XrXrXcXmXVXVXVXVXVXVXmXCXrX*X&X:XF.8.g.{.-XoX2.6 o @ . . # . .   @   O   o           @   * . . O O O O O . O   @                   O O O O . : e e : 8 O u ] 4 c W K $ O ; 2 o.p.U T L.p.I v 8.I.I ^ T.1X7.x.d./.8.2.W.z.g.F.f.g.hX#XH.g.=X*XyX*X{.8.G.vXrXcXNXrXCXmXqXbXJ.~ 1 1 & ; e z.-XcXmXVXBXBXmXMXMX",
";X'.c.{.eXrXcXxX>X2.r r :.5XeXcXeXbX.X>XrXpXmXmXeXxXvX;X*XtX:XD.H.$X'.h.9.j.-.U.9.d.7.G.8.A.F.g.D.y.y.j.g.c.9.4.Q.H 9 % 6 %   @ % H a.g.)  .e.( 4.4.o.C E 5.9.9.^.4.r.2.P.-.) (.V ~ M.M $ % > O                 .     . .   . . O           o                                                                                                                                                                                   X . w 2.|.&X[.D.|.hXQ.` p 7 1 $ > =.IX8 u KXFXFX!.FXPXLXJXn k ( 4X>XtX.X>.a.: +   . . . # .       O 9 X.q. .u.y.2.Y.8Xd.-.Z.>XqX].x.4X1X>XtXeX.X-Xt.q :     . .                                                         @ @ @ X X @ . % b a.1XuX0XaXaX*X$X4XG.1.g 1 # % : M 1X0XmXrXxXxX;XuXwXiXrXrXrXrXpXrXrX$XG } L.T o.7 ; O # 2 C E F D X.k W o.r e H ! J.k.B 7 % .       X   X   # w i.>XrXrXcXcXBXBXBXVXVXmXMXmXrXeX&X:XD.8.k.=XuX-Xz.7 o   . . # # % O . > % : O . * O * * O O O . . # . . 0 . . * O                     .   O O O % 1 $ & ; ; : @.q I B.N # O ; w ..5.U T ^.a.) 9.h.i.^ 4.P.OX>.>.g.OX9.W 1.9.k.b.g.g.h.#Xh.6.:XtXuX*X=Xr.Z.>XrXcXAXmXmXVXrXtX1X..7 1 & O 7 l..XyXmXVXBXVXMXMXMX",
";X'.'.*XuXrXcXeX=X) r w R 5X&XxXeXrX{.&XeXpXmXmXcXxXcXeX*XeX7X:X-Xf.7Xh.t.1.j.2.u.u.G.K.K.H.6X}.S.r.t.j.h.F.h.4.! r r 9 : O . . O $ q.0.) e.4.3.i.) N.j g  .6.j.4.e.a.8.r.l.-.1...Z ( Z 6 d s O .               @ .   . . . . . O . . .           o       . .                                                                                                                                                                   . # 6 j y.$XlX7X7X X6.5.q.E r 2 < jXPXK JXLXJXjXJX!.FXPXjXr k 1.[.qXuXXX>.n.: o   . . . . .   . . & q p.T.;.1.(.I 4.5X'.-.y.<X1X/ ;.<X5XqX0XiXaXwX}.n : o   @ .                                                         . . X X X o O % & F i.8XqXNX>X#X3X6X:X1X4.C 1 % O i P..XmXwXcXxXeXcXwXrXeXcXpXpXpXpXrX=XW 5.1.5.D ; % O & 1 n A M b D q ^ _ e m o. .F.h.Z 9 % .           @   % r W.dXrXeXeXcXcXBXmXmXVXmXCXrXcXbX>X{.c.t.H.>XuX0XOXq O o O % % 0 f y & 9 r @.e 7 6 1 ] t & s 6 S a t e t @.% % % O . o                     + @ O % & # % > . 6 e 4 h B.2 # O & E 5...I / T.i.-.d.h.t.-.1.8.U.6.) P.OXU.C G r.U.! z 9.1X$Xk.6.3XtXyXXX=X4.y.lXbXeXcXNXrXmXrX].gX..2 & % O 7 8.|.rXmXVXBXBXMXMXMX",
"xX*X*XyXrXrXmXeX6X^ r w R 5X&XxXcXeX.X.XqXrXaXpXNXxXcXrXqXqX>X>X>X_.F.4X/ l.j.t.1.u.2Xh.h.h.H.d.S.r.8.g.c.}.'.t.b e ~ ` $ % & . . & g ..3.4.a.4.w.1.p.B k | ~.n.I e. .i.1.2.2.4.O.n ^ _ 2 & u . .               @ @ . . . . . . * . . .     o     o       . . .                                                                                                                                                                 . . & 7 | E.>XeXyX-Xf.g.~.Q.o.r 2 jXLXJXLXKXIXLXLXJXLXFXp X.5.k..XqX*X>X>.n.8 o   . . .       . O & 4 a.8Xf.) a.e.1.K.8Xg.4.2.r.j.t.}.>XqXpXrXqXwX=X! 8 o X . .                                                     .   . . . .     O % O & Z a.4X<X8.( w.U.%X6XOX0.C 6 = 8 p.<XyXrXmXcXcXNXrXrXxXNXpXmXwXpXwX=X8.a.U M.9 O % % 0 6 e p e e a 2 Z ~ e D p.t.}.G.~ t % .     .     X   % j /.dXpXrXeXcXcXNXmXmXBXMXVXrXcXvXkXc.h.H.3X-XqX0X1Xw % .   . . & y y : 7 q e < e 9 1 e 1 $ a 7 S a t e a ] : & % O > O                 . @ @ @ O % : % O O 0 t #.4 w r # . % 7 e.u.| E ^ l.0.-.>.m.T./ 2.y.E.A.^ l.F.Y.p.} ( 4.E I h.5X:XH.t.$X*XNXqX{.w.3.@XbXeXrXcXrXrXqXf.gX5.q & % O 1  .}.yXmXVXBXmXmXmXmX",
"nXeXrXpXrXrXmXxXzXW r r T 5X,XnXcXeX&X{.eXmXpXpXcX;XeXNXpXrXbXtX:X[.1X6.<Xt.j.g.h.1XK.h.6.K.J.Z.j.t.t.g.S.G.[.g.b M a.4.b $ $ & # . 9 n 5.L.-.t.( 5.N.W Z p.~.V B ! 4.r.i.^ t.n.C B s.s.2 & s % .               @     . . . . . : # . O     o     +     . . . % .                                                                                                                                                               X X O $ M I.&XrXiXaXqX'.8.I B r 8 =.HX=.JXJXKXPXLXPXJXM r +./.x.yXCXqX.X;.N.e O O . .   X X     - % w T.dX].4.! ~.4.t.4X=Xc.( 1.$X{.>X=XF.H.}.{.0X9Xi.w O + . .                                                     . . . . . . & .     o O : p } Q.+.n i D } y.>X.Xr.G : : G L.tXwXmXmXmXVXNXNXcXNXrXmXqXrXwX-XP.a.P M.8 O % 0 0 0 & 6 6 9 i 1 q N 7 b  .z.OXz.H t O . . . . .       % b I.>XpXrXrXrXcXNXmXmXMXMXpXmXeX*XkXd.c.3X%X[.*X0X8Xk : O     % & # . . # 6 # % % % O O O O O % % O % % % & % & : % f O             . . . . @ @ O % & % * O # 1 r q 1 1 . . & j I.L...C W i.0.0.9.G.E.-.t.Y.OXOX:.g.K.+XE.r.C E y.Y.|.'.=XH.g.$X*XNXrX&XS.^ h.eXcXBXNXqXrXeX>.gXe.q & ; . 1 W OXwXaXBXcXmXmXmXmX",
"nXcXpXpXrXrXmXxX4XW e r T |.,XxXeXqX*X].eXNXmXmXeX*XeXNXMXmXNXtX&X$Xk.9.OXJ.j.8.v.x.d.6.g.J.G.G.8.g.c.h.y.r.k.8.M Q n.6.N.w $ # . * # b N.u.8.8.4.1.a.^ k o.Q w w ..(.2.) 4.6.8.G G l.n.r 9 ] & .                       . . . % 0 $ # . .         +   . . . # y .                                                                                                                                                               X X . & 9 p.-XaXMXaXrXZXH.^ ( p.6 FXKX=.PXLXIX&.jXjX4 Z n | G.DXc.=X>X].>.Q.M & . . .   X X     o % k T.uX0Xk.^ r.3. .t.-XZXZ.G.'.XXbX{.-.1.y.J.uX9X^.k O @ . O                                                     . . # * % # & .   X @   O % 2 K %.%.{ r M r.eXrX$XL.M 7 r  .-XwXmXmXmXVXmXmXmXmXcXrX*XeXwX-XP.| I } : O 6 S : > . % % u a 6 < s & q ( G.Y.4.b : O     . . .       % b P.*XpXpXrXrXmXNXmXmXMXMXrXBXeX&X:Xc.[.[.F.x..XwX9XI 1 O   @ y 0 & . . # d 6 d % O ; > O = . > . O O O 6 & & & % % d . .           . . . . @ * % & & . O . & 7 #.e 8 O X . 1 C n.l.} b E a.0.2.u.u.t.8.t.J.[.1X7.F.K.K.J.2.j Q E.{.'.=X=Xc.7.6XuXiXwXZXA.) h.eXrXmXcXrXrX;X>./.a.r % O O 1 I Y.rXMXBXcXmXmXmXmX",
"cXcXaXaXrXcXMXxXR.I 7 b /  XkXxXeXqXvX{.eXcXmXmXxX;XrXmXaXaXrXqXyX=X6.t.;.1XY.k.d.9.G.g.=X$XZ.8.9.h.c.k.y.4.u.3.( 4.m.h.T.5.7 . . . & 7 ..V.4.i.z.2.0.^ w A r b M p.e.1.W 3./ n.Q G g.n.w & t 6 .               X     . . . # & s 2 $ # .         o   . # # $ S .                                                                                                                                           o @                 X   . % ; } 6XaXqXrX&X%X:X:X3XE.b & FXLXjX&.FX&.=.d 6 j (.8.P.E C  .#X:Xh.i.E b # O O .           % e ~.oXuX|.d.6.4.e.1.F.tX>X:XvXyXrX'.1.e.3.;.|.oX2XI % o O O                                                 . . . . % 0 > # O . + X X . # # # $ r $.~.z.h.'.vXcXrX>Xr.W B 1.uXiXmXmXmXVXVXVXMXMXbX;X;X*XwX-X3.n } n 6 & r ] & > . O : s a & # s % 1 ^ T.P.W e & . . . . . .       % w /.&XpXpXrXrXpXmXmXmXMXMXmXNXbX&X'.$X6X[.F.c..X0XoX5.1 O     ; 1 $ . # 7 e 7 s 6 & 0 % . % . > % : # & J 6 8 & # % % O .             . . . % * % & & . . O # 7 r 6 O   X . 3 W i.i.} b C p.6.;.4.3.w.4.r.J.5X=Xd.K.9.g.T.) j } 4X{.'.:X@Xv.d.ZXwXiXwXZXS.4.{.bXrXrXrXBXrX*X6./.I.n % o % 1 B T.rXMXVXBXBXmXmXmX",
"BXmXMXMXpXmXVXeXG.C 7 A ;.|.ZX;XrXrXAX.XcXBXmXcXcXxXcXmXpXpXpXeXXX7XK.8.g.c.K.h.D.E.U.g.f.=XZ.y.k.h.h.g.S.y.W.w.i.y.x._.R ~.X.# % . . 1 B ..5. .-.g.z.s.b K N p w ..4.2.V.1.8.u.C n ;.n.F 6 S 6 .               @ . . . . . . # S e $ & .             . % # 1 ] .                                                                                                                                 .   . . . @ @                 X . . O = m 4XqXrXNX>XkX>X]..X4X_ q 7 S jXjXJXJX@.8 M W 7.3XU.Q m G }.ZXF.2.W o.$ # . .         o : 7 V.5XNXuX&X>.8.V.1.9.'.dXtX*XrXrX{.4.V.i.;.f.v.+X^ ; o @ .                     .                 . .           . . % y 6 . .   @   X . . . . # $ 3 x n.gX+X>XeXwXNX|.Z.8.F.pXiXMXNXnXBXMXMXMXMXCX;X>X-XtX+XE q B.q 8 & n X.$ > o = e K a % % d O 1 / +Xu.C e & O . .   . .   @   % 7 gX&XpXMXpXrXpXmXMXMXMXmXMXrXbX@Xd.lX:XvX>X{.-XwX-XI.r O +     # # # # q 2 S a 1 & a 8 0 % % & % 0 & a S 7 6 6 : y O * . .           . . . . . . # % . . % 0 q r $ O + X . 4 ..8.u.+.M n p.n.g. .e.V.^ ) j.>X].>.J.d.2Xj.i.|  .c..X:X{.&X{.v.ZXqXiXwX*XU.S.:XNXpXmXmXcXrX&Xd.gX/.I % o O 1 B T.rXMXVXBXmXmXmXMX",
"BXMXaXaXmXmXVXvXn.k 6 M c.XXtX>XeXyXrXaXaXaXpXrXcXrXrXmXmXrXqX>X>X|.h.}.gX:.c.c.F.Y.4.8.].].J.U.y.y.6.K.j.j.t./.i.) ]._.9. .(.q $ * O : q } C +.| i.k.P.G D i D r 5.u.t.8.4.1.1.a.( / 5.M 6 e & .                         . O # e 2 1 # O .             . . $ s .                                                                                                                               O O O O * * O                 . . .     ; e A.tXpXaXCX*X*XZX*X=X+XN.4 & FXLX&.J e n I.9.x.&X:X4.B r.&XyXdXd.x !.b 1 # . X X X .   % n P.7X*XMX*Xk.2./. .! W.|.uXeXeX0X&XU.^ 8.E.T -.+X2.& +   X         . .       . . . X X   .     O % . . X   X   X . % % # % . . . . X X X   . O O # $ < h s.4X=X*XrXyXeXeXrXpXCXwXmXvXuXaXMXVXVXMXCXXXoXG.^ w Z !.7 o ; q.W # @   > Z O.9 O 0 d O 1 ;.T.e.M e & O O               % 6 p.7XaXMXMXrXNXMXpXMXmXcXrXMXqXD.-.=X*XNXcXkXkXNXuX2Xj O + o   # # . $ 1 $ a 7 $ J S $ S % % % 8 y % & % & & 6 # f . . .               X   . . . . O % > 0 a N e 1 O o o . 2 ..2.l.p.m C V.9.z. .a.i.^ 3.2.].qX{.<Xk.k.Y.g.^ 8.x._.'.ZXvXv.v.uXeXsXqX-Xg.K..XrXmXmXCXrXcXbX{.1X+X/ 7   o & B T.qXMXBXBXmXmXmXmX",
"MXMXaXaXmXBXBXkXi.j 7 G '.qXuX.X*XqXpXMXMXMXmXmXcXmXmXmXmXrXeX&X[.h.f.[.A.U.h.{.g.j.r.j.{.-XY.8.8.8.SX6.9.J.G.t. .u._.x.U.4.A.1.w # . > 2 o.X.n V.i.9.6.g e J X.G ..P.9./ I.e.p.( ^ 1.p.D 1 7 9 .                         . . # K N 7 % O . . O         . . $ 0 O                                                                                                                               . . . O % ; O                 . . .     ; r P.>XmXaXmXqX*X*X-X|.m.q.g e 1 7 D M p.-.$X*X>X&X&X#XG.4XqXwXuXh.z !.H 2 # X X X . .   : g /.{.bXmXcX,Xj.4.L.( 4.v.XXNXqXqXdXK.8.;.i.8.) x.a.6   .           . .     . . . . X X   .     . # . . X   X X   . . % # . .   . .   X X X O O     @ @ $ 5  .P.8X-XXXrXMXmX;XxXrXBXbXtXiXMXMXmXCXwX.XOXU g 4 H L & o ; Q.I # @   : I q.6 O & y . 7 :.+X| M m 6 . o     X X X X   . & } $XwXMXMXcXCXMXMXCXNXrXbXmXeX6.t.ZXqXpXrX;X>XrXqX<Xh % + X   . # # & s 1 a 6 $ s d 0 7 # 6 & % ; O : & # & % . y . . .               X   . . . % . . % $ q r q 1 O   O 8 X.I 9.t.Q.r ! 5.g.;.V Q.i.4.( L.].qXx.J.D.t.Z.g.1.g.|.tX>X{.ZX.X].rXuXbXtX=XZ.3X>XpXmXrXcXeXcXeXv.5X9X;.7 o o & B G.*XcXBXBXmXmXmXmX",
"mXmXaXiXmXmXBX>Xs.j 7 E $XrX*X_.{.&XrXmXMXMXmXBXcXBXmXpXrXNXeX{.F.7.8Xg.r.S.c.F.8XU.4.1.v.{.g.;.D.H.D.j.k.K.4X:.6.hX5Xc.E.8.x.2X5 #   O p ~ | (. .u.>.P.G e w o.G ! u.2.T.4.3. . .I V ( ` p a S .                         . . # N r 6 & O O .   .       o . # 6 .                                                                                                                                     . O * O               . . . . X   ; m U.>XrXpXpXpXqX*X7XG.p.g w E g I (./ 4X'.tXZX>X>X&XlX$X$XqXpXrX}.n *.X.3 #   X   . .   % h U.1X;XmXmXnX[.) e.P.-.h.oXNXwXtX7X X+X .^ E.>.>.~.9 . # #         . .       . . . X X   . o   % %   X X   X . . . . d 6 # @   . .   X   , O ; ; O   . . $ 9 M 5.G.uXyXqX@Xy.y.,XcXCXcXaXMXCXcXAX*X5Xi.q 7 4 [ : o - ; !.h # @   & B p.6 O # : . 2 >.+XE M J 6 O .       X X     O & C OXXXpXrXcXcXcXbXeXeXcXcXuX>X;.}.ZXqXrXrX;X>XrXqX|.P % +     . . . & s & 0 & # 6 & 0 # % y : O O O * % # & . . * . . .               X   . . % > O . ; : e N a 0 * . O 8 H V g.U.p.j C a.P.R 5.3.L.1. .4.'.uXd.H.8.E.Y.g.2.t.F.'.&X>X>X&Xv.*XeXqX*X'.j.3XeXrXmXcXcXnXeX{.d.1X9X6.2 % O & z z.-XrXnXnXmXmXmXmX",
"MXMXaXiXmXBXmX>Xe.r 7 E =XrX*X'.'.{.eXpXMXaXmXNXcXBXmXrXrXrXeX&XH.4XF.4X4.8.F.F.Z.t.u.j.'.v.6.A.H.c.U.W.g.h.9.F.c.}.g.g.E.<X-X1Xo.6 , O 1 G 3.) r.2.6.^.F q E  .( I 1.W.y.4.i.W p. .( p.%.r 1 6 .                         . . # q r 1 6 % O . .           . # 6 .                                                                                                                                       O ; O .             . . . X X + : F U.>XeXrXpXMXrX*X1X2.j j 5.n.4.P.4X5X0XsXbXeX*XZXxXvX=X>XNXCXrX$Xj H M.3 #     . . .   O j L.6X;XcXmXrX:Xy.^ E.g.;.v.qXqX-X7X8X/.| | 4Xf.,.Q.a O & #         . .   X   . .   X X       . & & X X X   . . . & # ] t & O     . . # . s 6 & & % . . . . O % 2 ! n.+XOXY.| | @XrXcXcXmXmXcX;X*X=X/.B 1 % 1 ] . - o 8 M.w $ . . % n M.9 O . O o $ n.m.Z M J : O . .     X       O % r U.&XeXeXrXeXvX@Xh.{.NXqX=X$Xh.=XyXrXpXrXxXvXrXyX:X .: o         . # % . % . . # . % . . > O . O . O O . * . . . . .                     . # : > O O % & 9 a e : . . # a o.W d.G.e.} Z I.h.d.V 3.^.1.I L._.-X7.D.J.J.K.t.4.z.}.v.{.,X>X=Xv.>XZX>X>Xc.8.R.eXrXmXmXcXnX;X{.h.5X|.6.2 O . % j 8.&XeXnXnXmXmXmXmX",
"VXMXaXaXmXBXmX>X .r 7 E =XrXqX.X'.{.eXrXmXmXmXNXNXmXmXaXwXqX*X=X8X6.c.J.2.l.>.<XG./ 4.E.$X5XA.r.S.4.3.) K.F.6.d.x. Xj.t.t.H.:X2Xb . O % 7 ~ i.>.g.P.y.3.M.C 5.4.5.e.r.1.-.I.1.e.+.E h ! O.C b @.O .                           . S L 7 6 O O . .   X X     . % 0 .                                                                                                                               X o X   @ O O .             . . . X X o 6 E U.>XeXNXaXMXiX*XJ.W j | /.d.h.1X].uXiXaXrXNXrXCXrXCXNXbXCXmXwX:XC m N.h %   . . . . . % 7 Q.[.NX*XNXeXZXJ.2.9.Y./ 6.{.eX.X=X/.Z e Q OX'.:.a.D & . .         .     X   . .   X X       O 9 0 X X X   . # # & # ] q 1 $ # . . . $ < K j j j r 6 % .     O % $ e X.Q.~.Q | tXmXcXxXcXxXcXeXyX8XQ.p 6 $ $ s   o % D o.4 $ # . % b %.9 O O   @ $ n.m.B m s % . . .             . % 7 u.1X=XxXrX*XlXj./ [.rXqX#Xj.$X*XeXrXrXrX;XeXqXyX-Xy.7 o . .       . . . O . O O O O . . O .   O     . . * . .   .                       % . O * O O . % 7 e 1 # O O 1 X.!.x g.A.e.C V ^.2Xd./ ~.i.V.W r.-X.X7.gXZ.<XJ.g.3.u.|.-X7X{.ZX=Xh.[.ZX-X-Xc.2.D.eXpXcXcXeXcXcXeX'.8X|.i.6 O o O q 1..XrXBXBXmXmXmXmX",
"VXMXaXaXmXcXmX6X! w q W :XrXuX>X{.&XeXNXmXMXNXNXNXmXaXaXrX*X.X[.k.g.9.g.y.-.J.c.t.W.r.1.<XF.-.P.2.t.W r.OXc.6.j.1X8XS.w.K.6X&XG.q . . : N E ;.b.;.-.2.~.G k ) 2.u. .i.w.2.r.i. .+.Z j } p.C 7 9 . . .   .                     . S L 1 6 O . O .   o X X   . % 0 O                                                                                                                               X X       O O .                   X   O 7  .J.>XeXNXaXaXpXrX#X1.) I.3Xf.h.{.bXsXaXMXpXCXMXVXaXVXmXrXmXrXpXZX+.b ~.^ $ . . .     O % 8 ..|.NX;XcXNXrX=X}.9.k.L.) 8.6XtX].z.B M } }.oX6.a.} 7 O                 X         X X       O 0 0 + X . . . # # $ 2 ` q q r a O O . $ 5 o./ 4.I.a.E r & O o O # # O : A } M  .uXaXeXkXxXcXcX.X7X8.b 9 1 7 & *   O 2 $.` q 1 0 . % e K 6 O . o   7 0.z.n p 8 . . . . .       . . . O 6 ( <X$XvXrXqX3X8.) 3XqXuXK.2.:X*XrXrXrXrXeXxXeXrXqXY.r O O O           . .   . .       . .               O   .                       X . * . . % O O . % 0 0 1 % % & r ` } x z.E.4.B h ) 2X>.^ ( L.^ I r.v.-Xk.G.R.<X<Xt.) L.v.{.&X=X7X@Xg.d.{.{.=XF.2.j.eXmXcXNXcXmXmXmXeX>X|.u.8 o o o 7 ^ |.wXMXVXmXmXmXmX",
"VXMXaXaXcXcXcX6XZ q w ^ :XrXeXtX;X;XeXmXMXVXBXcXcXNXmXpXrX*X[.h.9.U.j.U.r.y.Y.J.g.4.1.r.c.F.j.1.Y.9.2.k.|.8X/ i.g.Y.P.j.@XeXrXSXr . . $ w N.OXd.8.i.4.~.F C ^ /.2.i.( I.u.1.^ 5.p.Q n ! ) h q a # O O . .                     . e N $ 0 . O . .   X X X   . # & .                                                                                                                               X X       O O .                     . 1 B l.$X>XeXrXmXaXaXbX$XH.$X7X{.x.F.&XAXXXrXBXmXMXaXMXVXaXMXrXNXmXMXxXC.B n.0.1 % . . X + O . : b $XqXxXxXNXqXyX-XF.8./.w.Z u.uX0X.X XU.j.-X_.8.L.q.r %                           X X     . . & > # # # #     O $ I p.r r C K o +   & V n.OX|.5X1XJ.P.| q : O $ 1 % O . 6 q 5..XiX*XkXnXeXbX>XG.Z 6 8 w ` 0 .   # c N.K 2 7 s O % 1 t & O   +   7 2.9.C i % . . . . . .   . .     o : k E.6XeXrXeXZ.4.j.3X>X>Xt.y.>XqXrXrXrXrXcXcXeXNXqX1XC & # O X X X     X               X @ X     X X         @                       . O > O . * O O . . : 6 % . . % 7 ~ ( -.b.b.l.5.B (.8.6.W 3.P.t.V i.}.F.:.SXD.Z.k.;.^ /.D.h.x..X>X>XD.6.F.=XdX$X9.g.rXMXeXcXBXVXMXMXmXxX=Xy.9 o + + & E |.wXVXVXMXmXmXmX",
"mXMXaXpXcXcXcX3XB q k ) 7XeX*XvX;XeXrXpXMXVXBXcXcXBXBXrXeX>XF.8.j.-.t.t.W.r.g.G.2.W.3.8.<X9.) L.Y.Y.E.h. Xf.r.4.t.6.r.j.{.qXrX}.2 O . 1 C 5.7.h.1. .a.I F G i.2.l.2.V.1.r.-.1.V.p.M q ~ n.5.A a % . . . .                     . r L $ 0 . O * . . X X X   . . # .                                                                                                                               X o       O . .                 o   $ g T OX7XtXrXeXMXMXmXeX[.=XbXcX;Xv.&X;XbXbXeXrXmXVXMXMXVXMXmXrXNXcXaX*XE.1.h.n.2 & .   X + O . % p c.yXeXxXeXCX0XqX'.g.C.(...( v.iX0XXX9.-.8X7.2.^.p.j & . .                               . . % & 1 < 1 #     O 1 0.n.j r W O.O o o & ^ OX].XXuX.X.X8XU.I 7 6 4 < # O O . 1 p.].uX|.3X>X*X].+X( b 8 % 5 $.0 o @ # c q.N $ q J . * # $ # O +   o $ s.-.H 8 O   @ . . . @     .     o : q (.7X*XqX>X8.2.<X$XkX@X2.4XtXeXwXmXrXcXcXCXeXNXqX5X! 7 # O   X X   X     + X               X               X   o                   . . * O O * O . % O : 0 % # . # q E q.x OXf.T.) k ..0.8.I V.t.8.W L.h.|.R D.9.g.Y.6.P L.9.H.{.-X].=X#X;.x.:X7X{.D.h.rXMX*XeXmXmXVXMXVXcXvXS.p ; + o & C +XqXMXVXmXmXmXmX",
"VXMXpXpXmXcXxX4Xn 1 k 2.{.rXbX;XeXrXrXpXMXVXBXcXCXcXrXrX&X:Xj.S.t.A.t.2.2.j.k.g.l.4.i.E.OXh.8.u.1.2.2.;.c.9.9.6.Y.D.8.2.[.*XeXJ.2 * . $ I 0.9.;. .e. .Q.i m 1.;.:.n.i. .L.8.u.3.p.C p ~ a./ 4 & % % : O . O                 . . 7 L $ & % . > y . @ X X   O % > .                                                                                                                                     . . . . .   + o     o     + O 4 T v.-X*XqXrXrXrXpXrXrXeXeXmXrXxX;XxX*XnXeXxXeXmXMXMXmXmXmXMXMXVXrXrXcX#Xt.>.I.j & O @ o X   % 9 G -.7XvXrXrXNXqXyX*Xv.4.C./.1.6.v.yX|. .C ..3.C.I.~.k 1 % . .             o   +     O O . % : 1 < 5 $.7 . O o O #.I.T.Z k Y.z.6 O ; 7 2. X].&X[.3X:X$X4Xy.Z !.E 4 % O : # $ ' m.8X1.3.5X].+X4.r : 8 u 4 j & . + . c B.& O 7 S . O O . # O   + - $ N.^ b 9 .       . .     .   . @ o O r e.:XqXvXv.g.<X=XlX:X9.8.6X&XNXqXrXmXrXeXcXcXNXpX.Xa.2 & . o X o                                                                   O O . . O O . . . % y 0 : % . 6 k o.I V u.:.8.5.C p.z.>.W Z 3.4.| 1.|.5XT S.D.g.c.6.I e.D.{.[..XtX>X1X6.7.:X*X=X}.{.qXpXcXeXrXmXmXaXVXrXcX#XG 8 O   % n G.dXeXBXrXrXmXmX",
"VXMXaXaXBXcXxX4Xb 1 h 0..XeXxX;XeXrXMXMXMXmXmXBXcXCXrXeXZXg.j. .j.U./ P.4.j.9.t.8.L.2.8.c.9.2.r.r.L.t.P.t.6.t.A.U.A.j.j.$X{.&XU.1 O O 6 Z 0.9.6.e.5.(.G p M ^ t.9.u.1.1.8.l.4.e.Q.G r G 0.-.b s s : % . . .   ,             . . 1 N $ & % . * y       X     . % .                                                                                                                                     . . . . .   o X     o     o 9 W f..XwXrXrXrXmXmXcXxXeXrXpXpXwXeXxXCXrXnXeX;XeXrXmXBXcXNXCXpXMXMXmXcXbX$Xj.R (.n $ O   o X - % q o.-.c.>XrXrXrXeXyXwX.Xt.w.E.K.-.9.-X'.V.| | 1.Z.U.^.n 1 % . .             o   o   O O . O % t J 4 x M.p & O O : H G.T.q.V  X Xb ; : q l. Xc.R.1.y.j.K.8XU.I e.a.( 9 O % % & 2 / ^.I I 0.>.a.E 6 ; d 0 q w t % O % g [ % . e S % . . . . .   o O 7 q.P j 6 .       O .     X   .   o . 6 W =XqX-Xd.g.6X>X-X3X2.H.{.eXrXrXrXmXcXrXcXcXcXpX-XI.g & O o X o                               .                                   O O . . . . . . . O * * O % # e B q.M.V 2.P.-.( j } 6.g.W p.u.w.E 4.x.F./ W.J.d.<X9.E p.G.v.'.>XtXtX6Xd.9.8XtX-X8X=XqXmXNXnXcXrXCXBXmXqXqX6X| 7 % . . j z.7X;XBXmXmXmXVX",
"MXMXaXaXmXcX;XE.b < V n.>XxXeXeXeXpXMXMXMXmXmXVXmXBXmXeX@XD.w.w.t.8.i.8.t.j.g.g.8.8.8.2.Y.4X8.r.r.4.hX8.w.3.3.| e.e.r.Z.3X[.@XS.7 % . & j p.l.8.) Q.M e e M (.:.g.i.) ) t.-.u. .| G p G 2.T 2 : & : 8 . O ; O               . . q K a 0 % . . . .       o . . % .                                                                                                                               . . . . . . .     o           O : H z.XXiXiXrXNXpXmXmXmXxXeXaXMXBXqXeXeXmXrXeX&XvXxXcXnXkX>XrXpXaXMXVXmXxXvX,Xk.U Q.A $ O         . 4 ~.u.8.@XbXrXrXtXqXaXrXZ.1.[.7X6.2.k.J.4XH.:X&XrXuXE.k %   .           . . o     O # # . & 1 K #.w T N.m % % % e B h.K.~.P |.1XH : 8 r a.;.) (.F +.3.U.4XU.G Z |. X~ & % O # $ 7 $.a.;.g 2 C j 6 : d & r 3 j 2 # % q N % . p J #       . .   - % K ' n r 6         O .     . . .   o   % z 5XqX|.:.d.=XrXuX#X8.kX.XnXcXrXmXmXmXmXcXcXcXmXtXT.z & O     X       .             . . .   . . .                                 . % O . . * * # . . O O . % 6 S n M.} Z 8.6.n.) n C ) -.Q.! r.U.4.4.9.J.E.U.<Xc.F.6.U e.A.h.x.].rXqX:XD.6.3XtX*X=X{.XXrXbXxXeXeXqXsXmXmXqX:X) e % . . q 0.:XeXBXcXmXmXmX",
"mXmXaXpXrXxX;XU.r 1 I OX>XeX;XxXcXpXpXMXMXMXmXmXVXmXmXeX'.<Xr.L.y.l.i.4.T.9.4X9.2.t.A.gXG.6.A.u.u.2.g.4XL.(  .e.| | 4.D.6X$X1X4.1 O % 7 m M.5.:.-.5.D 8 M | U gXl.8.r.i.-.t.-.4.a...M H 0.2.r 8 s : 6 > O .   o               . < N t & O O . . . . X X o . % > .                                                                                                                               . . . . . .       o     O O O & m a.8XsXaXaXmXmXmXMXVXNXxXcXMXMXCXeXbXrXeX*X'.h.@X&X;X;XkXkXcXMXaXaXMXmXxXkX;XF.^ o.L & O   O .   . w ~.W.2.d.>XrXqXtX*XaXpX#X8.'.-X}.t.1.U.=XrXNXrXaX0XU.j % +         X   . .       O $ e # 6 C M.X.w ^ a.~ 1 : : M I d.OXV.P  XOX} : 8 r Q.) | X.9 { b ..I.a.{ B 9XuXL.F 9 % : : O 7 -.s.7 & q A K 9 8 6 #.5 n 4 $ # 7 6 0 # b J .     X .     = 1 %.A r r 6   X     O .       . .   X o % g 1XXXJ.;.h.{.wXyXH.D.tXNXrXCXrXmXmXmXmXcXcXcXcXtX}.V & O     .   . . . .   .     . . . . . . . .                                 O ; * O O > > # # . O O O & a K n } o.k 1.6.m.2.b H a.i.E | U.j.) i.k.c.S.E.<X7.c.9.U  .T.<X{._.rXqX>X[.2.<XtXqX'.'.{.*XeX;X;X>X&XqXqXCXeX5X .r #     2 6.-XeXBXcXrXcXcX",
"mXmXaXpXeXxX>XA.7 $ U +X*X;X&XxXcXrXrXmXVXMXmXmXpXMXaXwXZXh.A.r.E.t.) P.2.Y.>.g.U.4.S.z.d.g.2.2.r.t.lXc.2.I.l.W.-.;.d.v..X[.E.E & O & e b ` | 2.n.3.i p +.-.8.-.i.n.8.P.6.9.u.3.0.| q b 8.a.r % d % : 8 O .   @               . 2 r a % O % O . .         . % 0 .                                                                                                                                 . . . .         o   . # # $ q e.E.ZXaXMXMXmXmXVXMXMXmXcXNXMXMXrXrXCXbX&X@Xg.6.=X;XeX;X;X;XrXpXwXqXrXcXeXxXvX$X3.n N &     . . . % 4 5.Y.9./ 3XtXqXyXqXpXwX>XH.'.{.7X}.! r..XMXqX*XuX=X^.k %           X   . .     . O 7 K 6 2 4.^.r e W I.p.r 8 9 ..8.>.K.1.W |.4XO.9 1 7 M.G 7 a ; = : p j j a m 1XXX9X9.C 7 ; O o O < b t 6 2 K X.w & 9 $.c B w 1 $ 6 6 s 1 r N .   X X       % 2 B.p e r <   X   . O .       . .   X X % w E.v.j.t.<X=XqXqXv.=X*XAXrXCXmXMXMXmXcXcXcXcXcX>X|.^ & o   . . . . . . . . .           .     . .                                 O % * O @ > > # . . O O O % i n h p.M.k W u.n.-.g H a.n.p.| 4.U.W 1.h.OX2.U.F.f.1Xb.W E l.<X>X*XrXeXtX6X1.J.dXuX.X'.'.{.&X.X[.H.8X8X{.eX.X6X3.q . X X 1 2.>XrXVXmXmXmXmX",
"VXmXaXpXeXxX>Xj.1 1 U +X&XeX;XvXeXeXcXmXmXmXmXVXMXMXaXwXqXF.j.y.A.t.i.8.j.R K.d.2.U.k.k.h.9.g.t.k.c.[.g.L.1.U.g.h.c.'.=X&X}.SX! : O O $ M G ~ p.) e.D { a.6.:.2.u.-.z.2.9.g.r.4.2.e.b M 2.a.p % 8 & 8 > . ; O                 . a N J & O O . . . .       . % y .                                                                                                                                                   . . # $ 2 Z U.:XrXpXMXVXBXVXVXVXMXmXNXBXMXaXpXrXyX].h.R.k.g.kXvXcXrXeXeXqXqXyXqXeXcXcXxXcX>Xu.w p %     . . . # 2 ^ 1XF.( U.=XqXrXrXrXrXxX>X'.&X*XlX3.( &XmXCXcXZX5XI.k %           X   . . . O o % r $.e 4 G.hXj p Z a.Q.n 7 F I.Y.R 8.^ 4.8XK.} 9 8 6 e < & % = O 0 & $ u ; m gX.X0Xv.^ b p s : O . % # 1 $ e n q & 8 K 4 A w & # & : s 1 r N .   X X X     % w M.9 9 N <   X   . . .   X   . .   X   . q /.9.) l.4X7XqXqX].eXqXCXmXrXVXMXMXMXcXcXmXcXxX;XoX8.6 o . . . . . . . .                   . . .                                 . % O O O * % # # . o O O & p w z p.M.C V ^.6.a.j n ^.>.)  .E.8.1.P x.}.L.1.}.5X5Xb.W Z 9.h.{.vXrXeXxX:X .j.>XqX>XF.g.h.'.v.9.;.t.+X5X7X'.<Xe.q # X X $ ;.-XcXBXmXmXmXmX",
"VXmXaXiXeXbX>X8.1 1 U 1X*XnX;XxXeX;XeXmXmXmXmXVXVXMXaXpX.X5X8.L.9.l.L.I.;.G.K.Y.t.t.k.k.K.OXj.k.F.=XH.t...V.r.6.v.h.g.G.c.g.U.B %   o 6 O.W r M p.B C Q.n.g.8.l.r.8.2.g.6.8.1.2.i.I.M r U 5.e 8 @.6 8 d % O   @               . 1 1 s % . O . . . O   X . . & y .                                                                                                                                                   . # $ 2 n q.$XrXrXmXBXBXBXBXVXVXVXVXMXmXmXmXNXyX-Xd.-.U.J.@X.XqXrXpXaXMXbXkX>X&X,XbXcXcXpXqXA.E 7 # @   . . . & q ..8X'.| | {.rXeXuXrXmXeXbX*XyXqXdXU.-.D.;XMXiXqX'.G.z 6 @ . .     X   . . . o o % N !.e w OX8X1.G M O.p.n g p.|.5XW Q 1.G.}.:.j & > > # $ 6 J FXjX&.jXjX. O m T.uX0XoX5.G 5.!.p % % . . > & 6 r 7 : 0 a 2 K 7 o   . & : % e N O   X X     . & B o.8 y S <   X   . . .   X   X . . X   . 2 ~./ I L.J.5X>XuX0XpXrXrXVXpXMXMXMXMXmXmXBXcXxX;XXXn.8 o . % . O O O O . . .               . . .                                 O O O . O . # # & %   o O 0 S 4 z N.G E ( 2.h.P.n C 0.6.( 3.g.K.^ ) Y.7.P.1.8Xv. XK. .W j.h.].tXrXeXeX[. .4.&XqX:XD.t.g.v.c.9.1.V  .A.6X@XJ.u.k $ # X $ -.=XxXBXmXmXmXmX",
"VXmXMXNXeXvX&X-.1 1 Y |.*XnX;X;XvX*X*XrXCXCXmXmXmXMXaXpXNXv.k.2.t.6./ L.9.z.G.g.G.9.c.J.6.-.j.k.{.{.j.4.e.Z 8.c.5Xc.d.J.}.k.E.B %   o 8 M.z q p Q ( e.^ 4.-.E.6.L.4.W.j.z.2.1.i.t.a.b r ) N.e % 6 $ 6 0 % O O                 . 1 6 ] y O O . . . .     . . . 0 .                                                                                                                                 . .           X   . # 1 g _ /.*XmXmXmXCXBXcXBXmXVXVXVXmXmXmXmXiXyX>Xg.) E.$X*XeXyXrXrXwXqX%X[.F.c.'.;XcXpXaXwXK.p.4 # ,   . . . # 2 5.7X].C.| H.tX*XeXrXCXrXcXNXrXcX*XlXg.6.{.aXaXrX=XY.V 1 . .   .   X   . . O . . 6 E Q.g k }.>X2X| M X.p.E Z /.oX7X1.! L.2X+X:.k & . @ @ @.HXFXFXJXJXHXKXHXe k 7.oX0XuXj.P / u.E N % O * . O & t 6 O ; 8 1 &.7 o o O . . . 9 S O @ X       O & n H & y S <         .     X     . . + o . 1 ~ V I /.F.=X$X&XwXiXmXrXmXMXaXVXMXMXBXBXcXeX>X>XXX2Xi o > 0 % : % * % O O O . . o o     . . O O                                 O . O . . . . # & % . . % s [ 5 h ..!.k 3.z.7.l.j b ~.6.1. .J.D.-.^.k.D.A.t.J.f.'.Y. .Z j. X&X.XrXrXrX[. . .&XuX-X[.G.}.=X&X<XE.x h I I.zXE.a.B < # . $ / 1XvXcXmXmXmXmX",
"VXVXBXcXcXtX5XU 6 7 / :X,X;X*X*XeX*X].cXcXNXcXmXmXMXrXrX*X7X[.4Xh.z.y.2.L.2.r.t.9.F.'.x.6.) r.k.c.h.E.U.u.y.9.9.D.F.@X&X&X|./.B # . O 8 7 G C B k | 8.z.^ L.t.2.l.i.r.L.w.u.2.8.7.l.O.M I ..M e J q 7 0 & O * .               . 0 6 : % O O O . .     . O . % y O . . . .                                                                                                                       O > % . . @ . .     o o i | F.*XeXeXrXmXmXmXBXVXBXmXBXmXmXVXmXMXmXNX>Xg.( U.:X>XeX&XF.k.#X9.:.H.kXx.{.;XAXqXaXaXoX9.g a y   . . . # q e..XuXK.3.8.H.uXiXqXeXBXxXeXcX;X;X=X X:.d.wXiXcXkX4XW 2 #   o O O     # . . O . 7 n.z.Z ..$XZX[.4.C } Q.( ( G.uXrX}.T k.T.T.^.g 1 > f HX&.FXjXt 7 q 2 w C  .k..XwXwXqX$XD.F.G.a.g q & O o O % a 7 . * 8 1 ~ M % O -     . & 0 %   @ @   . . : $ 1 # d 1 & .                           . # q n T 4X].=X#XD.bXpXpXpXrXcXmXMXVXBXeXNX_.].'.|.-XT.p : f 8 a t 0 0 f 6 0 > ; y , , y * > . # # .                               . . O . % . # % & % % . $ s J 2 k Q.G Z v T.9.) H q ^.9.e.W l.6.8.i.j.G.E.9.Y.h.f. X( E OX].'.{.yXqXwX.X|  .7XrX=X7XkX;XqXeXtX=X4XT r e F !.B.A $ # # 2 Y OXZXcXcXmXmXmX",
"MXMXBXxXcXtX+XU 6 9 -.>X;X;X.X].eXeX.XcXNXCXNXBXmXrXbX].v.8Xh.h.g.k.t.L.T P.w.4.Y.f.oX5XL.I.l.9.[.F.j.T.8.k.D.h.D.#X{.qX_.=Xi.r 1 . 0 9 { C Q.| e.V.t.6.W. .8.K.2.y.4.w.~.i.r.t.d.U.n j | p.M.q q q $ a : % . .                 . # % % . . .     . . . O . # y . . . . .                                                                                                                       : 0 : % . @ .   X O O : F L.ZXrXrXeXrXmXmXmXmXVXBXmXBXmXmXMXmXMXmXcXvX[.t.%X>XeXqX;X[.D.3XD.j.3X>X.XvX;XvXrXMXiXuXb.B s d . . . . # w L.XXrX$XZ. .t.uXwXqXcXcXcXcXcXxXkXqX|.;.6.yXwXcX,XzXi.4 #   o O O     . . . . O F +X].4.W.kXtX&Xc.( ..I.2.1.K.rXpX.Xf.g.U.:.a.O.7 % @.HX&.j k 4 r W q.a.u.2X3X@X*XeXqXeX*X>X1XG.) I C 9 ; o > J S & ; 0 e G M : O -   . . % 0 % . o o   . O . . & d s & . .                           . . & n 9.|.&X>XzXj.>XrXaXmXbXcXmXVXCXBXrXtXf.v.v.].oXOXb : : : 1 1 1 6 0 & : & % % O . . . O . . .                                 O % . # & . % % > # . # $ s S 2 ~ Q.! Z 1.-.t.e.m p n.9. .W 2.9.8.8.G.j.E.G.Z.c..X8X( B c.].=XZXqXwXaX&X! ! @XyX{.*XeXrXrXpXcXeX-XD.p.p e H K 2 # # # 3 B I.>XrXcXmXmXmX",
"MXmXBXxXrX-X+XP & 7 2.-X;X;X.X].eX*X.XcXcXcXrXcXrXAX;X=XF.6.Z.9.j.S.8.6.gX8.r.j.;.F.}.K.y.-.8.OX>X[.1.1.j.;.x.$XJ.t.'.eXtXc.W e # # . 9 X.E p.3.e.( gX-.) w.gX2.j./ 4.i.W u.n.G.7.9.Q.C I a.C r r S $ 6 0 O O O                 . . & * O . . .   . . . . . . > .                                                                                                                             . 0 0 & # . .       O 1 n 8.$XtX*XrXrXcXmXmXmXmXVXVXmXBXcXmXMXmXMXmXrXpXcX&XkXeXpXpXmXeX*XNXqX>XvX;X;XAXeX;XeXaXiX0X XM u a # # . . & w ^.-XrXkX<X1.-.=XqX0XNXeXcXcXcXxXxXqX=X9.>.-XrXxX,X6X^.4 . .   .   X X . #     & ( -XwX@X$XvXeXyX&Xt.l.4Xg.r.<XrXmX&X:Xh.F./ U k e f IXHX] q k B 4.OX|.5X8X3XA.3.y.%XqXpXVX*X7X7X5Xv.T.G 1 O % 7 q 1 % 6 6 M m : O +   . . # > O . o o     O O % : J 0 % . .                             O & B T.|.tX>X%Xg.&XrXaXMXrXrXmXmXmXrXnX*Xf._.].-XXXOXC 8 : e $ $ $ 1 $ & $ $ & 7 7 $ $ 1 . O .                                   O * % > % # & & y % % # 6 S S 2 w ! O.E 3.i.6.i.} M 1.I.I e.u.z.y.z.t.Y.t.8.gX7.x.}.| ! 1X].[.$XdXuXyX=X . .&XqX{.*XrXrXpXmXmXrXrX-X4Xw.V w 1 $ . . . $ r a.=XrXmXmXmXmX",
"VXMXCXcXcX-XT.x & 7 8.*X;XvXeX*XbXrX*XNXNXNXmXcXcXbX&XZXg.g.r.l.8.2.U.8.8.i.4.t.J.>.v.9.2.W.t.h.:X$Xy.u.;.c.|.[.t.j.lX.XZX1X..7 % . % i C ! V.3.I ^./ 8.1.I.y.j.8.8.y.4.u.^ P.9.7.T. .Z W 5.p.n q J e 6 @.% O .                 . . > > O   .         . . . . > O     . .     .                                                                                                               . y 0 # . . .   + o : Z z.7XNXbXnXcXcXmXmXmXmXmXVXCXmXBXmXpXmXpXBXrXrXpXMXeXnXrXaXaXMXaXwXaXiXmXeXeX;XxXvX;XeXqXpX0XOXb : a 1 # . . $ w /.-XrXvXlXj.-.v.-XqXcXeXcXcXeXxXeX*X-Xk.>.f.ZXxXxX:XT.4 . O       X   # 6 + O b n.7XwXZX*X;X*XpXXXd.D.$X9.r.4XeXcX;XZX].{.SXP.! 9 =.UXu b ..n.z.c.oXsXsX.X&Xj.E | #XeXmXVXcXvX>XdX.X8Xi.n % % $ 2 9 1 6 6 N s : o     . . . % O   o o     . O % % d . . .                               . 6 C +X.XtX.XD.k.;XrXaXaXrXrXrXpXmXeXbX>Xx.=X-XyXuX X! 9 7 K t 1 < e $ 6 & & 9 a J r e s # * @                                   O * . 0 % & & % & # . # & d d 1 r M.| W W 1.G.I.Q n 8.-.u.) 4.i.2.2.U.9.<Xt.4XF.x.F.( ! OX'.F.'.>X-X-X$X3.3.=XrX*XuXmXMXmXmXmXpXMXwXtX6Xj.Z 2 & . . . # 7 p.&XpXmXmXmXmX",
"VXmXCXnXrX-Xm.z & e k.>X;XkXtXeX>XeX*XnXcXmXcXcXcX&X@Xc.Z.S.L.1.t.c.>.g.1.a.i.2.c. X5XF.9.t.z.9.x.h.K.2.gX9.d.D.t.Z.{.=X'.gXQ 7 . * . 1 Z p. .V.L.) g.-.4.w.y.L.y.8.A.y.1.l.2.7.J.G.a.B P a. .n 2 S 7 $ ] : O .                 O O % * .             . . . O * .       . . . . . .                                                                                                           . d 9 # O O @   o % w 2.-XMXaXrXBXcXmXmXmXmXMXVXmXVXmXmXmXrXmXrXmXrXcXqXrXeXNXpXmXaXpXrX0XiXwXpXeXNX;X,XkXxXrX*XbXuXOXb 8 a 1 # . O $ g E.tXrXcXtX#X8.7.}.uXeXeXeXcXeXeX;XXX.XJ.6.;.lXxXbX*XG.w . .   .   . # < s > & P 4X}.d..XrXAXpXVXMX{.$X:Xh. .R.,XeXcXcXmXpX*X$Xi.m : a m i.2X'.x.&XbX0XwXMXmX;Xy.y.zXkXcXmXcXeXeXeX*XdX#X .1 % & 9 t 1 $ & 0 d ; .     . . . . O             O % . % O O O                             . . e ! 1X-X*X&Xc.F.xXpXaXaXrXrXmXpXmXqX=X[.F.7XuXrXwX'.w.n r K s 6 l A 4 e & % : 8 J e q a $ & O                                   . O # y # & 6 & # . . . % 0 0 6 8 b p.^ ) 8.d.P.! z z.OX6.^ ! ( ~.:.t.J.F.c.F.,.'.OX} Q G.'.[.{.F.[.$X#X3.1.&XNXeXcXMXMXmXmXMXMXaXMXMXrX=XI.{ & # . . . 6 O.{.aXmXmXmXmX",
"MXmXBXcXcX&Xn.z & p Y.tX;X;X*X&X{.&X{.eXeXrXrXrXeX&XF.g.U. .I. ./.g.c.;.I.V.) l.c.|.8X9.g.U.1.8.H.7.G.2XG.k.c.#X#Xh.F.=XK.4.M 9 # . . e h a. .e.r.P.2.2.^ w.C.3.A.8.t.8.8.2.E.:.>.6.a.I P a.a...w J 1 $ : 0 O *                 . . . O     @     @     . . . @           . . . . . .                                                                                                         . 0 6 . ; O o o O b 5.|.sXMXVXVXCXmXmXmXmXmXMXVXMXVXmXMXpXrXmXrXcXeXnX*XqX;XbXNXmXpXqX*Xv..XqXyXrXNXcX,X[.eXcX>X-XXXc.j e N 1 $ . O $ V Y.tXmXmXcX:Xk.;.h.-X*XeXeXcXrXcXeX*X{. Xd.-.<X,XxX*XY.j # .   . . # $ 3 ` : 6 -.1Xg.6.[.;XCXqXiXaX*X&X{.H.1.Z.kXeXcXrXVXaX.X7XY.B F } W.J.{.qX{.&XcXmXVXaXMXCX;X%XkXkXcXmXcXcXcXcXbX>X7Xl.n % # % 7 7 $ # : > O       . . . . .             O O . O % . .                         . . . # e a.8XuX*XxX@X@XxXrXpXpXrXNXmXmXrX*Xh.t.'.eXyXrXrX&XE.( w e y & L A q 7 0 : % # t 1 < 7 $ % O                                   . O % 0 $ & 0 & # % % % % : : 8 : m I ) P 2.P.l.! E T.x.T./ ! p.W 0.2.OX'.d.|.|.v.U.! G A.'.&X{.[.F.F.K.y.y.*XrXrXpXMXaXmXmXMXMXaXVXMXwX*X4Xp.1 # . . # 1 o.{.aXmXmXmXmX",
"mXrXBXcXcX=Xn.k & p 2XeX;XkX*X.X&X;X*XnXcXmXMXBXcX.X[.R.4.u.W L.1.j.4XF.-.4.t.9.c.c.z.l.8.k.2X6.g.H.J.;.9.G.<XD.$X@XdX[.J.i.o.6 % . 8 q a.u.1.i.t.t.g.8.u.u.3.y.2.z.t.t.t.U.;.d.c.k.4.V z e.a.( q S a 1 & s . O .               . . . .   . @     @       . . @         . . . % . . . .                                                                                                       . & $ . * o o O m 0.}.yXiXiXMXMXmXmXmXMXmXmXMXVXMXVXmXMXmXrXcXqXrXqXNX.X;X>XvXrXNXrX*X3X2.h.>X>XvXcXcX:Xc.*XrX;X&X].d.k D K 1 $ # O 1 3.|.rXmXmXcX*X|.g.6.F.7XeXcXrXcXcXeXeX.X=Xc.1.y.,XeXqX5Xw % . . . . . < c M.9 p a.}.h.[.6XH.@X.XrXXX].5X$X#Xr.S.vXnXcXrXaXrXZX[.'.7XF.$XZX>XeXeX&XvXCXcXxXBXwXaXrXvXkX%XkXxXVXVXmXeXeX{.tX4Xp.7 . O $ s 1 $ O * .   o   . . . . .       o     O . . . O .                         . . O O % e Q.5XtXeX;X&XkXeXeXrXiXrXrXcXpX0XXX-.1.=XeXcXcXxX;X7Xy.q & * % a 7 6 $ 0 0 1 7 t 2 1 1 1 .                                     . . % & # $ s 6 # # % % % . . : D C 5.a.z Q.2.( } n 9.b.d.;.1.Q.(.^ P.7.ZX'.ZXF.c.A.G b r.F.>X&X>XF.g.Z.U.<XZXqXrXpXaXaXcXcXMXMXBXcXrXmXqX{.u.j # . . $ 2 5.{.pXcXmXmXmX",
"VXmXBXBXNX=Xn.j 6 b <X*X;XxXeX;X&X>X*XnXcXmXmXmXNX>XlXg.U.4.i.i.1.8.}.F.U.L./ 9.7.h.j.r.g.k.j.9.J.K.9.E.9.k.J.F.'.{.].7Xh.i.o.1 % . % $.I.U.4.i.t.9.9.y.u.4.i.w.r.P.A.j.2.t.P.U.K.g.a.E I Q.0.^ q a S $ & s 0 % .             . . . . X           X     . @ . *         . . . * . . . .                                                                                                         # % . ; o O p p.2X*XwXaXVXVXVXVXmXmXMXmXmXMXVXmXMXmXMXpXrXrX*XeXqXmX.XvXvXeXrXmXpX>XzX( 8.lX=XtXNXcXkXc.*XeXtX>X|.t.Z X.` 3 $ # O 7 I.=XrXpXcXcX*X-XJ.;.g.lX*XNXqXrXcXcXNX.X7XOX) ) lXeXqX8X4 % .   X   . $ g N.b r 4.K.F.lX#X9.9.}.5Xf.7.J.F.g.t.2.;XNXrXCXwXeXH.zXeXpXpXpXqXrX*XnXxXeXrXcXnXxXMXaXrXcXvX;XvXeXrXMXpXmXvXF.F.J.i.w :   . s 1 $ . * . . o   . . . .         o     . . . . .   @                       . O O . % 2 e.v.*XtX'.{.xX;XeXmXiXpXwXrXrXwXdX) 3.ZXrXrXcX;X;X*XK.q & % * > # : . : : 9 J S q 2 $ y O X o                                 . . . . # # s 0 # % % : > % % 9 B.z I E k E a.a.M b T.b.P.T 2.^.U 8.8.D.F.h.'.v.c.U.| G j.[.=X'.{.h.6.j.J.$XvXqXcXaXMXMXcXcXmXMXnXnXcXCXpX*XK.B .   . $ 4 1.}.yXcXmXmXmX",
"rXCXBXcXCX|. .r & n 4XeXnXxXeXv.{.{.*XrXBXmXpXrXeX*XF.3Xt.t.r.4.j.k.d.g.u.i.L.2.c.h.>.z.k.9.4.8.Z.E.y.4.G.h.'.v.x.&X_.dX X-.C & O % $ X.8.h.r.L.;.9.-.t.i.u. .i.C.4.z.-./.y.8.g.9.8.~.B k Q.4.4.q S @.9 $ 6 d . .               .                         . .         . . . . . . O . .                                                                                                       . O O % ; : 6 ..A.-X0XrXmXcXBXVXVXMXMXmXmXmXmXmXMXVXaXaXmXeXuXtX*XpXmXrXeXrXcXmXpXCX*XzX3.;.=X=XeXrXNXnXxXx.'.eX*X=Xy.n K $.g $ % O e P.-XpXMXcXrXqX*X5X9.1.E.tXqXrXcXcXBXrXbXx.OX) ( 3XeXwX5Xw O   X   @ O # 9 K F k 8.Y.t.c.:Xc./ /.8.2.^ ^.6.9.t.[.*XrXNX.XZX:XJ.6XyXiXqXrXeXeXxXrXpXMXVXmX,X,XcXwXqXeXrXrXpXMXwXaXMXrXvXD.1.I.^.I 8 o @ . # # # . O . o X . . .                   . O O .     o                       . . . # 7 I 1XXX,Xc..X;XvXtXrXaXMXrXeXrXwX_.3.3.'.cXBXxXnX;XNX|.j & . X @ o . . . % & & $ & % % % O                                       . . # 6 0 6 # . . O > % . % 7 q.( q 7 F E I.2.E W 8.6.p.I U T.l.-.z.U.E.6.g.1X5Xh.1. .A.F.F.F.&Xf.6.D.[.ZXeXeXcXpXMXMXbXvXmXmXnXnXnXcXrXyX|.W . + . $ w ) 1XyXrXmXmXMX",
"cXCXmXcXBX{.( 2 & n <XqXeX;X*Xx.F.[.&XeXmXmXmXpX*X.X:Xd.j.t.8.U.t.t.h.h.r.1.r.t.6XF.k.t.g.E.4.8.j.A.l.2.k.F.:X7X=X{.ZX_. X2.F & % . $ C G.h.y.4.l.g.:.gX-.2.3.I.u.u.-.j.t.8.8.2.A.i.I. .n } 8.1.j e N 1 1 e s > O                                               @         . O > . O . .                                                                                                           O O % q E T.|.wXwXrXNXnXnXVXMXMXMXmXmXmXmXmXMXMXmXMXpXeXtX=Xv.XXrXrXcXmXmXmXpXMX;X4Xr.h.ZXeXrXrXrXrX;Xh.[.qX*X$X8.B %.N.n 1 . O e U.qXMXMXcXxXpXpX-XF.4.r.&XrXqXrXqXcXrXeX_.F.w. .D.ZXwX|.j O   X     . % 6 K O.( 3.I.l.k.OX/...C (.W o.q./ U.4X>XpXiXrX{.}.J.8.D.qXaXrXrXcXxXcXcXMXMXMXpX:XlXeXwXqXyXiXiXaXiX0XqXpXqX*XD.(  .<X6.6 =   X # # # # . .   X     .                     . .                                 .   . 1 Z OX-X$Xc.;XeX>X>XrXaXMXpXrXbXyXv.4.r.@XcXcXcXnXeXNX$XC 8 .   o     . . . . . O O . . O . .                                     O O % > y 0 % % . . ; % . # 7 1.a.r 9 p ~ ^ ^.Z V 8.n...k / T.6.T n.A.j.9.#X1Xc.g.4.1.j.F.@X{.ZXv.g.<X{..XrXAXmXmXMXMXbXvXNXBXcXnXcXcXrXrX|.( O +   # q W }.tXrXmXmXmX",
"cXCXcXmXBX|.E 1 6 C 1XrXcXcXbX{.[.&XxXcXmXMXmXrXeX].h.c.6.6.2Xt.u.i.k.OX9.8.2.g.g.Y.8.r.r.r.j.9.8.t.r.8.j.c.=X{.>XvX.X=X;.n.q 8 O . 1 ! h.h.t.r.z.8.E.9.z.2.u.( L.-.l.j.8.l.2.r.8.-.i.W r o.I.2.n 7 K 2 p p e 0 O     X       .                                 . . . . O . O * O . .                                                                                                             * O 1 E z.7XXXrXqXrXnXcXcXcXcXmXmXmXmXmXmXmXMXMXMXMXrXqXdX{.f.'.*XcXmXaXaXrXcXrXtXR.j..XCXrXrXmXmXcXbX[.;XNXyX$X1.B Q.M.n 6 O O e G.uXMXMXcXcXaXaXXX5Xy.^ c.bX*XvX*XcXcXeX*Xv.L.1.8.lXqX Xb O         . % q O.~.( j Q P.g.( } 9 : $ 1 2 h ) T.].oXaXiXbX$X4. .U 9.&XrXpXwXpXrXmXrXrXmXaXrX6X=XqXwXuXyXaXaXiXwX{.{.tXtX*X#Xw.( =XK.r ;     % # # & % O     X                       . . .                     . . .           O & B OX8XF.k.vXeX%X:XeXpXMXaXrXvXeXc.8.G.7XeXrXcXcXcXcX=XW 7 % .   o . . .       X X X X   . . .                                   . . . % : : % . O . . : : % w 6.T.%.6 i D B p.K j ) a.E g :.T.1.P i.j.c.c.>X=Xh.8. .W 4.c.*XeX*X>X#X#X'.qXAXwXmXaXMXMXnXvXNXVXBXVXVXMXrXeX$X( O + o . & C G.tXrXmXmXmX",
"cXcXcXmXmX$XG 1 1 C |.wXcXcXvX&X&XvXnXcXpXmXmXrX;X{.F.d.9.z.9.9.4.2.Y.h.G.k.A.S.8.t.u.u.u.i.8.U.y.r.;.k.K.c.8XF.vX*XtXv.P.V r # O : 7 p.9.c.t.y.u.i.7.h.9.U.^ C.r.4.g.j.L.8.r.8.2.) ^.I q } 8.u.n e #.r b r 1 & . .   X                                       . % . . . O .   . .                                                                                                               + O % b i.}.qX0XrXeXeXnXcXcXxXeXpXmXmXNXBXBXmXMXMXMXmXqX*X7X$Xc.{.,XxXrXiXiXeXeXeXvXZ.t.&XrXwXpXmXpXeXxX&XbXNXuX1X-.V (...g 1 . O q m.uXMXVXnXnXMXaXwXdXG./ 7.&X&XtXxXcXcXeXtXv.P.1.1.zXXX}.b O     . . . 6 r Q.n. .b m W z 7 8 O O % 0 9 2 c n.|.qXaXwXuX}.1. .) t.-XwXaXwXaXpXmXrXqXrXrX*XD.9.&XrXtXuXpXaXpX*Xx.h.{.*X*X=XS.2.uX|.E : =   % . # & : O . . o                       . .           .       . . . . .           . % b T.4X9.t.>X>XH.$XeXrXaXpXeXxX*Xv.h.[.>XeXrXmXcXCXrX=X .q $ . O O O O O .     X X X X   . . .                                   . . . . . O O O O % O > 6 & w 7.T.o.9 6 D n Q &.M ) ~.o.n 1.n.p.I 4.u.J.g.v.'.4Xz.4.4.j.H.>XeXeX&Xh.6X=X*XNXwXmXpXaXmXbXbXmXMXVXVXVXVXmXeX|.( % + o . % b k.tXcXmXmXmX",
"eXrXcXcXqX}.C 6 7 G |.rXcXeX&X{.&XxXcXrXrXmXBXcX;X{.SXg.A.8.g.t.2.y.g.U.-.E.i.P.g.9.j.l.I.u.r.P.I.4.6.c.k.K.<X{.uXeX*XF.5.n 6 O . # q 5.g.c.j.r.3.r.g.h.k.j.t./.4.y.8.g.9.8.-.8.n.1.n.! b X.;.n.G p $.q w b 1 $ % .   X     . .                               . y * . . . . . @                                                                                                                   O 1 ! T.-XqXpXcX;XxXcXmXcXrXeXpXmXmXmXNXNXmXmXMXMXpXrX*X$X}.J.$X:XvXrXaXpX;X,XeX:X4.1.&XrXqXwXpXrX&X;XqXmXrX>X6X2.P (._ 5 & O . q m.uXMXVXBXBXMXaXsXuX$Xk.2.h.{.-XbXnXxXcXqX'.c.-.1.E..X4Xr O     O % $ q w (.T.n.X.a 7 & = O % 7 s jX=.@.6 b w.1XtXwXwXXXc.g.D.[.yXiXmXrXmXmXrXrXrXrXqX'.1.P @XeX>X*XqXuXeX&Xc.g.F.-XqXwXqX_.rX.X4.q : . . . . # % . O .                         . . @               . @ O . . .             O e a.T./ 4.=X>Xj.#XtXrXaXMXcXvX>X{.'.{.>XeXpXmXrXCXrX:Xe.w 7 7 % O O . O . . .         X X o                                     . O O O O . . . O > . : & 6 4 -.4.C p p r n Q M M U I.p.j B W a.Y 5.p.e.( t.h.5X|.}.F.F.$X$XF.>X.Xg.:X>X*XbXrXmXpXpXmXcXcXMXMXVXVXMXVXmXvX|.) 6 +   o o e t.-XcXmXcXcX",
"eXcXcXmXqX|.b : 9 ~ 5XBXBXcX&X&X;XcXcXrXrXpXNXbX>XH.Z.U.r.2.T.6.t.4.T.;.t./ u.u.6.k.g.8.3.( L.t.I.) D.c.d.J.g.[.*XXXZXd.! m : o . & j a.g.K.G.L. .L.d.F.9.g.gXt.r.t.G.6.g.A.;.P.4.4.2.( H X.t.g.E r X.g g X.b $ % O   X       .                               . y & . . . .   @                                                                                                                   # q 5.OXuXwXpXrX;XeXcXrXrXrXrXpXmXmXcXcXNXmXmXMXMXaXrX-Xc.9.D.$X>XvXcXMXMXeX&XtX%X| ( #XvX*X*XaXmX;XvXpXVXrXtX5X9.U ~.e.g % O O q m.uXBXBXBXBXMXaXCXqXuX6Xt.4.v.&XvXxXxXcX*X|.v.;. .L..XhXr O . . . & 7 q w V.G.9.H 8 % ; - o & $ @.IXKX=.% 7 I D.*XrXNXyX[.}.8X>XrXwXrXrXNXNX;XbXvX=X-X}.t.8.&XeX;X;X;XeX>X:X#XF.D.=XyXpXaXpXwX*Xk.W 6 % . . . . O % % .   X                     . . .       . .   . O , * O . .             . 1 1.P.W 4.$XZX8.K.>XrXaXMXnXvXvX;X*XXXqXrXmXpXrXNXaX>Xu.g g ` 7 & # # . . . . . .       X X X                                     O O O . .     O * . & 1 a w ^ a.E q @.7 Z ..r Q ^ I.M.n M E 0.Y a.p.E E S.g.c..X-X'.h.$X6XF.{.-XH.:X:XvXbXqXmXaXmXmXBXmXMXMXVXMXMXVXmXtX-X6.q O . O o 8 r.-XcXmXmXmX",
"tXcXcXVXwX1Xb : 6 E {.pXmXcX;X>XbXcXmXmXaXpXrXtX:XD.4.4.4.I./ i.1.4.y.2.9.6.P.i.r.t.gX1.I  .y.k.j.8.Y.G.h.4Xc.'.{.{.=X8.E p = o   6 n ~.9.D.D.A.~.i.6.v.9.8.Z.t.8.P.c.h.G.j.T.l./ u.I.5.r b 9.z.E r ~ C k $.L $ % O   X       .                         . .   . 0 $ # . .       X X X                                                                                                           O $ k a. X*XwXrXcXeXeXxXeXrXaXaXaXmXmXcXcXcXmXmXMXMXaXrX&Xh.6.k.eXcXcXrXMXMXrXeXNX%X+.Q Z.:X&XqXpXMX;XvXrXmXqXuX-Xd.V a.n.x % + O 4 z.qXNXBXBXVXVXMXNXrXpXtXS.3.g.=X{.nXnXcX>XoX X9.W w.5X2Xp O O . O % J e b p.6.) m 8 % O + + O @.HXf 6 9 7 Z A.5XcXrXeX-Xh.<X>XuXrXrXeXcXcXcXkXlXA.y.}.-XoXuXrXcXxXxXcXrXrXeX@X#Xt.k.=X*XrXpXqXeX Xn.n & . X     O & 1 #   o                     . . .       . O . . @ > * @ . .               $ U n.W w.$X7X-.Z.7XrXaXMXnXkXvXvXeXrXpXaXaXpXNXrXMX*XV.j k !.` n 2 $ . . X       . .                                               . .           O # 6 1 [ g U ~.G M i i Z ..w ~ U a.o.r M C ( ^ p.| | 3.S.h.c. X|.{.h.$XZX;X&X[.D.:X:X&X&XNXmXmXmXmXVXMXVXMXMXmXmXVXcXuXuXb.k $ # % o 8 w.:XbXNXmXmX",
"qXqXrXBXqX4Xr % 7 ! {.mXVXBXeXAXnXcXmXMXMXpXrX>X#Xt.1.r.4.2.i.2.1.W.r.j.;.U.u.^ z.z.A.2.W ( A.6.2.j.8.t.9.}.6Xc.D.3X9.P.W r ; o @ # B ) h.9.Z.1.3.w.gX7.k.z.6.t.2.t.c.K.;.T.1.) I.-.P.0.b H t.T...n H C 4 X.A 7 & O                                     .     . s 7 # . .     o     X X                                                                                                         # $ g ~.+XoXqXNXrXqXqXeXeXrXaXaXMXmXmXcXcXcXmXmXMXMXpXrX>XF.c.$XbXMXrXrXiXaXmXrXBX>XC.| 8.F.{.bXrXMXeXbXrXmXwXrX-Xd.z o.~.P % o O 2 h.*XbXBXVXVXVXMXrXNXiX*XE.y.6.$Xh.kXxXeXeXXX-Xh.z  .5Xb.b O O   O : &.b F O.^.) 2 % s f y f f KX=.6 2 g Z /.}..XpXpXwX&X/ Z.&XrXqXbX,XkX;X;XkXzX .I j.=X0XaXmXmXcXcXmXrXrXrX&X3Xt.t.:XtXrXNXqXeXtX2X..2 :   X     % & .                     .                 . . . . O .   .               X # V n.) y.{.>X-.D.tXwXiXpX;X&XeXeXrXmXMXMXaXpXCXrXMXqXL.k k (.~.5.B 2 # O .       . . .     X                                 o     . .         . O % 1 1 #.5 ) 1.C m : : G ( g } W a.o.n H b Z q...B ~.C.2.h.|.v.v.6XD.H.{.{.;X=Xh.6.d.:X>XcXmXpXrXmXMXMXMXMXmXcXmXNXeXeXsX|.B 2 # # O 7 4.=XeXcXcXcX",
"wXrXcXcX*Xm.w 1 b V.:XmXMXMXmXmXcXrXMXMXrXqXtX>Xc.t.w.3./.-.j.u.i.r.2.g.U.t.3.r.d. Xg.w.| a.d.c.U.j.j.2.9.J.3X9.g.SXD.P.I %.&   @ # g ^.d.J.4.1.L.4.L.4.9.g.E.8.j.6.h.h.9.4.E C 1.z.c.8.b M 2.9.( C n H q X.X.2 & O . . # . X X                               # L q :       X       o o       X                                                                 .                   . .     +   $ < q k T.|.XXyXeXNXNXrXuXrXaXiXpXrXmXmXmXmXmXmXmXmXmXmXcXxXeXeXCXrXBXqXmXpXrXrXeXcXkX,X{..X*XeX*XrX*XZX;XeXmXwX8X2.B p.(.z & O o 1 6.uXNXmXmXVXVXMXMXrXrXeX>X$X;.6.[.;X;XnXmXwXwX$XE ! 8XOXq =   o   % !.Q e X.~.x < s HXKXPX&.8 7 w ! t.<X$X:XZXeXMXiXiX_.T A.ZXqXZXH.A.E.H.:X>XF.-.U 9.|.XXXXrXrXeXeXrXrXpXpXZXh.J.H.&XuXpXwXNXyXtX'.hXx 7 O X X   . .                                       o     .   .         X           . # w  .j.6X>XkXt.k.qXiXrXuX{.'.NXmXcXcXpXaXmXmXrXVXpXqX4XW B N.$X6X~.e 9 % # # .   . . . .   o o                               X X     . . . . % O . . % 6 e j U a.o.9 ; O b E n k V Q.~.V G O.Z ! | B ( r.t.<Xv..X@X$XF.h.D.h.tXtX#X-.) t.5XtXqXwXmXVXVXMXMXMXMXpXCXcXeXcXqX5X1.4 . . . 2 r.$XxXcXmXmX",
"iXwXcXxX.Xz.4 < b C.,XcXMXMXMXmXcXmXMXiXrXbX-Xv.g.t.4.V.i.j.2.l.L.1.t.j.8.u.e.) 1X'.l.( Z i.K.F.k.U.6.E.h.h.$XD.Y.t.gXY ) w # *   8 W ^.c.}.E.y.r.W.3.V.2.6.4Xk.2.U.h.>.Y.~.M M 1.h.K.:.r r a./ 5.C C ~ b H X.r & % . . # . X X                               # A j ;   X   . .         . .   X                                                                 .               .   . .     + o $ $ & 2 e.2Xv.x.}.|.|. X|.>XCXMXrXcXmXmXMXMXMXMXMXMXmXcXrXrXrXeXmXrXCXrXmXrXrXmXrXcXcXeXeXeXeXeXeXbX;X;X;XeXaXrX8X1.k p.~.V 1 o o 1 6.-XsXBXmXVXMXMXmXrXrXeXeX&Xj./ }.&XvXxXrXaXwX5XQ I  XhXq O   O o 6 (.4.9 D P P < s IXIX@.6 7 C  .U.=XyXeXeXbXeXMXiXiXXXj.E.'.-X$X2.B E 8.lX>X>XH.k.[.>XuXyXcXrXeXrXrXpXpXrX].7.g.<X1X>XyXsXrXeXvX&X7XT q % X X   .                                                 .     X   X X         . . # 7 ..K.-XeXxXD.'.wXiXrXtX.X{.rXpXrXrXrXmXmXmXmXVXmXeX7X-.j +.*XeXE.+.e & & . .       .     o                                 X X     . . . . > * O * > 0 t k U a.n 9 O > M $.w w h N.5.V V ..E n M.n 3.r.) R.{.'.{.7X:X[.k.c..X*X6X2X( 4.8XXXyXcXmXmXmXmXmXCXVXmXCXrXcXNXeX:Xw.q . X # 3 4.1XeXcXmXmX",
"iXwXcXxX=Xl.4 < b C.%XcXMXMXMXmXcXmXmXpXrXNX&Xf.9.j.4.V.i.4.8.j.4.r.6.k.P.r.a.u.h.h.n.B E 3.6.>. Xc.F.h.'.7X|.H.k.8./.x E 2 . + , % P z.x.OXj.r.L.1.4.8.8.SX2.t.z.g.k.9.9.1.F F u.d.>.^.F F a.-.4.( q.~ j H B.b 1 : . . . . X X                               # b M .   X   . . .       . .                                                                                       . . .   .     X o O & M p.1.4. .| ! } e.L.=XeXrXrXcXmXmXmXMXMXmXMXmXcXcXcXNXcXcXrXCXcXmXrXrXNXcXcXrXeXeXnXcXeXqXrXvX{.cXNXpXqX6X4.B p.Q.B 6 O o & 6.-XsXVXmXBXMXMXmXrXeXeXeX&XE.Y k.5XvXcXqXBX.X6X| h d.gX7 O $ 1 # e ^.P.b p Q.c 7 =.HX=.: 7 ) g.G.8X>XrXeXcXxX;XcXrXqXtX4XA.g.SX<X2.B I 2.{.qXrXkX$X:X;XeXrXcXrXpXaXmXpXyXtX{.h.-.1.) Z.dXyXuXeXtX=X7X2.q ;   X X                                             . . . . . . @               . . # 1 ! <X*XeX;X@X&XpXiXrXyX*X*XrXrXrXrXrXpXmXmXNXmXrXeX:X9.g E -XwX=XT.E 1 #     X X X X X X               .   . . . .         . .       . . . O     O ; & $ 4 U N.C 7 S i H ` r b k !.~ C I p.E } X.Q ^.Y U.9.6Xx.]..X|.|.F.$Xx.tX.XF.C ! oXXX=X;XmXMXMXmXmXmXMXaXmXrXmXBXcX:Xu.w . X . <  .<XeXcXmXmX",
"sXrXcXxX:Xt.w 2 M L.kXcXMXMXMXmXVXrXcXNXpXqX.XF.t.1.L.4.1.i.-.U.4.r.G.9.8.4.W i.2X9.(.! C p.^.t.d.F.D.d.v.c.5XF.g.U.t.) C r O     & x T.9.9.k.S.1.3.i.4.T.;.g.6.j.z.z.j.U.^ r } u.h.d.2.b b ~.u.1.1.5.I q M %.w q t O . . .   X                               . j K #   X   . . .       . .                                                                                         . . O O O . o - f 6 e b G !.Q G b e r E k.vXeXrXrXmXmXmXMXmXmXmXmXmXmXNXNXcXcXrXcXcXcXrXrXNXmXrXrXrXcXcXcXrXwXeXvXv.rXpXwXwX$Xt.I p.p.g & = o 1 6.-XNXBXmXBXVXMXmXrXeXrXeX=XE.Y 2.lX&XNXeXNX*XlXC.x >.~.9 % 1 < $ q T.OXE p M.~ 1 JXHX8 7 E E.5X.X>XqXrXrXcX;XeXbXNXXX-X4X/ U /.J.J.j.E.{.*XpXmXeX,XvXbXcXpXmXrXrXmXrXrXeXtX&X6Xj.r.( 3.A.F.=X;X,X@X-XA.e O .   X   . .                                       . . . # . . . .           . . . % & Z 2X&XvX;XxXeXmXpXaXmXeXbXmXmXrXrXrXrXpXrXcXeXrXeX=XA.k I 7XsXXX XN.7 . o     X X X X     . . . . . . . . . . . . . . . . . .         . . .       % & 2 4 P N.M 7 K r B w q r g M.M n W a.k X.H n /.Y.2.gXg.h.&X>X1X#X'.[.>X{.-XF.W W 3X-X@X*XrXMXMXmXrXrXpXpXrXrXmXmXmX>XP.j . @ . $ E E.;XcXmXmX",
"wXwXcXkX1X2.4 2 Z U.kXcXMXMXMXmXVXmXcXcXrXqX{.D.4.i.2.i.(  .4.g.8.z.k.k.1.) u.) 8.t.e.n b o.i.P.1.i.1.8.7.h.h.x.<XJ.K.-.0.5 7 . O 6 a.Y.>.D.t.j.3.3.4.u.4.P./ j.g.y.8.8.P.^ b G I.h.9.) C M e.8.i.2.) | j M o.4 j L % @                                       . b #.6 O X X . . .     . . .                                                                                         @   . % # 9 6 a B.r 6 & e X.q.N.N.| n V 9.;XcXcXmXmXmXMXMXMXmXMXmXmXrXrXeXqXcXeX*XeXcXcXNXNXcXcXcXcXrXrXeXrXNXrXeXf.*XrXpXCX&Xk.I ..5.g & O o 6 8.-XNXBXmXmXVXMXmXrXrXrXrX:XG.) -.<X&XcXBXrX>XlX2XT -.o.8 O 0 # % 4 OX|.3.n H p { JX9 j i.2X1X-XqXaXiXMXmXcX;XxXBXMX0X-XE.B B W.}.5X$XZXyXmXMXMXeX,XxXcXmXMXMXpXxX>X;X*XqXrX*X:X<XE.i.C G ! h.;X:X%X&X2Xp O O   X   . . o o                                 . . . # $ 1 $ . . . . . .   . .   . % b U.&XvXxXcXrXmXmXaXMXcXNXmXmXcXrXrXrXrXrXcXeXcXrX=X2XI I Y.].`.+XQ.e o +   . . .     . . . . . .                       . . . .           @ @ o   . 0 p j B M.w C ` C k n e 7 r K b r ^ n.n { m G l.9.4XZ.D.F.].].k.k.=XtXeX{.c.h.Y.2.U E.kXxXrXpXaXpXcXcXrXpXrXrXmXmXmXkXE.B # X . # b L.>XcXmXmX",
"iXrXcXkX1X) 2 1 E U.kXmXMXMXMXmXMXBXnXeXqXyX{.9.r.1.l.1.( 3.1.8.t.-.h.k.u.u.r.P.2.1.e.+.b } e.4.w. .w.-.9.4Xh.d.D.3XK.U./ o.$ > > e a.K.c.9.D.;.(  .I.8.z.-.8.U.t.j.2.2.I.Z n M.L.9.>.L.X.X.I -.6.i.0.a.n M $.g B #.: O     O .                               O r #.e O     . .   . O O . .                                                                             . . .   X   o   . & 7 #.7 r N.w 1 % & < 5 P o.O.p.L.:XnXrXcXmXmXmXmXMXMXmXmXmXmXcXcXeXeXeX&X'.*XeXcXcXmXcXcXmXmXcXrXrXrXrXqXeX_.rXrXpXrXtXJ.Z G a.z & o o 7 9.uXrXBXBXBXVXMXmXrXeXeXeX*Xj.t.y.j.>X*XAXqX:X$X4X;.^ C %   ,   * 2 T.9XP.! r b GX!.r 4.'.uX{.qXrXMXaXMXmXcXeXcXMXMXwXtX4X) ) 2X=X-XXXwXwXwXpXcXxX;XxXeXrXMXMXmXxXkX;X*XrXMXbX.XF.t.u.} F k ;.&XlX>XXXOXm O . .     . .                                     . . . # 1 s y # . . . .   .     X . . q t.=X>XxXmXpXBXmXMXMXrXcXmXmXcXrXrXrXrXrXcXeXmXeX=X<X( B ( / 7./.E e = o   . . .   . . . .                             . . . .             o o . : a N r b H g o.M.k j ` m i p m D b ) ~.M X.H Q 8.>.Y.k.Z.Z.x.{.K.t.'.].vX&XD.4X|.4XW w.$XeXeXmXMXmXcXnXcXNXeXyXaXpXmXeX4XZ # X   # q C.>XcXmXmX",
"wXrXcXkX<XW 2 2 W R.vXBXMXMXMXmXmXBXbXeXqX*XF.6.8.4.i.1.e.( I.8.8.g.7.g.L. .1.z.4.u. .} F M ( r.2.u.P.8.h.c.lXc.g.Z.4Xt.a.G 8 O O 1 ^. Xc.j.D.U.4.e.1.8.P.8.l.r.l.2.U.SXV.k | a.) 8.G.2.M e 5.2./ 8.n.e.r e %.c V B.7 O   + % # .   . .                       O q K S #     . .   O % % . .                                                                     X X     . . .   X X +   . $ q *.8 e !.c 7 8 & # < < & 9 } P.;X*XrXrXcXmXmXmXMXmXmXmXmXmXmXNXNXcX;X&Xv.*XeXcXcXcXNXcXmXmXmXrXrXcX*X>XbXeXAXeXcXqXrX$XG M ~.V & o o 7 z.dXrXmXmXBXVXMXmXrXeXeXrX;Xg.U.E.2.>X.XBXeXkX:X:XK.^ M & o X X , & 5.2X^. .Q Q.(.8.gX}.AXXX*XvXcXNXrXmXrXmXmXmXiXaXpXbX6XD.c.=XqXwXsXsXpXwXyXvXvXvXcXrXrXVXmXcXrXcXrXrXiXaXpXtXF.2.u./.i.Y 7.vX>XvXqX}.F : . .     . O                                     . . . # $ s ] $ # . . .         X   O 7 ) 6X>XrXMXpXmXmXMXVXmXBXmXmXcXrXrXrXrXcXeXeXcXeX*XOXw.g 7 1 M #.q e ; o o o X X     . .                                     . .             % 0 a a a p 6 e B _ M.5 w H F m i 9 D n U a.j { p p.R }.c.Y.U.j.h.c.j.j.'.].].ZXk.c.].8XZ ! H..XrXMXVXBXcXeXeXeX.X*XpXaXmX;X3XI $ @   . 2 a.:XcXmXmX",
"0XwXcXkXE.I 2 4 ^ <XbXBXMXMXmXmXmXcXcXbX*X'.c.g.r.i.1.w. .i.W.L.r.U.hXA.1.w.l.9.8.i.1.+.Q M 1.r.I.1.8.t.7.1X{.$XH.D.8.y.a.g : o ; p n.h.7.G.U.r.i.u.-.8.:.2.r.L.4.z.z.4.5.g I 5.a.8.;.n.M m a.-.u.-.2.) M e %.h v N.7 O   O & # .   . .         .             O 7 L K # .   . .   O : & O . . .                                                                 X X     . . .     X + o % $ 2 *.8 9 B.h $ . . # # # O & ! R.AXmXrXcXmXmXmXMXMXMXMXMXmXrXrXcXcXeXxX;X'.xXnXcXcXcXNXcXrXmXmXcXrXeXkX7XeXeXvX&XnXeX0X$XQ b (.x & o o e z.dXrXmXcXVXVXVXmXcXrXcXcXeX7.<X4X;.[.*XwXmX>X:X.X8XU M &   X X + # B n.P.) V 3.4X$X'.bXoXCXeXcXeXcXeXnXeXeXBXmXpXpXaXrX*X*X*XyXsXiXwXqXXX.X=X$X{.=XtXrXrXNXcXeXrXpXMXMXaXiXwXyX|.8.1.T.G.}.'.AX&XeXrX}.Q 8 % .     . .                                     . . . # # s ] $ # . .           X   O 6 I gX*XrXaXrXmXmXMXVXBXVXmXmXcXrXrXrXrXcXxXxXNXrXvX1XL.g : o u 9 r b e 8 o + o X                   X X X X X             X   . . .       @ . # 1 9 7 e a : N B o.~ w r X.` K p i K E U p.b $.b I E.d.7.k.8.y.<XK.S.U.F.v.=X{.D.1X-Xv.} Q 4XeXrXmXmXcXeXeX;X&Xv.{.rXmXVX*X6X^ 1 O . # 1 a.:XmXmXmX",
"iXpXcXkXE.C < 2 ^ F.vXBXmXpXrXmXBXrXCXeX*XF.D.9.U.4.L.( 1.) L.) L.8.9.8.1.3.6.8.2.4.) 5...C P.t.2.u.r.8.c.1X'.|.D.K.k.2. .n % > : w n.f. Xk.j./ 2.8.~.-.z.8.S.4.u./ 8.r.G j I a.3.) g.) r p W n.-.2.l.| p a X.c T _ 2 0 . . 6 1 . O   . * . . . . .           O 7 M K $ .   . . . O 1 ] . . .                                                                   X X   . . . .     X     & $ q #.e p !.w &     . . # & 2 /.=XeXcXeXeXrXmXmXmXMXMXmXmXmXcXrXcXcXeXnXeXeXvXxXeXeXcXmXmXcXrXrXcXrX;X$Xh.=X>X,XkX;XcXrX[.G b ~.P 0   O 7 j.dXrXmXCXBXVXMXmXrXeXeXrXeXc.#X6X[.,.vXmXmX;XvXyX:X2.n :   X @ . & w 5.T.k./ t.@X>XeXeXeXrXrXBXrXnXvX,X:XF.vXcXpXaXaXMXpXrXqXrXwXNXyX].1Xj.z.T.gX4X_..XsX0X*XvXeXMXrXiXaXMXqX*XlX9.;. X.XyX*X*XNXqXqX-X .e % . . .                                             . . # & 1 6 . .             X   . : b P.dXpXpXBXrXmXMXVXmXVXmXmXCXcXqXrXeX.XxXxXeXrXeX7XE.B :   ; 6 w ~.4.B 6 ; o o   @ @           X         X X X       X X X @ . . . X X @ % 7 < q J 9 8 % e G ~ n q M r X.H p K b ! h (.j X.Z a.:.b.h.G.U.r.8.r.r.8.J.K.k.D.'.'.dXK.B ! E.{.NXMXrXcXcXvX;X&X7.7XyXpXMXcX>X2.7 % . # 2 5.:XmXmXVX",
"wXpXcXkX/.C 1 4 t.@XxXcXmXmXpXrXmXBXcX*XF.H.H.k.t.P.1.e.l.8.) r.u.j.z./ W.4.U.9.8./ L. .W  .9.Y.t.6.z.9.d.x.}.v.#Xj.Z.t.a.F : O & g ^. X1X<XL.) 8.n.) 0.8.9.W.1.4.-.2.L.Q n i.I.0.1.g.2.b M ( / -.8.2.a.m i p k P s.b ] . : 7 a # O . . . . O O . .           . 6 K K 7 . @ . . . O 1 ] . . .                                                                   X X   . . . .     X     % $ r &.7 e #.2 O X     . . # w +XqXrXcXeXrXrXmXmXmXMXMXMXMXmXmXcXcXcXeXxX;XeXxXeX.XXXeXmXcXrXrXrXrXrX;X}.;.h.=X;XkX&XvXrX6X! j ~.V 6 . O 2 9.uXrXmXBXBXVXMXmXrXrXrXcXcXv.{.=X{.>.=XNXrXeXxXrX>Xu.k &     . . 1 2 W z.OXk.H.@X;XrXrX;X*XmXmXrXeXvXkXH.D.:XeXmXaXaXmXmXmXrXrXqXtX|.8.! k j z V W ) g.9X-X$X6X:X;XcXrXMXrXbX;X}.F.J.|.XXoX*XeXrXpXpX7XV.p % . . .                                             . . . # # # . .             X     & e a.-XwXpXNXNXrXBXBXVXVXVXmXNXcXrXwXqX].;XxXcXcXeX>X<XI % @ O 1 V ^.m.n.B 6 O = @       X X X X X     X           . .   + X   . . . X   . . 7 4 j J 8 % : & b C 4 $.m b ~ n H b ~ B ..q.g H I ) z.:.9.z.6.U.y. .r.4.g.8.8.J.-X-XoXh.z ..4X&XcXmXrXpXeX;XkX,X6.8XuXpXmXcXvXk.r % . # 1 ! 6XmXmXmX",
"wXrXBXkX/.b 1 q n.-XxXcXmXmXrXrXrXBXrXqXF.<XD.9.U.4.w.3.2.U.i.) r././ gX1.2.g.g.t.P.2.) i.4.g.x.g.OXg.OXd.d.'.d.8.t.A.u.Q.r O o 6 C I.G.x.}.I.i.8.8.1.U j.G.8.I.) P.r.( Q } 4.-.9.T.n.) M M  .i.4.1.4.( m 6 X.C Y / 4 S : & a #.# O O * O % y . O . .         o & D K 2 . X . .   O 1 @.% . . .                                                                         . .       X     % # 7 S & & a & @ X     X   # n OXqXrXcXrXrXcXmXmXmXMXMXMXMXmXrXrXcXcXeXcXeXcXcXeX*X*XrXcXcXrXrXrXrXrX;X$XR 8.:XvXcX;XvX*X8X .j M.n $ % O 2 7.uXrXBXBXBXVXVXmXcXcXcXmXcX{.,XqX*Xg.'.NXpXcXeXcX>XE.k # @   @ # 1 2 z 6.8X$X@X@X;XcXNXxX;XcXrXMXcXZX6X8.9.%XeXpXaXrXrXcXcXcXvXdX<Xe.M 8 ; : 9 7 9 : 7 G ( C.w.w.r.%X;XCXrXeX[.6.k.<XK.8X8X@XZXqXCXrXoX(.b % . . .                                         X X . . . . . . .               X     % 8 +.oXwXyXqXvXeXnXcXVXMXVXmXcXrXrXrX*X_.&XxXNXBXrX*X|.) 1 O O & g ^ ^.l.(.E 7 : % = , @   .           . O . . . O % % O +   O # # .   X O . 7 q N S : % & 9 D 2 g o.p K H ~ Z E E ! h p.~ B k ( n.Y.2.;.E.j.W e.W.t.l.^ 4.G.x.v.-X+Xk Z 6XqXxXcXrXmXeX;XkX:X6.6XqXaXmXcXeX4Xb . . # $ C 3XmXmXmX",
"wXwXBX,XW.e 1 4 d.*XnXcXmXpXrXmXrXmXmXrX$X6XH.7.K.t.U 4.T.2.4.2.j.-.) T /.y.6.G.9.U.u.r.n.2.9.c.h.9.k.>.4X8XF.h.Z.t.-.I.V j > O 6 M I.v.f.h.r. .P.z.4.4.9.;.r.1.z.8.^.p.G ..4.6.;.8.n.a.M b e.) ^ 1.1.p.m i K w ) ^ w K d # < a % . . % O ; y . O O . .       o : N #.2 .   @ . . O 7 ] : . . .                                                                           .       o     . . # & . % # %     .   X X % G |.wXrXcXrXrXmXmXmXmXMXMXmXmXmXrXrXrXrXrXcXcXcXCXNXrXcXBXmXmXcXcXcXrXrX;X6X;.9.6XnXmXeX;X&X6X8.z X.e # % % q d.uXmXBXBXBXVXVXmXmXmXmXmXmXeXbXcXtXF.h.vXrXcXeXcX&XgXh # X o . . 1 2 w P Y.[.&XxXcXBXmXbXvXNXmXCXNX&XH.9.7.=XuXpXrXeXxXkX;XqX-XY. .p : = ; : e r e 8 : q r M m M ..R.,XNXrXxX=X9.j.t./ -./ h.:X.XyXXX_.u.M % . . .                                                 . . . .                 . .   O : } 1XuXXX].'.>XeXrXVXMXMXpXcXrXpXrXqX].&X;XNXmXrXeX=Xu.2 & 0 @.FXw x gXT.g.3.Q r 6 : % % % % % % % % ; % % % & & & 1 & O O # & % .   + @ # 1 2 r e & 9 u s 1 r Z C #.7 n o.B Z ! B k } k E B Q./ 9.4.U t.E.) | L.2.u.3.1.U.c.x.].F.C ! 7XwXrXeXrXmXeXeXeX,X7.5XXXaXmXBXeXzXb O . . $ n 1XcXmXcX",
"wXwXBX%XV.9 $ 4 d.XXcXBXmXrXcXBXVXmXNXeX:X#X<XG.2.9.z.t.8.z.-.8.E.j.4.4.l.8.9.;.G.;./ L.l.z.G.;.9.A.2.t.k.4Xc.D.j.j.E.z.(.5 2 # 7 n I.v.c.9.1.^ 2.n.T 8.h.A.-.L.-.t.i.h M M.r.6.j.T.1.( G n 5.i.1.a./ ^ F i p C P q.w K $ 8 6 s y O O O . > f % . O O . .     o : a X.q %   O .   O 2 J %     .                                                                                       . O O O O . O . # . . . . X X : Q |.iXrXcXcXcXmXmXmXmXMXMXmXmXmXrXrXrXrXrXcXrXrXNXBXmXmXMXmXmXmXmXcXrXrXeX>Xd.h.:XrXaXeX,XkX$XA.I b & % % % j x.sXmXMXBXVXVXVXBXmXBXmXMXmXcXCXNXeXF.>.>XeXcXcXBX.XgXk $ . . . . # % & w a.{.rXVXVXVXmXrXyXBXmXcX>Xh.d.|.'.wXpXrXeXkXkXkX;XrX|.3.r : : : e o.n.z.z.a.i.3.E e i M S.3XkXrXrXcX;Xk.1.(  .t.g.8.<X:XZXtX X .K % . .                                                 . . . .                   . .   o ; F Y.uX.Xx.7.3X=XeXrXpXmXmXcXNXpXrXrX*X&X;XcXmXpXNX>XU.C $ a FXPXjXg P 1X|.-X1Xt.W B b q 7 7 7 7 7 7 7 7 r M C F F Z C p 7 $ % . .     . . # $ 1 $ 1 s a a e A E N.q { n C M.B V q.C G o.w M Q 8./.3.z 2Xg.) a.r.1./.1.3.E.4Xx.oXf.| a.7XrXrXeXcXcXeXrXrX;Xd.5X0XMXmXBXeXzXb O # . . g #XcXmXcX",
"wXwXBXkXe.9 & w K.yXcXcXBXmXcXmXmXmXAX*X{.c.K.G.t.A.9.A.T.-.2.A.6.U.2.l.z.9.9.2Xd.U.) w.I.9.6.G.G.1.gX2.;.D.k.K.S.j.U.T.Y 5 7 & 7 G T.v.J.g.1.2.L.-.2.t.9.E.1.8.U.2.1. .M } ^.c.g.9.i.a.G M p.1.4.^ n.a.H p { q E ..w K 7 & % : d % O % # 0 f > . . O O .     o % 9 H j .   . .   . 2 N %                                                                                         . .     .       . . . . . . . X   8 Z =XwXrXcXcXcXmXmXmXmXMXMXMXMXmXrXrXcXcXrXmXrXrXmXMXmXmXmXmXmXmXcXcXrXcXeX*X'.{.>XpXMXmX;XZX$X4XW 7 % % . % M F.sXmXMXmXVXVXVXVXmXmXmXMXMXBXBXNX*X[.;.@XkXcXcXBX&XE.h $ . . . . O . & 7 p.1XeXmXMXVXMXpXpXmXmXcX>X9.2.#X=XqXiXwXeXkXkXnXeXyX}.G 6 e F } 5.n.OXoX-X=X#X3XW.| |  .<X:X>XeXmXpXnXlXK.A./.J.D.T 2.Z.$X.XF.k p % .                                                 . . . .                   . . .   o ; p P.oXXX_.:.4X&XtXqXmXMXmXmXNXpXrXrXeXeXeXcXpXaXMX*XOXZ 7 =.JXHXIXHXa.OX-X0XXX=X3XK.y.e.e.e.e.e.e...|  .e.L.I.I.I.T.I.a.E q & O @       . . . # # 6 J 7 e D %.P ( G X.r X.~ o.B p.n C ~ C 7 n n.8.} E 2Xc.1.L.T.^ 4.C.3.A.3X_.dXh. .4.>XrXcXeXcXcXqXcXmXcX'.8XwXaXmXBXcX3Xm ; O . . q J.cXNXcX",
"wXrXcXkX+.8 & w +XyXcXcXBXmXrXrXpXmXNX;X].v.k.9.U.6.Y.k.2.t.U.9.G.-.8.I.8.E.-.U.2X;.w.i.4.U.9.g.F.f.9.h.h.6X}.g.t.r.r.1.W j # O & } 2Xv.G.z.2.8.1.2.;.6.Y.t.l.y.4.z.W.| e M g.x.2.u.9.) n j | i.) I.0.) F K q H k h 4 #.@.: O O O O . % # % y & . . . O .     o ; 9 A N % o . O   O 2 r %   .                                                                     .             . . .         X X   . . . . .     o 6 z 5XqXxXnXrXrXmXmXmXmXMXMXMXMXmXmXcXcXcXcXmXmXmXMXMXMXmXmXmXBXmXcXrXrXcXrX*XtXeXrXaXMXMXrXvX=X4XW q 8 . . % G OXsXmXVXBXBXVXVXmXmXmXmXMXMXVXmXcX>X|.9.}.:XnXcXVX;XT.j $   . . O . $ t e o.E.,XeXmXBXMXMXMXaXNXNXdXD.2.8.J.-XwXpXrXcXcXBXcXXXz.p 9 W 7.`.-XhXY.}.lX*X.X;X,X=XoX'.=X*X*XpXMXMXpXrX.X&XdXuX=Xt.) r.8X-X1XC 9 # . X X                                               . .                   . . . .   o O 7 u. XuX|.-.P.$XtXrXmXMXmXmXmXpXrXrXeXvXeXmXaXMXMX*XY.n 6 FXPXPXJX#.b W K.7XXXqXvXvX>X6X3X1X$X1X3X#X[.F.$X7X>XtXtXyX7X2Xs.n & O @ @     . X X O # q L 7 q b C W 5.Z n n b D M I _ 4 M G j 8 e -.8.b Q G.c.;.4.P.8.4.W W r.5X-X1X;.) t.*XpXcXeXcXmXqXmXmXrX.X7XiXaXmXcXBX#XF ;   X   2 K.cXBXcX",
"pXmXeX3XG 8 $ w  XwXcXcXmXrXeXrXmXNX;X&X].:XF.6.-.j.d.OX8.l.g.Y.-.j.2.l.A.;.U.9.6.gX( 3.L.8.6.c.v.|.6X'.1X|.d.9.j.r.I. .G q % O 9 N.U.>.;.g.2.T.a.3.n.z.6.g.2.j.T.-.U.3.e X.9.>.t.u.z.4.F G 5.-.8.T t.4.C q 7 b o.M.j #.r 1 O > % # . % . . y y . O . . . .   . o & A j >   .     O $ 7 # O O .                                                                                   . . .     o X X   @     o       O 6 g 5XqXnXnXeXrXrXmXmXMXMXMXMXMXmXmXcXcXcXeXeXrXmXMXMXMXmXMXmXmXmXrXrXeXxXcX*XNXrXwXaXaXpXrX&X$X2XI p y . % & Q 1XrXaXVXBXBXVXVXMXMXMXMXMXMXVXmXmXtX$Xg.H.$XxXeXmXvXI.w $   @   . . $ S 9 C U.:XxXBXBXpXaXaXCXNXrX*X#X4.^ 2X=XyXaXaXrXcXmXcX=Xi.q F ^.9XfX0Xg.I T F.xXmXBXeXiXiXyXuXNXrXVXpXpXpXmXmXpXqXqX=XE.W ) 1X].OXG % .   X X   . .                                                               . . . .     O 1 p.G.XXoX1.y.[.*XNXmXmXrXmXBXpXpXNXrXbXeXmXpXMXmXXX<X} 1 jXjXFXS M }  .A.|.&XCXrX*XbXeXeXeXeXeXtXtXeXqXrXrXqXwXiXiX0X].h.W 7 o o o   . X     . # e K q N b o.x Q.o.b H b m F I W X.m o.n 8 p 4.P.} j 6.}.g.g./.1.^ I.| r.'.-Xk.-.4.Y.XXrXeXeXmXmXqXCXpXrX*XuXsXiXmXcXBX#X} : O @   < G.eXNXmX",
"VXpXrX}.G & 9 B 9XsXNXNXmXrXeX*X*XnXAX.X.X>X|.G.8./ 1Xf.g.8.j.U.4.y.Z.K.2.G.g.:.k.P.P.i.w.u.g.9.G.D.F.'.7.}.#X#XH.D./ (.C 1 # 8 q a.OXf.'. XU.1. .e.P.6.b.:.gXj.6.j.6.I.D p U.|.l.) 1.5.H F a.;.6.z.2.^ B.b e e p.I k ~ o.g $ 8 9 & ;   . . 0 6 *     o . .   X   : k $.7 O   X   O O # $ J % . .                                                                                                 .     X X     X   & k 1XqXcXcXqXeXrXCXMXMXVXMXMXVXVXmXcXcXcXxX;X;XrXmXMXMXMXMXBXBXmXaXmXcXnXnXeXrXmX0XAX*XtX{.[.<X4X^ 7 0 . # 7 | <XyXaXMXMXBXBXBXVXVXMXMXmXmXmXMXMXCX{.R.t.:XvXeXaX.X~.e %       @ . . 9 D G 2.$X.XqXMXaXMXMXMXmX*XlXJ.-.6.Y..XuXwXMXwXqXCX&X2X( w } 2X].0X].k F w.#XvXcXmXmXrXrXqXXXrXNXcXcXxXrXmXmXXXqX7X9.I 4.[.XX0X5Xn % . X X X   . . .                                                                     . . . & C n.-XuXZ.) %XbXqXmXrXcXcXcXcXcXcXcXcXNXrXmXrXCXrX*XK.U p u u r 5.T.OXH.D.:XrXMXeXvXeXeXrXrXeXeXeXeXmXmXmXrXeXrXaXiX0XoXn.e + + +   . . @ . # : 6 e 1 e X.B _ p.q { F H b ! V M.b p ~ } i b n.z.Z E T.d.}.Y.y.) 1./.3.4.h.5XG.-.E.h.{..XNXsXmXmXeXmXmXcXrXrXrXpXrXrXBX{.e.7 % .   < P.*XCXaX",
"VXmXwXY.C & 7 V |.qXeXcXNXNXcXeXbXeXrXqX*X'.h.g.P.l.c.h.Z.t.E.2.u.8.c.J.S.2.k.Z.8.t.9.t.i.u.U.G.8.9.c.h.H.J.H.D.'.d./...A $ # & j /.OX'.x.5XG.u.3.e.u.g.g.Y.:.z.P.9.g.3.9 m 8.OXg.2.u.3.M m ^ T.j.T./ s.V n 7 H M.x n ~ N.5 $ t { 7 O o @ . $ & O -   + . . . X o . g I a . .         % e [ 6 . .                                                                                               . .   X X X   . X   % j E.>XcXrXNXNXrXcXmXpXMXpXMXVXmXcXcXcXxX;X{.&XcXMXMXMXmXmXmXmXmXMXmXcXxXxXcXmXVXpXXXdXF.h.}.<XA.V 7 % . # e e.1XuXMXMXMXBXcXBXVXVXMXMXmXcXmXMXMXMX@XR.9.:XvXrXpXoXp.7 .         . O 8 N H P Y.dXwXaXiXpXMXmXCXvX{.D.g.K.8X=XtXwXpXrXqXcX:Xi.B B a.+X].].f.B +.W.3X;XrXmXpXeXrXrXpXmXrXeXxXxXeXeXrXqX>X$X;.) S.7XyX0X5Xn %   X X X   . . .                                                                 X   . # . # r q.8XtXH.8.%XxXqXmXcXcXcXcXcXmXmXmXmXmXcXrXrXcXrXuX=XY e @.S w / c.|.H.Z.%XrXmXeX;XeXeXrXrXcXxXeXrXmXpXpXcXeXqXpXiXyX|.^.M - X   . . . . . & 9 9 a : $ ~ V B M.H p M M C ! ( Q.C p Q j 7 M 6.T.q.o.i.:.>.}.T.W 8.4.( ) OX Xj.L.U.d.F.&XpXpXpXmXrXmXcXcXmXmXrXrXrXpXpX&XL.j & .   < i..XrXiX",
"VXmXrXY.m : 7 W 9XwXeXeXmXNXcXeXbXrXqX]..X=Xh.2.r.l.A.g.l.r.( I.8.k.SX:.y.r.8.2XA.j.J.k.r.y.4.j.j.;.9.lXF.#Xg.9.|.h.9.5.K & : & r I.J.x.v.|.k.4. .( 4.t.d.k.g.A.8.g.G./.G b i.t.8.z.t.L.M M n.6.A.2.i.i.N.n r r p.I h o...B $ 0 #.b % . O . $ $ % y . O   . . . + . 4 B a # .         % r #.7 # .                                                                                               . O       . # # .   % e L.=XmXpXcXNXeXrXcXcXCXCXnXcXeXeXcXcXeX.Xx.F.*XmXMXMXmXVXmXcXmXmXmXeXeXbXxXeXmXpX0XtX6.g..X=X4.g 9 # X # r L.$XyXMXMXMXBXcXBXVXVXMXMXmXcXmXVXaXmX&XH.9.lX;XrXwX|...1 . .       O O . 8 D ! -.|.AXiXiXBXeXmXCXvXc.d.J.3X}.v.7XtXqXNXrXeX3X} e | E.}.-XqXx.y.W.lXtXmXmXmXqXqXqXrXmXmXrXeXCXcXcXeXrXeX>X$X9.1.R.6XtX0X5Xn %   X X X     . .                                                                 X   . # . . 6 E 5XtX$XD.,XxXrXMXcXmXmXmXmXmXmXmXmXmXVXrXrXrXmXtX1X) q J b W 0.9.U.K.R.@XeXrXeX*XrXrXrXrXcXcXcXcXmXrXrXcX*X&XqX-XA.4.V.n :   . # .   . . : 8 8 8 O : C ^ j n %.q } n M B U a.G M %.b H k n.g.! M G ^ |.'.U.^ ^ ~.( 8.K. X8.r.gX>.g.5XyXwXaXmXmXcXcXmXmXmXrXrXmXmXrX>XE.n & O   $ 8..XrXpX",
"VXVXuXK.r 6 e 5.5XwXeXeXcXrXeXeXxXcXrX].{.:XD.t.A.l. .L.t.4.W W S.K.9.8.^ I.U.8.8.G.c.c.8.^ 4.4./.G.k.h.$XF.t.D.h.F.;.Q.p % % 6 b W.J.x._.|.k.8.e.3.L.:.g.9.-.l.2.-.G.U.C b  .t.U.6.j.I.b b i./.2.2.u.i.~ 4 4 H M.Z Z W o.n 1 & X.M 8 . # $ $ # $ s . O     . .   O < n 7 # .   . . o % w ` 7 % .                                                                                               . O     O . $ # . . O 1 5.J.rXpXrXNXeXxXxX;X;X;XxXeXeXeXcXNXrXqX;XeXcXBXmXmXmXmXNXrXrXrXeX*XeXbX;X;XrXqXZXv.;.<X-X5X .p a . @ # B /.:XrXVXaXVXmXcXBXVXVXMXMXmXmXmXVXaXaX>X#Xg.lX;XeX0X|.E & O . X o   . O . O 9 %.P x.uX0XaXCX*XmXrX>Xf.7.K.D.7.d.{.tXuXrXcXxXD.F r r.3X].uXNX*X6X$X*XrXmXrXeX*XtXuXqXrXMXMXcXBXcXBXcXrXeX=X1XK.;.#X1X=XXX+Xn %                                                                                 X   . . . . & k OX-X:X:XvXcXmXmXmXmXBXBXmXmXMXMXmXmXVXrXmXrXmXuX5XP.b 7 j q.I.;.T 8.$X:XnXqXeXqXrXrXrXmXcXcXcXmXMXcXrXeX*X&X&XK.! b ..w & % # #     . . O % & a = & ' U n r i b X.M H } 1.~.G n %.w n ..;.^.G r o.W x. X/.1.I.(  .r.h.F.-.) 2X>.2.4XuXwXaXaXVXcXmXmXmXmXmXrXmXmXrX>X/.B & O   $ -.$XyXpX",
"VXCXtXG.r 6 r p.|.qXeXeXeXeXrXnXcXcXmXrX.XF.g.A.t.^.( ! i.I.n Z P.6.gX2.y.) 6.<X2.8.}.h.8.y.4.u.z.t.Y.K.H.[.R.j.h.d.t...6 ; O 6 g gXY.'.f.'.9.L.e.3.r.E.:.9.z./ a.8.v.J.Q j e.l.;.g.P.3.Q Q i.8.2.z.8.0.G n w o.M.h z | q.n & 6 $.C 1 8 e 7 # # $ S 6 # .   . .   O $ r q $ .   . .   % n X.e % .                                                                                               . O o   O # $ $ . . . % C i.=XbX;XeX&X;XxXeXeX*XeXeXrXrXmXMXMXmXAXAXCXBXmXmXmXmXrXeXeXeX;X*XqXeXkXxXrXrX|.9.h.7X=XOX! m f o @ $ ! SX>XrXVXaXVXmXcXcXVXVXMXMXmXmXmXVXMXmXvX%Xk.3X;XrX0X}.C : . .   @   . @     O e ~ z.x.XXMX;XcXmXwXrXv.9.j.r.6.'._.qXbX;XvX;Xt.n Z F.tXqXrXwXiXqXrXNXpXrX*X,X:X,XvXNXpXMXVXBXcXcXBXmXcXtX=X#XD.9.6X3X$X&XY.b O     . .                                                                         X X . . . . % w U.&X>XbXNXmXmXmXmXMXVXVXMXMXMXMXmXaXmXrXmXrXrXqXyX4XQ 7 C !  ./ 2.k.:X;X>X.X*XeXrXrXrXcXNXmXmXmXBXNXcXeX*X6X<Xw.b m p.g 1 & # . . X X   . O 6 J O 8 n V H 7 i i $.n n E z ..B C b b g Z 0.n.g X.n ( z.h.T.U ) 1.( 2.}.c.^ 4.F.7.) Y.tXpXaXaXVXmXmXmXmXmXmXNXmXmXrXtXE.B & O   $ I }.qXwX",
"mXCXuXg.e 6 q 0.].qXxXxXeXeXrXcXNXmXmXrX;X{.t.4.8.1.p.| ^ a.C O.W.t.2.A.2.t.<X7.t.P.j.k.Z.j.P.t.-.g.j.Y.6X$X9.Z.K.g.;._ i > O & w /.Y.F.v.F.6.4.3.( r.8.;.SX8.u.W u.f.1X..g a.r.G.k.-.e...n I.8.r.l.t.1.!.F z ! M.C P a._ K % 6 o.E 1 1 b L 9 # $ a a $ . . . . @ . # 1 S 1 O   O .   % H B.a O                                                                                                 . * +   O # # # .     . 9 Q L.#XlX@X[.&X>XZXAXeXrXrXpXaXaXaXaXMXpXrXrXcXmXmXmXmXrXeX>X>X>XeXeXeX;X;XeXtX;.t.-X*X|.g.n i >   . 1 3.lXtXpXMXMXVXmXcXBXmXVXMXMXmXmXMXVXMXmXvX,XD.H.>XbXqXOXM ; . .   @ . . X X X   . n 4.h.*XcX;XcXmXpXNX>XD.g.j.Y.lX<.x.bXtXvX;Xc. .y.>XpXrXwXwXaXiXMXCXrXeXvX#Xk.h.&XbXmXmXMXMXmXBXBXcXcXtX>X[.6.d.lX#X$X=XA.e O     . .   X                                                                     X X . . . . O 7 n.-XeXBXmXmXNXNXmXVXVXVXMXMXMXMXMXMXmXrXmXrXcXeXqX7Xa.b E ( 3.r.U.}.=X{.{.'.{..XrXrXeXcXNXmXmXMXmXNXrXqX*XlXU.| b X.(.k $ . . . @       @ O 1 a % % #.B j m 9 i H M E p.! p.E B n r X.I a.U g F O.g 0.8.8.^ ^ 3.( P.+Xc.W 3.<Xx.) y.=XNXaXaXVXmXmXmXmXmXBXBXmXmXrX>X<XZ 6 O   $ z J.-XqX",
"mXcX>X2.7 & g a.|.uXxXcXcXrXrXcXcXBXmXqXeXlXk.1.L.u.E  .a.^ n } r.A.j.1.t.K.1Xh.r.3.r.8.9.k.j.A.G.7.A.g.=Xc.D.A.g.G.6.Q.9 . * 6 n E.4Xc.ZX|.g.1.u.3.4.4.9.z.A.r.2.r.E.z.3.( 0.I.8.8.2XI.m F L.9.2.u.8.0.} q x p.o.B 3.i.q.H : & X.} 7 1 j #.S # % 9 X.q # O .   @   O # J 6 *   O O o . Z o.a %                                                                                               . % > - + O O O .       O O i G | W.S.A.R.F.{.tX.XrXwXiXaXMXaXMXMXVXVXBXBXBXmXmXrXrXeX&X[.[.*XrXrX.X*X=Xh.-.D.tX0X].2.r d -   . q z.>XrXaXMXMXMXBXcXnXmXVXMXMXmXmXMXMXmXmXrX;XH.g.>XvXtXG.p O O .     O .   X X X O $ B n.$X*XcXeXmXBXtX>X=XF.|.8X<X;.h.>XeXcXxX;X[.6XuXrXrXwXaXaXaXMXrX*X;XkXH.6.6.F.>XrXMXMXMXVXVXmXmXmXeX>X$X;.6.3X@X=X$Xi.6 =     . .   X                                                                     X X . .       1 1.5XrXVXMXMXNXNXmXMXVXVXMXMXMXMXMXVXmXmXeXrXcXbXXX7XE.P V a.I.L.1.8.h.{.}.H.v._.rXqXeXxXNXmXmXMXmXmXpXwXqX=Xy.I I V.(.j :     X X     @ @ O 1 p % 6 ` C b q S i D M C E n o.o.C w G C _ n.) q D o.W W ^ 0.) )  .) gXK.G.W ^ 8X|.3.3.[.bXpXMXVXmXmXmXMXMXmXmXmXmXrX>X4XW 9 O   # z 2XtXwX",
"BXrX-X/ 6 & B ^.oX*XeXxXcXcXmXNXmXBXVXNXeX{.g.l.P.3.) 1.L.1.G G L.j.r.8.gX6.7X}.L.i.r.t.8.6.j.Y.h.<XE.g.{.lXD.8.8.k.T. .: o % $ C /.J.c.}.<Xg.y.4.I.2.8.U.8.2.t.t.l.4.1.u.8.i.-.-.A.7.u.m r i.g.8.r.2.n.X.q W a.E w W ~...H % 8 o...q 1 w L g 7 ; 8 %.w & O .     @   * 0 $ . @ # . @ . g I q % .                                                                                             . & 0 > - % O .   X   . O   O : 7 n C ..a.2.9.5X{.*XqXwXmXMXMXMXMXVXMXcXcXxXrXmXmXrX*Xv.d.h.{.qXrX*XtX3X/ G.#X].uX|.2.p @.= = & g U.*XNXMXMXVXMXBXcXnXmXVXMXMXmXMXMXMXNXcXrX*XH.;.,XtXdXz.9 . * . o   . .     X X   % 7 ! U.@XeXpXaXMX.X&X7X|.$X$Xh.9.[.&X*XeXeXbXeXuXXXeXeXeXCXwXmXmXmXcXxXkX,XH.g.D.&XrXVXMXMXMXVXMXMXmXXXeX7Xd.1.4X&XtX|.3.: =     . .                                                                         X o . .       & V J.wXVXMXMXcXcXmXVXVXMXMXMXMXMXmXVXcXrX.XeX;XbXyX-X<X-.x ~.z.6.i.y.g.D.j.j.x.].qX*X*XvXcXmXmXMXBXmXaXaXqX{.4.V -.Y.I.g 8       X         . r #.8 & k g K e p m p M C n n } B.n n n g W a.5.p S ~ k q.W -.n.U V ( A.+XY.|  .v.ZXr.( F.tXrXMXmXmXmXmXMXMXaXaXmXmXcX>X8X) e O   # g E.-XqX",
"mXbX5XU 7 & z T._.eX;XnXcXNXBXmXcXBXmXeXeX@Xk.U.w. .-.P.4.1.( (.r.U.1.A.j.;.'.5X1.I.S.8.k.k.9.9.d.h.8.J.:X{.k.A.t.g.g.^ & o % 1 I U.K.d.d.c.g.t.L.3.8.8.l.t.L.g.9.g.G n 2.T.l.-.P.-.9.i.D F i.g.8.-.P.-.X.j / 4.} j ) n.W X.9 & q...e & 1 n M.g O > n ` 6   O . .       # $ O @ # . @ . 3 Z 1 O                                                                                               . & a % 8 i % O   X X . .     o O : 6 p b j h P 6.J.8X.XxXAXcXVXVXVXVXBXcXcXcXpXrXCXeX&X9.>.x.XXpXNXtXZ.8.lX.X-X.X}.1.e d O % 1 n <XeXrXMXMXMXmXBXcXcXBXBXMXMXmXMXMXVXCXcXrXeXF.t.>X*X5X1.8   . .         .         O % 7 a.<XeXVXMXiXpXNX5XD.t.7.=X.XbXqX*XeXnXeXrXCXeXvX&XvXZXvXcXqXMXmXeXrXrX&XJ.8.6XbXpXMXMXMXVXMXMXaXrXqX*X3X .w.XXwX4X! : -     . .                                                                             . .   X   O w E.qXaXaXCXqXCXmXmXmXMXMXMXMXmXmXmXCXcX.X{.;X;XbXyX].h.V ..OXf.L.3.U.2. .4.f.7X_.>X&X>XNXrXMXMXmXmXMXMXaXXXj.2.=X-XG.^ 6 O O     o . O O % r r : $ $.' 7 9 m M m q b M n Z %.C H M E W gX^ 7 u M g !.) 8.i.p.| ( z.h.9.} 3.7X.Xr.W 9..XCXaXVXmXmXmXMXMXMXMXmXmXcX>X&Xy.7 O @ # g P.-XfX",
"rXtX5XU 6 & x Y.=XeX&XxXxXcXpXmXmXmXmXeXeX@XD.E. .1.h.;.n.( 4.u.z.8.P.j.t.J.>.c.P.3.j.g.9.9.G.9.d.d.D.4X7Xx.4Xj.9.k.g.) 7 O O 1 E S.<Xh.}.7.t.j.l.1.I.8.t.L.2.2.d.U.e M u.h.9.T.9.6.u.p.b F /.K.6.l.2.1.G w -.n.Q b 1.-.1.G & 7 W ( i ; 8 N N.o.: O r $.8 . .   .   X   # # O @ 0 & O % w ` t %                                                                                               . & a p r K 1 %   X X . .   X o o   O & & i K C h 1.A.DX@XnXcXVXmXVXVXmXcXcXmXmXpXmXeXZX{.{.&XeXqXXX:Xj.D..XyX>X}.P.W K i & 6 1 Z 3XrXpXMXMXMXmXBXmXmXBXBXMXMXMXMXMXVXNXrXrXeX[.k.>X&X4X^ 8   . . .       . . . .   + o 8 F U.eXiXiXMXMXqX:X#Xg.>.{..XNXXX.XeXCXrXqXrX*XxX;XlXK.H.kXqXMXMXrXcXmXrXJ.2.$XtXmXMXVXVXVXMXMXMXpXrXqX1X! W qX0XgXC ; o                                                                                     . . X X o O q I.*XaXMXMXrXcXBXmXmXmXmXmXmXmXmXcXcXeX&X&XkXkXeX*XXX1Xh z Y.K.t.1.E.S.i.i.k.h.h.c.[.>XbXmXaXmXmXpXiXiXiXrX6X3XeXqXoXz.G 6 % O   o . # O O 7 7 # 9 I V e 9 ` X.q m m F n n n b b G G ( d.1.q J p C (.P T a.Q.Z U l.c.h.! ( =X-XU.W t.:XrXpXVXmXmXmXMXMXMXMXMXmXcXeX*Xk.e O . # 4 i.oXwX",
"cXZX8XW 9 6 U +XoX.X'.kXxXcXBXAXBXcXNXcX*X'.h.k.1.4.x. X-.U 2.j.6.k.j.8.W.2.<X6.y.j.9.4Xk.A.8.E.d.OX;.h.5XF.D.K.k.k.P.V a O % 1 ( <XJ.}.}.h.8.A.l.y.8.E.8.A.4.g.+Xl.p i /.d.E.z.7.2X1.Q } Z -.9.l.2.8.5.H n x ~.G w 3.n.1.o.1 7 l.i.: o : A s.s.p % q #.8 O O   .   X   . # @ O 0 % . . 2 N 9 .                                                                                               . # r #.B M.4 &         .             . . % s a 4 n I E.%XZXcXBXVXVXmXcXcXcXmXmXmXmXeXZX>XkXtXtX*X&X[.h.lX].NXdXY.5.n $.q 1 6 1 ..6XcXmXmXMXMXVXVXmXBXmXmXmXMXMXMXVXVXmXrXrXeX#Xc.>X.X2XC :   . . .       . . . . X     ; 7 3.5X0XwXaXqX.XtX=Xv.x.h.h.5X>XrXrXmXrXmXmXpXCXeX:X .3.3XeXMXMXeXrXMXNXK.2.[.tXmXpXMXVXMXMXMXMXMXaXrX$X} V uX0XP.b % o     X                                                                               .   X X X o 9 p.-XaXMXMXVXmXBXmXBXmXmXmXmXmXmXNXcXeX;X;X&X&XvXeXqXDXW g 0.E.9.J.j.P.y.I.r.y.P.-.k.7XyXNXrXNXCXMXMXaXaXpX>X:XtXqXtX7Xz.I q %   + . # . . % # # 1 n X.e 7 !.k r K b C H n q n O.C Z W n.) n $.H j p.^ ^ ^ 5.^ W L. XK.| ( oXuX4X^ 8.lXeXpXmXmXmXmXMXMXMXMXMXmXxXxXrXK.b O O # 4 0.|.yX",
"eXtXOXI : & T  X-X>X{.xX;XqXrXpXVXcXCXNX*X{.h.9.1.P.c.c.t.^ -.T.9.K.j.l.4.L.Y.G.U.6.F.1XY.t.A.P.k.c.6.4X8X$XZ.8.j.m.0._ $ O O 7 4.3X}.h.6Xk.k.k.j.t.t.t.U.1.P.j.h.a.D m 2.7.g.;.c.g. .+...! 8.7.j.l.u.5.~ n ) 1.G r 3.I.2.Q.7 7 -.a.u o : j / 5.M & 7 S u % O   .       . O @ O 0 : . . $ 1 6 .                                                                                                 # t B.V M.w & O                 . . X     . % 9 r g  .E.$XxXeXmXmXcXcXcXmXmXmXmXCXeXxX*X>X*XeX*X1X9.F.ZXrXqXZXP.C r X.4 2 7 7 p.:XcXmXmXMXMXVXVXBXBXmXmXmXmXMXMXVXMXmXrXrXeX[.h.eX{./.j ; o   . . .     . . . . @   + o & B T.oXsXrXeXtX>X=X{.'.6.d.$X>XbXmXmXrXqXqXpXaXqX:XW | 3X;XmXpXeXeXrXeXD.9.:XbXCXMXMXVXmXmXmXmXaXpXrX$X+.E 9X5X! i O O   X X X     . .                                                                         X X X . 8 Q 7XaXMXMXVXVXmXmXBXBXmXmXmXmXmXCXcXeXeX@Xv.c.$X=X.X5Xz.^ z  .2Xh.G.4.r.t./.4.~.V ;.5XtXyXuXbX*XrXMXMXMXMXeXeXbXcXrXtX|.m.W 1 o + % $ # . . . . 7 < r e q !.I M K n C X.C j X.p.g G ../.1.V ! C C Q.W B ! 4./ ) n.F.OXe. .oXuX4X2.-.<XeXcXmXrXcXmXMXMXMXMXMXmXxXxXmX|.b O O # 7 ..|.yX",
"eX>XK.V : & /  X{.ZX;XvX*XqXrXpXmXpXMXrXeX>XH.t.r.i.k.h.8.l.T.j.A.g.Y.t.1.P.t.D.G.k.f.F.g.j.r.j.Y.9.h.h.J.t.t.j.9.8.0.p.$ % O 1 r.<XD.h.3Xh.k.k.8.8.E.) y.8.8.-.6.e.m p 8.c.:.2.k.6.i.p.F E l.K.T.2.2.5.C w ) p.F F a.-.t.e.6 q 2./.i ; 6 j 5.5.n 7 9 6 p $ O           . .   . > 6 % % % % 0 # .                                                                                               . 9 $.V ` q % O             . . # . . . X   . % 6 b E u.h.7XbXeXeXeXcXmXMXMXmXmXNXrXcXeXcX;XvX=Xk.;.].uXNX*X4X4.k b N 1 $ 1 r V.%XcXcXmXBXVXMXMXMXmXmXmXmXMXMXMXMXMXmXrXrX*XF.h.*X=XW.r %     . . .       . . .     +   % 4 5.+X*XrXbX.Xh.D.K.7.h.'.7X{.*XNXBXrXeXqXaXMXpXZX4.r.:XeXNXrXeXeX&X%X6.9.=XbXMXMXVXVXmXBXmXpXrXrXeX$X3.( T.n.r 8 % O   X X X   . . .                                                                         X X X o ; g 8XrXrXVXaXVXmXBXBXBXmXmXMXmXmXBXcXeX;X{.v.k.y.y.$X-X9XG.r b W.D.S.1.k.h.t.e.+.k -.|..XXXvX;X;XeXaXMXMXMXCXAXBXcXcXqXuXdXl.g O o & $ # . . * . & # 6 9 r N.U M K ~ W o.g C O.p.I M G ) 2.^ Q.z ! ~.C w } I.-.) u.v.OXe.( ].0X$XF./ Z.>XcXBXcXrXcXmXMXMXMXMXmXvXeXaX.Xn O O % 1 E OXuX",
"yX7XG.V : 9 7.9X'.>XkXnXeXcXMXMXmXpXaXqXqX>XJ.j.8.l.9.2.g.A.8.L.y.8.G.6.P.1.U.;.;.D. X>.A.1.8.G.8.6.g.h.2XS.) r.g.-.a.Z 9 O , $ u.6Xh.3XJ.h.d.k.g.U.y.y.2.y.8.8.L.B M C (.U.g.g.6.i.I.3.n G 4.k.Y.-.0.p.j w I ~.r G e.8.8.1.7 e L./.m : 1 n p.5.b q M q b 1 O o                 % # % O . O % . .                                                                                                 & N g e : O O . .         . . . . .     X   . # 1 n W 8.c.5X>X;XeXcXMXMXMXMXmXNXcXcXrXcXeXbX%X2.t.*XyX;X:Xy.W W ~ q & # 1 n I.@XxXcXmXBXVXMXMXMXMXmXmXmXmXMXMXMXMXVXmXrX*X'.x.*X:Xa.e O     X             . .   @   O . 1 j a.7XqXeX'.6.8.S.j.<X|.>X*XbXeXrXcX&X'.XXrXpXbXH.H.vXrXcXeXcXcX&X%X;.g.*XrXMXMXVXmXmXBXNXrXrXrXeX$X;.) a.W 9 O & .   X X       . .                                                                         X X   . ; q 4XvXeXCXpXVXBXBXBXBXMXMXMXMXmXmXcXeXeX&X&X3X .! <X7Xv.E.Q r E.h.j.E.-.K.9.i.M C 8.|..X.X:X{.kXvXmXMXMXmXmXmXVXBXcXrXiXuXb.( % o 6 $ # . . , * O > y : r 5.v M M } ( p.g B ~ a.z F F n.9./ i.U ( a.Z q G n.9.W i.F.1X3.W '.0X&X6X-.8.=XeXcXcXrXrXaXMXMXMXMXmXbXeXaXXXC % O % 6 C K.uX",
"qX=Xg.k % 9 t.=X=XkX,XnX;XcXpXaXMXmXaXwXqX{.g.j.G.-.I.2.k.6.4.i.i.4.K.h.j.A.K.g.2.g.J.G.) r.K.c.P.2.g.Y.4.S.L.t.A.i.( n & O @ 6 L.$Xc.#X<X9.c.k.K.E.2.L.L.2.S.I.| k | V. .1.h.c.4.) n.a.B ! W.g.6.U.a.| C j 5...w F  .W.9.4.r r ( 3...b 6 q 1.s.i 9 o.| n 7 ; X                 % % d %   @ . .                                                                                                   . 1 6 o - o + . .   X           . O     X X + % # e n W  .-.k.:X;XrXaXMXMXMXmXBXBXmXrXcXeXvXF.8.Y.ZXrX%XZ.^  .s.~ 1 O . & I Y.&XcXnXnXmXBXMXMXMXMXMXmXmXmXVXVXmXMXMXmXrXeX@X[.*X7X| 9 O                         o . * # & < I 4XeX>X=XF.g.j.E.D.D.$X@XvXqXqXbXc.:.7.[.tX*XtXyXiXaXcXeXMXMX&X:XF.[.yXmXVXMXVXmXcXnXcXeXrXeXeX].>.;.E q ; o & #   X X                                                                           .     X X     . ; e A.ZXvXNXMXVXMXBXBXVXMXMXMXMXVXmXmXNXeXeXvXlXw.I 4.L.) i.p.V G.v.c.Z.i.4.h.E.F M t.|.uX.Xx.F.@X,XrXmXCXBXmXVXVXVXnXxXrXqX].i.: o : $ # # . @   @ % O > r / 0.j D E ( ).P g C /.z F b gXf.) p.W e.~.C w o.^.;.I i. X5X4.W v.0XqX=Xj.r.@XeXeXmXrXrXaXMXMXMXMXmXbXeXaXuXG : . % & b G.5X",
"yX=X9.w O i P.dX=X&X'.eXxXcXmXMXpXmXMXmXbX'.6.j.A.l.L.r.8.E. .i.4.2.}.9.6.j.Y.Z.G.U.k.8.-.j.K.h.8.l.Y.D.8.) y.4.P.L.E q 6 O   1 4.[.;.K.g.J.}.h.9.j.2.l.8.l.1.a.C | /.8.p.W G.d.2.i.2.2.E B r.z.9.;.4.I %.b I N.M ~ ( 8.^.5.e m Q.1.a.M 1 p ) 5.9 8 a.(.k e 6 .                 O & ] 6     . .                                                                                                 X . # % o + - + . .   X         +       X X       O 6 7 r M.Z 1.<X>XeXpXMXMXMXMXmXVXmXmXBX;X,X7.9.<XbX*X<X3.P P.I.W &   o 8 ) 8X;XnXnXnXcXmXMXMXMXMXmXmXmXmXBXmXmXMXmXmXrXeX>X>X*X5XC 8 O                       @   O O % . # 3 ) $X8X:X6Xc.>.9.;.K.#X7.c.vXCXrXlX6.9.6XZX.XrXwXiXaXcXqXaXaX*XZX6X=XqXpXMXaXMXmXcXbXcXrXrXyX*Xv.6.q.2 & .   # #   X                                                                                           . O 9 1.3XvXrXVXMXMXmXmXMXMXMXMXMXVXpXmXCXeXeXeX@XR.1.B } ~ O.N./ h.x.h.4Xi. .F.3Xe.k 6.|.ZX].R k.lX>XxXcXBXmXmXVXVXVXnXxXqXuXoX0.6 o ; # $ $ .     . y 0 : 7 / ;.q K ~ ) ).Y w ~ Q.V H n G.x.^ q.^ a.(.! n p.^.T B e.F.1Xr.^ v..XuX].zXG.>XCXrXVXrXcXpXmXMXMXMXmXNXrXaXdXQ 6 # . O 7 u. X",
"mX].) 2 O 8 i.ZX=X].qXrX;XxXxXeXmXrXrXeX'.F.h.9.l.4.1.t.P.t.r.S.9.c.c.h.k.t.;.g.z.j.g.9.A.9.g.A.2.t.6.4X<Xt.y.L.3. .G e # . + $ n.}.K.8.j.9.OXh.z.9.gX:.9.U.4. .B 3.z.g.1.u.9.9.L.w.8.1.! 5.L.z.t.^ a.I n C  .q.w n a.:.^ ~ & e a.a.F e & D  .q.a 7 ( p.F r p.C #           o   o . r j # O % . .                                                                                                   . .       @                   +   O   X   o X + % 6 6 D O.Z 6.'.qXNXmXpXMXmXmXVXVXqXrX=XJ.6.g.7XqXvXE.W c.v.z...6 o = i g.uXrXcXxXcXmXMXMXMXMXMXmXmXmXmXNXNXaXaXMXmXcXrXcXbXtX4Xr : .   X     @   O O .   + +     O . . . $ B n.8X=X&XkXvX>X@X[.5X:.h.=X0XpX*X>X;XbX>XvXrXmXMXrXeXnXMXpXeXZX=X>X*XNXcXVXMXmXxXvXmXiXwX.X|.;.g 1 $ . . . . .                                                                                                 . 1 j gX*XaXVXmXmXmXmXmXmXmXmXmXmXmXmXrXeX;X;X;X5X2.w p i m Q.-.v gXK.6.W.1.c.F.J.H.&X*XtX:X8.T $X*X*XNXmXmXmXVXMXVX;X{.*X`.9Xn.1 O + . $ < @ + @ O 0 1 9 w q...8 : ! 0.2.W q F N.W r M ^.>.5.| Z p.Q.I I Q.~.U C p.m.>.8.-.f.-XyX*XZXkXeXmXpXmXrXrXrXmXmXmXmXmXVXMXaX].a.7 . O O 9 I E.",
"MXoXW $ O 9 j.>X:X].wXpX;XvXnXcXmXeXrX>X[.g.J.k.r.r.2.8.W.U 4.A.2Xc.g.G.G.g.6.8.2.k.U.j.-.U.t.2.u.t.c.}.J.Z.S. .u. .C 7 # . X $ ^.}.6.A./.S.6.6.z.U.:.Y.h.:.p.B ! 4.g.6.t.2.T.6.) 1.n.r.C W u.2.L.4.4.(.} g h ~.r G 0.6.p.n 9 6 a.^ F J 1 2 | Q.2 2 Z +.m e I.( $   . .     o     % N #.7 % O O                                                                                                     . .   .   .                 o + . O . . # # O O & 1 1 p } W 9.'.XXrXmXmXCXVXVXVXVXrXtX|.j.2.6X>XmX;XE.! $X-Xz.W 1 O = p D.wXpXmXcXnXmXMXMXMXMXmXmXMXVXVXBXNXaXaXmXmXmXmXmXcXqXU.e =           X   . # . .     + O . . . . . < E n.1X:X,X*X>X$XF.J.;.h.5XyXCX*XeXrXmXeXbXcXmXpXBXnXeXrXpXrX*X*XeXeXCXcXVXMXVXxXeXCX0XsXoX2XI 1 . . . . . . .                                                                                         . . X X O $ q (.uXaXVXBXBXmXmXmXMXMXmXmXmXmXcXrXeXeXxXeX.Xg.C p 7 j N.a.h 4.6.Y.-.t.}.DX>X>XrXwXeX>XZ.t.d..XbXbXeXmXMXMXVXBXtX7X}.b.m.s.7 O o   2 q *   * % 0 7 b Z q.o.; 8 N.T a.I b 2 o.j 7 r T n.x p.B ..V.V z a.^.U C E n.2XP.2.g.{.tXeXeX*XeXrXmXMXrXrXrXmXmXmXmXMXMXMXsX|.L.q . o o 8 C (.",
"cX8XE 1 6 b }.vXF.c.XXXX{.,XcXpXVXqXNXZXh.k.9.U.i.1.8.T.) 1.) l.y.-.6.<XD.J.F.d.4X6.2.P.8.2.E.i.1.P.;.c.D.8.y.C.i.| n 1 # O X < l.c.k.U./.-.;.h.9.t.6./ b.gXa.k ! a.9.;.8.l.9.P.8.n.r.) Z Z r.u.1.u.a.i...Z ( ..Z o.2.).U A 6 { 1.) %.6 1 K ! p.N 2 | p.p e 3. .1 . . .   X o     . 7 J t # O O                                                                                                                                 o   . . . # 2 r w w k B k g g I J.-XqXpXMXMXVXmXVXmXBXcX*XF.2.2.5X.XCXkXW.3.:X|.g.V 1 O : M OXwXpXmXcXcXNXMXMXMXmXmXmXMXMXMXmXmXaXiXrXmXmXmXmXrX-Xz.e O O   .   X   . . # & O . . : 1 # . X   . # 2 B 5.E.6X=X=XJ.6.1.2.v.&X=XZX;XcXpXMXrXxXeXrXMXMXmXNXmXrXrXrXeXrXrXMXpXMXMXVXAXeXNXoX-X2XV.M #         . . .                                                                                       . .   X X O # 2 ~.uXiXmXBXmXmXmXmXmXmXmXmXVXmXcXrXcXcXcXbX-Xc.1. .W h U p.C +.l.g.9.}.7X'.:X>XmXiXqX>X$X#X:.F.ZXtXeXcXVXMXmXqXqX$X .G n p : o o   7 r 1 . O O : 1 b ~ I G 8 a Q x ^ W M 7 1 6 % 1 ! ) W p.| e./.2.W u.E.^ j ..n.j.T.2.;.}.*XbX;X;XcXrXmXmXrXrXpXmXmXmXmXMXVXMXmXoXI.w #     # g N.",
"rX8XB $ 2 B $X>X[.F.uX*XH.:XmXMXMXrXcXtX#X;.k.8.^ a.1.i.C.1.r.j.-.A.2.9.Y.G.6.D.c.9.t.-.U.y.-.u.r.-.J.4XG.j.r.4.1...H q # . . 1 ^.>.g.G.i.1.G.9.2X;.) 8.m.t.N.j ( L.2.b.2.2.U.g.r.r.u.a.W | I.-.4.i.V. .5.B E C B W 0.0.W j 1 K ^ a.O.e e q } Q.D r E Q.D 7 a.p.7 # . .   X     * . # # s % O o                                                                                                 .                                   . O % 2 E 1.u.g.P.T.I.w.^ 8.6XtXrXmXMXMXVXmXCXcXBXbX&XJ./ 8.7X*XeX@XW S.:X|.0.h e % 8 C 4XqXrXpXcXcXmXmXMXMXmXmXmXMXMXMXmXpXaXpXpXmXmXmXcXeX=X4.9 O O . . . X   > % # # # & 6 e 7 # . X     . # $ r 1.U.2X2XR 2.I.U.].qXkX,XxXnXmXMXrXrXeXrXMXpXrXBXnXeXrXmXrXrXrXmXpXpXpXcXcX;XqXZXJ.I.M 7 O                                                                                                           X X . # 1 5.=XwXcXcXmXmXmXmXmXmXmXmXVXmXmXcXmXmXcXxXdX'.h.G.K./ v p.X.w V.T.D.x.ZX;X=X;XMXiXqXtX=X:Xg.c.*XeXnXrXMXMXcX*XtXD.M : % O . o +   & 2 1 & % % 0 6 m X.h B 7 S Z W x q.b a % d ; 6 M.h 5.5.e.1.Y.h.) w.U.2.B ! u.9.4.-.r.c.XXNX{.{.vXeXcXcXrXrXpXmXmXmXmXMXVXMXmX=XI.g #   O & g M.",
"rX5Xk $ 1 C [..X{.}.tX&XD.%XmXaXMXqXrX>Xg.U.8.r. .I r.l.1.i.l.A.c.c.8.j.t.8.r.l.r.U.k.OX8.r.A.8.l.U.k.;.<X8.P.1.3.a.o.e . O . 1 n.}.7.9.u.V.;.G.t./.) a.9.-.E G ..u.U.9.P.r.2.z.2.I.i.) W  .a.8.^ 4.1.^ a.E k !.U 5.^ ) _ g b j q.) O.M 1 q ! N.b 2 | p.e p 5.a.w # # O   X o . % . O . ] 0 *   .                                                                                                       . .                     o   O . & b l.|.1X|.tX=X4XY.k.1X&XeXwXMXMXMXVXBXBXmXNXeX{.G.^ 9.>XuXeX,XI E.=X|.2.g N 6 7 Z 4XqXrXpXcXcXmXmXMXMXBXmXMXMXMXMXmXpXpXpXmXcXmXcXcXeX{.^ 6 O . % . . . . t t . . $ r B j 6 % @     X . . O % e G 4.I.2.;.9.OXwXaXxXkX;XeXcXcXcXxXxXnXqXmXmXeX;XvXcXeXrXeXrXpXmXrXeX;XeXvX:X2X .} : =   X                                                                                                             . # 1 Z  XwXcXcXmXmXmXmXmXMXMXMXMXmXmXmXmXmXcXeX>X-X.X`.uX.Xd.~.O.b C i.K.'.v.AX*XeXMXaXrXvX>X:X[.'.*XrXAXeXmXmXeX=X8X4.9 o o +   o @ o # & 8 8 . . ; # r ~ c B b K %.B V o.b u o , O : H k P a.e.1.F.d.W 4.2Xz.Z G 0.z.i.) w.K.XXrXv.c.&X*XcXcXrXmXmXmXmXmXMXMXVXMXmX.XT.j # . . $ 3 ~ ",
"mX=Xn $ q ! $XxXc.h.].c.r.H.rXiXMXBXeX'.Z.t.T.1.( a./ n.3.) 4.A.c.h.9.U.T.8.i.L.L.8.k.G.S.j.8.T.4./ g.k.g.A.t.4.r.a.X.7 . O # 4 n.h.}.4X3.3.t.U.z.U p.Q.2.-.j } e.4.9.G.l.8.P.2.u.) 8.a.| ..i.) L.) u.4.1.I Q Q 1.a.) ) V Z r C 5.V.| n 2 b Q.| r j ( p.6 7 e.) r $ # O   X   . # %   @ 0 0 . . . .                                                                                                   . . .                     X   O . & G OX*X*XuXrX*X5X6X&XvX*XrXpXMXVXMXVXBXmXNXcX*X|.k.) z.=X*XZXzXy.4X.X X) w a 6 q W 1XqXrXmXcXcXBXMXMXMXmXmXMXMXMXMXcXcXrXpXcXcXcXcXcXeX}.W 6 O % y & # . $ j J % O 1 N ` g & O .   . .     . % & 1 k ^ N./ ^ 6.XXsXeXbX;X;XxXeXcXeXxXxXeXcXmXrX;XkXxXeXrXqXrXrXCX;X%X@X].>X<X1.M i ; -                             .                                                                                     % $ g K.uXcXcXcXmXmXmXmXmXMXMXmXmXmXmXmXmXpXrXvXtXrXwXaXwX].gX~.b e ..g..X_.].rXrXaXpXeXvX,X,X&X*XcXpXmXrXcXeX*X#XP.C % o X X o . . . O ; : > : ; > & b o.Z o.C M X.b Z B p s > - ; i ` ~ V Q.5.i.1X>.Z e.gXt.E ..i.8.u.)  .U.*XrX{.[.:XkXcXcXrXmXMXMXmXmXVXMXVXMXmX.XT.h % . # $ 2 A ",
"mX#Xn & e o.3XZXc.h.F.h.w.R.yXaXMXmXcX'.2.l.r.3.p. .L.4.3.) y.4.i.8.A.2XU.2.G.9.2.) 3.w.A.8.A.-.t.P.6.Y.9.9.2.P.r.p.F 1 O O # r I.7.'.K.i.w.j.t.2.i.a.W r.4.n n p.-.8.g.2.L.1.l.E.8.4. .( ..1.u.i.i.-./ /.I n q.^ / a.^ Z Z w C ) 4.Q.n 7 b ..Q.r 4  .q.7 m ..q.j $ . .   o o   # %   + . 6 # % . . .                                                                                           .     . . . .                   X     O 6 o.1X.X*XcXeX;X>X*XwXwXcXNXpXVXVXMXVXmXmXNXrX*X$X6.) U.7X*XkXk.Z.$XuX5X( q 9 1 r 4.:XeXrXmXcXcXmXMXMXMXmXmXMXMXMXrX;X=XrXrXrXrXcXcXrX>X2XW 7 ; & ] 6 & # $ c ' 1 . % a #.w & % # & 0 O o O & 1 : $ 2 4 w ` !.U g.dXyXeXeXqXeX*XrXqX;X*XbXrXpXNXtX*XeXpXeX*XyXuXtX'.Z.j.d.F.z.W M 9 ; o   .                                                                                                               . & w Y.tXeXxXcXmXmXmXmXmXmXmXMXMXMXmXmXmXmXcXnXeXrXCXaX0XXX.Xk.B 9 { U.x.x.ZXaXpXmXrXeXvX@X&X*XmXmXmXrXcXxX;X-XOX( q &   X X X   . . O O = ; . . ; # r ` I o.k j n H ` j p s : % & 7 ` k k C ! u.2X:.n +.P.-. .E u.l. .W i.g.*XyXtX$X#XlXeXrXrXmXMXMXmXmXVXVXVXMXmX*XOXV &     . & 7 ",
"vXG.j $ 7 | F.*X$XJ.E.j.w.R.yXaXwXpXcX'.8.1.r. .| a.u.2.4.L.W.) ^ P.A.6.A.2.k.k.9.P.1.( r.t.) P.r.8.G.g.j.8.8.2.i.p.F 6 % O # n ^.c.f.g.1.L.4.2.8.i. .e.3.e.n Q (.-.k.9.-.1.r.l.2.8./.1.z  .3.) r.n.;.E.1.I E ( 1.i.) q.B ~ j _ 5.U V.n 2 b N...j 4 W p.e e | q.b & . o     o   % #     % & 6 6 . . . .                                                                                         .     . . O .                   X X   ; e Q.8X].rXCXxXvXkX*XMXaXrXrXrXMXVXMXVXmXmXNXrXqX=X:.-.gX{.>X:X9.D.>XyX|.~ 6 & 1 B P.dXrXrXcXcXcXmXMXMXMXmXmXMXMXpX*XH.H.bXrXrXrXcXmXcX-XE.G 6 & 1 @.e & % $ 3 [ 1 . O 6 &.b 7 7 & a L 7 O u b q % % & $ 6 $ a 2 } a.c.7X$X$X5X{.>X.X3X3X@XtXyX.X}.3X>X*X=X|.5X1XOX8. . .j.T.I j & O o o O # . O O . .                                                                                                     . % 4 E.>X;XxXNXmXBXmXMXMXMXMXMXMXMXmXpXmXmXBXeXeXeXpXiXiXMXXX X^ e p 1. X7XXXmXaXBXcXcXnX,X,XrXmXrXNXrXmXeXtX Xn.w & & %   X X X . # .   O ; . . > & p ~ I W E ~ b b H q K i a 1 6 q ~ ~ F ~ E 4.U.T n +.^.y.( Z 1.L.V.I ) Y.tX*X-Xc.t.H.*XNXrXmXMXMXmXmXVXVXVXmXBXqX1XP & o X O 6 e ",
"%X4.r $ j  .'.nX$Xj.L. . .R.qXaXMXMXnX>XU.1.i.)  .p.2.6.r./.4.r.;.j.) r.T T.y.2.A.9.G.k./  .C.r.i.t.9.Y.t.gXj.1.4.a.H 6 O . $ n I.h.d.h.t.4.P.4.) ~.e. .5.! C p. .T.G.g.t.-.4.) U.2.2.I.U ( I.1.i.u.9.g.i.V a.) 1.8.) 5.k o.I a.U a.3.C q M | I m j p.( q p o.o.w # @ +   +     . %     # $ t t . . O . .                                                                                       .     . . O @                         : 9 N.SX*XcXqXeXnXkXeXMXaXeXeXmXVXVXVXBXBXcXBXNXrX].>.:.Y.7Xv.3X9.{.qXqX+Xn % : 1 I <XuXmXcXcXcXNXMXMXMXMXVXmXMXMXqX7X3.y.>XrXmXmXcXcXrX>Xu.M 6 9 2 L &.6 . ; # & # : . 8 #.A j q 9 2 s.^ b &.p.g % -     * O % O o : e C Q.I.I.T.8.T E e.l.Y.G.U.} | U.gXI.~.1.V Q.C e M p.I 7 % O       % 0 & & 0 . . . . .                                                                                               . O 2 y.=XeXnXNXmXrXpXmXMXMXmXMXpXpXmXMXpXpXNXCXBXcXmXrXrXrXyXdXc.G p ! gX=XyXpXqXeXcXmXmXeXxXrXeXxXnXcXmXcX.X+XP 7 ; % . X X X X   . . O % % % : : : p $.V p.G $.n F F 2 e m #.r A 4 o.} M p G i.^.W C Q./.E.i. .2.L. .V r.<X-XuX*Xv.2.k.ZXwXCXmXMXMXmXmXmXVXVXmXBX*X=X0.1 + + O 1 %.",
"E. .r 1 n s.@XxXH.E.V.I 4.3XXXiXMXwX*XZX8.W.L.3. .3.P.6.u.) L.t.k.8.r.l.t.8.2.u.-.k.k.9.P.4.i.r.l.2.E.Y.U.S.;.P.L.p.e & % % 7 o.SX:.OXk.9.r.4.^ a.) i.! +.B E ! 4.:.E.G.Y /.^.u.9.6./.2.^ I.1.^.u./ -.U.) ( a.i.a.i.s.V C G a.) ~.a.e.E 4 ` | (.q r Z p.4 A o.C N #   o @ O + - O : y * . # 7 ] 6 * * * .                                                                                       .     . . . @                   . . . . 6 o.<X.XrXmXcXcX;XxXMXmXxXxXcXmXVXBXBXBXmXBXpXwXXXx.d.<X7Xx.R.9.>XsXuXOXb O : 7 ) 1XrXmXeXeXcXmXMXMXVXVXVXmXMXmX*X3X! 3.:XcXmXmXcXcXrX7XV.r 1 9 2 M %.1 % O 0 & J 1 # & N k h j 9 M a.n.n G 2.4.F 9 : y & # O   + - O 1 r j k B B k q q C ( ~.| C b | p.k C X.j b 1 : : e 2 .         O # 7 $ 6 0 & . . . .                                                                                               . O 1 8.$X>XnXrXrXrXmXmXBXmXmXpXmXmXmXmXmXrXrXcXcXcXmXmXrX;X=X*X=XW.G C /.7X0XrXeXbXbXcXBXmXmXcXNXxXeXcXcXeX=X8.k & O O . # .   X @     O & # O . d $ m w k ! w o.n b K r 7 7 B.g 4 w W ~ 6 p n Q.4.I j | L.8.i.1.^ i.V.W ) K..XuXdX{.1.8.>X.XcXcXaXMXVXBXVXVXVXmXNXqXuXg.6 o - ; q !.",
"W.! 2 < w p.6X;X}.t.4.) t.:XyXNXwXrXAXF.j.P.) L.i.u.6.9.4.I.^ L.2.8.k.2Xt.l.r.^ r.1.( i.8.gX9.k.2.8.9.gX8.8.k.t.4.5.b : ; : < B P.4Xh.<XG.2.1. .8.L.) p.p.B W e./ U.6.:.gX-. .I.6.k.2.y.4.1.r.r.) gXt./ 4.x ^ n.U V. .E C p.1.2.-. .V.G w 5 5.V.r 2 ..! g X.b n J %     % O     O % y & . # < S & % . O .                                                                                       .     . . .                     . . . . % H T.tXqXcXMXmXxXxXeXeXxXxXcXmXmXmXmXmXBXVXpXpXrX.X'.8X{.d.G.8.*XwXXXn.e O & r i.=XNXpXeXeXcXmXMXMXVXVXMXMXMXpX*X<XG | :XcXmXmXcXrXrX5Xa.q 6 a j Z !.2 9 6 K w B.j 6 % p j I ..p r n V.e.4.h.OXd.^ B g I ~ 7 .   o # $ 3 2 & & r H M q 1 7 ` n g H w b 1 1 a & % % o . . . X X X X . # J S 7 7 9 & . . . .                                                                                                   & 1.|.*XcXqXeXrXmXNXmXmXmXmXCXBXrXqXrXNXNXcXBXBXmXmXeXZ.t.*XqX8Xw.p +..XiXqXrXZX=X&XbXmXmXrXCXcX*XrXeX*X3XC 9 % O ; O $ < $ # @ X   . % . O 0 0 1 7 ` ~ Z F H C ~ C q H b O.B F w o.o.p { C a.a.) Z V.8.6.j.8.) C.V.I / 4X7X-X.XF.2.g.ZX.XyXrXMXMXNXmXmXBXBXcXmXqXuXm.7 o o ; e !.",
"W.E 4 < 4 5.3X,Xh.:.2.j.D.:XtXrXrXmXcX@XZ.^ j.8.1.L.G.g.-.i.P.^ t.U./ 2XA.8.gX2.4.u.3.i.t.:.k.2X2.j.8.9.;.z.;.A.2.p.D : O % 2 W I.;.1X7.g.j.4.3.I.^ 4.( C k 5.I.8.j.g.9.6.l.u.i.OXh.k.L.t.L.2.t.9.-.gXy.u.n.u.-.i.^ | C E Q.a.l.8.1.( Z w C i. .b 1 O...g B ~ q $ . O . % % O @ O O & & % % $ $ # . . . .                                                                                               . .                     . . & . % e i.5X-XuXwXpXnXkX&X;XxXxXmXmXmXmXmXmXBXVXMXaXmXyX=X7X'.c.4Xt.&XqX=Xn.7 ; $ n U.&XmXrXcXrXcXmXMXMXMXMXmXVXaXiXtX3XC | :XcXmXmXcXrXrX5X+.e 9 p C Z M.b 9 6 M g ~ j & & r Z -.I...G j ../.j.9.+XhX7.U I -.~.E 7 # . # 1 < 6 * . : S S a % O 9 7 w X.1 6 6 # # & d 0 . . O   X X X   # 1 #.K e e 9 # # . . .                                                                                                 o & ) |.>XrXeXeXcXNXcXrXrXcXeXrXNXrXrXcXrXeXcXBXBXmXmX;Xy. .7X0XtXK.p m ].CXwXyX:Xc.D.>XmXMXcXNXmXrXrXeX;XE.e : 6 7 : & 4 V U 3 . X     . . * . e q q 4 j n n X.n n H 4 r X.p.I X.q ! B 2 p n p.~.^ U (.9.9.4X;.( ~.~.1.2.J.7X.X}.g.8.U.$X>XtXrXaXaXcXcXmXmXcXcXcXwXwXb.7 o o % q o.",
"W.Z q q 4 W Z.[.d.F.'.'.ZXZX*X*XMXrXeX>XJ.t.9.g.t./ OX7.gX1.^ y.u.y.r.T /.U.6.G.Y.9.2X9.2.L.P.) L.8.U.j.8.6.k.A.-.( e : O % w !.4.D.c.SXA.8.L.r.P.8.^ 3.Z V a.-./.9.8.U.t.4.w.C.9.|.9.t.t.t.t.8.9.9.^ 1.2.2.t.u.^ 3.Q.G a.^ ) P.P.1.~.Q q V -.I.7 e o.W z ` M D 9 0 0 : # : . O . O : 0 * . . # > & # . . .                                                                                           . . .                     . . * . O $ B -.Y.7XuXqXeX;X;XvXeXeXmXmXMXMXmXmXcXmXMXaXaXrX=X{._.'.zX2.'.-X1X1.1 & 2 W 2X&XmXrXcXrXmXMXMXVXVXmXmXVXMXaXrX1XV | :XcXmXmXcXrXwX5X| 7 1 q I h ( o.9 $ q 2 9 : % 9 C a.T. X1XY.4.W I.I.W V 5.q.` E 6.gX0.I 7 . . .   @ @     O > ; O O u % 9 7 & 9 $ 1 $ S S q g r $ . . . . # 4 A r q 1 9 8 # % O .                                                                                                   + : ( |.qXrXrXrXcXcXrXeXrXcXcXeXeXeXeXeXeXeXeXrXcXrXmXeXS.r.&XNXMX5XH m <XwXwXtXF.2.t.3XcXMXVXrXMXMXrXbXkXS.p 6 M E e r ) n.m.T 1 O         . . t N j w r q q %.~ n M.C w ` Q.I m e } o.w X.k Q.i.Y I i.^.t.1X;.! Q./.8.1.A.'..X4X2.8.Z.>.[.:XeXrXpXeXcXmXBXxXnXcXrXiX_.7 o O & q H ",
"W.B < < 5 ^ A.%X#X=X.X.X;XeXuXyXmXrXNX@X4Xt.2.G.9.g.x.x.6.t.W.4.8.8.4.l.t.2.G.:.k.J.7.D.U.-.) L.2.E.8.8.A.t.z.d.-.( 9 ; ; % 4 o.(./ 8X:.2.1.x /.l.I.e.p.W ~./ r.G.6.Y.9.t.t.w.1.}.x.c.k.g.E.j.k.h.9.^.u.9.g.6.l.l.a.b F ( 2.P.8.y.1.V.C n E 8.4.N & !.I x O.m i : # 1 7 & 0 0 & . , # 0 * . . . > * % . . .                                                                                         . .                         @ .     . . 1 w ^ G.8X-X*XeXxXeXeXrXmXMXVXMXmXmXmXmXMXMXpXeX&X'._.'.E.^ c.5XE.Z 1 1 w 5.4X*XcXmXrXrXpXmXMXVXBXBXcXBXMXaXpX-XW 3.>XmXmXmXcXrXrX5X} 6 7 b ..x Z !.F r X.4 : : : : Z ~.8XXXyX=XU.3.^ a.Z q C n p b P.8X'.8.q % .         @ @ @ O O O O O % 1 1 & & $ 1 7 J 4 4 M.~ $ . O * # $ g ` 2 1 $ 6 : % ; O .                                                                                           . .     o : ^ 1XqXrXcXrXcXcXeXqXeXcXNXrXeX;XeX;XvXvX;XeXrXrXmXxX#XD.*XCXiX&X} b k..XqX&Xg.) r.#XqXpXVXwXMXVXqXtX7Xt.Q G r.I.| | G.8X7Xz.F %     X   . 0 t A h B.J 7 q ~ C n M.V 4 n N.W X.r | ..c C n p.I.R V ..V.8.F.g.Q } L.2.U U.]..XU.^ 8.K./ g.:XvXmXpXeXeXmXmXxXnXcXpXiX Xq o % # 1 b ",
"(.C $ < x z.zXlX3Xc._.XX]..XpXpXpXmXeXZXD.T gX9.9.g.|.x.6.r.w.W.y.U.2.A.l.8.-.U.t.t.A./ t.E.U.-.8.r.8.2.2.E.g.6.n.p.p % O : w o.a.;.x.8Xt.4.i.T U.t.e.! U 8.^.i.9.G.:.E.U.r.i.u.8X>.g.k.t.Y.9.g.c.g.e.) G.g.E.2.2.~.b G ^.9.U.9.;.L.e.Q q ( j.~.e : O.z U E M 9 8 # L q $ $ t # O   . # # .     . # . . . . o X                                                                                   . . .                         X       X + # 6 2 Z l.$X=X>XeXqXrXpXmXMXMXMXmXmXVXmXMXMXpXeX&X'..X=XE.) D.4X^.k 1 1 h n.|.tXeXBXrXpXaXMXMXVXBXnXnXcXMXMXiXyX6.S.>XmXmXmXcXrXrX5XQ 6 a F 5.1.I a.a.-.~.V 7 u d = q ) 9X0XwX{.C.p.P W k ` #.1 : M I.}.XXG.7 = O % % .   @ , % 1 1 % O O 7 j o.i % : : : t 1 g M.B %   +   o % 7 p e 8 : : ; ; > .             .                                                                         o       . .     : I }.tXrXrXeXeXrXrXqXqXeX*XuXbXtXeX;X*X&X;XxXxXcXcXeXeX*XpXwXwX{.e.j / <X.X{.t.1.Z.:X*XrXMXwXeXeXqXuX>Xh.h.v.=XlXU.U.$X>XtXOXQ & O . . . O # S g V B 9 8 r o.C g (.V 4 O.) P !.g 5.0.^ ( j E ^.6.h ! Q 1.5Xh.m p u.j.W r.-XoXr.I t.gXt.8.}.;XcXpXeXeXcXrXxXnXrXaXiX9Xe @ X   % 6 ",
"Q.n $ q -.4XlX[.D.:X&X.XeXNXpXwXMXqXeX@X6.4X7.G.9.9.h.1Xg.L.4.-.t.;.Y.G.-.l.A.-.t.8.t.E.9.G.G.8.j.P.r.8.P.2.g.g.u...7 % O % w N.^ G.8X}.2.U E.l.8.1.| V 2./.2.8.E.k.k.6.t.t.3.l.g.1Xg.g.k.k.t.g.G.U. .3.Y.c.2.i.8.i.n Q n.6.8.4.L.1.e.G M o.;.^.a % O.I h q.e a % 6 B.j 6 $ #.e O . % . . O   X . . O .                                                                                             .                           X X . O   o & p e q I z.1X*XrXrXmXmXMXMXMXMXMXmXVXmXmXmXpXeX*X{.XX>XzX1.k.P.p.q 1 2 P 2X.XuX*XcXmXaXmXMXMXMXcXnXbXrXMXMXiXAXv.6XcXmXmXcXcXrXwX5XZ 6 S j I a.^ 1.gXR s.} p i i p n ) -X0X*X8X| M !.!.K 7 $ 6 J X.3.9.uX8Xw : : a e 7 % % % & q a 0 O y p s.^.q.e : > > : N b k 3 . +     o y i 7 7 6 : 8 8 u y           . .                                                                                 .         % B Y.tXpXeX*X,X>X>X*X*XeXcXbX%Xh.f.'.;XvX;X;XeXcXeXeXrXmXpXwXCX-XW.Z B E.$X|.Z.j.:XZXqXmXpXcXeX;XeXbX>X]..XyXqX*X[.lX,X>XqXF.F : 6 & . # % # N n ( M.i 8 q ~ H j ..z b X.a.U o.C W a.^ q.k ..z.I.k M } 3.Y.t.} F r.k.( ) ].|.e. .k.6XE.2.g.F.*XeXeXcXmXcXcXnXeXpXiX5Xj O X   @ % ",
"q.C 7 b 9.7XqX*X'.8XlX=XbXrX*XrXMXeXZXh.{.c.J.g.2.A.6.t.r.y.G.G.-.Y.g.-.t.r.j.g.4.y.E.2.U.8.U E.t.4.t.t.j.8.C.4.r.I 7 % . $ 4 E T.9.3Xh.2.S.7.t.| Z Z u.1.4.t.9.S.j.G.k.Y.9.y.) 2.j.4Xt.9.U.8.-.S.4. .3.6.G.y.8.8.l.C ! 1.S.i.i.1.E.r.E 7 D t.u.7 6 M.x T ~.M { 6 1 $.b . & C o.6 u # > y % * . . O .                                                                                                                           X   # & % 8 } a...B w W }.*X*XAXeXcXBXMXMXMXVXVXVXmXBXrXmXBX*XeXBX;X6X9.>.~.b : 6 p ^ SX.XrXCXcXpXmXcXcXmXMXNXcXNXBXMXaXrXeXeXeXmXMXnXvXeXeXwX|.Q : i K z 1.^ -.z.Y k m q Q /.1.) 4XH.c.v.Y.I k K S & # N JXJXKXW 9.].5XW m 7 K O.I p.E e 6 . > 1 # . m T.|.K.i.7 0 s 6 r 7 & % .   . .   0 { n E G 6 u i i O o . O     . .   X                                                                           .           O e (.XXaXMX>XW.3.#XZXtXuXNX@XS.( >.;XeX*XvX*X*XrXNXcXcXcXrXrXCX.XD.3.j ! Y.{.>X&X;XeXMXMXcXcXcXrXeXeXqXqXyXeXrXcX&X@X,X>XrX[.m 8 G 4 # O ; % e H I M.K 1 r K M b N.h 7 p Q.h Q C o.( I Z w ! P.-.p i E 5.1.^ G | P.g.W 1.8X1X! ! $X.XZXJ.-.^ D.ZXqX0XwXaXwXaXrXrX0X8XB 9 . . . . ",
"o.b 6 q ;..XqXeX.X=XF.c.*XrXcXCXmXrX@Xc.[.$Xh.g.t.8.E.3.y.P.g.c.9.G.<X2XP E.j.U.P.1.G.k.2.4.t.-.S.r.-.E.9.A.C.r.w.( q . . $ < p.t.}.K.;.j.;.c.t.} r V.4.u.8.Y.K.2.2.Y.K.9.S.2.r.y.1.8.4X4X9.2.E.4.L. .^ A.6.9.2.P./ ! W l.A.1.3.3.u.t.3.p K 9.n.b D !.V 1.5.C m : 9 } H O & z ~.H 6 % % u % y # O .                                                                                                                                 . & 8 F L.T.T.0.M n 8.=XtX*XeXrXNXmXMXMXVXVXVXmXBXcXmXNXeXmXBXcX@Xv.>.N.7 O : r t.5X*XrXmXmXmXmXcXcXmXMXmXNXmXmXMXaXrXeXrXpXaXMXxXkX;XeXiX-XQ : e ` I ) p.^ n.v 2 #.~ i.6X].kXlX3XK.d.;.o.j $ # 0 =.KXJXLXO.U G.9X|.1.E B ! V.Y K.n.~.~ % . $ $ & N +X{.3XC.2 a a 7 j r & . X   . #   % b 3./.I.X.7 q 7 8 O O O     % .   +                                                                           .           O 8 V.*XaXaX.Xw.C 2.{.qXrXqX,XE.y.c.eXNXrXeX*XeXcXNXcXcXcXBXrXmXqX1XL.C C G.=XrXrXcXcXVXMXcXcXmXpXeXeXwXwXrXeXrXcXrXeXkX>XyXc.p i M.W 2 . O 8 K w ) I r 6 7 b H C Q.C 9 D B.h n n Z B.C } j Z n.R e 8 B q.E C Z ^ 0.l.) ) OXh.E w.=XwXeX@XU.r.8.6.7X.X.XyXwXaXvX@X=X4X .e # . . . ",
"` g 6 p t.&X*XuX'.'.c.x.&XrXrXcXrXXXvXZXk.D.F.c.j./. .i.4.8.OXd.k.<X<X9.l.r.S.g.S.8.9.G.l.A.U.S.t.j.U.8.2X8.S.S.P.I < # . . 7 p.6.6X<Xg.;.9.9.L.G +.w.gXr.t.G.9.G.r.8.9.g.8.A.U.t.8.S.j.k.S.8.U.r.y.3.i.4.z.2.9.a.V B ~.r.1.L. .I.i. .n b p.b.b.g D b n E _ b e 1 K (.r % # I a.+.q : O u : $ $ . .                 . .                                                                                                         . . . O i ..4XoX5X2X..r Z U.ZXqXeXrXcXmXMXMXMXVXVXmXVXcXxXcXrXNXBXnX&X1X>.' $ . : r 2X=XeXmXrXmXmXmXcXcXMXMXmXBXmXMXMXMXcXeXrXpXaXaXcXxX>XeXiX-XF 8 F o...I M.k o.B w B.p.9.>XNXeX&X>X$XY.P N 0 1 ] KXPXIXLXFXD 4.G.dX7X2.! e.T I./ dXXXuXz.j $ $ < 2 B ~.2.p.H & 6 1 r ( q.A # .   . .   % g E.|. Xp.w n H N & % O .   O . . .                                                                         . .           O : | >XiXpX>XZ.1.d.eXaXMXqXvX3X6X;XeXNXxX*XeXcXmXmXcXcXeXNXrXrXuX5XE...k r.6XqXpXcXcXMXMXmXcXmXmXrXyXrXrXrX*XeXcXmXmXcX>X7Xt.r C (.q.C 1 ; : #.V R 1.K ; 6 q ~ I N.Z 7 D H w Z Z B !.j H m k z.R w 1 k o.C H C I n.l.W 3.E.9.( A.>XpXqXtXlX4Xj.U L./.E.[.uX*XR.w.W.(.Q.w # . . . ",
"H r 9 M U.dXqXuX.X:X$X@XtXbXcXcXeXqXrX&X#XU.c.h.E.w.e.4.^ 2Xd.D.c.k.9.t.t.t.U.-.j.8.j.k.t.t.S.k.k.A.8.G.7.R.A.w.E.W < *   . 9 G E.h.2X9.g.U.i.^ I V.u.1.r.y.2.J.g.U.A.8.8.2.2Xk.g.E.8.r.t.2.j.g.j.4.L.r.i.l.9.y.e.I U i.l.r.^ I. ...p.B g  .7.f.z M r w o.Z F b q X.Q.E . # z n.a.n 6 ; = ; 2 $ . .                   .                                                                                                         . . O 9 G 4.1XuXXX5XL.Z p +.>XrXeXeXcXmXMXMXmXmXVXmXVXcX;XkXrXcXmXcXeX1X0.k $ O 6 C SX*XbXNXpXMXMXmXcXNXMXMXMXmXmXMXMXMXcXcXcXmXMXMXcXrXeXrXiX-XC 6 ~ ....E { e k B n E 4.,.*XrXrXeX&Xf.l.E 9 y &.PXFXPXKXIX%.+.E.}.$X4Xa. .T.-./.;.XX0X0X8XW 2 t 1 2 A N.( G i % % 1 ! n.gXq.4 . X .   o 8 ( 4X5X+Xe.g B o.j q t 0 O   . . . .                                                                         . .     X     O & B 5X0XqXtX$X}.{.rXiXpXZX:X:XvXcXrXcXeXeXNXBXrXrXcXcXcXrXmXpXyX=XY.V.V ( 4XXXaXrXrXMXMXmXmXmXmXcXrXpXrXcX;X;XxXpXaXrX*X3X1.n } ~.0.5.M % s X.P R q.N % 8 e ~ I p.B w D b r o.E k ~ C C K n I.T n r n ` D e M } i.8.(  ./.8.t.3XtXcXwXCXrXZX1X8.E | ( -..X{.y.W | | a.5 # . . . ",
"L q 6 p A.:X.X*X&X@X[.F.{.XXqXeXZX].rXyXh.Z.K.4.e.! 1.t.k.g.k.g.c.h.g.t.2.U.4.l.t.j.E.8.g.t.t.g.g.G.g.6.}.h.j.y.y.Q.a     . % b /.h.D.g.A.y.4.V e.1./.8.1.8.Y.9.h.j.j.A.2.t.9.D.D.j.j.4.t.S.g.D.6.A.4.4.P.8.i.u.a.I 3.1./.8.-.r.4. .Q.( E e.-.s.n M G W p.z b D q G V.! # # U l.0.p.e % = ; 2 S # O .               . .                                                                                                   X X     . 7 X.i.6.c.-X0XuX2X .e G [.qXeXeXrXmXMXMXmXcXmXmXMXNX:X:XbXrXmXmXyXOX..< . ; 9 +.5XrXcXNXMXMXMXMXmXmXMXMXMXMXVXMXMXMXmXcXmXmXMXMXcXrXrXrXwX=X! q C V ^ M.m m G ! n B i.6.tX0XmXeX{.6.V ` 0 f JX&.&.IXKXu } j.oX8X3.E V.1.k.6.W.-.XXiXwX|.4.} b 1 1 M s.n.! M % % k a.b.G.0.k # X .   o 8 ~. XOXT.q.k ) q.j n A N > . .     X                                                                           .     X     O & j 1XXXqXrX*XtX.XqXrXrX#Xj.,XrXMXVXrXNXcXCXmXeXqXcXBXcXcXMXaXsX&X}.W.W I E.XXaXmXmXVXVXBXBXBXmXmXmXmXNXcXeX;XcXiXiXiXuXY.W C 5.G.h.T.( 7 6 X.W I Z A 2 1 e m j _ c g j M M O.o.r p o.E ~ k a.U C M C G 7 i e C a.8.V ..C.2.}.tXbXcXmXMXMXmXtX3X .C B 4.{.=XR.r.) U 5.w #   . . ",
"N e 8 r A.=X{.{.-X{.[.[.*XrXcXcX&XtXqXqXh.k.6.L.! B 1.g.z.g.9.h.}.4XG./ U.8.1.P.k.t.A.9.<Xk.t.Y.g.9.k.Y.f.6.Z.U.r...&       % j y.v.<Xz.8.3.B p.1./.t.A.z.l.t.6.J.g.2.P.l.j.k.D.d.K.y.r.t.A.<Xd.9.j.2.u.4.t.8.i.| k e.I.l.-.U.1.(.e.5.I T n.5.p.7 e j o.q.Z r b w E (.Z # $ q.8.1.W ~ 7 = = L L $ O O                                                                                                                     X X   o : Q I.OX7.>.F.uXuX5X4.e F }.qXeXeXrXMXMXMXcXnXmXmXMXNX%X#XnXmXmXAXqXK.B & O ; r V..XmXcXcXMXMXMXMXmXMXMXMXMXMXmXMXMXMXmXcXmXmXMXMXmXrXpXpXwX|.! q Z I I o.9 p o.a.k | a.j.-XyX0XqX[.P.Z p & jXPXFXHXFX@.i  .5X.X{.! b 3.1.G.;.u.8.7X].uX[.U.e.M 7 6 q E ).( E 9 $ V T.9.7.l.x $   . . ; 7 /.g.U ( O.k 5.( Z H n r & . .   X X                                                                         . .     X     O : r T.-XrXpXrXNX*X*XrX,X) ) &XmXMXVXwXMXmXMXmXqX*XeXcXcXmXMXaXsXqX=XY.^ B i..XaXpXpXMXMXVXBXBXcXmXmXmXmXBXxXxXnXpXiXiXuX2X^ b } h._.8Xg.( w n %.C C $.w 7 J J L N.x B C H H ! M.p p o.I } k p.Z C F G C 7 6 i M 2.z...G  .-.*XrXnXcXMXMXMXMXpX.X<Xr.3.4X:X>X6X3XK.g.a.w # . . . ",
"e e i b E.:X{.{._.v.[.&X*XeXrXeXAX]._.&Xk.A.g.u.G C 8.g.8.t.>.1X8X}.t.g.g.2.C.1.2X6.j.U.D.d.D.t.j.j.6.h.c.D.Z.S.P.Z $ @ X   8 r l.7.4X;.i.| C e.i.8.g.6.t.U.t.D.;.<XA.S.j.t.SXh.c.6.A.j.r.S.g.h.k./ U.y.2.2.z.0.r r I.t.i.i.-.I. .| | I Y 9.-.o.e : e M B.Z } B I 5.a...$ 1 U n.V B q.Z u o b B $ . O .                                                                                                     .                   o i z.-X-Xc.-.k.tXXX>Xz.m F J.uXeXeXrXMXVXMXnXnXmXMXMXcXH.Z.vXpXmXCX-X9.q % o % n T.*XmXnXrXMXMXMXVXVXVXVXVXMXMXVXBXMXmXmXmXmXmXMXmXmXcXrXrXwX|.E q ~ q.Z B p r | V.I u.u.2.F.tXqXZXJ.a.K & @.IXHX=.&.q F p.hX{.ZX{.Z.3.r.w.gX2.j.Z.F.d.>X>X4X) G p 6 & 7 H I o.S 2 T T.1.) I.h $ . O O 6 b ^.1.n C O.h k n o.A 6 : # # # . X X                                                                         . .           O % e u.=X*XrXrXrX>X,X>Xg.C | ,XMXMXMXmXMXMXMXmXrXeXeXcXcXmXpXpXaXqX-X|.t.n  .].iXpXwXmXMXVXVXcXcXmXMXMXMXBXnXcXmXpXwXwX*X8X4.e M D.XXZX{.U. .q D ~ I Z 4 2 9 9 r N.x g H H Q V p.p p Z W N.E o.H H H ~ G e s 9 r g.T.} G  .9.qXMXNXmXMXMXMXVXMXXX&X$Xc.[.>X*X*XqXyX5XI.w #       ",
"1 7 a b U.:X&X=Xv.'.=X>X*X*XcXNXeX_._.'.J.6.6.I.F G U.9.L.) d.|. Xd.j.9.k.t. .3.t.gXj.t.K.K.G.t.Z.y.j.d.d.K.4Xr.u.p.7     O & r 4.9.h.k.( C |  .l.t.9.k.j.t.k.6.G.j.-.j.2.g.D.4Xc.6.Z.j.6.g.k.k.8.g.g.U.4.1.j.i.m M I.7.W.) 8.l.p.W Z  .;.z.;.p.m a 2 M H C q.V I a./.I 7 < T i.G w s.M.; = r j $ % O .                                                                                                   . .                 . ; D |.0XuX>Xj.<XtXoXdX4XM r h.uXtXeXrXMXVXMXxXvXmXMXMXeXy.r.;XrXpXrX-XT q O - % C OXrXmXCXrXaXMXMXVXVXVXVXVXMXMXVXBXmXmXmXmXmXMXmXpXpXcXcXrXiX|.G 7 k M.E j O.B  .W.8.E.E.-.F.>XeX>XD.^ j 9 HXJX9 p } ) U.8X'.-XZX>X6X#X4Xy.P.w.-.J.$X@XeX{.$XS.} b 7 & : $ A !.J 5 9.gXE C ~.h $ O O . 7 } I.W q m M.W w K B.q & & % # $ # X X                                                                         . .       X . O O 7  .OX>XNXpXqXtX:X>X6.! y.:XCXMXMXCXmXMXMXmXcXcXcXcXmXMXaXmXaXwXqXtX4XB W |.wXpXrXmXMXVXVXcXcXmXMXMXVXCXcXcXmXwX0XXX].=Xl.i p 4XtXrXqX7Xg.M 7 E V !.2 7 $ 6 q !.U r %.H Q x ) M p C p.~.I Z C n n C n A i : w d.K.! m V.J.qXVXrXBXMXMXVXaXaXAX].tX.X.XtXyXAXqXsXXXE.C #       ",
"6 9 6 F t.'.7X=X'.>X&X>XtXqXCX*X=X'.XXuXlXh.2.V.M G G.c.z.l.9.c. X7.k.S.Y.t.L.u.k.9.2.t.h.D.k.t.r.P.t.;.h.c.t.S.8.I 1 . . # #.w  .9.5X2XQ M  .u.8.A.;.g.g.j.k.j.t.t.k.9.Y.t.k.k.8.Z.J.6.D.6.Y.j.2.Z.g.g.u.u.9.I.e M T.d.t.1.j.4.5.E E x 0.n.n.P M q ! Q.M F F w W 3.C.W 2 q 5.1.M b ;./ D ; 7 S $ # . . .     o                                                                                         . . .     X       . . # i B |.uXXX{.$X:XrXwXqXE.M e k.uX*XeXmXmXMXMXbXvXBXpXmXeXr.4.=XNXrXeX}.P a o o & 1.|.eXmXCXmXMXMXMXMXMXMXMXMXMXMXVXmXNXBXmXmXVXmXmXrXmXNXeXeXpX5Xb a r n Z I n.r.r.U.[.>X@Xh.F.>X*XrX&Xh.( r r &.m ! h.oXuXyXwXeXbX;XeXeX*X[.zX .-.J.lXvXqXmX;X#X .| n r & & 1 p e h z.gXM 9 M.w # . . # q Q ~.Z 7 S !.z q K M r F 7 O % < $ X X                                                                         . .     X   . . O $ B T.5X*XqXrX;XtXbX=XZ.H.kXNXmXpXmXBXMXMXmXmXcXcXcXmXmXMXaXpXwXwX*X X! k c.XXwXpXBXmXVXVXBXcXmXMXMXMXBXBXBXmXqXXXx.dXXXZ.F i w.$XqXwXwX|.p.b w ~ _ 4 $ # 7 j ' ~ 7 J $.E ;.I.E Q g (...Z Q Q j X.e b A r 1 n +X_.! F 1.[.rXMXMXmXVXMXVXcXcXAX.XtXrXNXqXeX*XeXqX-XT.B & .     ",
"d s i } k.{.:X{.f.&X-XZXbX*XcX&X@X7XqX].F.9.j.e.r j SXf.9.2.7.4XJ.4X/ U.G.2.4.C.g.k.k.9.k.d.9.t.r.C.-.P.d.K.8.r.i.Z 1 . . & $.k U P.F.;.F b ~.;.T.8.;.K.G.g.8.E.j.y.9.D.7.Y.9.j.gXg.6.OXk.J.S.-.U.E.g.6.P.2.l.1.m q 8.c.-.P.t.l.V B ( 4.0.;.I.P q n 5.0.n M ~ k ! a.4.p.q < W Q.m F s./ b 9 7 1 $ & . .       X                                                                                         . . .           . . $ 7 ..W 6.{.dX{..X*XpXwXqX<XF e t.-X>XcXBXMXMXMXcXxXmXpXMXeXt.4.=XyXrX&Xk.Q.6 o > 7 z.-XeXcXBXmXMXMXMXmXMXMXMXMXMXMXmXcXnXxXrXmXVXmXmXrXmXNXeXeXwX|.} u p r G e.K.6XK.3X*XrXqX]..XtXrXwX*X:XP.I B !.o.l..XiXaXaXpXpXqXcXcXqXqXdXSX^ ^ J.>XcXpXMXeX:X2.1.5.g j M 7 1 2 ~ l.T p J D 1 O   . # 2 o.V.B 9 e q.Z q m C I p.Z & % $ $ X X X                                                                       . .   X     . . O % j L.8X*XeXrXeXeXrX*X,X>XbXCXMXMXmXMXMXMXmXmXcXcXmXmXmXMXMXpXrXrXwX=XV.z >.-XZXrXrXmXMXVXBXcXmXMXVXMXVXVXmXrXeX*X].-X-X}.} i Q A.tXwXaX-X/.Z r M p.B 6 y S q j A e J H C z.P.I Z Z N.Q.E G C H %.D { Z n e k _.+X! b U.=XXXwXpXrXmXmXBXcXcXvX[.{.oXwXrXeX*X>X*X-X}.W $       ",
": 8 7 ! G.{.5X@X.XtX.X*XeXqXcX.X&X>X.X{.K.t.Y.6.3.| P.-.j.;.K.}.<X6.Y.j.-.U.4.y.k.2XU.E.g.h.9.j.I.( 2.6.g.9.gXr.L.V 1 % # 2 M.I B a.T.9.C G 8.g.y.4.2X7.G.g.k.6.L./.9.h.K.D.j.j.t.8.h.8X}.k.1.t.U.G.-.8.g.g.n...m F P.d.t.r.j.i.n ..a.P.f.>.8.E 7 e 5.i.W E p.B | e.L.( r < B !.Q O.( q.B o.9 # $ # . . O                                                                                               .             . # $ 2 G ~.Z.1.j.ZXyXMXiXpXrXrX3X} 9 2.1X>XcXNXMXMXMXcXnXcXmXBXtXt.r.=XuXtX$X-.B.& O > q <XyX*XeXBXmXmXrXCXmXmXMXmXmXmXmXcXbXkX;X*XrXmXmXmXrXcXcXrXrXqXF.G 8 J e Q ^. XXX;X;XaXiXwXrXtXeXBXrXqXyX8Xg.6.T.OX:XrXaXaXaXmXBXpXpXrXeX$X}.=X>.T U.>XrXmXmXcX;XF.k./.v 2.~.5.Z q o.N.z p &.a :   X O # $ %.a.I 4 j s.^ 7 F P. X+X0.r & # . X X X                                                                       .     X     . . . . q q.5XqXrXNXpXrXrXrXNXcXcXmXMXMXMXMXMXMXmXNXcXcXmXMXaXMXMXpXrXrXpX>X/.V U <XZXyXrXVXMXMXmXcXBXVXMXMXVXVXmXrX;X&X>X.X-X1Xi.M p e.6XXXpXyX=XP.r m ! ' 7 s J 4 w L D { M ! T n.U p.z p...E o.n m b r %.O.n q g f.v.G F Y.7XeXbXCXmXBXCXcXnXcXtX[.c._.0XrXeX;XkX,X-X-X6.1   . . ",
": : 7 ! D.'.[.D.x..XtXZXeX*XnXbX=XZXx.=X-.S.D.K.4.I.4.L.2.g.OX8Xh.g.8.S.U.2.y.A.2.9.k.9.4Xk.A.W.3.W.1.6.b.G.8.4.^.B $ % # 2 M.( z p.^.n.Q O.-.K.r.8.U.Y.g.A.t.t.P.) A.6.h.g.j.t.U.t.9.9.g.g.4.E.U.8.l.t.>.G./ ..p F z.OX-.8.U.) 5.W l.>.d.g.(.j 7 M U ^.U e.e.(  .V.y.( b < H G E ( o.W i...e # 0 $ # . .                                                                                                       X   . # $ 1 g p.Y.3X4.)  XuXaXiXrXrXrX6X} e ) OX&XeXcXmXMXMXNXcXmXmXNX>Xg.t.$X-X-X4XU b : ; 6 Z |.wX*XcXBXcXrXeXnXrXpXMXmXrXmXmXnXvX,X[.&XrXcXrXrXrXcXcXrXrXqXF.F 9 i q Z 8.|.uXrX0XaXaXiXNXeX*XmXMXpXrXyX-XoXuXtXsXaXaXaXmXcXCXMXaXcX:XG.8.'._.2.4X>XeXmXmXcX*X:XOXgXY x.8X+Xn.4 j o.C 7 @.u % X X . . # #.p.( k B 1.W 6 F 1XqXoXT.o.6 #   X X                                                                         .     X     . .   . 1 ! 5XrXrXmXMXaXmXNXMXmXrXmXMXMXMXMXMXMXmXNXcXNXmXMXMXMXMXrXrXrXpXuXY.^ P L.{.uXcXBXmXmXmXmXmXMXMXMXMXVXVXcX&Xc.>X*X*X=XR. .p } Y.=XrXqXuX1X .k k C 7 9 b q w b r M G E ^ a.I ( I p.Z Z Q q 9 9 7 X.N.V C E h.b.I E 9.=X>X*XrXpXcX*XeXCXpXrX$Xc.'.uXrXeXeXvX>X;XqXc.1   . . ",
"y 9 r p.4X.X$X$X'.].].XXeXeXcX*X>X=XZXx.g.t.<XG.2.r.W.l.9.g.h.J.6.g.U.t.2.U.t.j.G.-.g.SX;.t.S.1.C.W.) z.,.G.S.w.(.C $ # # 4 p.1.k !.a.I ..4.Y.h.4.1.9.G.9.8.t.U.4.S.-.g.G.9.9.A.Y.t.g.G.2.k.8.2.U.j.-.9.G.6.T.I p r z.x.P.W.r.A.-./.6.6.-.^ B.M q o.I.T u.-.L.r.1. .y.3.2 7 q g P 1.o.B ~.| 7 : ] 0 # . .   o X                                                                                                     O # 1 4 V (.$X$Xr.) g.oX0XMXeXxXrXkX| e ( T.=XeXrXmXMXMXmXmXmXNXcX*Xc.g.{.=X|.U.W 7 : % 2 ~..XrXeXnXcXeXeX>X>XeXpXaXcXrXrXrXvX>XF.c.&XcXrXqXeXrXMXmXeXeXrX|.F 9 M C E ) v.yXMXwXaXaXqXuX&X;XrXVXMXrXrXCXMXiXpXpXmXmXmXcXvXvXmXMXNX{.y.1.v.|.c.lX>XqXMXaXeX&X7XOX4.U c.|.XXK.4 $ b A 1 u 8 O   X . . # e O.^ ) P v E i M K..XoX5XQ.q & . .                                                                         . .   X X X   . .     # B 5XmXrXmXMXMXcXCXmXMXmXMXVXMXMXMXMXMXmXNXcXNXMXMXMXMXmXrXrXcXmXqX|.9.Z e.F.qXrXrXmXmXmXmXmXmXMXMXMXMXMXcX&Xh.&X>XtX*X>XZ.G n 4.4X,XcX;X>X|.;.w 9 e e A Z C C C H B O.C G ( ) g M.B ~ } q & 9 j M.M.G Q Z :.l.E E K.ZX6X=XrXmXNXxXeXVXiXpX5Xc.{.tXyXrXmXmXcXcXrXOX2 . . . ",
"> 6 r a.5X{.$X6X=XtXtXXX].].*XxX{.F.v.[.h.K.7.6.U.t.A.-.K.d.D.7.j.-.A.j.4.8.Z.k.9.g.K.k.E.8.t.U.r.4.l.h.OXg.y.w.(.Z & % $ w q.i.g o.O.k ) y.G.G.) 4.Y.;.t.1.P.8.U.t.l.U.t.k.9.D.k.k.Y.t.2.4.j.L.4.2.U.j.7.d.z.(.D r 2Xx.A.w.P.8.2X6.z.u./ ~.F q C ( n.z.:.g.P.1.1.l.U.L.e 6 #.B 2.n.x h 3.p.2 a S $ # . .   o                                                                                                       O & r C W T.-XtXJ.2.4.4X0XaXeXeXrX>X| r ) T.>XcXcXMXVXMXMXmXBXNXeX>XF.h.'.$X4X4.C e O % 5 /.-XrXxXcXeX;XvX;X{.*XpXpXrXrXrXeXeX@Xg.g.&XbXeXeXeXrXMXMXeXeXrX}.b p B.W E e.g.'.NXrXaXaXqX*X&XvXeXmXVXVXVXMXMXaXaXmXmXVXBXBXxXxXCXmXeX{.Z.-.7.F.K.#X>XqXMXiXqX&X-XJ.V ! <X*XwX}.q % $ 7 6 8 ; . . . . # & $ X.Z I ^ I X.p F 4X*XqX-X^.j & # # .                                                                       . .   X X X   . .     O r K.xXcXpXMXMXcXcXmXMXVXMXMXMXMXMXMXMXmXNXcXNXMXMXMXMXrXeXrXcXmXrXuXb.M } <X>XrXrXmXmXmXmXmXpXmXMXMXmXrXcXkXF.{.&XZXuXqX|.1.j C I.%XAXeXrXqX1XI r 1 7 A G n C } } n H 7 M I N.k ~ G ~ E q % J M V !.E E ! ^ i.e.L.}.'.g.F.yXqX*X*XcXMXiXwX$Xg.].*XeXrXMXMXMXmXeX2X2 . . . ",
"% $ q 3.v.f.h.F..X.X*XqXbXbXeX*XAX{.g.H.3X}.c.F.D.E.-.t.2.A.|.}.2.P.j.) y.r.J.g.t.G.F.K.t.8.2.j.U.8.z.h.d.g.r.w.a.C & % $ g 5.a.g C #.M ;.c.6.Y.4.u.G.k.r.L.8.g.t.A.y.r.L.8.g.h.9.g.j.4.E.r.j.j.U.r.4.t.f.1X8.p.q O.k.x.6.1.1.) 4.u.t.>.gX1.o.r G i.y.;.OXK.^ u.1.4.E. .7 % K E n.6.v h 5.} r N q $ # % O   o                                                                                                       O & K p.^ 9.XXNX=Xt.W V.=XXXxXeXxX:X! g 8.Y.tXcXcXmXVXMXMXMXmXcXeXtX{.x.v.}.U.) n i o : z b.-XrXcXcX;X;XvX'.v.&XNXrXqXeXrX*X>X{.9.g.&XeX*XtX;XrXMXaXrXrXqXc.C X.(.W V 4.l.t.[.>XeXrXrXXX*XkXxXcXVXVXVXMXcXcXNXmXmXVXVXVXBXMXCXpXwX*X1X6.;.A.y.8.=XwXaXiXwXuX*XOXM } zX*XbX<Xe @ # $ ; ; O . # # . # 1 7 N e q $.` { 8 m <X.XpXqX1X^ 1 * . .                                                                       . .   X X X   . . X X . 1 3.#XvXrXmXMXmXmXMXMXMXMXMXmXcXcXMXMXmXcXNXmXMXMXMXMXcXeXxXcXmXrX0X+Xb D 4X*XbXrXmXmXmXmXmXpXaXMXMXmXrXcXZX:XD.[.rXsXwX-Xb.P w +.%XcXCXXXZXOXK.) r u K ` n I 4.1.b p S q ) 5.b { r C q.n & 8 M k O.g k o.! ! | l.}.c.8.F.bXwX*X*XmXMXrX*XK.6..XqXeXrXVXMXMXBX,X/.1 O O . ",
"% & j a.1Xx.}.lX:X&X*X*X*XeXeXxX.X=XD.Z.3Xh.F.h.<Xh.j.) 3.P.k.D.j.L.t.j.1.S.D.7.j.8.J.J.2.r.W.8.-.t.6.;.d.gX2.W.| j # . & g ) i.B H { w z.d.g.8.4.4.y.2.1.I.;.k.6.t.j.r.r.P.K.J.J.g.2.L.4.4.j.t.j.t.l.9.f.d.8.O.p C U.c.G.P.4.u.3.4.r.6.6.^.M p | 8.E.:.f.c.u.V.L.t.8.a.p % M M.0.-.-.a.p.G w #.S $ # % .   o X                                                                                             .   o   % 7 M.(.) R >XpXqX5X(  .}.tXbXeXvX4XG r g.9XqXeXrXmXMXMXMXMXMXrXeXlX[.h.c.J.-.) F 8 O & ) |.*XrXcXcXxXvX:Xd.h.&XNXpXqXtXrX*XZX@Xt.g.*XyX*XvXvXrXMXMXMXmX*Xh.I p.a.i.2.^ w.( 3.U.#X:XtX*X>X&X,X;XmXVXMXVXnXnXmXMXMXmXBXVXVXVXaXVXCXqXtX'.c.U.1.R &XrXaXaXqXNXXXOXG F D.v..XJ.A # 6 6 9 8 : # # . . . # d 9 & $ J 6 a u M gXtXrXqX-Xl.1 % . *         .                                                               . . X X   . . . X X . & C S.>XrXmXmXcXmXMXMXMXMXMXBXnXnXMXMXmXNXNXNXMXMXMXMXMXcXxXxXcXpXoX8XF p U.{.yXrXmXmXmXmXmXrXaXMXpXCXMXNXbXkXg.c..XNXwXuXdX;.q G <X&XcXNX&X.X9Xh.j 6 p H C W 0.1.%.e a m I q.b D K C q.k 6 s #.B o.n k ~ n C ( 2.K.D.8.k.XXqX*XqXmXaXrX>XK.6.=XtX*XeXVXMXMXCX,XE.7 . O . ",
"- 8 C n.T.>.g.k.c.'.'._.uXqXeXbX.Xc.8.A.k.9.8.8.K.c.u.e.L.1.8./ P.8.z.9.U.k.d.h.6.G.9.6.z.l.j.y.2.2.T.8.8.2.j.4.O.r & % % K Y 8.p.r M | +Xh.8.^ 4.) e.( 4.l.K.7.}.h.g.j.4.1.E.k.h.c.Y.E.8.t.k.k.9.E.t.E.G.9.3.} e M l.v.c.9.L.1.l.8.( a.z.8.p e ( P./ K.f.>.y. .-.P.U.) e & B ..| I ^ V.o.C q $.1 a # . . .   X                                                                                 . .       . # . @   % w T.K.4.( }.*XiXyXj.r.:X&XrX*X6XL.i i b.fXsXmXrXmXNXMXMXMXMXaX>X$XU.8.2.4XY p.b : O e z.>X;XnXcXBXNX{.hX;.h.&XmXiXqXrXbXeX*X[.r.j..XwXcXeX*XbXrXmXrXrXtX9.V 5.T.m.z.-.! G F E 5.P.8X_.ZX'.lX[.eXCXpXmXCXmXMXMXMXMXmXmXBXmXmXmXmXwXyXtX.X=Xc.[.eXmXmXmXxXtXuX'.( B j.7.oXc.+.q e H | Q.N %     # # % ; % : : O . % ; b Y..XbX;XvXG.7 & . .     . . . .     X                                               . .     . .       . # .       # q p..XiXmXcXAXnXMXMXMXaXMXmXBXBXmXMXMXVXnXnXMXMXMXMXMXrXvXkXcXCXrX|.w.k y.J.uXaXpXmXMXMXmXmXmXMXmXCXpXmXCXxX@XH.H.=XyXXXuX1XF m r.:XeXqXiXiXuX1X..e q H ..U -.~.q.H 1 9 q !.G ~ } n o.n 1 a X.k ( V C X.e F 0.h.f.G.1.t.*XCX*XcXcXmXrXvXH.g.[.=X>X*XMXaXMXrXvX4Xb O @   ",
"  % z ;.y.l.E.A.<X3X$X].uX*XeXvX'.c.G.E.t.2X2.8.z.U.4.u.2.l.4.2.l.8.8.t.k.k.G.9.<XD.k.9.A.;.j.j.2.I.t.j.W.-.9.u.o.e # . % m (.4...w C e.hXh.4.1.4.a.E e.) z.h.c.>.8XD.t.4.1.t.g.c.9.8.P.L.l.g.9.t.j.z.t.7.9. .o.F G 8.OX7.G.2.W.2./ ( 5.^.( q m (.:.E.6.K.k./ ^.1.2.9.1.i 9 V q.o.Z 1.a.G b n H q S & % O @                                                                                       .       . # # % # N I g.1XU.1.g.{.pXpX@XH.,XnXqX*X=Xu.u p  XiXrXrXmXmXmXMXMXMXMXiXtX6XE.^ 2.2X6.p.m : % q K.*XxXxXmXVXeX=Xk.-.F.>XMXaXrXcXeX*XeX@Xy.S.*XrXrXeXeXnXeXcXrXeX>X6.k ( ^.T.2.I } H 7 L 4 V g.5X_.dX6.2.F.bXBXMXVXmXMXMXMXmXmXmXNXmXMXmXMXpXrXNXqX*X&XeXcXmXmXcXxX>XeX-X6.I 1.i.}.1Xe.g F p.A./.~ : o + # # . ; 1 & . . * . . A ^.'.*XxX;XE.7 % . X X   . . . .     X X     .                                       . .       .       . # .       . 1 W =XwXmXxXnXxXMXMXaXaXMXMXBXBXMXMXMXVXnXnXBXMXaXMXMXaXvXkXcXBXrX>XU.V e.Y.yXiXrXmXVXVXCXBXmXpXmXBXmXMXpXeX,XF.H.:XrXwXrX=Xe.b 3.<X>XwXaXiXwX=XI.| w n o.( U 5.N.E 2 7 m K w ~ ..B C r p D A g N.z g M 6 F a.7.z.A.4.A.tXCXeXrXeXNXrXrX$Xg.g.3X>X*XMXaXMXrXcX3XM % O   ",
"= & Z 8.1.4.w.r.S.k.c.F.*X*XeXvXF.c.h.D.G.2.A.r.2.2.-.t.t./.n.u.4.l.2.4.8.y.g.U.k.G.9.g.k.8.8.I.I.-.P.A.r.y.g.u.C 6 & : 8 M i.z.p.B Z a.P.6.-.r.L.1.3.W l.9.6.h.G.6.A.t.2.P.j.6.7.9.y.8.8.t.h.g.8.P.6.9.g.8.Q.G n p.:.K.:.g.9.j.u.1.1.a.W | C } 5.4.;.A.z.;.I.2.4.j.f.gXi & ^ n.E B z.6.F e M.B q a & . O .                                                                                         o       o O $ j N.2.-.4X1Xd.8.J.rXwXNXcXqXVXpXpXyXh.b G 5X0X*XeXcXmXMXMXMXMXMXCXtX@X4Xt.Z.8.8._ m 6 : g OX].bX;XBXBX;X7X6.9.$XeXpXaXpXrXeX*XeX>Xy.Z.eXpXeXeXrXNXrXcXrXeX=X2.C %.N.~.n p 9 i 1 K C w B n.=X.X9.4.F.vXBXMXVXMXMXBXNXcXnXBXBXVXVXMXVXaXrXNXuXqXrXNXcXxXcXcXxXeXrX*XY.z F } A.2Xp.k  .W.F.OXW 1 .   . # . 8 G n 6 O % # 1 C 4.d..XCX;X4X6 o   X X   . . . .     X     . . .                                                         . .       . $ k 4XqXcXcXnXxXmXMXaXaXMXMXBXBXMXMXMXmXxXxXmXMXpXaXaXaXcXxXcXmXqXuXhXP ( U.yXiXcXcXmXmXmXNXmXmXNXcXmXMXeXeXvX.X*XrX0XrX*X$XSXE ( J.>XrXiXwXqX>X8XA.E r M ~ ^ U q.x B $.7 #.D b | V M H X.H q w M.z M X.e G q.P 1.u.) 8.tXqX].bXqXcXrXeXZXh.-.3X>XqXMXiXNXeXxX3XE & O   ",
"= & _ P.8.t.4.y.t.9.h.'.*XqXeX&Xh.7.g.K.g.t.6.y.4.2.t.g.9.l.8.y./.T P.) r.L.2.-.t.t.t.E.-.l.y.1.2.l.2.4.r.j.k.u.G 7 % % : b 1.T.e.C B V.i.6.8.P.e.3.) u.U.-.6.8.A.-./.4.L.L.t.+Xd.G.U.4.8.t.U.U.4.4.t.:.2.0.o.r j V.z.;.z.:.Y.-.8./ n.p.} G ! 5.| 3.4.8.g.n.-.i.I.8.b.^.e u Z 1.B | n.i.q p O.k q 9 & . . .   X                                                                                     o o o o + O 4 5.2Xd.-.A.{.v.1.j.>XwXMXMXiXMXmXNXNXv.C ! 8X0XqXeXcXmXMXMXMXMXmXCXNXXX7X1XA.^ s.z D 9 7 G 4X.XbX;XBXCX;X$X7.D.5XeXrXiXpXrXeXeXrX>Xy.j.eXmXeXrXrXmXrXcXeX;X1X1.e { ` j p : u &.HXPXJXjXb ( |..XR.R.:XbXcXmXVXMXVXNXNXBXBXBXVXVXVXMXMXmXrXqX{.tXpXmXrXeXxXcXcXrXrXXX4XI i i a.L.O.k u.T.x.T.I 1 .   . * # p p.Q.M 1 & & e ~ Q ) &XbX:XW.: o   X     . . . .     X     . . .                                             X X         . .       . % w n.=XeXcXnXnXmXmXaXaXMXmXBXBXmXMXMXmXxXxXcXmXrXrXiXaXNXcXBXBXwXuX6XT z S.qXiXcXeXrXrXcXcXNXNXmXNXcXcXrXrXNXrXrXmX0XsX.X{.SX1.I C.-XpXaXrXeXtXtX$XL.G 7 M q.U _ P z M.j J : i q.I b D ~ g 4 A M.n r m w G o.E  .4.2.c..XXXtXvXeXrXrXrXvXF.-.J.>XrXaXrXbX&X;X3X..6 O   ",
"o & _ h.7.<Xk.d.}.'.'.-XtXeX&XF.[.c.c.t.4.L.k.g.r.i.z.z.) 2.;.G.T L.4.P.A.-.2.8.2.i.u.4.u.L.j.6.;.z.2.2.4.A.z.8.~ 6 # . : r /.:. .W Z Q.8.9.8.u. .W 4.E.9.g.) L.t.t.i.3.a. .I.G.Y.h.7.6.z.y.t.8.u.L.E.8.;.4.o.M Z ~.z.z.8.I.9.g.-.) -.) O.b z (.a.)  .r.8.-.u.r.w.r.6.p.9 & ` z z 5.a.B p p o.g N a 0 # O .   X                                                                                             o = E OX-Xv.1.r.-X.X1.3.$XtXaXMXMXMXrXeXyXv.C Q 5XwXpXmXcXcXcXBXBXmXmXrXMXaXwX5X3.! Q.g K 7 q +.1X*XeX;XnXkX%Xh.h.|.dXtXaXMXmXrXrXbXeX>Xt.t.eXmXrXcXrXMXrXcXqX*X3X3.7 J i 7 % ; @.PXPXjXKXPXH E 4Xx.D.@XZXnXmXVXVXMXVXVXVXVXVXVXVXVXMXVXmXeXvXF.d.7XwXaXcX;X;XxXmXaXwXuX Xa.: u ..p.F g ^.h.>.~.I q # .   O 1 ~ ~.n.a.q.J & q K m k <X[.E.} : o . .       . .           . . . .                                             X X         . .         . q ( 4X&XrXBXcXcXrXaXaXmXmXBXBXMXMXmXmXxXxXcXrXeXqXwXaXmXmXBXBXmXyX=X9.z u.XXNX*X;XcXmXNXcXrXwXpXCX,X%XNXaXaXpXqXrXiXaXeX&X@Xt.C i.{.rXMXmXcXcXrXuXzXe.q e o...W Z g n r 7 ; 8 M.W n X.! h k o.!.G 6 6 n Z F p G (.8.c.8X:X].ZXrXqXNXrXrX{.8.r.>XNXaXwX>XF.&X1Xp.7 .   ",
"; $ ( 9.6.k.j.k.F. Xv.{.XXtX&X[.5X|.v.d.S.2.Y.9.1.1.g.g.l.t.h.G.1.) 8.W.1.L.4.L.i.) 4.r.1.l.U.t.n.;.y.l.4.U.g.2.M & % : 8 H I.-.t.1.C p.1.8.8.8.i.) 1.y.z.6.I.e.n.i.h ! V.e.-.8.g.d.g.g.g.8.2.-.) u.8.8.8.) o.w C a.n.;.8.l.G.t.8.0.-. .M r V I.1.V.) 4.8.-.4.8.1.1.~.E 6 6 A Z V p.C p e #.H n K a a % O .   X                                                                                 . .       o = i I.=XuX-X4.-.7X=Xy. .H.ZXrXaXVXmXcXeXuXc.n F |.wXMXmXcXxXcXBXBXmXBXrXMXaX0X7X( ! M.5 K q g V.}.>XeXxXvX,XH.8.F.=XtXcXMXaXrXrXrXcXeX;Xg.h.qXmXpXmXpXVXrXcXeX*X4X3.7 % 6 # % ; jXJXHX&.IXFXM E E.c.v.&XbXcXmXVXVXVXVXVXVXVXVXVXVXVXVXVXmXeXkXc.8.:XwXaXcXxXkXxXMXaXyX7XK.a.7 8 D C 7 5 ^.>.P o.b 1 # O X   2 Q.a.-.2XI.K : 1 e 8 m u.8.a.p ; o . .       .             . . . .                                             X X         . .         . 7 n /.=XcXmXeXcXrXaXaXmXmXBXVXMXMXmXcXxXxXcXcX>X&XqXmXMXMXBXmXBXrX*X}.B w..XpX>XkXnXcXcXrXrXrXaXMX:X%XbXpXaXpXuXuXrXwXrXeX&X<XZ a.{.rXMXmXcXrXpXmX>XU.| r w o.z N.b 2 n H u i ~ E n X.o.C n E p.G 9 i o.Q p e C a.-.t.6.h.{.&XbXeXcXrXqX&Xj.1.{.NXpXeX%Xg.[.#XQ.q % . ",
"; 1 _ l.l.8.y./.4.j.g.h.'.eX;X:X[.h.{.8XY.E.6.2.4.1.g.6.2Xk.OX7.g.t./.) 4.( 3.I.u.u.r.8.2.t.1.8.z.U.-.t.W.t.9.0.A & % % & o.3.G.v.8.r X.^ 8.l.l.P.8.4.1.r.L.4.3.i.z k p. .i.:.6.9.z.T.I.8.t.k.j.2.) 8.6.h.^.C e q p.2.6.6.t.L.1.0.8.I.5.F r l./ ( Q.i.P. .i.P.6.t.i.} M N e ` C q.p.H 7 F H r q N 7 0 . . .   X                                                                                 . . . . O : m | SX*XtX>Xk.-.K.Y.U.8.h.ZXeXeXCXeXCXbXvXS.p M }.0XaXmXmXcXBXVXVXMXmXBXmXqXXX5X2.5.~ 4 M w B W.$X>XeXxXvX:XZ.g.=X>XeXcXmXaXrXrXrXrXeX;XH.[.eXaXmXrXmXMXrXcXrXtX4X) r : # 0 f jXJXKXKXJX&.e | gXt.3X=XeXmXMXmXcXcXBXBXVXVXVXVXVXVXVXVXMXmXcX;X{.F.;XrXaXmXcXxXnXMXaXqX1XT.W Q n p 7 1 j ).U 1 8 & $ # . X   g (...U v.k.i ; % % : J E E K : O . . .                       . .                                       . .         o     . . .         . $ e a.6XNXrXcXxXeXpXmXmXmXVXVXMXMXmXcXcXxXcXxX=X[.&XyXMXMXVXmXmXwXwX8XC ! .XqX>XkXxXrXrXrXrXmXMXpXeXtX{.{.bXqXyXuXeXqXwXrX>X<XE a.|.rXMXMXmXcXcXrXqX=XP.Z q C 2.s.j #.C ..~ r G X.7 9 m b r E 5.z 7 a o.~ K { B Q.^ ^ -.-.c.ZXeXrXeXrXwX*XK.1.h.>XrXuX#X8.F.1X~.w % O ",
"% 7 _ 8.z.8.1. .r.E.K.c.v.*X@X,X[.}..X_.$XK.gXy.3.u.8.6.d.G.2Xk.g.A.2.r.^ V.w.3.i.8.T.8.j.t.t.8.G.6.4.8.r.j.g.0.n # * % & o./.:.=Xg.e { ) 6.8.2.2.z.i.4.r.8.3.3.x ! n } V.u.6.9.G.2.-.z.8.u.z.T.8.i.-.6.d.0.C e r G 0.n.g.P.) 4.4.i.8.5.F C P.9. .1.I.6.i.w.l.G.6.3.Q r r 4 M o._ | D i G E 4 e i $ 0 . O .                                                                                     . . . O % p 3.J.&X&X>X{.6X6.2.U.J.d.f.>XbX;XnXeXNXcXtXj.i D Y.XXqXcXmXVXMXVXVXVXmXcXrXtX=Xd.2.(.E j b w I U.5XtXeXeXkXkXy.D.>XyXeXcXmXaXrXNXmXrXeXvX,X>XrXpXmXrXmXmXeXcXrXtXOXW q 9 # $ @.HXPXLXJXjXq Q I.) 6.#X:XeXiXMXVXmXeXCXBXVXVXVXVXVXVXVXVXrXCXAXqXeXbXuXrXrXrXeXxXnXMXiX.X4XI.V 4.i.j p 7 K B.n O o ; & %   X O h a.C W  X2Xm = o o . 7 g M u ; O . . .           X X                                                 . . . . . O . X   . . . . . .   . % # 6 } <XbXqXmXeXeXmXmXmXMXVXVXMXmXmXcXcXeXcXvX{.c.}.tXMXMXVXmXCXwXpX7XZ B 1XXX[.@XxXcXmXrXpXpXMXXXrXvXg.k.ZX].qXuXtXvXqX*X{.2.I u.=XpXMXMXVXBXcXeXaXNX|.4.n q T a.j q ! q.5.Z E !.a 8 D M r o.~.x 7 p ~ C m e Z p...3.3.T h.=X*XcX*XeXmXqX[.8.2.}.qXuX#X2.F.4X(.g & O ",
"O q / Y.J.<X9.D.1X8X'.{.*X;X{.:X@X'.f.].*X7Xj.1.L.r.l.j.k.K.A.-.t.L.2.A.t.2.y.2.W I.4.i.L.9.k.D.9.8.l.3.S.t.6.I.r % % . 7 o.4.h.|.:.H M n.h.^ 3.4.2.A.6.8.^.~.V i.e.b b ! a.2.z.z.T.G.d.t.8.1.A.k.g.n.2.d.8.! G ! h  .( V.( ( 4.z.9.4. .!  .r.i.P.t./ L.^ u.k.>.OX8.! C V h k I 2.a.q p 5.^ g { e 0 # . O . .                                                                                   X   . % 6 ! 3XyXqXvX:X$XZX[.-.8.=XXXXXqXeXcXnXcXMXpXrX#XF p z.5X*XcXmXMXVXVXVXMXVXrXvX7X3XR 2.n.o.2 b j U K.ZXeXrXeXZXk.r.<X*XrXqXcXaXaXNXcXrXmXcXeX;XeXrXpXpXmXMXmXrXcXeX>X2XW 4 J 1 $ & @.KXLX} Z T I.e.I D.{.>XeXaXMXVXMXcXcXmXVXMXVXVXCXBXcXCXmXBXcXcXNXrXrXrXrXrXcXxXcXaXpXtX<XZ C T.E. .k q &.K 6 o + O % O   o % z ).C j -./.m >   . # $ w S % . . . X X @     X X X X X   X     X X   X                           .   . # % O % % O @ O 1 # . . # 1 O . . > % r P..XpXmXeXeXmXMXMXMXMXMXMXmXmXcXxXnXnXtX[.>.;.7XpXaXMXcXcXrXrX{. .k J.-Xv.F.;XeXVXpXmXrXqXrXyX'.9.g.@XyXyXqXZX'.tX{.G.3.) k.-XpXaXVXVXcXxXcXMXwXXXK.| g z M.b D k ~.n.:.E { a a $.G j G a.5.k G } C p m k p.| z a.^ t.1XeXcX;XeXrXNX>X7.( E.*XbX3X8.h.4XW.j 6 ; ",
"8 e n.>.4Xc.k.3Xf.5X5Xf.v.*XvX@X7X>._.NXXX7X9.i.r.L.1.8.2XK.8.-.2.l.j.;.z.j.8.t.r.^ 4.4.8.G.:.c.OXg.u.u.4.2.d.-.N . . % p M./.R |.j.r M 2.G.a.4.( P.6.g.1.3. .^ 1.5.b X.E ) t.;.;.9.7.x.U.8.2.t.g.k./ /.6.I.~ g a.a.z M...q.e.8.9.;.) ( 4.8.8.1.g.h.E.-.u.I.h.h.6.n.x W !.5 h N.5.W C w q.^ C K e t % . O .         .                                                                                 % b r.uXaXrXeX:X%XtX.X6.8.tXpXNXNXrXpXNXmXaXMXpX$X| b | U.|.*XmXVXMXiXpXVXMXrXbX=XJ./ -.0.C 2 p b 2.$X>X*XrXrXkXh.8.#X*XrXrXNXMXmXNXcXpXmXbXxXxXbXmXpXpXaXmXmXrXcXeX>XU.Z w K d $ # e %.!.) 9.8X}.i.I $XeX>XeXMXMXMXMXmXNXmXMXMXmXrXcXBXAXBXcXBXcXrXmXrXrXeXrXmXcXxXxXmXpXyX}.C Z z.Y.U.e.k b 9 ; o O & $ . o   # g N.~ j I o.D %   o # < q t @   . . X X . . . o X X X     X     X X                           .   . . . % 0 0 # & O . . q $ O . 7 N % O . % O 7 4.5XqXpXrXcXmXMXMXMXMXMXMXmXmXcXxXxXnXeX'.6.T 4XrXMXmXrXnXrXNX:XV.B Z.$X=X&X;XeXmXpXpXpXmXeXF.g.t.D.*XrXqXuX&X@X6XSXr.P t.}.yXsXMXVXVXcXBXBXMXiXwX=Xu.! w $.D p C ..7.2.h H J p O.( B E 1.^ W B M.X.b b C B M.! I L.I.Y.*XNXbXtXqXqXwXc.| W.=XtX3X8.g.3XT.B 6 ; ",
"% r ^ T.;.-.E.w.U.S.D.F.;X*XxXkXx.'.{..X].=XZ.4.S.4.( 3.t.Y.2.8.6.E.-.t.2.4.l.2.A.U.j.6.;.t.g.hX9.k.4.w.L.j.d.i.q : > # q E U.c. Xl.M r n.7.1.a. .I.Y.6.r.( z i.0.Q.q F  .6.b.9.l./.g.g.g.j.G.;.g.6./.6.z.a.M G 0.2.V j q } 4.z.9.y.4.a.r.g.;.2.y.9.G.;.4.2.Y.6.r.1.R ~.b r ^ ).~ n I ( ~ E ~ A 9 0 % O O                                                                                       X X . 9 5.<XpXaXVXeX;X,XeX*Xc.h..XXXeXrXrXmXVXMXpXCXpX>XS.Z n ..E.=XpXMXMXMXBXCXpXaXNX-X}.t.4.Q.B A p p l.:XeXrXNXcX;Xh.g.%XeXmXrXcXaXpXcXrXrXrXeXeXrXcXmXpXaXaXmXmXcXNXcX:XC.n q J s . O % r o.z.|.5X|.t.t.:X;X;XrXMXMXrXcXMXVXMXmXmXMXCXVXmXcXcXxXnXxXeXrXrXNXqXrXNXcXxXxXcXpXwX].I C  .g.8X2XU 4 : % 6 m A 1 . @ . $ 4 p.q.k n C $.2 O @ # $ 1 6 . . # . X X . # O   o X +   . .         X                   . . . . . . . O % S J $ > O O % r e . O w $.1 . . . O : Z E..XrXrXmXmXmXMXMXMXMXMXmXmXmXeXxXcXqX&Xh.U U.ZXCXMXmXcXeXNX:X/.V 8.}.:X=X*XnXmXmXrXrXMX.X3. .D.>XrXpXuX*X&XDXU.i.! ( |.-XsXMXMXmXBXmXVXVXMXpXrX>X}.a.7 a i S b C ) 1.! n g g ^ i.n.) e.U / Y z !.M q C ~ o.I I.x 5.4.{.eXvXvXqXqXaX&X .e.=XXX3X6.9.<XE.I 6 ; ",
"6 2 4.T.U.-. .L.1.j.J.lX.XeXxXZXc.$Xf.dX]..X8.j.E.y.1.4.G.;.j.2.k.G.S.2./.r.8.j.2.Y.g.G.4Xz.U.6.G.;.P.C.4.E.d.i.r O . & r (.:.}.8X:.(.b W I.t.4.4.4.T.P. .V w.1.n.1.r } 4.G.OX6./ 4.g.Y.j.t.4X2X9.6.+XG.;.1.{ } n.T.e.w r M V.8.6.t.4.i.z.z.9.l.-.j.;.k.W.z.g.l.V.W P.4.q 7 _ 5.b m I ~.C j X.r 6 6 % O .         . . . . .                                                                     + o : H I.dXpXaXVXeXcXxXeXeX&X{.tXXX;XbXBXmXMXmXmXCXwX*X4X3.b m C.<XuXqXwXBXnXeXrXpXeX&Xk.8. .p.V $.a e E.tXeXCXrXqX&Xc.h.%XeXpXeXcXpXrXrXrXrXrX*X*XeXpXmXmXMXMXmXmXmXBXmX:Xe.b r K s # O . & G hXXXx.v.c.3X:X&XeXNXMXrX;X>XaXaXqX*XeXrXcXrXrXcXxXeXbXxXeXcXrXBXqXeXcXcXxXxXxXrXiXXX4.B Z 1.v.5X4.w : : C p.N.w . @ . $ 2 } M.C w n M.w % % 1 $ $ . . . # .     6 $ %     + o . . . .       X                   . . . . . . . . # a @.1 : O % $ q K . & 3 B.q # # . o O q i.|.qXrXmXmXmXmXMXMXMXMXaXMXmXeXeXcXqXuXF.I  .8XqXpXrXBXeXrX&X/.V / <X@X.X&XbXcXmXeXcXrX@Xw.w.3XvXwXpXqX>XlX4Xw.Z | W.=XeXpXMXmXmXmXmXVXMXmXrXxX>X>X2XM : : @.r n o.I C G E U 4.4.8.a.V W ^.2.E H q A r ~ p.V ) ^ ! P [.*X*XeXeXrXMXtX .| |..X6X6.d.4X<X) 6 ; ",
"% M /.:.K.k.j.k.9.H.$X>X.XrXxX,XSX;.v.bX0XXXg.L.w.r.t.k.3X}./ L.l.-.A.T.A.j.G.6.E.t.2.E.-.A.j.G.G.Y.1.I.w.2.2X6.2 O % 9 ~ x hX'. XE.b D Q ^ U.6.7.g. .+.G | r.d.7.I.n M V.j.9.G.l.8.c.F.k.t.j.j.-.u.d.c.f.n.7 D ) 6.1.V Z +.e.8.i.2.3./ G.9.i.4.z.9.2.2.6.g.2./.} G 4.N.4 q E k 7 p } p.n j #.6 & 6 % O .       . . O * * O . .                                                                 o % r 5.}.uXrXpXVXrXBXcX*XeXyXuX*Xv.F.;XAXNXmXmXBXrXqXqX7XG.Q e E u.4X:X*XqXeXqXeXeX&X#X8.2. .a.z $.i e gXtXqXmXpXrX*X].[.>XcXmXrXmXmXmXcXcXrXmX&X&XeXmXmXmXMXMXMXmXMXmXmX:X3.b q K a 6 0 . % w Y.].'.v.=X&X>XeXBXMXNXeX%X=XqX.XK.t.8.h.{.eXcXNXrXrXmXrXrXpXpXMXrXrXeXcXcXcXcXrXiXyXU.B m ..9.+XI.k 6 e 8.T.n.I # . . & $ A N._ g n ~ n 1 $ r r 1 . . . . . . # S 2 & O   @ . . % . O O     @                     . . . . . . . % 1 ] 7 % O 6 $ 1 #.6 1 3 ` N $ # . @ . & G 2X*XrXpXcXcXmXMXMXaXMXmXMXmXeXxXrXqXyX}.E C 2X.XrXrXBXcXcX-X4XT Y E.=X*X&XeX*XxX;XvX>XkX#XR.kX>XqXrX*X:XK.1.W ) S.6X*XeXpXMXmXcXcXmXMXMXmXcXkX;XeX7Xi.q 9 a G k %.j X.j ( Q.a. .3.| F w 0.(.B 2 q b M C 5.) q.I E W H.;X*XeXbXrXaX*X1.W |..X8X>.h.3XOXr.6 ; ",
"& b 2.c.h.g.g.k.DX'.'..XAXeXeX,XS.r.{.].uXtX<Xr.W w.;.<X}.h.4.u.1.l.^ U.;.k.g.8.j.U.T./ P.8.-.Y.d.k.i.3.y.j.7.0.r # . $ g a.c.}.1XT g %.G h t.d.+X6...F C p.t.h.x.E.b M 4.;.z.k.W.t.h.h.h.Y.K.9.i.^ z.>.f.i.7 i N.;.I.W Z p.W u.V.i.1.8.7.9.1.1.l.2./.U.G.9.A. .j } p.z ` C B g 6 p X.Z g o.J % : 0 % O .         . . * , O .                                                                 . % 7 ! G.XXwXrXrXmXrXVXcX*XeXrXqX'.f.x.&XbXNXMXVXMXrXNXyX*X$Xu.E k Z 4.T.6X>XeXNXrXeX=X3X8.1.i.p.z ` : 9 E.eXeXMXmXsXyX*X*XvXNXmXrXmXmXrXcXcXrXmX*X;XrXMXBXmXMXMXMXmXMXpXmX=X..b b H r q 7 & 8 7 -.$X>X*X>XeXcXmXMXMXpXeX:X$X&X[.( I ^ j.5XZXrXrXrXrXmXrXrXrXrXpXrXrXrXcXmXBXcXrXwXuX+XI e { ) U.^.! p G z.+XT.U < O . * # e O.o.C b w A r w W q.A $ O @ . . O & #.w 6 % O O . % # # . O . . .                     . . . O . . . 1 $ S 0 # # 0 $ % ] K 3 2 q L q # . o   ; e I.-XrXmXcXnXBXMXmXaXMXMXMXmXxXxXrXwXiX=X..n W.$XNXmXpXmXcXtX5X;.x U.-XyXtXvX;X;X@X[.@XkXkX>X>X*X*XtX$Xj.I W 2.4X=X.XeXrXaXMXMXNXcXmXMXMXmXcXkXkXcXeXOX^ 7 6 M j K j ` G E 5.~.^ Z M.F C U a.w p q b b C (.v  .! ..I Z.;XeXrXrXqXpXtX4.W H.=X6X>.c.6X}.L.7 ; ",
"& A I.7.c.J.2.j.9.F.$X'.qXqXcXZXw.W.d.ZX-X=Xc.G.L.^ K.h.K.6.g.4.E.) u.8.-.t.t.k.k.A.2.P./ P.r.-.h.9.u.i.w.t.h.R < % # $ E ~.g.c.4.1.Z p.a.V 1.y.OXP.G F Q.3.i.t.f.Y.n F W.g.g.9.4.4.k.$XD.9.g.k.;.I.( ) i.) r H 6.d.5.V Z ( P.P.1.4.2.G.2.l.8.L.) 4.8.t.G.9.P.( C } o.I x p.` j e m H k Y N.e % ; > O . o       . . . * * O . .                                                               . q ( z.oXwXiXrXcXmXrXBXrX*XeXqXqX>X{.*XrXbXcXMXMXMXaXCXuXqXuX|.b.T h g Q i.J.*XpXmXNX*X1X;.^ e.I V B : 9 U.eXmXVXpXpXqXqX*X;XrXrXrXmXpXrXcXxXrXmX;X;XpXMXBXNXMXMXmXmXMXaXmX>X| m o.~ C g 2 e a 7 n zX@XAX;XCXMXMXaXaXaXrX$XG.Z.S.B G w.E.5XXXqXMXpXrXmXeXeXxX;X;XeXrXrXmXmXmXmXaXqX.X|.2.e i Q ..V. .C e.G.|.+XR 2 .   o . 6 A G E j & J K ( h.2Xs.r O +   . . 6 $.B p & O % # 1 7 6 # . O . O O                 .   . O % O . . 6 7 0 : # $ e & O d $.g 1 # N A $     + o 8 1.|.rXmXxXxXcXBXmXpXMXMXMXmXeXeXrXwX0X=X+.e 3.$XqXaXpXmXrXyX=Xh.P P.-XuX>X@X,X,X[.h.F.&XxXrXqXqX*X#Xy.! Z 4.}.dX0XqXeXcXMXMXMXMXNXrXMXMXMXcXxXxXcXeX-Xz.r ; 6 p D b o.n w ! ^.9.! O.m b Q.N.7 i ` w b n / a.C B (.^ k.kXrXrXrXqXrXdXt.1.c.5X1X>.'.$X XW.7 ; ",
"7 ` n.b.7.g.E.2.6.3X5X-X*XcX*X;XZ.) 6X=X5Xh.D.K.r.y.6.}.}.<XG.E.L.4.2.r.P.-.8.G.g.Y.k.t.U.8.-.l.h.Y.1.( L.g.b.0.2 . % 2 Z 2.}.OXw.| V (.n.1.Z e.P.^ Z p.L.A.2.t.c.6.E F i.G.h.g.8.L.9.h.k.D.4XD.6.z. .( i.e.n ..9.T.a.B B (.G.6. .U 8.9.P.t.L.r.U.-.4./.;.gXu.I Z Q.B ^ s.U ~ n M M H h n.^ 6 O % :           . . . . * > O . .                                                         . .   % n U.7XXXsXMXeXcXmXcXBXrXeXbXrXrX*XeXmXNXeXcXVXMXMXaXrXXX0XpX0XdX2X0.C b C  .D.&XXXtX{.Y.^ I N.h x g 8 m R.cXmXpXmXmXrXyXbXrXBXBXcXmXmXcXcXcXmXBXeXeXpXMXmXmXMXMXVXmXVXpXMX>X| M q.P I g 2 J S 9 e W.{.eXbX*XMXMXMXaXaXqXF.t.1.1.(.3.^ 8.|.>XrXrXrXeXvX:X:X3XJ.J.&XeXrXmXcXcXmXmXNX*XuXE.b 8 { F O.B h (.E.c.2X1.2 # @     O 6 7 A r : a O.z.].oX/.C ; o   o O 6 O.E F 6 O ; & 7 #.K 9 . . . O %               . . . . % * * . # 7 N : # % 7 p 7 o & M.P % : q #.7 .   +   ; k j.tXcXeXxXcXmXmXaXmXMXMXmXeXeXeXqXiXZXi.b W 4X.XmXMXMXrXbX-XOXU W.7X*X'.d.D.#X#XD.'..XtXtX;X=XH.y.Z } W.U.7XoXaXaXeXcXMXMXMXMXCXNXmXMXMXcXxXxXcXeXuX X5.e : : X.n H ~ M Z z.;.E !.{ q z } 2 K A j K ` ~.T E H ! / D.ZXcXrXcXrXyX>XZ.8.h.4X<X>.{.|.c.~.7 ; ",
"p X.i.7.9.9.S.g.D.x..X>X;X;X*X;X8.9.@X=X3X-.G.t.y.r.E.4X$Xd.g.j.9.g.g.Y.j.A.h.h.;.8.hX7.t.j.8.j.Y.t.1.4.8.G.f.2.8 o : 2 h 9.1X<X(.I I P.c.E.Q M p.G | L.E.d.h.J.7.T.W Z 4.2.Y.g.T.r.-.k.Y.g.g.9.Y.t.8.I.L.I k e.j.9.I.( h a.G.z.W W ) 8.8.2.L.t.g.7.j.r.n.4.^ W ! o.^ -.5.( C o.C X.! W 0.B & > y . + X X +   . a < % % > . O   o           . .                                 . @ X . $ & O 8 P.@XeXcXmXrXmXmXmXmXmXrXeXeXrXrXcXcXcXcXcXNXmXMXMXVXmXrXrXrXrX*X:X<XA. .b r Z 1.2Xb.n.(.E b M.h 5 A u m <XwXaXwXrXeXeXtXeXcXBXmXmXmXmXmXmXmXmXmXmXmXmXMXmXmXMXMXVXmXMXrXrX[.G m 1.:.I A 7 J a i e Z }.qX>XtXNXMXMXMXcXxX&Xc.2.^ <X}.-.-.H.kXeX*X,X$XR.P.u.e.} ( 6.=XNXrXcXCXrXrXpXpXyX4XG : 8 a { r g a.4.U a.Z 8 O O O   @ O : N K O & / |.tX7XK.e.: O O . . 1 q.1...e ; = 9 q E p.D 8 o o s 1 . + o   X X   . O O # % ; u % # q L 2 7 % 8 ` w ; O C $.% > 8 a r $ . +   . 6 C 3XeXnXAXmXMXMXaXmXMXMXmXcXcXeXeXCXrX#XW E C.8XwXMXaXbX*X.X4XC p.$X&XD.-.E.2Xc.|.XXuX5XG.w.! C V r.D.3X7X>XeXwX0XcXcXmXmXmXmXmXmXMXmXmXmXcXxXeXeXtX'.ZX) : ; %.V Z C B h n.-.G %.H q ~ ! Z !.D & a M n.-.b b H V j.&XrXrXcXbXxX>X#X9.h.4X<X9.{.{.t.a.7 : ",
"q G i.7.7.b.j.k.F.'.&X;X&X,XeXvXD.:X&X:XzXE.Z.-.G.8.Z.D.'.=X4X6.A.9.J.k.;.A.d.}.Y.t.;.h.9.j.j.t.g.l.w.1.j.9.G.Y %   % q V z.}.Y.! k 4.z.F.b.| b F Q u.8.g.d. Xh.g.r.( (  .n.6.Y.k.j.A.A.g.6.9.Y.k.k.j.T.1.W W i.6.9.I.I V (.9.2.Q.I ) 2.1.^.1.-.D.h.6.i.i.a.I 5.p.g / n.( G X.n } ! P -.q.j 6 f 1 . X X X + . # S q & % % . .   + +       o O O . .                       o     . .   . $ $ 8 { R.;XeXcXcXmXmXmXmXmXmXcXcXrXcXcXcXcXcXcXmXmXmXmXmXVXmXrXrXcXcXeXeX>X:XJ.e.Q B h Y Y v ! b r K g g A 9 M }.wXaXpXrXuXtXeXrXcXBXmXmXmXmXmXmXmXmXmXmXmXMXMXMXMXMXVXVXVXVXrX*XD.n G l.6.U b 7 K r K 7 g T.-XdXqXnXmXMXMXnXvXcX*XD.k..XZX#XH.:X,X>X6X4X3.C n n w 4 h t.:XbXrXcXcXcXrXwXBXqX}.G D 9 9 9 7 I (.5.B o.M % O O O   o O & 7 7 O 1 :..X.X;X%XV.6 O # . . $ ~.2.a.j ; ; H ! Y l.p.7 = o a 1 O @     X X   . . % % & 9 s : 6 K A 2 J 8 & H w % % q *.9 & % 9 S 1 O @ . . % p L.%XnXVXMXMXMXMXmXmXmXmXmXcXeX;XrXrXvXg.! 3.$XyXpXpXvX>X*X|.B Q <X=XH.8. .U 6.h.1XOX8.Z j n E 1.3X>X*X*X*XeXBXCXcXcXcXcXmXmXMXMXMXMXmXmXcXrXrXeX,X;X0X|.9 u ~ I n A n E i.1.n X.o.C o.! P o.r 9 : b ^ a.b D K C k.;XNXmXcXxXxXtX1X6.9.4X4X9.{.:X8.a.e : ",
"w o.i.z.k.d.z.9.F.{.&X*X{.{.;X;X&X>XAXXX@Xg.Z.Z.g.#Xg.$X].-Xd.D.2.G.G.:.gX6.;.c.E.g.Y.g.j.U.-.t.8.t.1.l.y.g.P.^ &   > 1 ..i.OXG.} n 4.z.d.OX1.I M ..l.Y.9.k.h.g.t.r.W C I.n.P.6.9.g.l.8.h.OXc.K.J.9.g.t.W.I ( I.6.z.^  .z i.n.:.! I n.8.p.Q V.8.6.j.r.i.L.( ( Q.C Z ;.6.o.M m b X.V P N.o.q 1 S $ . . X X o . $ a t & . O O   @         o O O O . .                             X   . # . & M I.$X;XeXcXmXmXmXmXMXmXmXmXcXcXcXcXcXcXmXmXmXmXmXmXmXBXmXcXrXmXmXrXrXrXyXtX5XK.t.1.P V g w q 1 6 1 q A 8 F }.rXpXmX*X*XeXeXrXmXmXmXmXmXmXmXmXmXmXmXmXmXMXMXMXMXMXBXBXVXVXrX[.y.k 5.G.h.U g q X.g o.9 q 0.8XyXrXmXmXVXmXxXkXnXbX>X>XrXCXeXeXyXqX|.l.F 8 ; ; : q B 2.F.>XrXrXmXmXmXmXrXbX=X9.W p.G w 8 2 -.P.I w H L # O X o O # p r 7 1 % 7 6.-XqXcXeX2X9 . #   X # Q.2.a.G 1 e q.n.>.9X2XP 9 O 6 1 % . .   X X   . # & 9 e b K a 7 %.b 1 J s e X.q O % 1 J #.1 % 8 J 1   o 1 1 % e | J.cXMXMXVXNXcXNXmXmXpXmXBXxX;XrXpXnX#X3. .@XrXpXrXvX>XrX{.! n <X7X}.1.j C ^.i.W G b r G r.J.7X*XeXrXmXCXCXcXeXcXcXmXmXmXmXMXMXMXMXmXmXmXcXcXcX;XxXqX8X| 7 F C E ~ n ~ 4.i.E M.} w r r E o.j r 9 q ..q.r m M ! F.>XcXNXnXeXrXvX3X-.;.4X4X9.[.6X6.~.p 6 ",
"M q.L.T.7.E.-.t.c.@X=XtX;X&XnX*X;Xv.NXuXlXh.D.h.F.h.F.&XuX].c.d.g.E.8.t.S.z.k.G.2.;.Y.Y.2.8.U.8.r.1.8.j.4.n.0.o.& * O 9 E I.k.U.!.b I.:.2X9.A. .e.3.P.d.G.t.G.z.-.4...G ( I.t.k.K.9.6.t.<XK.9.h.F.g.c.;.P.^ 3.i.g.T.4.! W Q./ n.! B n.1.M M ( 4.8.P.1.2.a.W p.} w ( n.-.C F J i F B ) ~.K 1 w b $ . . .     # $ 7 t % O . O . ,           . . . .                   . .         X   # $ % e 3.4X>XeXeXcXNXmXmXmXMXmXmXmXmXmXcXcXmXcXmXmXmXmXmXmXmXmXmXmXmXmXmXmXMXaXiXwXqX-X8XhXU.u. .Z n 9 % : q N 8 X.OXrXqXeX_.{.qXrXmXmXmXmXmXmXmXmXMXMXmXmXmXmXMXMXMXMXMXMXmXMXVXrXJ.w.k ~. Xb.E M e X.Z ..K e B T.XXaXrXNXmXmXxX;XcXcXrXcXVXmXqXqX-X|.0.x 1 % = = 9 F i.}.=X>XeXrXmXmXmXMXmXeX4XU 2.^.n.I 9 q l.T.G p r 7 # O X   . 1 o...E b 8 q n.8X>XeX*X4X9   .     % ( 2...X.1 r ) T.|.9X5Xg.e : $ $ 1 & # .   X . # & 9 @.H C I X.2 A r 9 a D N X.7 O O % < ` r 9 % N 7     q w $ 8 C P.vXiXaXmXeXeXrXmXmXmXmXBXnXcXMXaXcX>XS.4.&XqXrXeX>X*XpX&XC.n D.5X4Xi.p D p.V j C } e.W.3XtXyXrXrXrXmXVXVXcXeXcXcXmXmXmXMXMXMXMXMXMXmXmXmXmXcXcXeXAX>XE.k m p o._ C n / ) I } O.w r m G Z C G m M E ..b p D C }.eXeXcXcXrXrXbX<X-.-.<X4X7.F.6X:.^.C 1 ",
"g ..i.9.G.6.L.t.g.F.[.>XvX;XbX*X*XXX0XyX7X6Xh.g.F.c.[.=XdX.XF.9.j.t.j.t.g.E.g.j.9.g.2.A.8.g.8.L.4.1.G.>.1.4.s.V & O o 6 E L.t.I.G G i.G.d.G.d.z.1.i.A.6.g.A.P.1.u.e.C n ! a.g.c.8.A.k.k.h.9.h.c.c.f.c.T./  .r.8.i.2.~.I Z a.4.1.o.C 1.W 9 i 3.9.u.^.6.2.W ..o.n h e.a.W h o.#.9 r Z i.5.e 1 ~ H $ . . .   . 1 1 & 0 & % . * . > .                                     . . .     X   . # 7 } J.*XeXeXcXmXNXmXmXMXMXMXMXmXmXmXmXmXmXmXmXmXmXmXMXmXmXmXmXmXmXmXmXmXMXMXMXpXeX;X:X6XlX}.+Xl.! m > = e N 8 X.<XyX*X.Xf.{.uXrXmXmXmXBXmXmXmXmXVXmXMXmXmXmXMXMXMXMXMXMXVXMXMXeXU.3.n (.Y.G.C D 8 { o.E O.r 8 } .XpX;XxXmXmXcXcXmXmXmXmXVXBXAX6X8.^ k 3 2 $ # 1 G u.$X*XeX*XrXmXMXMXMXMXBX=X/.V t.OX1X0.b q s.s.b 8 % . . .     % w I.OXz.p.e e n.Y.J.g.v.T.7   X . . < z q.B K 6 2 U I.2Xx.oX Xw 9 r 2 r D m &   X O # 1 K #.G ) P o.q 2 m D b M b N 6 o o # 1 7 J $ # 9 9 & # w N $ & r i.7XrXpXcXeXxXeXrXmXmXmXmXNXNXVXMXpX>XK.g.>XqXrXeX;X*XpX*XW.B G.OXgXp.i : w W 2.k.Y.6X7XXXXXbXvXvXeXcXmXMXBXCXmXmXmXmXmXMXMXMXMXMXMXMXmXmXmXmXmXrXrX>X X4.q 7 E E n g ^ ) I ! !.w r K M n } W F r E } w *.2 B <XeXeXeXcXcXpXbX#X1.6.4X1X7.'.=X:.T.Q 7 ",
"B W P.:.z.9.t.S.j.c.'.*X>X;XeX*X{.ZX*X.X>Xc.6.K.k.#Xh.8X{.{.6.A.-.8.L.-.Y.8.t.2.E.9.z.l.6.T.l.r.w.u.h.c.4.1.a.k & . > & O.4.t.4.r } i.g.k.k.h.k.-.P.8.k.6.2Xr.3.1.~...B ! W U.h.-.l.k.h.9.d.J.c.h.}.d.k.l.8./ T.2.u.( V E p.) e.G C ) ^ J 6 (.i.1.8.T.-.V O.G g ^ ~.W g ( N.M p q ! p.B 1 7 $.~ # . . . . # 9 6 > > : %     . % O O o o .                             . . .   X X . . $ C L.7XrXcXcXcXmXmXmXmXVXMXMXMXMXMXmXmXmXmXmXmXmXmXmXMXmXMXMXmXmXmXmXmXmXMXMXMXMXCXvX,X&X*X].-XOX( r ;   0 e : } <XyX>X@Xh.&XbXaXMXmXpXBXmXmXmXmXmXmXmXmXmXmXMXMXMXMXMXMXVXMXMX>XW.! V ^.G.t.j D 9 { Q.x p.M ; i E..XtXeXrXmXmXmXVXMXMXMXVXcXZXk.z 4 < < < < q H a.gXkX;XrXqXrXBXMXMXMXMXmX:XW.E t.v.|.G.G r ..~ & o   O . .   % 6 G 2X|.'.^.r r ~.m.y.) D.P.7   X   # < 4 X.e 9 0 1 W ~.5.R |.K.w e %.j C %.X.9 o o O $ A o.M j n.7.~ 2 9 N C B ~ A i % o   % 1 $ t 1 t e e 6 $ w L 7 $ 2 | Y.tXcXcXxXnX;XrXMXMXmXmXBXBXMXMXMXqX[.h.*XyXeXxXeXeXpX*X/.z z.T.a.n % = 7 p.2X-X-XqXrXwXeXNX;XeXcXVXVXVXMXmXmXmXmXmXMXMXMXMXMXMXMXMXMXmXmXmXMXMXrXqX].OXr 6 C } M C ^ 0.W o.B.4 q X.H M o.B n C Z o.r K e n E.tXeXeXcXmXpXrX<X4.9.4X<X7.[.=Xf.2Xq.e ",
"V ~.2.z.6.l.2.y.U.D.@XtXtXeXeX>XF.'.'.{.lX9.9.8.gX;.g.}.}.h.k.4.t.P.4.z.6.9./.t.6.c.t.2.G.9.E.t.i.u.d.1X8.i.a.G & = o 8 ! n.8.1.r } w.:.hX9.k.9.Y.j.r.) h.g.l.L.8.I.p.n B /.8.9.U.6.8.U.c.d.g.g.c.f.K.z.-.n.gX6.I.) 3.| V Q.-.^.| g W ( r { M B ( ) i.P 5.p.I x u.4.Z G ..+.M p B q.o.r 2 r K w . @   . # $ t 6 d > 6 & . . $ 1 # O O O . . . .                       . . . X X X @ O q 4.=XeXrXcXrXeXcXmXmXmXMXMXMXMXMXMXMXMXmXmXmXmXmXMXMXMXMXMXMXmXmXmXmXmXNXcXcXmXMXBXnXZXvXpXiXuX+X( e : % % & & F <XtX>XF.c.>XNXpXMXMXrXmXmXmXmXmXmXmXMXMXmXMXMXMXMXMXMXMXMXMXMX=XV.n W ^.b.-.r p M +.~.x 4.q.u : +.G.*XpXeXrXMXMXMXmXMXMXVXcX,X8.x g 3 4 c I q.p.a.U.,X*XcXeXcXBXmXMXVXMXmX:XW.E 8.>._.OX! p ~ K > +   o . . . & w e.<Xx.x.T.r r n.z.| ..K.n.2 . X X . . % u > o * $ V N.Z z h.I.e 9 *.n E M.X.7 O o % r B.Q q C T.^.C & a m C I E X.a O o   % # $ # 0 S H n 8 # w ` S 1 $ b 0.1XbXcXcXcXeXmXMXMXmXmXNXmXMXaXCXqX@Xh.v.tXeXcXcXNXrX>XE.V ^ s.Z 1 O * # r E.-XqX0XiXrX*X*XNXmXaXMXMXMXVXVXmXmXmXmXMXMXMXMXMXMXMXMXMXmXmXmXVXMXNX*XwX5XW e D %.{ n W ( V ~ K r B N.F q Q B C C o.~ j r 6 M j.&XeXrXcXmXmXrX1X6.6.2XOX7.'.=X.X4XQ.w ",
"W i.I.9.A.y.8.l.t.9.[.*X*XeX.X;Xc.D.F.$X7.Z.SXr.r.t.Y.K.D.t.L.u.t.W.r.8.k.4Xj.j.K.h.j.A.k.7.6.L.r.2.K.g.2.a.~.C & o o 6 ) T.z.3.n p.( 9.hX9.2.6.U.9.w.) 4Xg.t.1.g.P.p.j I a.l.A.;.9.gXA.6.Y.U.9.6.h.9.z.2.u.g.T.2.1.a.V  .W l.u.p.z ! W k n F g I Q.( W ( W U 2.z.2...o.5.E C C a.~.K 9 2 j q # . o   o & 1 t : f 0 9 1 % # e e # O . O . . .                       . . .   X X X O : G }.rXqXrXmXeXeXrXmXVXmXmXMXMXMXMXMXMXMXmXmXmXmXmXMXMXMXMXMXMXmXmXmXmXmXNXvXbXVXMXcXxXxXcXMXMX.Xg.G 1 : 0 % % & C OX*X{.9.D.>XrXwXmXMXrXmXmXmXmXmXmXmXVXVXMXMXMXMXMXMXMXMXMXMXMX&XV.j 1.2XG.:.M F 4.U.W.P -.(.b 6 e C.'.pXeXcXMXMXmXmXMXMXVXmXnX#Xg.4.P x -.).I.^ Z r.kXnXNXrXNXNXrXmXVXMXmX:X/.B e.v v.Y.5.j p u o o   . . . . $ g I.2X7.d.P.j g i.6.j ..T.i.< . X X . . o - , -   $ 5 I m w T ~.: ; J w U p.D & % % q ` B.r b a.6.~.p : 8 m ~ U h ~ a .   ,   . $ # # 7 $.C 6 & w ` L q # 1 ! E.tXrXrXeXcXmXMXMXmXmXmXmXVXaXCXeX:Xh.f.=XeXcXmXrX*X:XY.I z G < # O O . 9 E D.7X*XXX*X*X;XmXMXMXVXVXVXMXVXMXmXmXMXMXMXMXMXMXMXMXMXMXMXmXMXaXVXrXrXwX-X2.n 7 J #.r ..U Z X.J e c ..n q Q E B ! B M.F p 6 q 1.F.eXrXcXcXrXbX1X>.;.Y.E.6.'.-XtX<XV.w ",
"x 4.u.g.8./.u.4.r.g.h.ZXrXXX*XZX[.D.$Xh.6.<Xj.L.S.2.;.hX:.j.1. .P.y.t.A.Y.c.8.6.1Xh.6.U.7.D.U.9.-.U.7.d.A.4.2.g % o o 9 n.2XT.I E p.r.t.g.8.-.L.9.P.3.u.d.c.2.y.g.t.a.B W u.i.8.t.U.8.2.U.6.L.2.j.t.n.1.1.2.6.z.) L.I.z 3.i.2.I.} w p.I B I p.U ) ^ 4.( } B W I.r.L.a.V.E E Z ( g.a.a % p 2 # .   + o   & 6 s % s 9 9 $ 7 r [ 2 # . % % O O .                       O .   X     + O j L..XpXmXCXcXcXcXmXmXmXMXMXMXMXMXMXMXMXMXMXmXmXmXmXmXmXMXVXMXMXmXmXmXmXmXmXAXcXMXVXVXcXeXeXrXuXY...9 % : 0 O % & b <XtX$X6.[.;XrXiXmXrXrXBXmXmXMXMXMXmXmXmXmXmXMXMXMXMXMXMXMXmXmXZXV.k c.=X1X:.I 1.'.uX}.:.P a.I I e C F.yXqXeXbXcXmXMXMXMXmXmXaXqX|.OXOXOX|.4X-.V 1.R.:XvXeXrXcXcXcXNXMXMXmXvXR.V Q B Y T.I.g 9 ; : 9 ] $ . . . 2 Z I.P.y.Y.8.z _ s.( p D e._ $ . . . X   % : O o . & 3 k u & I } : ; N G ^ (.q % % 9 ^ N.e i I u.i.! : % i b C I v o.%       X   # # . # B ..M 2 b A [ q . % r I.-XpXMXrXmXmXMXMXVXmXNXVXMXMXmXeX=Xg.>.$XwXMXmXcXxX>XF.4.w 1 # . .     O 9 +.L.F.v.&X;XxXpXMXMXMXVXVXmXmXmXMXMXMXMXMXMXMXMXMXMXMXMXMXMXMXMXMXmXrXqXtXOX3.e 8 D F Z N.C #.N e c Q.X.M M.( I E V o.C p 9 q ! 4X.XXXAXeXqXZX:XF.d.9.P.8.v.yX*X$Xa.w ",
") n.) n.y.t.E.4.r.G.{.>XqXqXeXF.$XJ.h.c.D.<XS.1.4.A.h.K.Y.j.w.w.8.2.-.t.9.9.G.k.h.}.6.T D.d.8.U.Y.A.D.9.9.t.-.k : o = e R 8X8.V ( I P.8.z.2.y.8.y.8.w.8.:.<XU.9.h.g.a.5.h 4.W.2.E.2.r.P.2./.P 3./.L.i.P 4./.y.-.2.^ a.W U T.E./ G G ^ ^ (.W n.x P Q.^ Q.! E L.-.i.8.L.4.W I ^ n.d.5.u > 9 < O + X o   O 8 6 s & i 1 6 6 4 ` r 2 9 # . O O . . @                 o   . . X X X   O 9 4.}.NXaXVXBXcXcXmXmXmXmXMXMXMXMXMXMXMXMXMXMXVXmXmXmXmXMXMXMXVXVXMXmXmXmXmXmXrXCXVXMXpXmXcX*X-Xk.! p ; o O % O . % j }.&X@X7.%XeXrXpXrXrXrXrXmXmXmXmXMXmXmXmXmXmXMXMXMXMXMXMXVXMXpX=Xe.B 5XXXc.:.4.Y.XXsX].J.x a.OXt.+.r 1.[.*XeXtXvXmXMXmXmXNXmXaXrX*X,X*X&X*X>XD.t.R.lX;XrXeXrXrXcXxXnXmXMXpXNX5X4.m p I ~.T.U 6 : g _ ' 4 . X . < B ~.L.w.y.u.V q.s.W D i } H $ . # . X . D C 7 6 % & 3 q % % %.H ; ; e B i.3.7 % & K 5.W 9 i 4.P.! 7 % O a L A g T o.0 +     X X # # X . j q.O.G j L ` l O O & ! '.wXMXmXpXrXaXMXmXmXmXmXMXMXNXeX:Xh.6.3XpXMXmXcXcXvX{.i.1 O .   .     . ; 9 p.P.D.v.tX*XrXmXMXVXVXBXBXBXmXMXMXMXMXMXMXMXMXMXMXMXMXMXMXMXMXMXBXrXeXtX=Xl.b 8 i M E W k A 7 q g O.D b N.) V W Z o.M m a 7 n 8..XqXeXeX*X>X>X{.v.g.L.4.'.bXqX$XV.g ",
"^ i.I.) 2.l.) j.A.k.[.tXrXqXZX:X[.F.h.|.{.$XD.t.j.g.F.8X4XU.1.L.gX2.y.-.g.c.Y.g.c.}.k.gXk.k.6.-.2Xk.k.E.k.g.(.n %   o e 7.8XW.V I I.:.j.8.1.t.P.r.4.4.-.gX6.G.9.8Xd.n.| C ( j.E.1.4.S.t.l.-.i.i.) 8.W I 4.8./.P./ ^ ~.Z l.8.G.^.( B T.9.~.( q.I ( Q.X.} ^ I.9.gX-.2.i.I I 1.7.z.a.E 6 d & #   + X o . : 0 : d : 7 p : 1 ~ ~ K $ @.y & : O .                     +   . . . X X O & Q }.*XcXrXmXrXmXmXmXmXmXmXmXmXMXMXMXmXmXmXMXMXmXmXmXmXmXmXmXmXmXmXmXmXmXmXmXmXmXVXVXmXrXrXtX8Xk.W 7 % - + . O O O % j OX-X%Xc.>XeXrXrXuXqXeXrXmXmXmXmXmXmXmXmXMXmXMXMXMXMXMXMXMXmXrX5X+.V -X.X9.1./.K._.dX XhX^ l.8X8XV.M p e.>XrXeXeXcXNXcXrXrXpXcXeXeXxXxXxXmXmXeXeXvXvXpXMXrXcXcXcXxXxXmXmXMXrX-Xg.e 8 X.~.OXt.e r >. Xs.g . X . $ w p.p.(  .V.B o.^ V { 9 b b $ . .   X % ^.G.U j $ $ q t O % $.j ; ; r ..~.I : % B M.~ 2 q } n.( p % . O 6 b j 5 _ B %   .   X X . .     7 ~ a.5.w m b b & . : b F.rXmXrXmXpXaXMXMXmXmXmXmXmXNXtX>Xc.8.4XpXaXeXeXcXxX&XP.&             . : 7 G (.F.>XuXeXeXxXnXcXNXBXcXNXmXMXMXMXMXMXMXMXMXMXMXMXMXMXMXMXMXVXBXcXrXeX*X<X..m 8 p %.Z n q r j g X.{ b i.T ^ o.Q X.b H K e e I |.yX.XvX;X*X.X].v.9.w.) '.qXqX$XV.g ",
"1.I.4.u.l.j./.-.4.g.:X*XrX*X{.7.[.h.F.$X'.|.h.J.;.J.=X7Xd.9.U.t.8.P.8.-.Y.g.D.Y.OXD.k.g.9.t.E.U.:.k.z./ d.gX) q % * O q P. XI.I ^.-.U.2.) L.2.t.^. .1.gX-.j.;.K.d.>.~.! G p.u.:.r.u.t.8.t.4.u.4.a.e.| C 2.;.-.2.T./.| k v 2X9.2.5.x n.T.-.5.a.x x p.C M i.z.9.G.d.l.3.I W T.c.z.p.b 1 e % O + X + . # 6 u ; 8 : q #.1 N o.q.K $ s $ # % O O .                   +     . . .   % C P.tXNXeXCXmXVXmXmXmXmXmXmXmXmXMXmXmXmXmXmXmXmXrXrXmXmXmXmXmXmXmXmXmXmXmXcXmXmXVXmXrXcXrX>X=XE.E q % o + o . > * O % b <X-X>X,XeXrXrXrX&X&XeXrXcXmXmXmXmXmXMXMXMXMXMXMXMXMXMXMXmXrXrXlX} k ].oXn. .I.T 6.Y.t.T.i.8._.dXL.F e F }.uXtXeXeXcXeX*XqXrXeXxXcXcXBXBXVXVXmXBXcXmXaXMXmXNXmXNXnXnXmXMXMXwXbX2X{ : D E z.n.} ( 9XoXT.h . o @ % 1 ~ E Z W V.j C I z K 8 : & # . .     6 Y.dXm.q.r 1 t 2 & 9 K q ; ; n p.I.Z : 6 q.q.7 & F q.q.n :   . . # 7 b Z $.2 O @ . .           . & r ) 5.M b j q % . O 2 9.uXqXqXcXrXMXMXVXNXmXmXmXmXNXrXtXF.8.D.rXiX;XxXcXrX*XT.: o     X     . : 1 q W gX8XqXqXeXkXvXcXmXmXNXNXmXMXMXMXMXMXMXMXMXMXMXMXMXMXMXMXmXVXmXcXcXeXqX7XE.Q 7 e %.Z A q B w 4 K @.M u.6.U | C F q b N 1 p n g.>X{.>XeXtXqXXX'.k. .4.=XuXqX=XV.k ",
"-.n.L.u.P.j.9.E.Y.g.{.tXsX.X@X3X6Xh.h.'.].&Xh.k.g.d.7Xv.<X6.;.S.P.1.T.E./ z.g.d.9.6.g.t.t.r.I.t.E.-.6.k.7.z.V r O = % r 6.+X) 4.r.l.l.u.r./ U.8.u.4.j.A.L.1.E.9.7.2X! n C ..4.4.T.9.-./.;.8.L.4.8.a.B C P.6.I.-.8.1.Q.b u.6.9.I.! W z.d.1.a.4.Y v I.E ! L.t./.;.K.U.....) 6.b.T.G 6 r q % O ,   O . $ 1 8 O : 6 e L q b E ~ 2 & & # # % . O .                 . .     X # # % q r.5XrXmXrXCXpXCXmXmXmXmXmXmXmXmXmXmXmXmXmXmXmXmXrXrXcXmXmXmXmXmXMXmXmXmXmXmXmXcXxXnXeX*X*X5Xz.W 2 O + +   . $ 7 % . % r OX*X;XvXrXrXNXtX[.'.*XrXcXmXmXmXmXMXMXMXmXmXMXMXMXMXMXMXVXmXaX$XM b J.9Xn.V g w k  .z e.I.6._.|.L.M } k 1.F.tXyX*X;X;X;XqXwXrXcXNXBXVXVXVXBXBXAXVXMXMXaXMXBXmXmXBXNXmXMXMXwXyXgXO.9 e r ( 4.p.P.9X`.n.j #   + o & M Z W -.I.n j E B 7 = o o . . . . % b c.oXb.~.A 7 l 4 2 [ A 2 ; : Z W a.C 2 L p.B & u !.V C ` O   % . O & j #.J # O O . # . O X X   . # 1 g ~ X.Q | 4 % o O 1 U +X-XAXeXrXaXMXmXcXmXmXMXmXmXrXyX{.8.9.tXrXeXxXBXcXwXY.6 o   . X     . O % & 4 0.OX-XqXrXrXrXcXmXMXMXmXMXMXmXmXmXmXMXMXMXmXmXmXmXMXMXmXmXVXmXcXBXrXqXtX#X4.n 7 p b b n M.C 4 b m w 2.:./ ..Q X.M K K e u b T  X:X*XeXyXyXuXv.J. .r.7XyXrX>XI.C ",
"i.1.) 4.2.j.G.9.;.c.7X.XqXNX6XD.$XH.7.$X-X{.H.8.9.c.=X].c.g.2X:.2.4.8.8.P.A.Y.<X2.E.8.2.r.4.) i.P.E.t.z.h.T.o.9 O O % j l.h.) w.T I.1.l.-.g.8.gX4.8.g.8.u.P.8.g.OXR Q.} n p.( u.g.t.T.2.Y.k./ ^.i.1.Q Z U.9.4.0.g.1.M.F 4.Y.E.) i.W E.9./ s.N.I / u.G B 1.y.8.t.Y.t.W ! L.z.E.^ q 9 A q # . . . % 1 7 1 9 : 8 9 7 2 5 n ~ 4 1 6 6 6 6 & O O .               . . . . o + . $ r W }.*XcXrXCXrXpXpXmXmXmXmXmXmXmXmXmXmXmXmXmXmXmXcXcXcXmXmXmXmXmXmXmXmXmXmXmXcXcXcXnXxXxXeX5Xz.W 2 # @ X X   . $ < $ . % r E.*X*XcXMXiXNXtXD.c.&XrXcXmXmXmXmXmXMXMXmXmXMXMXMXMXMXMXMXBXNXc.b O.U.x.+Xi.e 9 q O.C 5./.F.-X5X .E I.3.V 1.}.>X*X*X;XbXrXrXrXcXcXmXMXMXVXBXBXBXMXVXVXaXmXmXMXMXmXmXmXMXaXaX*XOXW n q p w C ) gXx.f.| e %   + + % m G  .U.^.C q h g 1 ; o o X . . # & M 2Xh.6.Q.N $ q 4 4 K 7 & = 8 _ -.q.h 5 %.~ 4 9 s X.w q K ; O # . . . 1 a # . O . # $ # # X X   . # % $ q H } a.Z & > O & j u.|.yXeXrXmXMXBXNXmXMXVXMXMXpXpX*Xt.2.=XeXcXcXBXmXiX1Xe       X         @ O 7 g i.1XtXqXrXrXmXmXMXMXMXMXMXmXmXmXmXMXMXmXmXmXmXmXMXMXMXBXBXmXmXBXcXrXwX-Xk.! 7 & S j Z V k w M m C I.8.^ ( B H r b A e 8 i x K.lXtXqXrXuX*Xh.J. .r.@XeXrX>XW.C ",
"4.L.1.w.1.9.k.9.J.3X7XqXwX*Xc.J.D.F.9.4X-X{.OX8.-.}.-X'.K.g.:.W.4. .P.2.4.4.9.4Xy.8.U.8.w.( L.4.u.^ j.g.d.n.H & O ; % b a.;.r.) I.-.4.) ;.Y.8.9.T.g.;.j./ 1.L.A.8.W.5.r C G V.i.P.g.g.K.h.g.U.) 9.) g B gX7.r.4.z.i.m e 4.2X2./.u./.-.Y P.i.} B / gXV Q a.j.r.l.-.r.T.u.i.3.~.( r D K 7 # . . $ 1 r S 7 e e u u 8 r h p.A 1 e s 1 $ & & . . . @             . . . . o X   1 ^ m.dXeXCXBXCXmXMXiXmXMXMXMXmXmXmXmXmXmXmXmXmXcXcXcXcXcXmXmXmXmXmXmXmXmXmXcXcXrXrXcXVXcXmXZXP.E 1 % . . .     X # . # . ; e E.tX*XmXMXiXNX>Xk.k.&XrXcXmXmXmXmXmXMXmXmXmXMXMXMXMXMXMXmXcXZXt.C !.5.,._.+Xp : 6 X.! U j.4X7XK.B i.8X1X( G | A.uXwXqXNXMXmXxXvXbXrXaXMXMXMXmXmXmXmXBXBXmXmXMXMXMXMXMXMXMXMXZXJ.T 5.b 6 1 7 I ^.9.) e ; ; o o + . a Z ) ~.V.b 1 3 g B L ;       . . % p I.) ( M.s % # $ 7 9 O = = 6 a.m.5.c z !.e 1 N b 1 6 6 7 a 7 . . @ O O % . O @ O t 2 # . .       X O % 6 p G 0.0.4 9 > O : E v..XtXcXmXMXBXNXmXVXMXMXMXiXaXuXk.t.}.-XmXBXcXBXaXoXb O     X     + X X @ O 1 w 4.D.*XwXpXmXmXmXMXMXMXmXmXmXmXmXmXmXmXmXmXmXmXMXMXmXBXmXVXMXcXcXMXiXwX=Xi.b % s j V Z B B o.M G a. .( | V Z 2 r M e > : h g.F.tXqXrXyX-Xc.<Xy.4.$XtXrX;XU.Z ",
"L.4.1.I.4.t.9.;.j.#X>XtXuX.X>.g.c.h.g.K.}.5Xk.2.S.7.oX'.g.t./.^ a.4.-.l.U L.9.E.8.l.l.r.1.) 4.8.t.j.t.8.4X-.b : O . ; b Y 9.u.(.) i.i.^ K.>.k.g.G.h.2Xt.^.^ 1.t.;.P.p.n F !.( z.2.9.9.h.F.g.2.U.9.0.} b n.9.3.1.8.V.!.e i.9.) r.t./ V.i.R n.M j R T.Q G  .i.P.-.y.4.j.j. . .q.G C X.S & $ 9 < N 7 N K 7 r e e 9 u 1 q...b & 6 e a 7 6 0 : O .             . . . . . o   . w d.dXrXrXxXAXrXmXaXiXMXMXMXMXMXmXmXmXVXmXmXcXcXcXmXmXrXrXcXmXmXmXmXMXMXmXmXmXmXmXmXcXqXrXyX}.( 7 . +   . . .   X . . . . % 7 T.tXXXpXVXiXrX:Xk.c.*XrXmXmXmXmXMXmXcXcXmXMXMXMXMXMXMXMXVXrX6X2.z Q.W U OX^.G 9 p K a.) I i./.( C Q.5X{.(.G r ..5XuX*XcXMXmXxXvXcXmXaXMXaXMXMXMXVXmXcXCXMXMXMXMXMXMXMXMXMX0X8X9.:.^.Q.M 9 7 E ~.I.G : o o   o o   d B V  .Q e 7 4 U N.N.7 O     . # O i p.I G K O - > & 1 e S 8 ; 6 s.d.4.x I !.6 6 C j 6 ; > t L 4 $ # .   . . O     > @.s # . . . . .   . p } F M I N.C N u O ; M gXuXeXeXrXmXmXmXmXMXMXMXVXaXaXpX}.Z.D.=XmXMXcXBXaXoXB & .         + X +     O & q i.|.qXpXMXBXBXVXMXMXmXmXmXmXmXmXMXMXMXmXmXmXmXMXmXBXcXVXMXeXcXCXaX0XdX2XW 6 8 w B o.k g } p M p.( ! p.! o.M D A 7 0 % w ) >.&XqXrXtX@Xc.R.A.2.@X>XeX>XU.U ",
"4.1.4.4.^.8.t.8.8.g.:X:X&Xv.F. X}.Y.-.Y.<Xc.4.L.4.g.5Xv.g.t.4.r.3.3.L.^ z.8.2.1.8.j.8.r.t.y.4.U.f.f.G.8.c.u.n # @ + = 9 k.v.r. .r.I.-.E.h.OX9.g.j.j.2.L.1.r.I.-.d.G.i.F D { V.l.4.k.H.g.7.g.j.8.T.2.e e ) 8. .) 6.a.M M a.;.T./ t.L.4.1.P.0.o.I :.n.b p o.+.8.P.4.L.t.9.r.3.Q j Q M 8 & 7 w Z $.6 p X.q q b r p 6 1 n E q a $ 7 2 r a 9 & & % O . . O * * . O . # . @ O 7 ) -XiXrXrXeXcXCXBXmXaXMXMXMXMXMXMXMXmXmXmXmXmXmXmXmXmXeXqXrXrXmXmXmXMXMXMXmXmXmXmXcXeX>X4XP.W q % o X X     . . . . . . .   9 ^.-XrXaXMXmX>X:Xk.{.yXMXVXrXpXVXMXpXkXkXMXMXaXMXMXmXmXMXMXBXOXU v a.Z M } Q.a.^ g j i.(.e 9 N w 2 } y.Y.P.5.h z 1.T.3XkXmXMXmXmXMXMXMXMXMXMXMXMXVXmXcXmXMXMXmXBXBXmXMXMXaX*X4X/ T 2XY.^.E w I (.} r 1 ; o X X + . 9 h ^ U C 9 6 P ^.P.i.C & * . # # O # Q.W g a o - = : q ..I. .6 9 $.T n.) Z %.a : n M.D : = > N ` j 2 # . . % .       # y . .   o . . # 2 y.zXW.+.q b M H N 6 % e 4.8X*XrXBXBXBXBXVXBXBXBXMXiXaXpX,X#XF.-XiXVXMXrXmX5X..& O @                   o 6 j G.uXiXaXMXBXBXBXMXmXmXcXnXcXBXVXVXMXMXmXNXqXMXMXNXNXMXMXmXcXcXcXwXyXv.P.C 2 1 K o...! b : : ( ~.G m m H q r r 2 ] 7 7 E g.=XtXtX>X6XZ.A.SX8.F.>X-X{.4X) ",
"i.^ 1.(.) L.r.2.K.H.$X:X=Xv.'.5Xc.:.g.E.4X9.4.) 4.E.}.f.9.P.) 4. .C.) 1.4./.u.4.2XG.t.r.t.9.l.A.h.hX2.y.g.2.2 &   o > { 3X.X8. .L.2.9.t.6.9.g.9.g.P.^ 1.a.V.1./.6.k.u.C m H 4.2.j.E.j.g.h.9.8.8.n.a.D 7 ~.6.2.L.9.) M m U ^.Y P.4.i.^ -.6.0.E z >.^.C 9 M Q 8.A.4.1.P.t.8.i.Q F O.F 8 9 C o.O.C e D X.w e a r m a b B _ w i 7 $ r e 6 # & 6 : # . O O * O . % & . * O 9 Z U.XXaXaXpXcXnXCXmXmXmXMXMXMXMXMXMXMXMXmXmXmXmXmXmXmXmXrXrXrXcXNXmXmXMXMXVXMXrXeXNXmX.X2Xi.E w & O   X X     . . . . . . .   8 I.].qXaXpXcX>X6XD.@XrXMXmXmXmXMXMXBXlXlXmXMXMXMXMXmXBXMXMXCX/.x T ~.e.Q i } I.a.~ r | p.6 % $ 2 q C ! /.W.-.x x h W S.lXrXpXrXmXMXVXMXMXVXMXVXVXVXmXmXmXMXMXmXBXnXnXMXMXpXdX/.x / 9.t.U.~.! V O.H 7 $ . X X X @ . # j B.V n 8 6 U K.}.U.o.6 O . # # X . M.^ q : o o ; p ! P.|.h.q 6 ` P ^./ I !.i 8 E q.n 7 o , J w $.j $ . # .     X o O . . . @     . # j K.kXzXC.n 2 n X.m 7 # 7 V T.*XpXcXBXBXVXVXBXcXcXpXpXpXrX,X[.[.-XiXMXMXwXrX1Xo.1 . .       .             % 7 5. XfXaXMXVXBXcXmXmXmXNXnXcXBXVXMXMXmXcXZXtXCXmXNXNXMXMXmXcXxXxXrXqXuXv.i.k 7 m o.! ~ r O 9 p.n.G { m K j r S q q < 9 H l.6X7X{.&X'.2.4.E.6.F.7X>X$X4X;.",
"^ I. . .4.) 1.U.J.$X%X:X:Xh.x.h.;.j.2.G.1Xd.8.4.y.2.2Xc.E.8.r.r.l.u.) 3.4.L.u.i.2.k.z.9.j.2.y.u.V.| i.L.2.a.e # % ; ; O.k.dX8.L.r.T 2.L.t.z.t.2.U.8.l.8.2.^ u.) U.P.a.n n ..9.>.t.r.L.j.j.G.u.I.1.! r Q n.7.d.;.y.) C F ..U t.9.i.i.4.r.6.i.G z :.n.C m M +.8.g.9.L.y.4.r.1.C E +.G r q q.W X.q b %.$.A e 7 1 i @.4 p._ 4 @.% 0 S t & O % 0 9 1 # . O @ O . # & % . & w ~.OXuXpXmXcXnXnXNXmXmXMXMXMXMXmXMXMXmXmXmXmXMXmXmXmXmXmXmXrXxXbXcXmXmXMXVXmXmXcX>X;XrXtXn.E q 1 % O   o       . .       . . + & n.f..XrXrXrX$XD.g.'.eXmXrXmXmXrXMXcX3XlXrXaXMXMXmXmXmXmXMXvX(.g ^ n.P.i.M m ~ ` K 1 e i 1 b Z V n H E a.~.) / s.I B  .A.>XrXrXeXxXvXbXnXcXcXmXBXBXBXBXBXcXmXmXBXvXxXmXaXwX5XL.g p.W G ( I.0.r m p : & O   X . . . # 6 L N p u 9 3.1X-X X~.q o   # # X . N ` 1 . % : 7 O.P.8X-X4Xr p p.-.T.R U Q.p p q.Y W q > o & K w n q 2 $ #     X   . # # . .     O # A E.,XZX$X0.x V p.F e & 1 5 n.>XrXcXcXBXVXVXVXmXNXmXrXrXrX;X,X}.=XrXMXmXrXrX$Xp.7 # .     .       . .     O & B n.dXsXaXVXBXcXmXmXmXmXmXmXVXVXMXVXrXvX%X#X:XtXcXcXmXmXmXmXcXcXcXqXbX'.gX( q q ! ! M 9 N w P i.W o.M } n j [ 4 L q 7 q ! t.6X=XtXF.) 3.U.;.c.7X>X&X5X6.",
"i.) /.4.) ) l.Z.k.$X%X:X>Xx.v.d.g.T 2.gXc.c.8.L.( ) E.A.8.4.8.2.I.^ W.4.r.i./ t.S.g.g.t.2.t.E.^ E | e.w.u.p.S # # % i G k.f.g./.) /.1.L.I.) ) i.1.y.4.L.-.r.-.-.^ 1.V.! C e.m.+Xr.i.y.E.k.t.I.! h k ..5.4.l.>.z.2.e.G Q p.) :.z.1. .L.t.9.8.G B :.2.B M } a.z.g.G.:.y.2.-.i.W | p.G n O./ ^ H 7 E p.C b S ] 8 & a n v s.r % f O e e > o O 0 q 1 # O   o @ O # % % & q ( T.dXqXrXcXxXxXcXmXmXMXVXMXMXmXmXmXmXmXMXmXMXMXMXmXmXmXmXmXmXcXxXrXrXcXcXmXrXrXeX>X@X=X4XE r 1 & %     @   . . .             @ & n.d.].qXpXcX#Xj.9.F.qXrXrXBXrXrXmX.Xk.H.eXpXaXpXcXcXmXcXcX#Xp.q z U 0.I.M.M e 7 t $ % & w q.)./ g H Z E Q B ) ^.u.) B I k.[.6XlX>X&X*XeXeXeXxXcXcXcXBXcXcXrXmXrX;X;XeXwX.Xz.! q %.C b C a.n.r 8 e 6 8 .   . . . * % % $ 7 7 u m L.1X0X].^.w o o . .   . 1 N % O % 1 k (. XuX.X4Xj b I.;.G.-.Y p.m p q.^ P M.% > : q q j N e 1 # o + o   . $ s # .     . . M E.@XxX].T.R P p.X.p 1 $ 2 | 3XeXeXcXVXVXVXVXmXCXBXrXrXrXnXkXH.[.rXaXcXrXrX$Xa.e # O     .       O . . .   O 1 ~ T.>XpXpXcXnXrXaXmXmXmXmXVXVXMXVXeXkXj.8.j.@XeXrXcXmXBXVXMXBXcXrXyX.XOXI.r q G o.M q ` h x ).( ..V Q b q L 3 k 4 e e G ( <X=XtXv.) e.E.:.h.:X*X*X:Xf.",
") L.1.r.a.8.8.6.c.6X,X&X=X{.ZXOX1.) 4.Y. Xh.A.3.w.L./.8.i.4.-.u.W u.4.W.t.8.k.6.t.L.4.4.8.g.k.8. .e. .w.1.p.a # 6 $ i Q zX[.j.( V.I W.i.t.j.-.r.r.4.1.w.u./.R E.L.3.1.V z 5.7.d.C. .t.j.h.g.Z n ! ^ P.n.3.W /.1.4.W C p.^ n.9.z.( W u.9.6.0.G F a.-.E j o.1.P.h.h.J.-.4.L.4.1.+.} C n | ^.0.H r U I.~ p 7 s & & e 4 / s.e % = O 1 1 O   O : 2 < $ .   X o . # & % 7 W G..XuXeXeXbXxXxXcXmXMXMXMXmXmXmXmXmXmXmXmXmXMXVXMXmXmXMXMXmXmXmXrXeX;XxXxX;XxXrXXX*X7XP.! 1 % % O       X . . . .     o X     - 6 I.x.&XeXrXbX3XZ.D..XuXrXcXcXeXeXcX'.8.j.:XeXrXrXrXcXmXrXkXR.} 2 < 4 V ..o.H 6 & $ 1 7 B t.Y.T.4.q b Z C : 9 ) }.5Xm.k q n ! u.<X7XtXqXqXqXeXeXxXcXmXmXmXmXpXaXpXeX;X>X4Xa.G 6 % J r F G 5.a.j q C H K $ . * # .     9 M 7 e u m l.].0X0Xm.g . X . . X . . >   + O 1 V ^.].uXXX}.b e V.R g.i.E { a : F Q.T ^ H e 7 1 6 ] N r 1 $ O +   o # 1 S $ .   o   # C E.H.>X'.+XR v 5.M.j 1 # : r U.>XrXmXVXVXMXMXmXBXNXrXeXeXcXxXk.H.eXrXrXeXeX=Xa.r & . . . .       . . . .     O 6 W b.uXwX*XnXrXrXmXmXMXMXMXMXMXVXeX:X4.U 2.$XeXrXcXcXVXVXVXMXNXNXrXXX X/.C r r K K w k V -.n. . .) ..m 6 A h A w b D } C S.$X*Xx. .i.E./ k.>XqXyXtX].",
"r.r.1.1.4.P.6.K.#XkXvX&X[.'.5Xh.1.4.L.g.F.1X2.4.3. .S.) u.( ) r.1.1.8.j.4.U.g.T.8.-.j.E.2.8.G.T.P.) C.r.1.5.q # # 1 p e.D.=Xj.0.U  .) 1.T.z.2.l.L.i.( r.W.-.G.-.4.3.u.4.I ..2.6.4.L.2.t.P.^ Z o. .^.6.;.~.+.i.^ e.p.h ( z.9.E.y.3.1.2.t.2.n.M M N.4.Z Z E U :.g.c.d.l.L.t.8.2.3.} C k p.:.n.H r 4.I.G 7 2 S 6 : s r s.q.p : . * 0 & O . ; 0 1 $ s >       . . % 6 b P.5XsX0XnX;XnXxXcXmXVXMXMXMXmXmXmXmXmXmXmXmXmXMXVXMXmXmXMXMXmXmXmXrXxXxXxXxXvXvXeXqXuXOX! 1 % O .     X X   . . . . .   o X     o 6 /.'.>XeXrXeXR.y.H.*XyXcXcXcXeXxXcX].8.8.$X>XrXrXcXNXmXcXkXE.M & . & 2 w r e O . 3 Z C e.8XXX}.u.q r A r ; p y.=XyX5Xz 1 : 9 C 1.G.8XdXyXqXqXeXeXrXcXmXmXmXpXiXpXrXtX1XI.G 1 O O 6 6 A H B o.} ! p.Q.!.j % O # # + o K p.} H 9 p j..XwXuXd.w O X X   X . . %   o . 1 P G.].uXyX<XM i Q.) U a.} p : = 9 o.p.Y I H q 1 : a L L r $ O o   O & $ 1 # O o   . $ A /.g.D.J.^.x x 5.N.r $ . * $ 3.#XtXpXVXVXMXVXmXmXcXeXeXeXcXxXg.D.eXcXeXcXrX-XP.k $ . . .     .     . . .     + O 7 ( OX-X*XeXeXrXmXMXMXMXMXMXMXMXeX:Xt./ 9.lXeXcXcXcXBXVXMXMXmXNXCXqX*X<X .b : a K j z h P _ W ^ -.5.D 6 X.o.' j b K { n y.6X-Xx.1.i.W.T h.7X.XrXuX.X",
"P.L.4.2.r.8.U.4X$X{.vX*X'.v.F.6.L.) 8.4X Xh.t.y.( y.S.r. .L.8.8.j.2.j.2.i.4.8.Y.gXz.c.h.j.A.t.U.8.U.t.t.4X;.g # % O 9 Q F..XOXz.2.t.u.8.) / 1.I.4.r.8.8.9.A.:.t.W.I.l.) k X.0.:.h.U.P.3.| Q W I.2.1.L.4.2./.1.a.~.) T k.2.u.P.4.w.r.-.9.2.a.j r q.5.C Q Z W Y t.1.t.4.8.z.d.d.l.a.o...) 9.2.q q 1.0.~ r 4 n r ] 9 N ~ Z e & % % 0 : & 6 0 0 6 6 s 0 .       . # e 3.}.AXwXMXeXxXnXcXmXmXMXmXMXMXmXmXmXmXmXmXmXmXMXVXMXMXmXmXMXMXMXMXMXrXcXnXkXkXnXeXwXyXOX( 7 O o +   X X X X   . . . .     o X     . 7 E..X>XeXpX*Xk.4.'.*XrXcXcXcXeXeXbX&Xk.4.D.%XbXcXcXNXmXmXvXU.e O X + . # & & . $ Y n.-.t..X*X&Xk.p 8 : # ; H E.kX*X1XV $ % O & r W 0.K.oXoXqXqXqXeXeXxXeXrXrXrXrXrX&Xg.( 7 % O @ * # e b e ~ V.U.G.z.n.z %   . . * 8 q.) a.p.m G A.5X.X'.i.4 .   X   @ . & s 9 & o 8 I P.f.'.qXOXp : X.o.r } q.j = - = 6 o.1.P ~ j 7 % % N #.K 7 % o   . & e $ # .     . # j I.-.)  .o.4 h q.M.r & O @ % B S.tXiXMXVXmXBXmXmXcXrXxXcXmXeXc.F.vXeXeXcXrX>XY.V 1 % .               . . .   +   % r 4.J.oX*X>XeXmXmXmXmXmXMXMXMXcX>X[.h.[.tXeXcXcXmXmXMXMXMXBXmXVXrXeX=XS.G : y J A ` g q C U ^ V E p 6 $._ B 5 w %.O.G r.<X8Xc.4.C.W.T c.>X'.*X;X*X",
"t.y.8.8.P.t.:.6.$Xv.;XtX&X{.5Xk.1.4.2X>.8XF.S.y.8.E.<X2.y.4.^ P.2.S.U.t.u.1.6.8.y.2.OXd.t.A.8.;.9.h.j.A.d.^.g $ O O 9 +.F.XXv.d.Y.R gX8.l.8.l.1.2.W.2.T.A.-.t.gX:.l.u.^ q H n.d.h.t.i.} b | I.6.P.L. .) 9.:.n.( p.W ;.OX2.y.4.4.4.t.9.g.I.Q.C n 5.W E r %.E 4.I.u.1.r.2.9.b.6.t. .z W 0.n.a.r r V.3.G w 5 B 4 i 8 J b 4 e 7 e 6 % % 7 t 9 & # > & # .   + @ . 1 Z S.tX0XMXmXnXbXxXcXmXMXmXmXMXMXmXmXmXmXmXmXmXmXMXVXMXMXmXmXmXMXMXMXmXcXcXnXkXkX*XqXuX X) q . @     X X X X                       . . 7 T.uXtXeXmX*XZ.t.:XtXrXrXmXcXeXeXeXvXH.2.g.{.bXNXrXcXmXmXbXz.1 + X X   > % i i B m.9X6.9.&XrXrX4XH %   % e Q zXkXD.^.~ $ . o O & 2 k U -.P.T.OX}.$X-X>X*XyXyXtX-X.Xk.E q : . @   * # 2 e i i 4.c.v.x.m.P $ O % . % m p.v -.V. .e.S.k.d.9.N.7 .   X     # r M.o.r % 8 V I.6.c.oX2X7 ; D %.m j q.~ ; o = : 4 M.B.j ` p % ; 1 #.#.e & ; o . # ] y %       O # e (.4.E M i $ q B.o.q : O   & 2 i.-XwXMXVXmXBXmXNXmXrXcXcXcXeX[.{.vXeXeXCXrXtX4XU 7 % .   X X             .     + o % n 4.J.|.>XeXcXmXMXmXmXmXVXMXmXeXZX=XyXqXeXcXcXmXMXVXVXVXVXMXMXMXqX>X3X .: O p n g r S p N.N.C Q H r N.V ~ k j B.p.W 1.t.<Xh.8.L.E./ F.-Xv.=X>XtX",
"S.9.4.u.1.8.k.3X=X{.ZX;X&X=Xc.D.t.8.;.4X>.K.A.r.D.D.{.F.8.I L.) L.4.t.U.2.j.c.9.r.4./ 9.gX;.k.K.c.d.r. .L.I 7 . @ # b i.'.7X7.t.Y E.G.9.Y.;.9.E.^ 1.L.1.r.E.c.:.G.;.4.| ~ _ d.m.(.E r b | 4.2.G.t.4.u.1.}.1X;.1.O.B l.9.g.E.S.2.U.P.z.2.W p.C }  . .F p m b  .2.L.T.9.g.W.4.4.) | ..V a.I.T B Q | | ~ q 5 A w J & s i 6 K L #.2 & # < 2 r d % y # # .   + @ # q L.$XyXpXpXcXnXcXmXMXMXMXmXmXMXMXmXmXmXmXmXmXmXmXmXmXmXmXmXmXmXmXMXMXaXmXnXxXvXcXwXNX5X) 1 O . .         X X                       . O 7 2XqXbXxXqX{.g.K.>X.XqXqXmXmXcXrXNXvX}.j.2.3X*XNXcXmXmXaXuX;.1 X X   O O 9 K Z 4. X=XH.t.[.;XbXJ.M ;   . h L.E.E.w.! 5 $ .   . % # $ $ & & 6 r Z i.OX-XuXfXuX-X<Xe.M 6 ;   X X   # $ 1 a 8 6 z T._.v.T.V $ . O # 2 _ N.x 9.G.<XE.I. .^ p.` $     . # @ # V E.G.n.b 7 ! a.( U OXn.7 : $ b %.k Z M.` q 6 6 : & N #.K r & % & 9 K e & O O O % % O @ X X . . O 6 o.W C M % % & #.m b p % # . 9 Z 1XsXaXVXrXnXcXNXMXmXrXrXcXcX&XvXcXNXBXcXmX*X1X1.2 . O   X X X       . . . .   o + O & j 8.8X{.eXrXMXaXrXBXmXmXMXBXrX*X*XwXaXeXrXmXMXVXVXBXmXVXMXMXMXmXeX:XW.p ; 1 w b r 9 e G Z E M.} ..s./ ' 4 4 o.P.g.Z.2.U.S.6.G.E.:.v.yX.X*XeXbX",
"9.l.y.8.-.t.G.}.{.v..X*X>XlXc.g.P.6.D.<XlXk.4.S.9.{.-Xx.-./.4.1.1./ 2X:.j.t.OXG./.1.U.g./ j.6.c.G.j.r.L.V.! 1 . @ # n V.<Xc.n.2.P.P.9.k.7.Y.k.;.8.u. .i.1.8.G.Y.<Xg.1.^ g V I.;.k n m Q /.8.h.9.r.L.1.E.h.d.h.r.M F 1.2Xg.D.S.P.;.9.G.2.(.B C E ~.U } p i m ! i.1.-.2XG.e.z  .V.( U 4.1.~. .Z ......M r w X.k K 9 s 8 9 K 5 A 2 a t b 4 2 0 . . $ # . @ + O 1 W }.eXrXpXrXcXcXcXMXMXMXMXmXmXMXMXmXmXmXmXmXmXmXmXmXVXMXmXmXBXMXmXMXVXMXmXxX;XcXrXNX.X2.b O       . . .     X   X X X               . % q 1XwXbXeXeXv.9.J.7X&XrXpXpXmXrXrXNXbX=XD.8.3X*XrXrXpXaXrX=XT $ . X . . % X.+./ G.=XZX%XR.,XvXZXZ.C p 6 1 x 2XW.C.} p 2 # . > % # . .       o % 6 n ( d.OX1X+Xz.( b 8 O   X X X   # $ $ 6 ; 6 z T.T.z.n.I #     # w q.!.V >.8XoXF.| G o.X.p #   . # $   % 4.F._.J.! r n } n Z a.U $ . # w N.W w G !.o.4 2 ; O & N $.H 1 8 % : a 7 $ # O . O O o o X X   . . % M B C D : O % a r G X.7 # . : w m.uXaXaXCXbXxXcXMXMXmXpXcXcX;XbXcXBXBXcXmXqX8X8.q . O   X X X X X . . .         o o O 7 E l.5XvXrXaXMXMXCXNXmXmXmXmXrXrXaXaXeXeXmXMXVXVXBXmXVXVXMXMXmXeX;X<X! 7 1 D H w 7 N H z G ! 5.U ;.v V w F Q.J.f.D.8.3.L.d.h.U.:.x.eX*X*XrXrX",
"g.6.4.l.r.l.g.6.{.]..X;X{.5Xg.9.A.;.F.SXF.D.r.4.[.dXtXv.8.I.y.y.2.U.:.gX^ 4.P.j.t.j.K.h.9./ gX4.i.i.4.E.l...$ *   . e ! p. .a.0.l.;.j.;.z.6.z.P.g.U.A./ t.P.-.U.-.U.OXh.x B o.Z G | 3.3.L.l.9.9.g.g.4X2.r.u.7.l.r D ~.:.5XoX8.S.9.2X2.8.a.C k 5./.P n K J 6 ! 0.n.8.t.z.Q F C 4.gXb.;.P.V.B w G ~.p.X.6 K j w N q J a a A g w 1 e 7 l q 6 0 & & 1 $ . = o % k n..XrXrXrXxXcXcXmXMXMXMXMXmXmXmXMXMXmXmXmXmXmXmXmXmXVXmXmXmXmXmXmXpXVXmXrXeXqXsXuX5X4.r % O   X X . . . .     X X X X X       . .     % q 1XwXrXeXvXh.d.1X6X.XyXaXpXpXrXrXpXrX*X[.9.<XeXrXrXmXmXuXK.z $ . . . O u Q.r.>.oX{.>XkXkXAXkXR.( 1.Q.X.c Y /.+.H p : *   $ S 1 # . .   .   . # # $ 1 r A C k q 6 : O o o @       @ O . O o : k I.p.( ..A .     . w o.%.g :.5XoX1XQ i { i % O . . # $   & ^.'.].5Xu.E p m 7 K X.1 % . # w W p.E 4 n B.p.k & % % 1 E N.X.1 % O 6 7 $ % .       o X X   . . . . 1 q m N 0 # # < B e.Q.n # . O 1 1.7XqXrXNXxXxXcXMXMXMXmXcXcXrXBXcXmXBXcXmXwXuXl.r O O   o X X X . . . .             o % e I Y.tXwXiXMXMXrXrXmXmXmXmXcXmXMXmXeXcXMXMXMXmXcXmXMXMXMXMXcXeXxX7XgXV 6 @._ h 7 a ..I B ! g.f.d.2.o.w q 5.5X].$Xt.! I.F.x.2X:.x.tX*X&XbXNX",
"g.U.r.4.l.2.;.6X>X*XqXAX{.$X9.8.;.Y.:.5XF.k.r.8.6X.XXX{.8.^ i.r.G.A.t.2.L.4.1.y.-.t.g.k.G.j.t.L.3. .j.g.U.V $ . . % p M F G B p./.t.9.z.2.2.6.6.9.k.U.8.j.A.P.-.A.9.x.7.B %.X.w ! a./.A.-.t.9.2XK.k.>.gX3.I P.2.C H a.>.|.v.S.^ 9.g.9.1.Q.| E i.T.^ n D { 6 | 2.8.U.9.4.M.F | u.7.x. XG.) E j !.3...m 6 S w 4 K r 1 &.1 ` B < e a 7 r s 6 . # & $ $ O O % e 1.8XqXrXrXcXxXnXBXMXVXMXMXMXmXmXMXMXMXmXmXmXmXmXmXmXmXmXmXcXcXmXmXmXcXCXeXeXqXqXuX X1.n % . O   X X . . . .       X   X X       . .   . O r |.wXrXeX$X9.x.5XJ.F.qXiXaXmXmXrXpXrXqX{.t.#XtXrXrXmXmX>Xi.4 .   . # % H V.j.'.dX$X$XkXkXeX{.S.B 2.^.s.x R a.F 8 8 ; o O N ` w 7 # . . .   . . . # . O . & % O = ; O .         X o . : % = : B N.E r A N O X   . 1 L { w U +X|.E.G 9 i & . . # . . .   8 (.H.'.3Xn.( a 8 6 J s O O   . 2 ' W C n w j _ M.K 9 6 7 k _ o.N % O 6 t & & . .     X X X   . . . . . $ e i 0 # # 4 s.T.T.Z & X   % B gX.XyXxXxXeXcXmXMXMXMXmXcXmXMXmXBXBXcXmXrXuXz.b % % O + + X X . . . .     .     @ o O % w 4.$XqXwXaXpXeXeXrXrXmXmXcXmXmXmXcXcXMXMXMXmXcXcXmXMXMXMXrXrXcXtX-Xn.q 7 N.) 2 { Q.3.G  .h.x.h.a.p.w q ..|.x..X<X( a.+X|.4X:.c.ZX=X'.tXeX",
"g.t.r.2.2.2.k.6XdXqX*XAX=X6Xg.8.l.2.F.'.:X1X-.U.F.].*X{.1.3.2.2.P.1.T.-.z.g.P.8.r.8.r.2.S.E./ Y.2.t.k.Z.t.E $ . . 1 n o.e m q n I a./ l.g.T.g.g.2.j.8.t.t.A.j.J.6.J.F.-.b e q q.~.t.6.8.r.8.gXt.k.j.8.i.5.3.;.;.V a.;.|.c.j. .C.y.;.j.;.~.I  .4.t.i.Q.n i e I n.:.D.g.4.{ 8 n ) Y.>.c.T.(.C h ~.4.| i 8 K 4 4 K q r 1 N X.2 e s S e 9 y % . # & # : % % e ( b.dXwXrXrXxXcXNXVXVXMXMXmXmXmXmXMXMXMXMXMXMXMXMXmXmXmXmXmXrXrXcXcXcXcXnX,X>XyXXXv.1.7 O . . .     X . . . .                     . .     O r 1XwXrX;XD.8.{.7Xj.h.qXiXaXmXmXrXpXrXqX&X8.Z.>XwXrXrXrX$X( $ X X . $ q O.e.r.5X=Xc.c.>X&XeX@XW.z d.OXn.x P I e O > > O e a.2.P o.S & O   X X     . . . # # O + o O % O   X X X X   % H G 9 6 I Q.p & N t . X     O a K j z ^.T.) r p 9 & & # # . .     : p.i.2.z.a.C d O e N ; o       # K G C H A r r H !.$.g 2 2 b W B.& % 0 s & %   o       X X   . . . # . . & % 0 % $ w I.4X<XW % X X % q 5.<X>XeXcXrXrXaXMXMXMXBXmXMXMXmXcXBXcXmXpXuXK.n & % % O @     . .         . . . . @ o O & B l.5XuXwXwXrXeXrXpXmXmXmXcXmXBXcXcXMXMXMXmXcXcXmXmXaXaXpXrXcXeXyX|.! q Z ..~ G q.W | ( n.7.0.0.M.k r ..OXf..X<X|  .OX5XOX,.F.6XR.g.$X[.",
"k.:.2.i.i.t.G.h.>XuXeXeX'.}.k.y.4.8.F.7X7Xc.U.8.v.dX.Xh.L.w.t.t.8.T.-.A.9.Y.4.P.t.t.4.1.S.j.k.g.t.Y.k.E.1.( $ . . $ B (.b F H n j B a.a.z.R gX6.E.-.y.t.-.j.j.D.9.K.G.I.D 6 k ) G.h.c.G.1.4.A.g.9.9.W.1.( 4.I.v ) / z.G.9.8.w.u.^.g.6.G.) h ( a.T.z.) V H M z -.h.d.g.(.m p Q ^.7.c.d.g.5.B 1.^.8.E 9 : *.g B ` A r a p r r $ a r r : O . % 0 6 O % % 6 E z.=XuXrXrXeXbXNXmXMXMXVXBXBXmXMXMXMXMXMXMXMXMXMXMXmXmXmXmXmXcXcXcXcXcXcXcX>X8X-Xx.) w .     . . .                                       + o e }.wXqX>Xy.r.>X>X8.t.*XiXaXpXrXrXpXpXwX*X8.j.>XqXrXrXrX$Xn O X X . < n Q.i.4.h.>.v U c.:XvX=XI.x Y.OX^.x g 2 0 . @ O 9 | E.9.Y ..X.& O   X X     . . . . .   X X . . . X X X       8 p.a.E 4 E !.u O a 1 . X       > S b w } n.V e a 7 N q $ # .       % X.| z ( q.w 8 % w r % =   + . # 1 K %.K j K { r w ~ B.K & $ j X.$ # 0 y % O     . .         O . . @   . . O * O $ 3 8.1X3XW # X X O 6 b /.$XxXmXmXmXpXmXMXMXBXmXMXMXmXcXcXcXmXpXwX+XZ $ 1 1 % . & % O         . . .     @ o @ % 7 } U.8X*XXXrXeXrXmXMXVXBXmXBXBXcXmXmXMXMXmXmXcXNXcXpXaXmXmXrXeXwXZXP.n w C ! I ( I ..a.i.0.3.) Q.B 7 C gX{.dXv. .W b.=XF.;.J.R.J.6.#XH.",
"j.U.l.4.I.1.6.lX&XyXcX*Xv.h.j.i.( C.h..XtX'.9.8.F.ZX'.9.W. .j.k.U.;.L.y.g.t.1.i.t.8.i.L.;.Y.t.t.k.h.E.t.L.z 1 . @ # E (.3.4.~.e.G n E ( ^.-.9.t.k.A.t.2.U.r.j.8.Z.U.j.e.K e W u.7.d.D.E.y.SX8.9.9.Z.8.u.2.i.( P ^ ~.0./ P./ U.2.u.2.h.2X8.x  .I.8.k.2.L...g V i.2Xd.Y.L.m 9  .E.|.x.6.8.|  .T 2Xz. .: d ` c 5 j D p #.1 i $ s $ e a % . . & 9 %   o : F z.=XqXqXrXeXeXcXmXMXMXMXmXcXcXNXMXMXMXMXMXMXMXMXMXmXmXmXmXmXmXcXcXcXcXrXcXcXeX:Xl.E q # .       X X . .             . .                   + o e K.wXqX:Xr.w.>X=X4.y.&XaXpXpXrXrXpXiXrX*Xt.j.tXqXeXrXcX<X9 o   . # 3 E ^.E.4.) W 1 q ) hX{.{.I.x m.;.~.G 7 & # .   $ ! G.4XZ.I C @.% o     . . . .       .   X + @ . . . . .   O % b ~.G.l.U B { : O 1 $ # . . . . % i 9 : e p.I i 8 g $.L 3 .         O p H n B K 2 1 2 z I b & O . O . 6 1 L &.A w M X.M 1 6 d ; % 9 a $ # 6 $ O       . . O .     . .   X . . . . o o . < ^ U.E.Q # X X . ; 6 e.<XrXaXMXmXpXmXMXMXVXMXMXVXcXnXcXxXmXpXiX8XE 7 e e & $ q 2 @ X X X   . . .         o O = 9 | Y.=X.XtXeXmXMXMXVXVXBXBXBXBXBXBXmXMXMXmXcXbXbXmXaXaXpXeX;XrX].1X0.7 9 O.) i.( ..!.G p.Q B a.C 7 p V.h.dX-Xw.W d.|. X7.Z.R.$Xd.>X&X",
"9.6.U.u.-.4.K.d.{.qXrXeX@XF.j.^ V. .c.7X=Xv.g.k.F.|.lXK.1.W.t.k.g.S.8.t.j.8.u.) S.t.W.l.6.9.2.t.g.k.j.y.i.V < #   # ~ -.n.8.>.8.p.o.W V Q.p.1.z.;.9.j.j.S.U.8.U.S.1.W.i.M B 4.G.d.J.t.8.y.j.j.9.D.9.L.4.9.z.( k ( (.^ L.-.A.6.z.i.-.2XT.1.( ^ I.P.9.g.z.5.p.1.l.g.z.2.a.D m 1.z.d.gXP.i.i.^ t.A.8.W 7 a o.c V K 2 a i 9 $ 6 J 7 1 6 O O 6 & : O o = e e.8XyXXXrXeXeX;XrXMXMXMXMXBXcXNXBXMXMXMXMXMXMXMXMXmXmXMXMXmXmXmXcXcXcXcXeXcXtX.XG.! 6 % .     X X X   . .   X         . . .               X + o e G.uXqX:Xr.w.=X&Xr.y..XpXmXpXrXrXaXiXwX*Xt.t.tXqXrXuX>XE.: o . . % 2 ( /.E.1.U p.7 7 g n.8X$Xu.x ^.-.(.E 9 % . . O 2 u.|.oX6X^ b &.; o   . . . . . X X X . .   X   @ . . . .   % 1 C n.d.+X2.g i : ; $ 1 # .   o O & e 6 O 8 !.Z 6 6 ( ).N.w .       . O $ L ~ w a 1 2 n 4.^.Q.q : % . O # % & a K r 2 p e 9 % O ; O . . . . & . .   X   . . # .         X X . . # . o . . q W P.L.G # X X . . 8 b /.*XiXMXmXcXcXmXMXMXMXMXVXcXnXBXrXmXrXwX8X! e M N 7 < q 2 O   X X . . . .           + , ; b V.<X{.tXqXMXMXMXMXVXVXBXmXVXMXmXmXMXmXmXmXxXcXmXaXiXwXqX;XAXeX>XU.M 6 Z q.p.V Q } q H Q h p.V e p p.-..XuXA.^ >.|.6X6.8.2X6Xf.bXeX",
" Xh.9.P./.g.>.:X].qXrX>X$XD.t.r. .4.g.K.k.9.J.k.c.[.4Xt.Y.-.9.A.t.t.2.gXA.z.-.U.z.8.t.j.g.z.g.g.Y.t.4.1.-.I 2 O o : ..P.1.L.z.l. .p.i.U ! C ~.2.z.2.-.2.A.h.Y.t.r.r.8.r. .e.U.c.1X9.^ C.y.j.A.g.K.6.w.3.c.b.a.G W i.^.8.6.U.8.U.8.G.8.r.G G S.G.8.i.6.k.P.0.w.8.P.l.z.4.b r ) n.^ U 8.8.6.i.i.W ..B r m X.n q.k 2 # $ $ 1 7 w $.9 ; % & # % , o ; 9 3.R.>XeX&XAXeXrXcXcXmXMXMXMXmXmXmXmXMXMXMXMXMXMXMXmXmXmXMXMXMXmXmXNXcXcXrXeX-X+Xa.Z 7 & % .     X X                     . . .               X   O 7 A.>XrX.X .L.=X-Xk.j.bXmXVXrXcXpXaXaXqX=X3.4.>XaXwXqX7Xi.1 . % . O & x ^.5.W ;.I.Z b q n E.K.i.g Q.Y :.~.M i : a i j 6.dX0XoX4.C K & % . . . # .       . . . .           X   @ . e A Q./ Y.L.M i & & 2 < O   o o . 1 w l % O H B p } T.2X~.w = +   . . . . 2 B.w % O r 5.U.<XT.( 9 o O   @ O . O & # % % . % @     . . O . . . . .   X X   . # .   X X   X   . O 0 8 9 e i A 2.I.~.k &     @ . % 9 e.XXaXmXxXxXnXVXMXMXMXmXVXNXcXpXaXCXqXqX3X} 9 C M.n 1 & ] 7 & # O               X X   o O 6 E U.8XtXqXrXMXVXMXmXBXMXMXMXMXMXMXMXMXBXBXBXmXmXpXpXrXrXeXxX;XbX$X5.j w C ~ G C M e M N.P N.n S p O.^ >X*X<X;.;.<X<X9.6.2X2Xh.qXiX",
"c.c.k.2.t.9.g.5X*X.XAX.XF.g.I.) 4.A.g.K.6.R.9.c.7X8XK.g.;.G.8.4.U.2.z.9.z.8.l.9.j.t.6.t.k.j.j.j.t.t.0.P I ~ 1 O = : ) E.u.4.g.j.1.L.t.l.Q b W a.g.6.) 4.t.;.G.j.U.4.j.j.y.y.6.h.h.U.4.w.2.j.t.k.G.j. .3.f.v.5.C  .8.l.9.g.-.E.8.9.J.6.C.r F t.c.2.I.6.<X6.2.8.t.L.2.l. .q F (.4.} k 4.l.2.P.( 5.p.B w %.b H q.C < # $ $ 6 e w A : : 8 & # . O O 6 } R.kXcXcXbX;XrXcXcXmXmXmXmXmXMXMXMXMXMXMXMXMXMXMXMXmXBXMXVXVXMXMXmXcXcXcXmXyX X2.n 6 % O . O                             . .     X       . .     . 7 l.=XeX[.-.A.-XoXD.D.xXmXmXrXcXpXaXaXqX$X .3.-XaXiX0X4X! & . % O o % k Q.E j T gXn.5.b r j.2Xa.g ` h T a.o.b p !.M.B R +XuX9X5.b a # O . . . # . X X   . . . . . .     X o X + O 6 r o.z 1.~.Q e 2 K ` q O o - o . # w S # O 9 r Z Q.g.c.L.r = o   . . . . < [ w O % n L.U.<X}.L.7 O . .   X @ o O O . * O .     o @ .         . .   X X X . . .   X X X   @ . & i X.O.C 7 H / )./ w O     X . O & ~ ].iXcXxXxXBXCXVXMXMXmXmXnXcXpXaXcXeXcX6X+.e E N.C 2 % s e 2 $ #   X     .             * % b ( 4X=XeXrXpXmXmXmXmXmXMXMXMXMXmXmXmXBXBXVXBXmXmXpXrXrXcXnXxXcX*Xh.W w q %.o.} H D b q.P ! n N 2 O. .:X{.1X;.;.4XzXR.9.E.E.9.uXaX",
"g.9.G.6.g.g.G.d.{.tXrX*Xv.D.8. .2.4X5X=Xh.}.g.#XtXqXg.g.j.6.j.A.-.P./ 2.t.8.2.8.8.t.A.j.j.8.2.A.9.P.a.z h j # % > 6 a.d.r.r.9.8.1.r.9.l.a.E Z i.9.9.8.(.2.g.:.j.S.Z.d.g.E.t.D.7.g.g.S.j.Y.c.g.t.8.1.3.4.f.+XG n 1.z.;.z.8.P.u.P.A.K.J.P.H b L.k.n.:.<X9.l.u.t.t.1.) 2.W r G z.z.G H 5.v P.r.r.a.p.! C !.H r Z H 7 1 t $ & 8 7 s % > > % @ . # 1 n C.3X;XeXeXNX.XrXcXcXmXmXmXmXmXMXMXMXMXMXMXmXMXMXMXmXmXmXcXmXmXmXBXNXrXeXcXbX5X8.B 1 O O @ . .           . . .             . .     X X     . .     o 6 l.$X$Xh.8.K.-X_.h.H.;XcXcXeXcXrXaXaXwX:X3.3.:XsXaX0XU.b %   O . o % 7 X.$.w x hX2Xn...E ;.4Xn.h 2 $ w ` Q.W W /.~.V z N.n.I.K 8 : O       . . . X X         . . . .     X     O & 7 K g n !.X.q h ~.M.g % o o       & s : ; O & V ^./ 1.a.w o +   O   . . $ A j & 6 P /.4.l.|.hXq % . . . . O     O O > % % O   .     @       . . . X X X X . .           * # q Z a.(.B r ~ / a.z 2 O       . O % n |.wXcXxXcXBXBXmXMXMXVXrXnXeX*XbXuXrXMX*Xw.j ^ ~.n q & u a 1 % . o   . . . . .         * # 1 j u.}.eXrXrXrXmXMXMXmXNXmXMXmXmXmXmXBXBXBXBXmXmXmXrXrXcXBXcXmXuX$Xl.M 7 Z ~ p p G C } B o.Z n 4 o.( R.zXE.-.;.4X:X:X6.G.E.6.tXNX",
"g.j.t.U.9.T.9.g.{.vXXXbX{.K.) 4.4.G.f..X7X#XZ.g.qX.XSX) t.6.t.t.4.y.2.W.1.y.r.P.W.8.8.8.t.j.8.j.9.l.W B ` N # O O p / Y.8.1.r.y.y.t.A.9.L.5.Z V P.z.u.r.r.2.g.k.t.k.9.h.g.4Xt.S.U.8.9.J.g.<Xc.k.4.3.C.2.+Xz.| F i.n.z.6.G.z.4.t.k.k.c.E.b b i.t.-.l.J.<X4.4.A.A.i.-.i.p.n E T.T.M F ( T -.) l.1. .z B } B.p F n 1 7 S 2 & : 8 s % % O . * % 1 k 0.<X>XbXrXeXmXrXrXcXcXmXmXmXmXmXMXMXMXMXMXmXmXmXMXMXmXpXrXrXeXeXcXcXcXrXeXtX=Xz.C 7 % O + o   @   .     . . . .   X       . .       X X     . . . . o : L.$XK.4.D.|.-Xf.9.<X&XxXcXrXcXrXrXpXwX>XC.3.$XuXiXdXi.9 O   @ . o O % S #.C U z.b.f.W Q./ z.~.V $ O 6 r } ^ 6.+XP.U w m n M : o o + X     . .   X X   O   X     . . .         O & 1 S p 9 K D w -.^.n.V % +     +   # 6 u 8 o % I ^.W ! p.r o +   O X X % $ w r 8 1 P ^.E ( +XOXq O % . % # . . * O O : & : % . .     @         . . X X X X   .     .     . $ 5 8.G.^.g F H ^ ^ j 1 ;     . . . O q G.qXeXcXBXBXBXmXaXaXVXrXZX{.'.ZXeXpXaXqXZ.V ^ ~.z j r a S & # O .   . . . . . . .   . . % & 9 F t.5XuXrXeXmXMXMXcXcXmXmXmXmXmXmXBXBXBXBXmXmXmXmXmXmXmXaXMXrXvX4X+.b q n 2 b n E o.F o.n B k p.W R.4XE.-.2.4X'.@X:.U.E.-.*XrX",
"k.E.y.4.i.i.6.6X>X].>XlXJ.j.z.8.y.g.>.ZX:X#XS.8.qX.XS.u.1.1.W.^ C. ./.2.u.r.i.P.4.r.8.P.t.2.P.j.9.l.I ~ %.e . O % 7 n.f.t.4.4.L.t.g.U.j.;.u.! z 8.T.2.4.u.1./.j.t.8.g.d.c.9.4.L.i.2.gXh.6.6.G.U.8././ T.9.8.E } X.} I.>.F.>.T.-.k.9.h.P.r r w.r.-.n.6.Y.2.P.Y.9.9.n.q.j q ! m.d.Z M e./ a.3./ a.Z w E O.H q M r $ $ S q : % : y % O     * $ k 2.1X&XvXxXcXmXiXMXcXcXmXmXmXmXmXMXMXMXMXMXMXMXmXmXmXmXmXmXcXxXvXvXxXrXrXrXdX5Xj.W 2 % O o o o X   . . .       . .                               . . . o : P.6XS.W $X-X8Xd.8.4X:XxXNXrXcXeXeXrXwXtXS. .1XqX0XdXG : .   X   . . o > J X.U v b.T.h p.e.^ (.~ $ ; : & 7 k 6.b.m.T 1 % & ; o o   + X X X X . .     O y X X     . . . . .     . O . 0 0 : & 7 k P.OXm.W % o   . + . e b w $ = : W s.! n o.r o o . . X X % 6 e & : & Z p.M B m.m.4 O + X . & # > y O O . : & # # . @ X X     X   . .   X X +   . O . .   X   6 k Y. X0.k m D Z k 7 % - +     . .   & 8.=XtXmXVXVXBXNXMXMXMXpXnXF.h.7XeXrXaXrX<X^ ^ (./ ^ E H K & . . .   . . . . . . . . . . % > : 6 ! gX*XqXeXrXmXmXcXcXcXmXmXmXmXmXBXVXVXVXMXmXmXmXmXmXiXaXMXrXxXZXJ.3.7 7 j ` N r X.C F q B g E W 4XH.J.;.-.4X[.$X/ ^.E.2.].qX",
"g.9.u.w.4.8.g.v.*X*X&X{.k.j.z.u.A.9.F.ZX{.c.g.K.XXuXS.3.L.z.^ ~.^ u.4.) L.r.r.4.u.^ P.t.y.gX2.9.A.P.W ~ K $ O o O D T.f.l.1.L.-.g.6.l.t.6.l.O.E / z.8.L.2.W.8.g.8.A.A.g.K.>.L.w.L.t.6.h.c.G.6.8.r.4.z.9.u.) n { e F 4.d.f. Xg.j.2Xd.K.L.H r a.y.U ) Y.6.i.-.J.h.6.(.} q E ~.m.z.E b p.W p.^ T.L.} j B ! X.n b 1 7 $ S 1 & % % % % O + @ & 4 ^ OX-X*XbX;X;XNXwXaXmXcXmXmXmXmXMXMXMXMXMXmXMXmXmXmXMXMXmXcXxXxXkXkXxXrXrXyX5Xz.( w % O o   o X X   . . .         .                     . .         .   o 8 U.3Xi.I =XXX5X9.2.<X:X;XNXrXcXxXeXrXrXvXj.4.6X-XXX1Xe = .   X X . . o O 9 H q.R :.~.( Q (.B q.B $ . ; % & w 9.+XP.I $ = ; o o - o @   X   . . O   . & f   X X   . . . . .         . % : % % 1 Z E.c.P.W # X   @   & } e.W w % : ) ;.~ 2 N 7 O   . . X   8 H H 1 % : K H m r 7.^.4 O X + . 7 1 1 : . % & 8 a e $ . . X X     X X . # . X X X   O . . .   X   & Z  X|.^ j i S b j 2 & o +   . . O   % W Y.qXmXVXVXcXNXMXMXMXmXbXv.g.#XeXrXpXtX3X) U ^.n.0.2.q.K & O   o   X     . . . . . . . . y o % p ~.|.qXrXpXmXmXcXcXcXcXmXmXmXmXVXVXVXVXMXmXmXmXmXmXiXaXMXrXeXnX;XG.F 1 q L #.q X.M X.7 j j C V 3X=X Xd./ U.%X6XT V.gXk.v.tX",
"4.2.4./.-.A.9.d.[.vX&X{.c.k.2.y.G.d.v.'.{.'.c.c.yXtX4Xj.d.g./.) ) u.^ L.1.y.W.1.8./.t.8.8.-.z.P.W.) z I K a > . : M 2.hX4.C.U t.Y.9.g.t.k.t.} j 0.9.I./ 8.z.8.k.6.G.Y.Y.>.8Xg.g.j.k._.x.F.;.g.P.| E I.g.z.e.b X.j W n.6.c.b.-.j.K.h.g.~.p b 4.P.V ( -.t.T.;.Y.g.6.( m r U m.+X>.g %.C g W U g.T.b e H Q M.n r e d 6 S $ # % 8 8 . X @ & 2 B g.7XuXrXvXkX;XbXiXaXcXcXmXmXmXmXMXMXmXmXMXMXmXmXmXmXMXMXmXcXxXkXkXkXcXrXrXuXm.^ r % O @ O     X X   . . .   X X                 X X   . . . .   X X X   o 9 Y.=Xi.E &X.X1X9.-.D.>X*XcXrXNXcXxXxXrXbXk.j.7XoX5X8.6 = . . X X   . O o O q ^.^.w r #.H %.j k n i % % ; % r z.+Xa.C & % O O ; O . .     . . . . . # 2 a   X X   . . . . .         . O % # & 7 o.L.2.n.I $     # # r I.Y.T.q.9 9 s.:.K 1 7 1 # # . . o O m V.i.I 6 : N r 7 7 0.n.q % X X # e S < $ a 6 6 & s J 9 .   X X     X   . . .   o   . # # . .   X   % G b._.1.w i s a r A e o o @   . O   % r I.*XaXMXMXcXcXMXMXMXMXrX{.h.F.qXrXeX>X<X) V ~.T.<.<.n.B & o   o X X X X     .       @ . > O % : } z.=XpXpXxXnXCXmXcXcXmXmXmXMXMXMXMXMXMXMXBXmXMXMXaXaXMXrXrXmX;X$Xy.V 1 0 #.n X.M %.7 e L X.Z H.*X.Xb.U r.#XzX^ i.E.$Xx.tX",
"r.z.P./ /.:.;.4X{.v.vXvX$X6.8.-.6.4Xd.$Xc.$X'.'.&X{.g.2.4XY.8.4.L.1.L.U r.4.8.W.-.P.T.8.j.z.-.T.i.V ) p.H 1 O O % r 2.d.l.i.t.t.z.G.8.E.h.I.C w 2.z.-.-.A.6.G.6.9.g.P.y.c.h.+Xt.6.g.'.}.k.j.E.1.n ! -.9.i.W } H B ^ i.g.Y.:.P.4.G.7.j.e.m q 4.P.B V i.U.P.d.;.A.0.O.a 7 T x.h.;.Z X.$.b O.I ,.I.D 6 F p.q.B r 1 $ $ ] $ # 8 s u O   . 1 j 1.|.qXeXeX&X:X>X.XrXaXrXcXmXmXmXmXmXMXmXMXMXmXmXmXmXmXaXMXmXcXnXvXnXcXcXrXuX|.1.g # .     . .     X   . . .   X X X     .   . . .   X     . . .   X X X   O r }.=XC.( 7XXX4Xg./ j.ZXeXeXqXmXNXcXcXrXbXc.D.-X_.hXV ; = . . X X   . O . % 1 U N.K : p 7 r w g o.B.r : ; 6 H n./ n p p q 6 8 s t % % .   . . . . . $ 2 2 . X       .     X X o o   .   . . $ 2 M.+.W e.Z $ .   # $ B 2X'.G.Q.r b N.U r . $ $ # # . . . % } (.T.I.F 7 7 7 & 1 q.P < . @   % t #.w r &.q 1 % 0 a $ . .             . . .   . . $ $ # .     X   & C m.b.(.j u 8 a q M.C : o .   . .   % & Q.-XaXMXMXcXNXVXMXMXmXrX*XF.c.qXpXeX>X4X1.B Q.T.,.>.n.g %       X X X X         X X X O O % % ; 6 5.K.eXqX*XbXBXmXcXcXmXmXMXMXMXMXMXmXmXmXVXVXMXMXaXpXNXcXmXmXeX>X}.I.r 7 2 4 w r $.r 2 7 H E <XZX_.+XI  .H.zX1.n.G.6Xf.=X",
"8.-.j./.z.T.h.h.lX{.vX>XlXD.6.i.C. .Z.Y.r.Z.c.$X3X<XA.y.-.r.) e.4.E./ P.8.8.t.t.j.-.8.j.j.2.t.8.3.5.( p.Z 2 . > % H (.9.w.1.T.g.t.8.T.g.z.T w j Y gXn.8.K.1X;.P.4.e.! E L.z.g.2.G.h.7.6.1...i.e.b | U.7.4.E C o.Z 5.P.z.2.r.T P.g.6.E.a.m j r.W.h k a.1.t.2.A.g.^...u : P h.9.0.I Q X.r M.Z l.^ e i C ~.(.E m $ $ 1 & # # # 9 :   . $ w ^ J.tX*XeXvX:XH.h.v.*XrXrXcXcXmXmXmXmXmXmXmXmXmXmXmXmXmXpXMXBXcXeXrXmXmX0XuX4X4.k $ O X     . . .       . # #   + X   @   . O . 1 7 . o X   . # .     X X   : r =XyXK.t.-XuXg.-.2.K.tXXXrXNXrXmXCXeXeXeXh.f.-X|.a.q ; o . .           O $ 1 6 S { e 7 7 e j x P.n.p.M 6 r O.M.C : a a.^.` p K A 7 # O   . . . O . $ K S #     . .       X           . . . # r !.{ F n j # . @ . 2 ~ T.9.:.4.E g B B 0 . $ #     $ $ . & p.r.9.gXa.V 1 : : 9 i 7 1 # . . . 9 *.4 k *.w 2 : y & $ % . .   @ o     . . . . 1 q H K $ . + X . # $ A n.^.s.n 8 : 6 Z ^.6.p O O         . : F =XiXaXCXNXcXVXMXmXCXeX*X6Xh.AXqX*X,X3X4.n G ~.;.>.5.2 O o o   + X X X       X X X X . . & : % : r a.|..XeX.XCXmXcXNXmXMXVXMXMXpXmXrXrXmXVXVXMXMXpXCXuXtXyXqXyX-X8XZ.L...q q K n !.q r r m ../ 4Xf.T.! ! 3X=X:.A.<Xx.d.>X",
"8.A.P.8.z.6.g.F.&XZX;X{.h.J.g.u.a.w.2.g.E.( D.$XK.9.Z.T r.( 1. .W.8.t.2.8.U.t.2.j.S.t.g.t.8.g.P.+.B ~.s.k q : O % H  .n.w.L.-.A.L.8./ z.z. .r b ~.z.r.T c. Xc.-.(...b j  .1.y.U.g.d.h.2. .p.+.E M p.t.gX^ E O.n B ( ;.:.^ 1.u.P.6.6.8.V.e q i.8.E B.W L.) T 9.6.2.V ; : q.z.-.s.E !.F b F g ) n.n q E ( (.w N i s t 6 > % O % % O # 4 ^ b.=XeXeXxX[.k.g.h.'.*XrXrXcXmXmXmXVXVXVXMXMXMXmXmXmXBXBXBXmXrXrXpXaXiXwXuX}.4.C 1 .   X     . . .       . # . .     . .   O . 1 4 K # * X X . . X   .   X   6 B {.rX:X#X-X7Xg.^ 2.}.tXqXeXcXrXMXVXrXeX;X'._.XX|.( 6 O   . .           . $ & > = 8 2 C %.%.E / 4X5X/.Q r ^ N.} p : p k.|.Q.j z z w #   X       O O & K S # . . . .     X X     o . . . . . $ w H { u 9 1 %   X # q M.(.4.U 4.| n C r % O # . X   . # . & | u.-.n.^.P & y ; : % & # % .   O 6 $.V h I h q : y 6 $ % . . . o .     . . . . < ~ N.' 1   X X . # & D q.s.5.g & % 1 C m.m.C : O     X . . o p |.iXrXNXcXcXMXMXmXNXeX>X6Xd.yXwXrXeX>XS.C M o.U ) M.a O + o                 X X X X . # $ 1 : : 8 C T.'..XbXeXcXNXCXrXpXaXaXVXmXrXNXCXmXmXMXVXMXmXCXuX*X].x._.dX{.@X6XA.E r r g !.n < N { Q w.2.:.I.E } 6X>X;.T.$Xv.d.>X",
"t.:.P.-.-.9. X=XtX_.F.lX3X;.6.U.3.1.F.DXr.W.F.f.F.5X$X4Xr.i.) 8.z.l.9.U.8.j.A.2.z.8.t.9.-.A.z./.Q G 4.~.' < # > % K Q.0.V.^ G.A./ u.t.z./.W q O.p.;.L.T.c.7.9.r.a.E C B  .a.g.h.f.8Xh.A.i.E V.e.W V.a.-.0.| M H g 5.3.P ) 2.u.l.8.2.E.) q 2  .(.V C Q.i.W ^ U I.! 4 8 e ) d.a.I C X.H M r g (.;.B C ^ a.V C i & q S s . . , > O # 2 E P.7XrXeXeX;Xh.g.D.$X:XeXeXcXcXmXmXmXmXmXmXMXMXmXmXmXmXmXmXCXcXrXmXMXaXaXwX5Xu.M & .             . .       . # $ 0 # # 0 %     # 4 P U q > o X     X X . . X . 1 W ].rX>XkXXX5Xr.I 6.$XeXeXeXbXpXaXMXrXeX;X*X.XXX+Xb ; . o     X X     . O . o ; O % e 4.gX/.U / OX|.Y.Q j h.T.n 9 i F F.|.Q.g x h r #   X X X X +   . a 1 . . . .                 . . . # & t g G J = ; o X X   # q %.M.} W 5.} g m 9 . O .   o     X   $ | u.V ( ~.x & f = O 6 & O ,     O : j P B V _ *.0 > & $ # . & . O . .         . 3 M.).V $   o X . . # a b H o.r % O & j f.m.C 6 .     X .   o 8 OXsXrXcXcXmXVXMXmXcXeX>X$Xd.*XpXMXaXwX3XF 9 e q r S 0 o o   O . . . . . .   X X X o . . & 1 6 6 ; 6 } /.qXpXvX>XeXNXcXmXpXrXmXeXeXeXxXeXrXmXMXMXBXNXmXuXv.>.;.4X=X;X;X>XU.V 2 7 &.b 2 q n C e.1.Y I.E  .6X=X:.z.=X].f.8X",
"t.U.8.4.z.g.F.{.].&X:X$X3Xk.U.8. .i.v.{.A.3.F.{.[.5X=XD.1.3.r.E.8.j.6.gX9.-.k.j.z.U.6.;.g.j.;.r.j Q 8.a.k < d O 6 A  .x i.V.;.6.L.) A.9.l.~.m m Q.i.2.G.4XF.6.W.) h G n Z a.8.;.OX>.k.T.w.e.3.Z  .a.( 3.-.P b b 5.a.V.p.V V.r.2.i.i.6.^.w M V.) h Z W 3.!.V L.a.G 7 8 7 5.6.e.W n ~ b D #.j a.T h a.~.^ N.M : : w g 6 # . , O : 1 E L.3XuXpXcXcX&XF.F.7XZXvXxXcXcXmXmXmXmXmXmXmXmXmXmXmXrXcXcXcXxXxXNXmXaXaXiX-Xz.E 6   + X .     X     .       . . t 7 7 1 @.9 O o 1 k s./ n 0   X       X . . X O 2 1..XwX.X{.-X1X4.z 7.=X>XeX=XtXrXaXMXrXxX;XtX-X.Xn.7 O . @           . . . @ o ; O 8 $.T._.gXv ;.4X{.1X| ! b.z.w 6 M ..$X|.( j ) x 2 . o X X X X X     % . . . . .   o .     . . . . . . & s q B M.a o - o o + . # q H D M ~ ..o.b e & 6 9 O   @   X X   $ ( 4.g H N.h 9 0 8 6 ` 2 %   X o o d C U q.V I $.d O $ 1 & % > . O . .         . 4 M.N.V 1 O o X   . O % & p { p O o % 2 R n.n $ .   X X .     & z.uXyXbXnXmXVXMXNXcXrXeX$Xd.].rXaXaXiX5XQ 8 % % % % ; o O   O # # # # . .   X X X o . . # $ 6 0 ; % e V.|.qX=X=X&XrXrXrXrXqXrX*X>X&X{.&XeXrXaXaXcXeXmXuX X;.P u.<X7X*X*X5X9.r 1 e 7 a e G B |  .Y ~.W 4.5X&X:.8.=X*Xh.8X",
"u.r.l.9.k.K.>.F.$Xv.f.lX[.j.t.u.W 1.'.[.y. .g.$X[.'.F.-. .! w.r.z./ U.2.t.j.-.U.S.l.2.j.A.2.A.) n C u.T B $ % % 6 ~ 5.I.W ( P.j.1.SX8.k.2. .H i } a.P.6.g.6.8./.( j Q C n O.( ^ 9.9.8.2.w.a.| n G E  .U n.P n B T.m.^.h X.F 3.1.^ L.9.i.b r e.1.I V E ! Z G ) a.o.7 6 N p.I G ~ g Q.G n e M N.h V ~.1.e.} H & J A k $ % * > % 7 E l.8XtXeXmXmXcX;X&X&XtXeXcXBXnXBXBXBXmXmXmXmXmXmXmXmXrXrXrXrXcX;XxXcXrXiXuX].d.Z 7 . X X X . . X X     . .       . t 2 w n %.e : % 1 ~ n.n.A y   o O O     O .   . 2 i.$XqX].].yX1X .z h.-X=X$X[.>XpXaXmXcXcX;X>X:X}.2.1 . .             . O O % O O % a M.+X|.T.x 1.T.].|.1.! a.) q 1 M e.=X|.B j N.P 1 O X X X     X X   O . . . . . O O O O . . % # . . . % 0 1 W o.8 o o - o o : 6 r e 9 p H Q M.H 6 6 E o.9 O O     X   # I 1.e D N.z 9 8 Q / I.U 2 .   + o s o.I q.k B A 0 O 2 N 9 % % . . .           . < ~ M._ e % o X X + @ . O % p e .   @ # h M.b & .       . .   & ) }.tXcXxXrXMXMXMXcXmXrX=Xh.c.tXpXiXiX.X+.8 : % : % 8 : ; O . . . . . . .         . . . . . & 6 O O : n 8.5Xh.F.&XxXeXqX*X*XtX:X[.#X$X=X>XrXpXpXrXeXrX*X.Xd.x Z 3.E.7X.X.X4Xe.r 7 e & t %.Z |  .Y ~.U r.6X=X8.6.oX*Xd.3X",
"u.4.l.U.G.h.4XJ.H.g.f.F.c.t.r.3.i.4.8X'.Y y.k.6Xc.6XK.j. .3.| ^ 2.A.t.t.U.2.l.8.8.8.t.8.W.z.r.L.! Q.8.Y ` 7 O % 1 C L./ 1.3.8.8.r.1.U.z.-.a.H 6 M W 8.g.2.r.4.4.E G p.~ n o.G z 1.I.u.1.r.1.( p.| ! e.4./ ~.k I f.x.6.( i e a.4.a.^ i.P b r (.T W ` ..V.n n ( Q.` 1 9 { o.B M e W  .C M q r !.Z I ! W q.j b u 9 g ` 6 % O & 7 B P.$XtXcXmXmXmXcXcXeXqXwXrXmXVXBXmXmXmXmXmXmXmXmXmXmXmXcXcXcXcXcXnXnXrXqXtX=Xt.I 7 .   X X   . .   X     . .   o o @ # 2 w o.` 2 e 7 r o.n./ b a o   % & O   . O   % w a.|..X&X*XyX|.| V F.XX$Xk.k.=XpXMXmXcXcXxX:X1XT.W 7 O @ X o   . . . .   O 1 e 8 i n W 7.c.~.x | V. X8X3.C G w 1 1 w  .|.1XC b ~.U 7 . X X . .       o o o X     O O . # # # # # # . . . O O 7 o.g 1 . . % & $ 2 q m 7 6 i F C o.H 7 G a.~.H & O .   X X # k M.6 6 %.n 8 m n._.9Xz.4 & .   o 8 o.I Z B o.H ; O N K 9 . . O # .       X X   & 2 V Z q # O X X X   O O O $ $ .   o . $ S 9 # O         .   & B G.dXcXvXcXMXMXVXmXMXrX;Xc.g.3XeXiXiX].e.7 1 6 1 1 m q $ # O     . . .         O O .       . & O d : 6 G L.F.x.{.eXeXeX*X-X:XF.j.R.4X#X{.eXNXpXmXrXeX*XXXF.^ j j | OXuXqX-XU.e.r 7 . # ` E E 5.R n.I e.lX=XU.6.-XtX9.<X",
"4.4.r.2.8.g.>.F.#Xh.#XH.J.t.y.2.j.A.[.5XSX6.F.=Xx.3XG.4.1.w.V.e.4.t.E.j.t.l.8.r.L.1.W.r.4.L.2.3.V.V.R (.A # ; % p ..0.2.4.u.^.-.2.6.U.6.U.a.H 9 H Z 6.G.) a.u.i.I _ a.I w X.F g 5.4.^ E.k.:.I.W i.(...W ^.8.j V 7.b.i.~ H e a.n.U ~.1.e.b w ^./ B w B p.E g E E 1 6 & b p.( i i V a.F 7 D H %.B w ` C G ~ e & $ 5 L $ 0 # < V n.5XqXrXmXBXBXmXmXpXwXiXaXMXVXVXmXmXcXcXcXmXmXmXmXmXmXmXmXmXcXcXcXBXcXrXtX5Xl.E q O   o o   . O O .     . . .   X X + # 2 k B.n 4 H b C ! ).h q 0 O . 2 q > +   o   $ w p.<X{.kXeXuX'.E E =X.X<X1.8.$XrXmXcXeXcXeX{.4Xa.B 7 . o X   . . . . O @ % z q.N K ! U U I ~ w C W 9.U.Q 6 & $ 4 n 7 B Y.E.G p ~.I 7 O o   # $ # . .     X X     O . # & i 9 7 1 $ . .     o : K 3 1 < g B Z V U E M 1 1 p ~ C m p B I.b. Xs.r & O . .   . 1 @.& % a 9 : ~ 1XuXoXT.q ; . . o : ~ ..C G o.r % 8 ` A 1 .   @ # #   X X X X   ; % 2 n r $ .   X X . # O & r 1 . . @   . % 6 # .           O & g L.dXcXbXnXMXVXVXMXMXaXrX{.t.E.:XvXwXoXe.w 5 A j j ~ Z 3 & + X X X           . . O .   X X   . . ] % : p Q SX_.v.&X>XtXtX=XF.9.2.t.S.K.[.&XeXrXpXrXrXeX*X@Xj.Z 7 e ) OXyXqX@XzXW 4 : . b Q C } U s.C 5.3X[.5X>.XX>X6.E.",
"r.r.4.P.-.Y.K.F.3XF.#X4Xt.r.1.4.A.g.x.=XF.[.7X-Xv.3Xj.-.4.u.V. .L.2.U.2.4.) l.r.i.I.1.u.4.w.i.W  .u.z.) q . O . m ..0.;.i.4.1.L.8.G.z.2.6.i.} 9 p G I.6. .( i. .(  .s.e.Q o.G Z  .a.l.-.h.G.) I.4.^ ! ..^.n.G C P.>.i.n M r ..( 1.n.3...4 B ~.T C 4 G !.~ B E ( b 7 & L 5.U i 8 W p.b { e H Z w n F r X.%.7 & 1 2 #.# & 7 E n.|.0XpXmXcXcXcXcXcXmXpXaXMXMXMXVXVXBXnXnXcXcXmXmXmXmXmXmXmXmXcXcXcXeX*X*X8XU.! e :   o o X . . . . .   . . . . .   o   % 2 W M.r 9 #.F g ( a.I q 8 O % 4 b y o   + @ # 4 0.4X@XkX{.tXv.W 1.ZXXX3X) 6.{.mXmXxX;XcXrXv.J...q $ #   X   . . . % & : 7 x N.r F n.E.P.( Z j M C  .I.O.p O % B M.b w I.P.M p Q.z 1 % O . $ $ # . .     + X   O * % % p X.M.o.G q 1 # . O ; : w j 3 n s.0.I.T.T.~.D 8 1 b ~ ~ 7 q I T.f.G.~.k < # . .       y % # . % : M 1X0X0XOXr O O . o : 2 n b M C 2 : u ` g $ O +   . O X X X X X   . % b X.#.e # O X X @ . & K M.B $ . @ . % % a 8 .   X X     . # 7 a.>XrXbXcXMXMXVXMXMXaXcX&Xt.E.$XvXXXdXa.I P N.p...a.p.w $   + X X     X     . . . . o X X X   % 6 % % : m /.}.c.{.@X=X=X[.c.2.) I E i.U.F.].wXqXrXrXcXeX,X3X1.b r z -.5XbX;X$X/.o.1 & 6 p O.! x ^ k | J.v.8X>..X&X:.R.",
"3.l.G.G.D.g.t.Z.k.>.h.J.g.y.L.3.L.2.h.5XH.[.'.'.f.[.t.4.1.3.3.~.8.8.U.2.^ 4.i.-.V. .i.r.V.( ( e.i.u.-.5.e *   & q ..u.;.U.6.4.T Y.G.j.u.6.0.} e D q I ~.^ a.a.h z ( ~. .e.e.(.r.1.2.j.z.8.2.L.) w.( U r.P.) E V.-.9.4.W w b r n e.3.p.Q w Z e.U ' n D m 6 r 2.I.Z K & w n.t.F i C C r e m B.Z n ! n M &.9 6 $ 7 1 ] 6 7 O.P.&XrXiXpXrXxXxXvXnXcXeXeXnXcXAXcXVXBXnXxXnXkXeXbXrXrXaXaXmXmXrXeXeXrX*XdX8XL.E q % O   X                   . . . . . . O % 2 ^ N.7 = u 6 1.^.2.k N % O . 2 #.> o o o + % w i.OX8X{.7X[.h.:.Y.-XuXlXg.'.wXMXrXbX;XrXrX0X1XG % % . .     . . . 6 1 C E z M.e Z G.].5X8XY.3.9 D O...I.N.8 a 0.^.C p ..Q.C X.$.g : % # # $ # O   .     +   ; 0 > O % n ~.F.5XY.V.! F p i e C p.I B p.2X|.1X8XoXG.D ; 9 q r %.%.Q 2.d.:.a.N.g < $ .   X X X X @ *   o = M }.0X0XoXG : . O . . . 7 7 N p 9 : J X.w O + +   X X X         . % $ n $.B.L $ . # . @ ; 9 ..U./.O.$ & > 2 A J ; o o     . .     % G {.mXnXBXVXMXMXpXcXyXeXtXh.:X&XZXtX].T.P Y ^.| ( 2.s.g 1 O X . . . . X X . . . . .       o   % . O O O 6 C (.T.k.G.7.8X7Xd.4XP.E i p +.P._.0XpXmXmXcXeXxX;X$XU.3.^ U ) 4.'..X8XE.) g 8 & n N.x U g E OX[.3X2.D.5Xf.-X",
"4.8.Z.D.g.g.Z.E.E.g.F.3XG.S.C. .C.8.f.5X6.F.[.kX*X'.D.-.y.n.i.) ) E.j.T.3.4.l.-.^ ) 4.1.a.! W 5.u.i.2.x 6   @ O g (.u.j.9.6.8.8.h.g.l.^ t.r.Q p X.q o.) ;.u.Q.C | C.1.i.L.l./ j.U.g.t.t.-.1.8.I.3.w.i.t.y.) E ! ^.-.) 5.E !.e r p.1.| C M M.p.P ( k H D m w 8.2.B K $ 2 t.K.+.D G A e b F M.C Z p.| j N 6 # & 0 $ e q ! U.=XNXVXaXpXrXeXvXvXnXcXcXcXcXxXcXcXmXmXcXnX;XF.'.vXbXbXpXaXaXaXmXmXeX*X-X}.u.( r & O     X                   . . % . O . % : w / -.& o 8 r 9.+X0.B e : O # b K ; = O = o O j I.OXx.f.{.<Xd.6.<X>XvXZX&XcXMXMXcXZX@X*X].0XK.b O O O O . . .   . 1 H Z I g !.n z OXuX_.].{.T.D i m C 1./ 7 H z.2XG p } ( g B ` r > O # $ $ . X X O     . % t S 6 O % n E.oXwX7Xj.) | E Q o._  .) j | <XF.H.6XqX XH : G Z w F b C 0.2.x _ o.3 $ # .   X X X X # # . = = m Y.qX0X].G % =     .   O : 9 % : 6 X...B 8 o o o X X         X   O $ q n L a : % # . O ; M C.$X}...7 # 6 j ~ a ; o o X   . .     O m 3XcXCXBXVXMXMXiXbXtXeXeXv.'.tXuXtX{.I.W P u. .e.2.s.I 2 .   . . . . X X   .     . .   + @ . % . O o O % q W I.8.k.:.7.F.}.gX8.Q i 8 M 0.b._.eXeXcXcXxXnXBXcX@XD.2XP.| x 7.dX'.6X'./ e : w ~ I !.w Z 2X'.SX1.D.6X].-X",
";.9.k.Z.<XG.9.K.J.c.|.|.h.6.3.3.;.K.x.].1XF.lX=XqXNXx.c.gXy.) 1.4.I.i.T P.y.8.z.8.n.8.) 3.C B ..w.L.z.-.$   X O Z 4.8.E.t.8.T P.9.6.u.L.8./.! r X.H C  .7.>.M.b a.l.r.2.8.t.z.U.;.j.l.t.8.W.8.i.) 4.U.P.i.I ! Q. .U 2.^ h Q !.w p.n.) I M H 5.x Y ( q } | ( / 1.B K & 2 6.Y.V.} G n e F | p.g j M.W z n 7 : > > & w T }.yXwXVXmXmXmXcXcXcXcXcXmXmXMXaXMXMXVXMXMXMXMXrX_.v.:X6X$X>XbXmXaXmXmXcX;X6Xu.W g 6 % .                     . . . $ d + + o , 0 n -.I 9 : %.^ :.z.) ' : O O 7 s.^ 1 : 7 J ; : g I.}.>.f.5X3X6.9.1X=X*X&XvXrXwXrXvXzXK.F.d.|.6.7 o O       . . + o 1 !.~ C _ _ ^ a.U.1X&X-X'.gXQ 9 : 6 j h  .~.T.I.b 9 ( ^ w 4 q $ O   . . . . X X @ . . # q B L 1 O ; k Y.uXqX#X/ U 1.-.2.V B k !.C } V.) 2.J.0X=XG b ~.P./ B q M N.E w K N $ # # . . X   . 7 4 3 & ; ; D a.G.v.T.n % ,   . %     : ; o ; q a.m.d...2 & O . . . . .   X X +   . % % O o   . . % : Q E.|.J.I w $ 7 k H 7 ; o o     . .     O 9 4XeXcXmXMXMXMXaXNXeXrXeX{.x.yX0XqX|.Q.G B e. .V.3.5.5.C & .         X X         . . o @ @   . % . O ; & q h ) gX>. Xt.1.;.G.1.! m p e B 4.g.6XvXCXmX&X*XmXcX'.c.#X4XD.;.t.E.3XZXNX|.| e $ 1 2 ` p g z.2XP.1.}.'.c.f.",
"K.8.k.G.F.}.k.g.4Xc.v.{.}.h.8.r.U.>.'.-X8Xh.$X>XXXqX:Xh.;.U.4.4.4.L.) r.j.g.z.9.g.z.2.1.1.I W p.3.r.z.s.1 o X O w 4.l.8.E.^ L.2.k.k.t./ g.g.W F M q C  .f.c.C F 1.U.g.t.-.A.9.6.k.6.S.2./.r.r.2.r.n.9.6.(.E j (.p.( 8.-.x ! Z V 1.-.I.W q { ( / z.-.C p.L.y.i.( B $.a 3 Y P.~.G b e p M e.e.h g o.c _ ~ 1 d > % r (  XyXiXiXVXrXcXcXmXmXmXmXmXmXpXMXaXMXaXMXpXpXCXXX.X=XD.2.2.#X,XxXmXpXrXrXvX3XP.! g 7 & O   o                   . O $ w [ @ + o O a k _ V 7 e (.>.7.T.x ! 8 O % b ).T 2 1 r X.8 8 g u.1Xf.'.8X<X;.9.6X%X'.'.;XrXrXcXZXU.S.H.>.U.I %       +   # . + o q B.K n (.x U ~. . .U.4X$X4XW p : : w V n.T.7.0.b b l.^.n r t #   + @ .     X X . . $ $ n B N $ O : j T.oX*X4Xr.L.T.P.~.Q.$.r X.7 e } G | I.5X Xg q P.b.T.) p D *.b r @.6 . . . . O   . & ` ( x r 6 : J } ( ;.~.r . X X . %     ; > > ; w n.+X XT.P 1 . . . # . .   X X + o   O O O o o   X O : Q I.G.T.g q $ t q p : ; O o     . .     o 7 L.7XeXrXMXMXaXaXpXeXrXuX:X7.qXyX0X].Q.G b o.e.4.V.U 2.~.2 # X X     X X         O O   o   . . > O O > 9 n h h ) OXG.r.4.k.7.U. .j p p M e.8.k.'.cXCXeXxXnX;X'.'.*X-XXX'.r.) #X.XiXyXn.E e 1 6 S a q ) T.L.i.1X1Xk.8.",
"r.t.g.f.|. X6.g.c.x.'.lX1Xg.g.Y.T L.d.=X6Xd.@XZX=X6X8.-.L.^ 1.n.8.P.2.2.t.6.) r.9.8.4.4.1.1.5.e.i.) 9.P 6   + O g i.j.A./ u.2.P.P.t.8.t.9.6.i.C e 7 O.) v.b.w b I.6.t.Y.9.D.G.>.k.k.:.A.2.P.y.u.u.-.b.z. .G G Q Q.W n.T.) e.) U -.-.z. .e { a.>.f.h.1.w.hXOX1.p. .o.k w Z ..e.C 6 8 D r +. .T / ' g B.q 9 % : 9 ( G.uXiXaXMXVXMXmXcXmXMXMXMXmXmXpXMXMXMXiXiXqX&Xx.1XgX1.E w.R.:XeXrXrXeX>X3XR.u.E r 1 & ; o         . . .       o o O 7 ^ M.: o % 2 ' P 5.P 2 M I.6.d.+XR p.i % b o.M.B g h I Z 1 p z z.8X'.-X$X#X6.g.8X$Xx.[.;XNXNXbX@X4.r.K.6.a.j O +         . . + O b H K r Q.^ r p e i b +.gXk.U Q a 8 k -.m.z.^ W k U  X+XB a s %   X o     X X X . $ r 2 N b b $ O : h G..X7XP.a.I.2.a.N.w 2 $ 8 : 8 9 e o.Q.T.n.p r ~.d.+X0.p a @.e i @.o   @ . . O   % r V.T.z.p.M 6 D D j _ ' 1 . X X . .   + O d J 7 q } n.>.m.;.7 % . . # . .   X X + o   . # & & O X X o % ~ a.2.a.4 1 $ s # 8 : ; O o     . .     . 7 ( zX*XrXVXrXpXrXrXrXrX>XzX1.c.ZX0XoXY.E e } y.g.W 4.m.>.W 1   X   .     . .   O * O     . O & y O O > a ~ G 8 6 V n.I.-.b.f.8XK.( M e M u.K.F.'.&X>XeXnXZX{.:XkXyXwXiXuXj.U #X.XpXrX|.z.1.g ; > = : g U 4.v -.P.e.p.",
"r.t.J.8X1X1X<XD.[.f.f.{.5XF.h.Z. .) }.:XF.F.:X&X{.[.E.8.4.u.2.-.2X;.U.6.6.t.r.4.y.8.a.1./ 8.u.-.L.t.z.x $ @ @ # E i.2.A.l./ i.l.1.S.6.E.U.z.8.E 7 K p.8.x.m.n n L.g.g.;.2Xg.h.Y.9.k.j.8.r.8.W.4.-.l.K.t. .E M p.Z 3.z.g.L.4.u.8.g.:.(.! 7 $.4.d.x.x.9.P.7.D.t.I.I.1.k n H ~ 5.E & u #.r ~ Z T q.g #.j e & 9 7 | Y.-XqXiXCXMXMXVXBXcXmXMXMXMXmXmXmXMXMXaXwXrX>X4XSXV.| B Z 4.D.;XrXrXqX>X4XL.| M 7 $ % : * @       . . . .       o o ; r 0.s.: o 6 n N.^ 0.U 5 Q u.g.>.c.g.~.e 7 V ).O.g V U o.B q H W A.:X*XtX:XH.9.h.6X$Xc.;XcXqXyXeX{.1.r.J.8.q.e O + . .     . . o ; X.k H C a.a.e 8 { } i G I.-.) p.K 7 W i.2.q.C r g 4. Xm.~ 1 & . @         X X   # 1 L w p a a 6 O % B n.hXOXW ! 4.v P V 2 & O O ; ; O : 6 g B B 8 a o.T m.0.e : s 8 e i o X X     . . & G U.OXK.(.G q p s 9 $.w $ . @   . .   +   0 #.g 2 q E P f.n.e O . . . . . .     o + O # $ r N 1 X X   : ~ o.C H 7 . . y . d K e & O     . .     . 6 n gX*XrXBXrXrXrXrXrXwX;X4X3.) <XXX0X5X2.j Q g.c.E.-.>.T.q.q   X . . . . . .   @ * O .   O . % 6 % . : a ' %.: u q C W /.6.v.=X|.P.e.G n ^ t.J.6XlX:XqXqX;X:X:X;XqXrXwXbX#Xj.$X{.*XuX-X|.F.4.i ; = d b ..a.Y v 8.I G ",
"9.K.9.8.k.k.J.J.J.F..XqXXX].K.S.SXk.F..X6X6.'.;X_.tXF.<XY.t./ 9.G.2X6.Y.2XE.L.w.i.2.a.( 2.g.g.g.t.P.^.( $ , . 6 G i.y.8.t.A.u.) 4.1.k.g.8.2.E.^ 7 m a.9.d.^.k o.4.g.g.G.9.9.6.9.Y.k.t.t.l.2.1.4.n.6.7.g.3...C ..~./ 9.Y.2.T.2.z.7.g...M p } P.v..X-X2Xr.A.6.j.S.9.s.H 9 9 X.~.^ 7 a X.j F n V o.2 t y % N r r.c.ZX>X*XxXCXmXpXMXBXBXMXMXMXMXmXmXcXrXrXqX>X6X<XL.} m g z 1.<X7XeXpXrXqXoXu.Q 8 O % % * * @ +     . . . . .       o o ; p a.( ; o 9 Q p.U 0.1.I 3.1.G.c.D.r...b E ,.m.~ r U ^ ` r G ..) G.&XrXtXlXH.9.[.=X$X@XcXmX*XuXrXvXF.#X7XG.~ 6 O   . % O .     O 6 M.z G ( b.n.m D L.Y.3.w.i.P u.(.X.n a.5.k p 6 1 g N.OXn.` # # . O . . . . X X X $ 2 ` w e a r 9 O ; A ( i.4.B ..I.2.P B & .         o O & 1 1 $ ; d N c 6.a.i ; 8 7 w 2 o X X     . . 1 | K.F.c.I.C r p a e ` g 6 . @ .           & q.^ 2 & 8 r s.a.a . X X   . . .       . % $ 4 [ B.L $ . % & m A 1 & O     * % D a.^ 2 #     . .     O & r I.=XwXrXcXrXcXrXNXqX;XE.y.Z 4.|.uXoXK.C G 2Xh.j.z.b.9._ K O   . # # # . .   O * . .   O O # # % # & q Z M.K 9 q q 9 M ^.K.1X_.v.F.OX4.r b ( A.E.<XyXpXqXyX*XuXbXbX]..X@XzXG.r.t.'.*X*X&X4Xu.G 9 8 e M.^.h.7.A. .Z ",
"j.U.8.9.j.k.Y.9.D.F.-XyXyXdXD.-.9.h.7X-Xd.[.%X{.XX*X{.x.J.k.t.t.G.G.9.6.k.g.z.t.y./ n.1.l.9.:.k.9.8.n.h 6 . O 7 C i.u.4.g.g.W.1.4.r.G.A.1.P.Y.-.7 K i.d.~.V B ( L.2.j.A.k.g.Y.k.9.k.g.t.E.gX2.2.) Y -.n.) e.G ! a.t.g.h.6.U.U.t.h.^.G q Z 3.n.x.f._.h.G.G.g.G.8.6./ n p 6 r p.a.C H G w b M M *.t . O 8 q 3.$XqX;X&XvXbXrXmXBXBXmXBXVXMXMXmXmXmXrXeXuX.X6XJ.S. .G Z  .L.<X:X&XuXqXuX5XG.W 1 o + @ @ O . @ X . . . . . .         o O : b ~.I ; = G V.3.T U.Y.k.Y.1.A.<X4Xi. .| 1.|.OXE M p.p.D 7 ~ ) ) <XtXCX&X>XH.d.7X>X:XvXrXrXvX>XqXNX&X>XdXOXC : O   . % . . O . O 6 M.x z U m.T.r q t.-X}.E. .h z.P.E n q.w 7 % O % p M.-.^ q # : . . . . . . .   O % 7 K q 7 i 7 7 : 9 H k Z ! G q.n.2.z K &     ,   o -   & # : O O u e g T N.a ; : q z g O o o       . 1  .E.<XT.~.B g D a e z W e % . O   +     + % _ s.Z 6 O 6 q.q.J = o X X   . . .   @   O # 1 L ` j 1 & 0 & 1 9 .     o   . ; H T.h.4 # .   . .     O # 9 p.<XXX*XNXrXpXrXBX*X>X#XW.Q E 2X|._.9XV n A.<Xr.1.n.s.B.r O   . . # #       . O . . . O . # # : % % 1 g o.b #.o.r 9 6 Z ^ 8.K.9X_.9XG.C M 4.j.1.-.F.&X{.>XCXrX.X;X*XAXeX[.zXR.D.F.*XrXeX].6XgXn r q Z N.;.R y.^.1.",
"( r.2X8X>.D.j.t.k.h.'.'.[.{.x.v.9.c.7X{.6XD.:X;XeXeX>X7.9.k.g.P.-.t.2Xg.g.Y.7.Y.z.l.l.8.-.u.P.-.A.l.) Z # . # 1 B I./ j.gX9.z.1.W.S.U.8.a.8.g.-.q M n.;.Q.g W L.1.u.1.2.U.t.9.k.Y.9./ gX9.-.E.4.i.) 1./ P.U n ..z.K.7.k.OXk.2.W.) V w C u.z.2.l.g.>.8Xd.D.k.y.L.^./ E H i 9 e C 2.0.G 7 p a &.9 & & & r 1.1XyXqXeXxXxXnXVXmXcXcXVXmXmXVXmXmXmXmXrXeX>X:Xg.T ^ t.J.1XlX8X[..XqX].dXc./ k 2 % .   @ , , @   . . . . . . .         % 8 a H ~.U 6 7 i.<XY.K.ZX*XeX&XE.W.3XJ.-.y.G.f. Xd.V (.Z Q p p Q.Y 8.1XyXwXbX>Xc.h.&XZX,X;XcXeX%X[.*XrXrXrXqXb.q %     . . . . & . . u B.x ..( Y s.} k 7.=X-X<XC E OX+Xs.j i : O O O o O % q q 1 . % O . . . . . . @   O y 1 m 1 @.1 e S 6 o.h V G M.B 8.0.~ 1 # .     X X X   # . O . % e K h x O.i : e B n.a.6         o O & } I.i.Y 1.I j e D b 2.~.H 1 % O       .   . j 5.N.M.9 7 M._ 7 % + X X   . . . .         . # $ $ # . O O # # . . & & O o ; F OXb.B #     . .     . . 8 j g.:XeXrXMXaXaXmXbX>X;X:XL.C Z P.dX X1.Z ( W.I.Z C m 7 %       . . . X X   . . O . . . . # & : J 0 7 k !.M $.p.U ! H e 6 b a.T.>.d.K.L.L.=Xf.k.L.B B C.4XuX0X*XbXrXrXcXcX*X*XrXeXNXeXmXrX&X$XgXu.M 6 7 A p.( 3.^.",
"e.4.j.J.6.G.j.8.k.h.f.{.{.v.{.[.g.k.{.7X,.H.[.ZXbXZX[.D.OXg.g.8.r.u.t.k.6.OXx.v.g.2.;.z.2.4.t.P.A.P.n.B # @ % < q.8.8.S.S.E./ U.-.S.8.i.4.-.z.2.C F n.n.o.q ) g.i.w.u.) t.j.2.U.6.U.k.;.8.g.-.2.I.p.i.-.P./ n ! 2X>.G.g.K.7.-.L.Q.j 7 M.>.v.8.4.W.G.c.$Xd.D.) 4.i.1.4...9 ; : 2 6.z.B q 1 9 u : & 7 B 3.K.-XeXrX*XeXxXcXmXMXmXmXMXMXmXcXNXNXmXmXmXeX*X@Xk.2.9.[.*XrXXX.XZXZX|.4X9.( g 1 # . .   X @ * .   . . . . . . .         0 s N Z N.U r C }.dX6X$XAXmXVXnXZ.2.c.F.6.c.{..X1X9.P (.G } C Z Q.P 6.=XpXwXeX@Xg.v.*XtXeXeXrXxXZ.t.&XrXpXwXXXh.7 O   X . . O . # & o % F _ V N.I h n W 9.].>X<Xn Q 6.z.n.g 8 = O = = O 8 a e 1 & O = O . . . . . .   @ O > 8 e 7 K 6 6 J 2 N.x V q.G ! / s.b 6 . .         X   . . @   % 6 N j c M 8 : G 1.K.z.r % .       @ # m p.e.U -.I q 9 D h f.+XQ.7 : O       .   . 7 Z _ o.N a ` n & ; o X X   . . # . * @ X X X   . . . .     @ O O # 1 1 ; O ; m b._.Z &     . .     . . % 7 ^ <X=XrXBXMXMXMXeXeXrXeX#X) n Z 7. Xn.E ! e.e.n i ; O O         . . X X   . O O . . . O # $ O f 8 1 g o.n B ).x P o.; : 7 w e.P.7.h.A.6.'.x.k.L.e.F n 1.tXwXeXvXrXrXrXpXpXmXrXBXeXNXrXmXrX.XqX5Xe.C 9 i M.| i.u.",
"t.4.t.1./.t.2.2.j.c.v.*X-X>X6Xt.4.L.7.{.h.:X:X@X=XF.Z.r.S.A.g.j.r.8.k.:.g.G.7.d.l.4.t.z.1.1.8.k.8.4.n.z % @ . 7 s.j.j.t.S.U.9.Y.9.A.^ a./ E.8.4.o.k T ~.M M I.b.4.w.i.8.r.8.j.A.;.A.g.j.z.9.A.l.1.i. .i.g.n.C ..OX5X6.A.d.J.S.3.N.q 9 K l.h.k.6.A.U.) r.g.<XK.t./ T 9.5.e ; f 6 -.0.j 7 ~ 4 : ; q I d.=XtXqXeXcXmXMXMXMXmXMXMXMXMXMXcXeXcXcXmXaXMXpXyXZX=X{.&XNXrXrXpXyX-X}.a.o.r 6 # . . . . . . O O . . . . . . . .           : 6 7 b N.E w W -XrX:X%XcXrXBXxXH.;.c.-X].uXwXZX}.6.T W.W ..2.u.~.P 6.=XmXrX>X{.9.@XtXqXbXcXeXkX3.1.:XrXaXwX.X8.1   X X X     . # %   o 7 M.P 4.} h T T.gX2X4XU.j K H ^ T.T q : = > ; 9 o.N.H 7 9 : O +       . . . . y O O : 8 7 J ; : s r N.T U N.Z E ..G 6 % O .     . .       . @   o % e j w 7 : : ..T. XP.C : O         O : D o.P / Z $ : r P v. X^.q % o       . O . & q j j q e p 7 O o       . . . # # > * X X X X     O .   X X + . # < 1 ; o = p m. XH &     . O     . . . $ g P.=XtX&X;XMXMXrXrXaXpXbXH.3.W 7.5XE.( Z O.p.g ; o o           . . X X     . . . . O . # # . 0 : 7 g _ C V ~.P V !.& 8 w j e C T.OX9.G.8.9.k.t.^.C.P 2.&XtX>X,XeXcXmXaXaXNX;XvX;XcX;XeXBX0XiXsX-Xz.Z r } E a.1.",
"U.8.-.l.1.8.r.A.S.k.7X-X*XZX#Xt.r.r.6X[.$X}.c.'.vX[.<X8.9.k.9.g.y.S.g.Y.9.g.OX6.1. .l.4.8.2.G.G.r.r.n.Z &   . 7 1.b.6.8.y.4.D.h.<X8.C.U E.j.i.I } h U (.7 r n.G.2.i.i.u.t.2.U.g.Y.;.G.2XA.9.A.P.) 3.i.4.G.4.C E c.'.T.9.c.h.8.(.! q : m 0.OXg.8.j.y.( ( U.D.<X9.4.P j.e.e % > 1 -.a.q 2 %.4 8 : E h.-XrXrXcXbXcXVXVXVXVXMXMXMXMXMXMXcXeXeXeXqXpXpXrXrXyXtX*XqXrXNXeXuX&Xg.4.Q 6 O       . . . . . O O . . . O . .             . & 7 q k p.I g 1.uXrX>XkXcXmXBXxX@Xd.'.tXwXrXqX.XH.t.6.E.) r.D.gXV.P 9.-XmXrX;X[.9.$XtXqXpXNX;XH.( w.7XNXaXqXOXW $   X X X X   . # .   @ : K q.^ H C ( n.(.a.( E q e J w z.^.k 7 9 J a r 9.T...M { s O   +   X   . % . y = O : p w #.O , > p _ ^ C ~ C C M.b 0 O . . X   . . . .   X o   o o 6 e S 7 u 9 ( ^.f.n.C 6 . .         O 9 ~ V I A % ; n i.|.1Xa.g % o   .     . . # % 6 & 6 6 6 : O O . . . . . . # # & %     X X     O . X X o   & r g n i ; ; p z.T.A % .   . O       . . # 7 ..6X>Xj.H.pXMXmXNXMXaXmXtX<XJ.[.:X[.2.C O.~.C % o +   . .   . . . X X     . .     O O . . O * : e n _ B W s.) h B.1 e !.g 6 i Z i.E.l.2.8.z.9.k.gXP.9.h.:XkX=XxXcXMXMXMXrXvX,XxX*X;XeXmXiXaXiXuX8Xr.V w j N.W ",
"u.u.8.U.g.9.8.E.J.d.{.7X{.'.F.[.K.h.'.ZXc.j.lX'.rXbX*X[.[.h.G.9.j.A.Z.g.j.A.t.I. .I 3.4.L.6.c.OX-.P.i.B . + O 2 i.h.6.U.r.y.9.F.g.A.1.L.j.9.1.z G k U (.q n 6.9.A.4.P.8.8.g.j.G.k.g.9.9.G.t.t.j.1.8.u.r.z.) b G j.7.z.T OXd.t.i.! q 8 m 8.b.g.2.l.2.! V.G.g.6.u.p.I P. .7 % # 4 2.(.n 2 r 1 & m A.*XyXrXrXBXBXmXMXMXMXMXMXMXMXMXMXMXrXrX;X&X*XrXeXrXeXqXqXqXwXqX=X#Xt. ...H 7 % .   X X X   . . . . . . .   .               . & B 5.p.^ ( B n C.>XqXeXbXmXMXmXeXZX>X7X>X-X>XZX@X=X@X[.=Xf.[.|.2X..z d.*XrXqX=XD.t.#X*XqXwXrX&X2.W S.:XrXrXoX^.r %   X X X X           + o : M._ p 9 r F H m e 9 7 & a 4 ) (.G j ( a.~ j 6.+XP.n.o.K : o * o X   . % $ & : a 7 X.P B.; o O 6 q A a i p F ~ A %       X X . . . . X X X   + - : 7 N 7 u i I u.^ N.b & O .         o ; n k n S O : ( E.U.n.s.g % @ . O .     . # # o   > ; & & & u 1 # . . . . . # # # . .   . . .   X @     & A p.;.n.!.p : p 5.N.w . O o   .   X . . . # : b 4X:Xr.Z.eXMXmXMXBXmXmXpXbXZXtX*X&XJ.V E Q.o.9 .   @ . . . . # .         . .     . O # # O % % 9 n Z V W ) / g K j X.N.Z e 9 8 p | ^.l.P.z.g.d.G.E.) 4.J.>XeXxXcXMXVXMXcXVXrXbX;XnXrXpXaXmXqX*X7X{.9.w 7 X.b ",
"4.^ G.2XY.8.P.2.k.h.x.>X>X].@Xv.J.7.v.&Xk.3X:XkXeX_.'.'.|.F.D.k.j.8.9.g.K.6.E.4.w. .| i.y.t.d.D.-.u.) k . o % q n.g.k.E.y.S.h.F.9.y.4.u.t.6.1.( H b I q.F O.0.7.k.t.j.9.k.k.k.G.g.Y.:.9.U.9.U.t.8.z.2.P.2.e.r O.-.h.l.A.;.7.G.u...b a e /.d.2.8.P.( C a.c.F.9.u. .^ V.G 7 1 < j ^ s.$.$ # $ 4 p.7XrXeXcXBXmXMXMXMXmXmXMXMXMXMXMXMXiXaXNXeX&X=X@Xv.&XeXeXqXpXrX*Xk.8. .} K 9 % O     X X X     . . . .                     . . 7 p.r.n.a.w.z k I.=X*XqXrXiXmX&X=X&X-X=Xx.f.F.lX6X:XvXeXqX].ZX=XY.E k h.uXqX*X%Xg.9.<X-XwXiXrX$X1.) E.*XrXwX|.a.7 % .   X           +     o ; r M u % & 9 7 e F G K p 9 9 n C C E T.E.! z g.hXn.8.T ! e > >   X   . 1 3 4 p %.C a.8.Q.u o > & 1 J u : D n k M O             . . . X X     O s A A q < 6 p Z 5.E B.e % O .         + O q g 7 u = 8 u.G. .} M.4 #   . . O   X   . %   o + O e A C #.w $ . .     . . . . . . . . . .     . . . 6 _ ^.8X1Xe.e p #.} k 1 . O O       X   . . . = 6 K.-XK.#XcXMXMXmXmXmXVXMXmXpXrXrXrX5XV n M.~ 1 .   X   .   . . .         . .       . . . O O O 9 M B H B q.W p r q o.E c n K a 8 b | I.E.t.h.c.x.J.9.8.D.-XeXeXcXMXMXmXMXaXmX;XvXrXBXmXwXpXrX;X;X*X#XI q e 1 ",
"6.z.2.k.g.z.r.t.t.D.v.*XvXtX=Xd.8.A.$X=XD.j.%X:XZXx.H.g.k.k.9.j.r.w.4.l.OXJ.-.t.t.u.3.e.8.P.g.g.U.L.) j %   # r a.9.k.j.j.g.F.h.j.2.L.r.l.8.8.a.K M p.) B ( i.j.9.D.7.h.4Xg.c.c.4Xg.G.z.t.P.8.8.k.A.j.8.u.( m X.(.R l.A.h.h.g./.I H i p ^.x.^ V.I.( I r.h.F.l.2.7.i.O.p m 2 < w I ..#.# & < ^ OX>XxXxXBXCXMXMXMXMXBXBXNXmXmXmXaXMXiXMXmX*X>X$Xt.-.D.:X>X;XtX;X'.8.) e.o.e $ % . .           o o                 o       . . % e ~.) 1.W./.( B L.6XuXwXrXwXtXk.A.4Xc.1X9.g.@X$XlXD.:XcXwXqXZX&XE.M b b.uXuXtX#X8.-.4X7XwXaXrX3Xy.j.6XeXrXqX8X} 8 % . . . . .       X     O > % & : % 8 p B ) c.OXa.C 6 u 8 : r q.+XOXW n 3.i.G h :.0.M 8 > . @ . & N z I B p.4.n.K.i.p % e 7 2 s % 8 o.c W B > - o o .   X X . . X X   % q ..n.s.V 4 1 e Q Q M @.: O .             . 4 r O - = e U.G.b a #.3 # . . . .   + X   # % O o O ` n.6.~.k < . X X X X   . .   X X   . .     . . . & E n.c.<X~.m i p b r & . O .   .       . . . + : t.tX>X>XrXmXMXMXmXBXmXMXMXrXeXeXeX{.( j X.w < : .   X X X               . .         . . O . O d H n p 7 X.H 6 % 1 K K 5 E N...Z j w  .y.t.D.D.c..XoXc.c..XrXmXmXmXmXMXMXaXmX*XrXrXmXmXwXcXcXeXcX;X3X0.I 3 < ",
"9.Y.2.9.9.G.t.t.j.D.>XqX*X.Xh.K.4.8.J.8X6.H.lX[.vX&X$XK.j.9.z.g.u.3.r.8.U.-./ 8.P.P.i.1.r.y.8.2.A.u...1 O * # r (.9.j.E.g.<Xc.hX2.t.8./.l.1.8.p.D i p.P V  .u.8.G.k.h.6.J.h.>.G.h.d.k.k.2.A.t.-.t.j.g.8.l. .m { e.8.u.;.G.>.k.W.Z j K r n.7.8.4.3.W U gXg.g.4.1.f.l.F p %.j q w o.!.9 . 1 k m..X;XnXnXcXmXVXVXaXmXmXNXNXNXNXmXmXMXpXCXyX.X7XR.^ 8.#XZX>X*X*X@Xk.1.M.X.q < # . . . . . . o o + +                 o         . 1 n W.2.8.D.E.A.r.4X1X-XXXoX_.c.W  .gX;.U.2.g.3X9.Z.8.#XZX*XeXtX'.4XM n K.dXtX7X<X2.Y 4X>X0XaXwX$XR.%X>XrXwXXXgXr : # . . . . . .       @ . O % 8 & 1 J { X.n. XXXdXi.k 7 6 > ; 7 Q.6.g.( B W ( G ( b.+XI 1 % . % # 1 K _ q.h  .l.g.K./ 2 : 1 r 2 r 7 { Q.x -.B % o     .   X X . .   X   & 4 2.T.n.N.N 6 : { e 9 : % o o       @   O : g Z 6 ; ; e i.a.6 > & $ . . . . . . + X   . 1 e 8 1 _ ;.Y s.n $ .   X X X X           . .       . . . & n ) u.a.p.p i a 7 1 1 # O .   .     X   . . o u -.yX*X*XeXNXVXMXmXBXmXVXVXmXcXeXrX>X~.g n 2 $ %   X X X X                 .         . . o . O d L e & 8 p @.% : 6 #.N w I 5.l.a.} j h ^ I.^.g.h.].].}.c.].rXmXmXBXmXVXMXMXqXtX*XmXMXMXrXbX;XqXBXxX@X2Xa.k q ",
"9.9.P.l.k.k.y.2.Z.c.&XqX*X{.k.2.j.t.h.c.g.lX>XqXrXeX{.<Xj.2.j.z.t.t.t.1.V.Z -.G.2.4.r.y.L.r.l.2.9.i.F 9 . . & b 2.d.}.9.r.U.9.2Xt.2.j.2.4.L.T Q.i i B x ) (.T z.U.8.Y.Z.g.g.4Xg.c.g.j.6.j.t.L.1.S.r.2.6.g.4.C X.L.9.z.z.:.g.t.3.o.G o.C e.1.n.Y Z G  .I.P.4.Z Z -.~.M M V.( 4 b %.r # # C t.tXeXrXeXcXmXMXMXMXMXMXmXmXmXmXmXmXMXMXmXxX:X9X|./ 1.,X;X>X&XmXeX4Xa.$.J 7 $ # . .                                   @   X   o % 4 ) E.F.h.'.:X>XtX&X$X<X|.x.d.i.k Z n.T (.x y.P.W ( P U.r.;.>X;X@X4Xk E 8X*X1X9.gX-.-.@XbXqXrXrX;XnXkXeXmXrXoXL.7 . . .     . .         +   6 7 q B ! p.!.Q.OX].uXJ.G q i.I & ; p B.B ( _ x 2.l.L.n. Xv.4.M > O 1 b 7 w M.5.h a.) u.T.P $ O . 1 4 k ( 5.} Q ~.h $ ,   o   @ . O $ # @ X o % 2 !.6.0.~ r % ; ; & 7 7 o + o o X   . . O 7 N.L. .G 7 6 n b 8 O O O .     O # .   X   % 7 M.5.V n N 2 S 0 # . . @       . . & 0 6 # . @   X     . & 2 4 g %.X.2 9 9 7 j ~ 7 # O . .       . * . o 6 -.:X[.&XtXrXmXVXMXMXmXBXBXNXcXxXrX*X6X/ C 6 O                                         . . ; % 0 J 7 % 0 6 9 % & 2 J 9 2 ~ ^ -.I.e.B h k m O.^.f.x.7X$X@X{.cXNXBXmXMXMXMXpX*X1X$XyXwXMXMXBXcXrXeXrXtX<XP.p.k ",
"c.k.L.w.g.h.i.4.t.c.;XeX*X&XK.U.-.8.}.H.9.[.eXCXXXXX].[.y.4.z.b.G.8.6.L.C C 2.U.4.4.r.t.r.r.r.8.9.0.b : O . # r n.c.}.t.8.A.g.Y.4.u.g.g.4.4.8.(.p 9 n x n.n.8.j.8.9.z.z.8.9.k.G.D.9.g.t.A.8.j.t.w.l.8.;.D.y.C H A.g.z.h.7.R.L...Q C ( P V.5.n.Y C }  .2.r.a.G j ^ a.n C W.2.5 q K 7 . 7  .H.nXrXcXrXcXmXMXMXMXmXMXmXmXmXmXmXMXMXMXmXkX:X_.b.2.y.kXcXtX*XVXcXT...r 1 # . O .                     .               X   X   o % k y.#X@X{.;XeXeXpXyXF.g.x.f.2.o.r M (.) M.g 3.~.B C V (.5.U [.ZX:XJ.B ( 6X;X#X6.E.;.j.kXnXrXrXyXeXcXcXcXmXuX Xa.&             .     X X X o 1 C B p.) ( G ! {.qX>XS.F F J.9.b % 9 D r %.~ c 9.2XT g.dX5Xa.H > O 3 k K j X.! I ~.) 0.~.V 1 O o % q W P.u.G M a.h 1 y   X     O % 7 $   o @ % 1 $.) ^ C q % > = % 4 4 o + o X X   . . . q ~.hXF.u.j $ t 9 % O O o .     O & & .     . e V.U.9.B e & O * . . . .       . . t ] ] 0 .     X X X . % 7 r $ a r 1 8 % 2 H M.n & . .           . . . 1 1.|.[.{.>XrXmXVXMXMXmXBXNXcXeXeXrXeXtX9.Q 8 o X . .                                   . . O # 0 s & O O # 9 : $ < L a 9 H ! -.T.a.U W n : m (.OXh.c.[.@X{.bXcXmXmXMXMXMXrX{.Z.<XuXiXaXmXcXcXeXrXpXrX>X#XJ.;.",
"[.K.y.1.k.h.r.4.t.[.;XqX*X&Xk.U.6.9.#X[.g.$XeXrXrXuX.XF.r.1.9.7.k.9.6.I.w G 8.z.i.r.y.j.4.u.8.z.g.a.b & . . % r ~.v.H.j.8.y.k.h.4.i.t.A.4.1.u.N.N 9 k ) ^.4.S.j.t.t.8.9.k.g.d.G.D.9.g.j.P.2.j.y.4.L.t.9.<Xy.j G U.g.9.d.c.4Xu...G G W V p.( :.Y  .C.5./ 4.I.G 4 U 5.n G E.i.j 1 e 1 % e V.:XcXmXcXcXmXmXMXMXMXmXmXmXmXmXmXmXMXMXmXBXvX:Xf.7.k.R.:X;XeXqXBX;Xt.B < # # O O .                                     .   X     & I U.$X>X;XbXcXqXpXyXF.;.7.g.-.W 7 b p.I B 4 E p.g g | u.I 1.@XxX'.E.B  .$X>XJ.6.G.g.%XkXcXrXqXuXeXeXcXrXmXyX|.5.$ .           .     . .   > A | W ^.r.w.G E $X*X@XE.b O.OXY.X.1 9 9 j !.j g j.gXY -. XK. .b ; O < j B.B G G 1.^.) i.a.h & .   . q ..T.u.F F ~.x 1 >   X   O % 9 N 7   o   O 1 A ^ x Z e : > = : B ` O o         . . # e i.<XD.E.M $ t 1 % O O .       O 8 6 # .   . p V.Y.z.j 7 d . O . . . .       . . 7 S s & .       X X   . 7 S $ $ 7 1 8 % 7 $.!.M & . . .         .   . 6 2.|.$XF.&XrXmXMXMXVXmXNXcXeXeXeXrXuX*XK.o.8   o   .                                     . . . : t # O O % t 8 & 2 L a 6 H W -.n.i.U ( X.& 9 n.OXh.c.[.@X{.bXrXcXmXMXMXmXyXv.2.<XXXaXaXpXcXxXxXcXmXMXaXpXCXqX",
"c.K.r. .T.k.8.8.k.=X>XeXyX=X8.8.U.k.H.c.c.6XeXqXrXqX{.c.r.r.g.9.;.U.z.) n X.2.g.y.w.U.j.y.L.2.z.k.a.b % O % % b n.h.D.Z.8.8.G.6.u.) k.k.2.L.2. .i e B N.0.-.j.A.S.t.9.6.2X9.g.k.k.k.A.g.k.6.S.8.r.8.8.G.SX8.q G gXd.>.h.}.}.) | } O.o.I V.Z Y -.V./.i./ r.I.n 4 I 5.C Q /.L.C < 7 6 & e V.:XcXmXrXcXmXmXMXMXMXMXmXmXmXmXmXmXMXMXrXmXkXlX>.,.OX3X,X&XuXqXmX&X2.c 7 & & % O                                           X o   : ( gX5XeX*XrXcXrXpXqX$X;.d.z.T B 1 q B h q 4 k | q w p. .h I.7X&Xf.4XB  .[.tXJ.9.k.D.lXkXcXNXqXqXeXeXcXcXmXyX|.) $ o           .     . . @ : !.( ) ^.l.I.} ( |._.d.S.g p.K.OX$.7 8 9 B !.4 ~ l.<Xa.P >.7.B 7 O . $ b B.C C C r.P.^ a.a.g $ O . # r N.U.i.G } /.I $ O   X . O : S #.a . o   O $ w o.V ~ r : O O 9 X.!.O o         . . & e ^ 9.6.E.M 6 e $ O = ; .   X   O u t # . . # e p.Y.6.5 t s % O . . . .       . # $ $ $ # O   .   X X   . $ a 6 1 p 1 : & b B.p.b # . . X         .   O 7 8.|.:Xc.].eXmXMXMXMXmXNXcX;X*XeXcXrX*XOXo.: . o   .                                     . . . 6 9 & O > 0 7 0 t j r 9 $ M ! -.u.4.V V M.i 6 1.c.x.1XF.{.{.bXeXrXmXMXMXpXuXx.Y 4X.XaXaXpXrXxXcXNXmXMXaXiXMXiX"
};
