/* XPM */
static char *_749ff5fe620498e880dbe6e4b9de801hLxA4qRA1I6p1XP9[] = {
/* columns rows colors chars-per-pixel */
"498 496 181 2 ",
"   c #860602",
".  c #8E0302",
"X  c #870900",
"o  c #8C0802",
"O  c #8C0509",
"+  c #8A080A",
"@  c #930202",
"#  c #9B0202",
"$  c #940903",
"%  c #9B0802",
"&  c #95040A",
"*  c #9B040A",
"=  c #920A0A",
"-  c #990909",
";  c #950810",
":  c #A30202",
">  c #AC0202",
",  c #A40803",
"<  c #AB0804",
"1  c #A2060A",
"2  c #AC050A",
"3  c #A6080E",
"4  c #AD080B",
"5  c #B30202",
"6  c #BA0302",
"7  c #B20805",
"8  c #BD0806",
"9  c #B40509",
"0  c #BB0508",
"q  c #B40809",
"w  c #BD090A",
"e  c #A20810",
"r  c #BB0712",
"t  c #B70A10",
"y  c #BE0B11",
"u  c #9B2E27",
"i  c #972F2E",
"p  c #9D2D2C",
"a  c #94312D",
"s  c #9D312C",
"d  c #9D2E31",
"f  c #963230",
"g  c #9C3232",
"h  c #AC2725",
"j  c #A12C25",
"k  c #AD2B26",
"l  c #A22D2D",
"z  c #AA2E2D",
"x  c #B42726",
"c  c #B92727",
"v  c #B92724",
"b  c #BD2727",
"n  c #BF2627",
"m  c #BB2623",
"M  c #B02926",
"N  c #B22826",
"B  c #B32927",
"V  c #B12A27",
"C  c #B02B27",
"Z  c #B72824",
"A  c #B42926",
"S  c #B42827",
"D  c #B62827",
"F  c #B72927",
"G  c #B52A27",
"H  c #B92825",
"J  c #B82827",
"K  c #BB2A27",
"L  c #BE2827",
"P  c #B92428",
"I  c #B92728",
"U  c #B8272A",
"Y  c #B72928",
"T  c #B7282A",
"R  c #B52928",
"E  c #B42E2D",
"W  c #B82828",
"Q  c #B92928",
"!  c #BA2828",
"~  c #BB2929",
"^  c #B82A28",
"/  c #BF292A",
"(  c #BB2E2C",
")  c #A1312E",
"_  c #AB312E",
"`  c #B5302E",
"'  c #BA312E",
"]  c #A32E31",
"[  c #AC2E31",
"{  c #B32F30",
"}  c #BE2F31",
"|  c #A33131",
" . c #AB3131",
".. c #B53131",
"X. c #BB3231",
"o. c #C50403",
"O. c #CA0202",
"+. c #C20805",
"@. c #C40609",
"#. c #CB0309",
"$. c #C10909",
"%. c #D00002",
"&. c #C92724",
"*. c #C22926",
"=. c #C62825",
"-. c #C72926",
";. c #C62827",
":. c #C42926",
">. c #C82926",
",. c #CA2826",
"<. c #CA2825",
"1. c #CE2927",
"2. c #CE2B26",
"3. c #C92C27",
"4. c #CA2728",
"5. c #C22828",
"6. c #C22A29",
"7. c #C42A28",
"8. c #C7292A",
"9. c #C72928",
"0. c #C62E2B",
"q. c #C82828",
"w. c #C92B28",
"e. c #CA2B28",
"r. c #CE2828",
"t. c #CD2B28",
"y. c #CE2A28",
"u. c #CB2D2E",
"i. c #D12727",
"p. c #D32726",
"a. c #D42627",
"s. c #D02923",
"d. c #D02825",
"f. c #D12825",
"g. c #D32A25",
"h. c #D02827",
"j. c #D12926",
"k. c #D22926",
"l. c #D32A27",
"z. c #D22A27",
"x. c #D52927",
"c. c #D62925",
"v. c #D22A29",
"b. c #D02B29",
"n. c #C6312D",
"m. c #C8302D",
"M. c #C12F32",
"N. c #C53534",
"B. c #B34A44",
"V. c #DC776E",
"C. c #D3796E",
"Z. c #D77B6E",
"A. c #D97A6F",
"S. c #CC7D76",
"D. c #DD7773",
"F. c #D77B70",
"G. c #D57A74",
"H. c #DC7B75",
"J. c #DF7778",
"K. c #D57C7A",
"L. c #DE7D79",
"P. c #E7766E",
"I. c #E27775",
"U. c #EB7773",
"Y. c #E37B76",
"T. c #ED7A75",
"R. c #E57D7A",
"E. c #EB7E7A",
"W. c #F47772",
"Q. c #FD7671",
"!. c #F37B75",
"~. c #FD7B75",
"^. c #F27D79",
"/. c #FB7C79",
"(. c #DC8174",
"). c #DA807B",
"_. c #E2817A",
"`. c #EC827F",
"'. c #F1807C",
"]. c #FF817B",
"[. c #EC9287",
/* pixels */
"[.B.h P P Y h k J b b b Y Y Y P P P P P P P W W W P P P W W W c W J J J J J J J J J J J J J J J W W W W W W W W J J W W c c c J D D D D Y Y D D D Y Y Y D D D D D Y D D D Y Y Y D D D D D D Y Y W W W P P P P P P P W W W P P P P P Y Y Y D D D D D J J b L *.*.:.:.:.:.:.:.:.:.:.:.:.:.:.:.:.:.:.:.:.:.:.:.:.:.:.:.<.<.1.b.v.v.x.x.x.x.x.x.x.x.x.x.x.x.x.x.l.x.l.l.x.x.x.x.x.l.l.1.w.*.L J J W P P P P P c c P P P P P P P P P c J J J J J J J J J J J J J J J J J c J J J J J J J J J J J W W D D D D v v v v m *.3.t.1.1.l.l.1.1.1.1.1.1.1.1.1.1.1.1.1.1.1.1.1.1.1.1.1.1.l.l.l.l.l.l.i.i.i.i.l.l.l.l.l.l.l.l.l.l.l.l.l.l.l.l.s.s.l.i.a.i.r.w.6.Z N C k k k E C N N N N N N N N N N N N N N N C C N C N N N N D D D D D D D D D D D D D Y D D D Y Y Y Y D D D D C D D v c b 6.8.8.4.4.4.4.4.4.<.:.:.:.:.:.:.:.:.<.:.:.:.:.:.:.:.:.:.:.:.:.:.<.:.:.:.:.:.:.:.:.:.:.:.:.:.:.:.:.:.:.:.:.:.:.:.:.<.<.8.8./ W D C C C C C D D D D D D D D D Y D D D Y Y Y D D D D D Y D D N N N N C C C C C C C C N C C C N N N N N N N N N C N C C C ",
"C.s = * * - o = $ * # * $ @ $ $ $ $ $ $ $ $ $ $ $ $ $ $ $ $ $ $ * * * * # $ $ $ * * * * $ # $ $ * * * * * * * * $ $ $ $ $ $ $ $ @ @ @ @ @ @ @ @ @ @ @ @ @ @ @ @ @ @ @ @ @ @ @ @ @ @ @ @ @ @ $ $ $ $ $ $ $ $ $ $ $ $ $ $ $ $ $ $ $ $ $ $ $ @ @ @ $ $ $ # # # # 1 : : : : : : : : : : : : : : : : 1 1 1 1 , 1 : : : : : > < < > 9 9 9 9 9 9 9 5 5 9 5 9 9 9 9 9 9 9 < 5 5 5 5 5 7 > < , , # $ $ $ $ $ $ $ $ $ @ $ $ $ $ $ @ @ $ $ @ $ $ $ $ $ @ $ $ $ $ $ $ $ $ $ $ $ @ $ $ $ $ $ $ $ $ $ $ $ * $ $ $ $ $ # # # # # # , < < > > > > < < < < < < < < < < < < < < < < < < < < < > > > > > > > > > > > > > > > > > > > > > > > 5 > > > > 5 5 9 5 > , 1 $ . . .   . . . . . . . . . . . . . @ @ @ @ @ . . @ @ @ @ @ @ @ @ @ @ $ $ $ $ @ @ @ @ @ @ @ @ @ @ @ @ @ @ @ @ @ @ $ $ @ # # 1 1 , : : , , < , , , , , : : : : : : : : : : : : : : : : : : : : : : : : : : : : : : : : : : : : : : : : : : : : : : , 1 # $ @ @ @ . o @ @ @ @ @ @ @ @ @ @ @ @ @ @ @ @ @ @ @ @ @ @ @ @ @ @ @ @ @ . . . . . . . . @ @ @ @ @ . @ @ @ @ @ @ @ . @ @ @ @ ",
"F.s = * * $   o @ # # # @ @ @ @ @ @ @ @ @ @ @ @ @ @ @ @ @ @ @ @ * # # # # # # # @ @ @ @ @ @ @ @ # # # * * * * * @ @ @ @ @ @ @ @ @ @ @ @ @ @ @ @ @ @ @ @ @ @ @ @ @ @ @ @ @ @ @ @ @ @ @ @ @ @ @ @ @ @ @ @ @ @ @ @ @ @ @ @ @ @ @ @ @ @ @ @ @ @ @ @ @ @ @ @ # # # # : : : : : : : : : : : : : : : : : : : : : : : : : : : : > > > > > 5 5 5 5 5 5 5 5 5 5 5 5 5 5 5 > > 5 5 5 5 5 > > > : # # @ @ $ @ @ @ @ @ @ @ @ @ @ @ @ @ @ @ @ @ @ @ @ @ @ @ @ @ @ @ @ @ @ @ @ @ @ @ @ @ @ @ @ @ @ @ @ @ @ @ @ @ @ @ @ @ @ @ @ # # : > > > > > > > > > > > > > > > > > > > > > > > > > > > > > > > > > > > > > > > > > > > > > > 5 > > > > > > > > > > 5 > > : # @ .     . . . . . . . . . . . . . . . . . . . . . . . . . . . @ @ @ @ @ @ @ @ @ @ @ @ @ @ @ @ @ @ @ @ @ @ @ @ . . @ @ @ @ # # 1 : : : : : : : : : : : : : : : : : : : : : : : : : : : : : : : : : : : : : : : : : : : : : : : : : : : : : : : : : : : # @ @ . . . . . . @ @ @ @ @ @ @ @ @ @ @ @ @ @ @ @ @ @ @ @ @ @ @ @ @ . . . . . . . . . . . . . . . . . . . . . . . . . . . . ",
"H.s = * * $   o $ # # # $ $ & & $ $ $ $ $ $ $ $ $ $ $ $ $ $ $ * * * * * * # # # # # # # # # # # * * # * # * # * * * * * * * * * @ $ $ $ $ $ $ $ $ $ $ $ $ $ $ $ $ $ $ $ $ $ $ $ @ @ $ $ $ $ $ $ $ $ $ $ $ $ $ $ $ $ $ $ $ $ $ $ $ $ $ $ $ $ $ $ $ $ # # # # 1 , : : : : : : : : : : : : : : : : : : : , , , : : , : > > > 9 9 9 9 6 6 6 6 6 9 9 9 9 9 9 6 6 6 6 9 9 6 6 5 5 5 7 7 < < : # # $ $ $ $ $ $ * * * $ $ * $ $ $ * * * * * * * * * * * * * * * * * * * * * * * * * * * * * * * * * * * # @ @ @ @ # # # # : , < > > 5 5 > > > > > > > > > > > > > > > > > > > > > > > > > 9 9 9 9 9 9 9 9 9 9 9 9 9 9 9 5 9 9 9 9 9 9 5 > > 5 5 9 9 > < 1 # @ @ o . . @ @ @ @ @ @ @ @ @ @ @ @ @ @ @ @ @ @ @ @ @ @ @ @ @ $ $ $ $ $ $ $ $ $ $ $ $ $ $ $ $ $ $ $ $ $ $ $ $ @ @ $ $ $ # # 1 1 1 < < < < < < < < < < , , , < < < < < < < < < , < < , < < < < < < < < < < < < < < < < < < < < < < < , < < < < < < , , 1 * $ @ @ @ @ @ $ $ $ $ $ $ $ $ $ $ $ $ $ $ $ $ $ $ $ $ $ $ $ @ @ @ @ @ @ @ . @ @ @ @ @ @ @ @ @ . . . . @ @ @ @ @ @ @ @ @ @ ",
"A.u @ # # @ . o @ # # # @ @ @ @ @ @ @ @ @ @ @ @ @ @ @ @ @ @ @ @ # @ # # # @ # @ # # # # # # # # # @ # @ # # # @ # @ # @ # @ # @ @ @ @ @ @ @ @ @ @ @ @ @ @ @ @ @ @ @ @ @ @ @ @ @ @ @ @ @ @ @ @ @ @ @ @ @ @ @ @ @ @ @ @ @ @ @ @ @ @ @ @ @ @ @ @ @ @ @ @ # # # # : : : : : : : : : : : : : : : : : : : : : : : : : : : : : > > > 5 5 5 5 5 5 5 5 5 5 5 5 5 5 5 5 5 5 5 5 5 5 5 5 5 > > : : # @ @ @ @ @ @ @ @ @ @ @ @ @ @ @ @ @ @ @ @ @ @ @ @ @ @ @ @ @ @ @ @ @ @ @ @ @ @ @ @ @ @ @ @ @ @ @ @ @ @ @ # @ @ @ @ # # # # # : > > > > > > > > > > > > > > > > > > > > > > > > > > > > > > > > > > > > > 5 > 5 > 5 > 5 > 5 > 5 > 5 > 5 > > > > 5 5 > > > # @ . . . . . . . . . . . . . . . . . . . . . . . . . . . . . . @ @ @ @ @ @ @ @ @ @ @ @ @ @ @ @ @ @ @ @ @ @ @ @ . . @ @ @ @ # # : : : : : : : : : : : : : : : : : : : : : : : : : : : : : : : : : : : : : : : : : : : : : : : : : : : : : : : : : : : : # @ @ @ @ . @ @ @ @ @ @ @ @ @ @ @ @ @ @ @ @ @ @ @ @ @ @ . @ @ . . . . . . . . . . . . . . . . . . . . . . . . . . . . . . . ",
"H.) = # # * @ - # # : # * $ * * * * * * # # * @ * * * * # @ * # # # # # # # # # # # # # # # # # # # # # # # # # # # # # # # # * $ $ $ $ $ $ $ $ $ $ $ $ $ $ $ $ $ $ $ $ $ $ $ $ $ $ $ $ $ $ $ $ * * * * * * * * * * * * * * * * * * * * * $ * * # # # # # 1 1 , : : > : > : > : : : : : > : : : : : : : > : : : < > > > 9 6 6 6 6 6 6 6 6 6 6 6 5 9 5 5 6 6 6 6 6 5 6 5 5 5 5 5 9 9 < : # # # * * * * * * * * * * * * * * * * * * # * * * * * * * * # # # # * * * * * * * * # # * # * * * * * * # * # # # # # # : : < < > 9 5 5 5 5 9 9 5 9 9 9 9 9 9 9 9 > 5 > 9 9 9 9 9 9 9 5 5 5 5 5 5 5 5 5 5 6 6 5 6 6 9 6 6 6 6 6 6 6 5 6 5 5 5 5 9 9 9 > : # @ @ @ . . @ . . . . . . . . @ @ @ @ @ @ @ @ @ @ @ @ @ . @ @ $ $ $ $ $ $ $ $ $ $ $ $ $ $ $ $ $ $ $ $ $ $ $ $ @ @ $ $ @ # # 1 1 1 < < < < < < < < < < < < > < < < < < < < < < < < < < < < < < < < < < < < > < < < < < < < < < < < < < < < < < < < < , 1 # * @ $ $ $ $ $ $ # # $ $ $ $ $ $ $ $ $ $ $ $ $ $ $ $ @ @ @ @ @ @ . . @ @ @ . @ @ @ . @ @ @ . @ . . . @ @ @ @ @ @ @ @ @ @ ",
"V.u @ * # * . @ @ # : # # @ @ * # @ # @ # @ # @ * * * # # @ # # # # # # # # # # # # # # # # # # # # # # # # # * # # # # # # # # @ @ @ @ @ @ @ @ @ @ @ @ @ @ @ @ @ @ @ @ @ @ @ @ @ @ @ @ @ @ @ @ @ * * @ # @ # @ # @ # @ # @ * * # @ @ @ # @ @ @ @ # # # # : : : : : : : : : : : : : : : : : : : : : : : : : : : > : : > > 9 9 9 5 5 5 5 5 5 5 5 5 5 5 5 5 5 5 5 5 5 5 5 5 5 5 5 5 5 > : # # @ @ @ @ @ @ @ @ @ @ @ @ @ @ @ @ @ @ # # # # # # # # # # # # # # # # # # # # # # # # # # # # # # # # # # # # # # # # # : > > > > 5 5 > > > > > > > > > > > > > > > > > > > > > > > 5 5 5 5 5 5 5 5 5 5 5 5 5 5 5 5 5 5 5 5 5 5 5 5 5 5 5 5 5 9 9 5 > : # @ @ . . . @ . . . . . . . . . . . . . . . . . . . . . . . . @ @ @ @ @ @ @ @ @ @ @ @ @ @ @ @ @ @ @ @ @ @ @ @ . @ @ @ @ # # # : : : : : : : : > > > : > > > > > : > > > > > > > > > > > : > : > > > > > : > > > : > > > > > > > > > > > : > > > > : : : # @ @ @ @ @ @ @ @ @ @ @ @ @ @ @ @ @ @ @ @ @ @ @ @ @ @ @ @ @ @ @ @ @ . . . . . . . . . . . . . @ @ @ @ @ @ @ @ @ @ @ @ @ @ ",
"H.) & # # # @ $ # # : # * * * * * * * # # # * * * * * * # # # # # # # # # # # # # # # # # # # # # # # # # # # # # # # # # # # # @ @ $ @ @ @ $ $ $ $ @ @ @ $ $ @ $ $ @ @ @ @ @ @ @ @ @ @ $ @ $ @ * * * * # # # # # # # # * * * * # # # * # # @ @ # # # # : : : : > > > > > > > > : : : > > > : : > > : > : : : : > > > > 5 9 6 6 5 5 5 5 5 5 5 5 5 5 5 5 5 5 5 5 5 5 5 5 6 6 5 5 5 5 > : # # # * * * * * @ @ @ @ * * @ @ @ @ @ * # # # # # # # # # # # # # # # # # # # # # # # # # # # # # # # # # # # # # # # # : : > > 9 5 5 5 5 5 5 5 5 > 5 5 5 5 5 5 5 5 > 5 5 5 > > 5 5 5 5 5 5 9 9 5 5 9 9 5 5 5 5 5 5 5 5 5 5 5 5 5 5 5 5 5 5 5 5 9 9 5 > : # @ @ @ . . @ @ @ @ @ @ @ . . . . . @ @ @ . . . . . . @ @ . . $ $ @ @ @ @ @ @ @ @ $ @ @ @ $ $ $ $ @ @ @ $ $ @ @ @ $ @ @ # # 1 1 2 > < < , < > > > > > > > > > > > > > > > > > > > > > > > > > > > > > > > > > > > > > > > > > > > > > > > > > > > > : : # * @ @ $ @ @ @ @ # @ @ @ $ @ @ @ $ $ $ $ @ @ @ $ $ @ @ @ @ @ @ @ @ @ . @ @ @ @ @ . @ @ @ @ @ @ @ @ @ @ @ @ @ @ @ @ @ @ @ ",
"Y.) & # # # @ $ # # : # * * * * # # # # # # * * # # * * # # # # # # # # # # # # # # # # # # # # # # # # # # # # # # # # # # # # @ @ @ @ @ @ @ @ @ @ @ @ @ @ @ @ @ @ @ @ @ @ @ @ @ @ @ @ @ @ @ * @ * * # # # * * * # * * * * # # # * * * # # @ @ # # # # # : : : : : : : : : : : : : : : : : : : > > > : > > > > > > > > > 5 9 9 5 5 5 5 5 5 5 5 5 5 5 5 5 5 5 5 5 5 6 6 6 6 6 5 5 9 > : # # # # @ @ * * * # @ # * * @ @ @ @ @ @ # # # # # # # # # # # # # # # # # # # # # # # # # # # # # # # # # # # # # # # # # : > > 5 5 5 5 5 5 5 5 5 5 5 5 5 5 5 5 5 5 5 5 5 > > > 5 5 5 5 5 5 5 5 9 9 9 9 5 5 5 5 5 5 5 5 5 5 5 5 5 5 5 5 5 5 5 5 6 9 5 > : # @ @ @ . @ @ @ @ @ @ . . . . . . @ @ . . . . @ @ @ @ . . @ @ @ @ @ @ @ @ @ @ @ @ @ @ @ @ @ @ @ @ @ @ @ @ @ @ @ @ $ @ @ # # 1 , : : > > > > > > > > > > > > > > > > > > > > > > > > > > > > > > > > > > > > > > > > > > > > > > > > > > > > > > > > : : # * @ @ @ @ @ @ @ @ @ @ @ @ @ @ @ @ @ @ @ @ @ @ @ @ @ @ @ @ @ @ @ @ @ @ @ . . . . . . @ @ @ @ @ @ @ @ @ @ @ @ @ @ @ @ @ @ ",
"Y.) & # # # @ $ # # : : * * * * # * # # # # * * # # * * # # # # # # # # # # # # # # # # # # # # # # # # # # # # # # # # # # # # @ @ @ @ @ @ @ @ @ @ @ @ @ @ @ @ @ @ @ @ @ @ @ @ @ @ @ @ @ @ @ * @ * * # # # # * # # * * * * # # # # * * # # @ @ # # # # # : : : : > : : > > : : : : : : > > : : > > > : > > > > > > > > > 5 9 9 5 5 5 5 5 5 5 5 5 5 5 5 5 5 5 5 5 5 6 6 6 6 6 5 5 5 > : # # # @ * * * * * @ @ @ # # @ # @ @ * @ # # # # # # # # # # # # # # # # # # # # # # # # # # # # # # # # # # # # # # # # # : > > > 5 5 5 5 5 5 5 5 5 5 5 5 5 5 5 5 5 5 5 5 5 > > 5 5 5 5 5 5 5 5 9 9 9 9 5 5 5 5 5 5 5 5 5 5 5 5 5 5 5 5 5 5 5 5 6 5 5 > : # @ @ @ . @ @ @ @ @ @ . . . . . . @ @ . . . . @ @ @ @ . . @ @ @ @ @ @ @ @ @ @ @ @ @ @ @ @ @ @ @ @ @ @ @ @ @ @ @ @ $ @ @ # # 1 : : : : > > > > > > > > > > > > > > > > > > > > > > > > > > > > > > > > > > > > > > > > > > > > > > > > > > > > > > > : : # * @ @ @ @ @ @ @ @ @ @ @ @ @ @ @ @ @ @ @ @ @ @ @ @ @ @ @ @ @ @ @ @ @ @ @ . . . . . . @ @ @ @ @ @ @ @ @ @ @ @ @ @ @ @ @ @ ",
"Y.) & # # # @ $ # # : # # # * * * * * * # # * * # # * * # * * # # # # # # # # # # # # # # # # # # # # # # # # # # # # # # # # # @ @ @ @ @ @ @ @ @ @ @ @ @ @ @ @ @ @ @ @ @ @ @ @ @ @ @ @ @ @ @ @ * * # # # # * * # # # * # # # # # # @ # # # # @ # # # # # : : : : : : : > > > > > > : > > > > > > > : : > : : : > > > > > 5 9 9 5 5 5 5 5 5 5 5 5 5 5 5 5 5 5 5 5 5 5 5 6 6 5 5 5 9 > : # # # @ * * # * # # * * # # # # * * * * # # # # # # # # # # # # # # # # # # # # # # # # # # # # # # # # # # # # # # # # # : > > > 5 5 5 5 5 5 5 > > > > 5 5 > > > > 5 5 > 5 > 5 5 > 5 5 5 5 5 5 5 5 5 5 5 5 5 5 5 5 5 5 5 5 5 5 5 5 5 5 5 5 5 5 5 5 5 > : # @ @ @ . . @ @ @ @ @ @ @ @ @ @ @ @ @ @ @ @ @ . @ . . @ @ @ @ @ @ @ @ @ @ @ @ @ @ @ @ @ @ @ @ @ @ @ @ @ @ @ @ @ @ $ @ @ # # 1 : : : > > > : : > > > > > > > > > > > > > > > > > > > > > > > > > > > > > > > > > > > > > > > > > > > > > > > > > > > : : # # @ @ @ @ @ @ @ @ # @ @ @ @ @ @ @ @ @ @ @ @ @ @ @ @ @ @ @ @ @ @ @ @ @ @ @ @ @ @ . . @ @ @ @ @ @ @ @ @ @ @ @ @ @ @ @ @ @ ",
"Y.) & # # # @ = # # : # # @ * * * * * * # # * * # # # * * * * # # # # # # # # # # # # # # # # # # # # # # # # # # # # # # # # # @ @ @ @ @ @ @ @ @ @ @ @ @ @ @ @ @ @ @ @ @ @ @ @ @ @ @ @ @ @ @ @ * * # # # # * * # # * * # # # # # @ @ # @ # # # # # # # # : : : : : > : > > > > > > > > > > > > > > : : : : : : > : > > > 5 5 9 5 5 5 5 5 5 5 5 5 5 5 5 5 5 5 5 5 5 5 5 6 5 5 5 5 9 > : # # # @ # * # @ @ @ * * # # # # * * * * # # # # # # # # # # # # # # # # # # # # # # # # # # # # # # # # # # # # # # # # # : > > > 5 5 5 5 5 5 5 > > > > 5 5 > > > > 5 5 5 5 5 5 5 5 5 5 5 5 5 5 5 5 5 5 5 5 5 5 5 5 5 5 5 5 5 5 5 5 5 5 5 5 5 5 5 5 5 > : # @ @ . . . @ @ @ @ @ @ @ @ @ @ @ @ @ @ @ @ @ @ @ . . @ @ @ @ @ @ @ @ @ @ @ @ @ @ @ @ @ @ @ @ @ @ @ @ @ @ @ @ @ @ $ @ @ # # : : > > > > > : : > > > > > > > > > > > > > > > > > > > > > > > > > > > > > > > > > > > > > > > > > > > > > > > > > > > : : # @ @ @ @ @ @ @ @ # @ @ @ @ @ @ @ @ @ @ @ @ @ @ @ @ @ @ @ @ @ @ @ @ @ @ @ @ @ @ @ . @ @ @ @ @ @ @ @ @ @ @ @ @ @ @ @ @ @ @ ",
"L.) & * * * @ = # # # # # @ * * # # # * * * * * @ # @ # * * * # # # # # # # # # # # # # # # # # # # # # # * # * # * # * # # # # @ @ @ @ @ @ @ @ @ @ @ @ @ @ @ @ @ @ @ @ @ @ @ @ @ @ @ @ @ * * @ * # # # # # * * * * * # @ * * * * * * @ @ @ @ @ @ # # # # : : : : : : : : : : : : : : : : : : : : : : : : : : : : : > > > 5 5 5 5 5 5 5 5 5 5 5 5 5 5 5 5 5 5 5 5 5 5 5 5 5 5 5 5 9 > : # # * @ # @ @ @ # # @ * @ @ * * * * # # # # # # # # # # # # # # # # # # # # # # # # # # # # # # # # # # # # # # # # # # # : > > > 5 5 5 5 > > > > > > 5 > > > > > > 5 5 > > > > 5 > 5 5 5 5 5 5 5 5 5 5 5 5 5 5 5 5 5 5 5 5 5 5 5 5 5 5 5 5 5 5 9 9 5 > : @ @ @ . . . @ @ @ @ @ @ @ @ @ @ @ @ @ @ @ @ @ @ @ @ @ @ @ @ @ @ @ @ @ @ @ @ @ @ @ @ @ @ @ @ @ @ @ @ @ @ @ @ @ @ @ $ @ @ # # : : > > > > > : : : : : : > > > > > > > > : : : : > > > > > > > > : : : : > > > > : : > > > > : : : : > > > > : : > > < : # # @ @ @ @ @ @ @ @ @ @ @ @ @ @ @ @ @ @ @ @ @ @ @ @ @ @ @ @ @ @ @ @ @ @ @ @ @ @ @ @ @ @ @ @ @ @ @ @ @ @ @ @ @ @ @ @ @ @ @ @ ",
"L.) & * * * @ = * # : # # @ @ * # # # * * * * * @ # * # * * * # # # # # # # # # # # # # # # # # # # # # * # * * * * * * # # # * # @ @ @ @ @ @ @ @ @ @ @ @ @ @ @ @ @ @ @ @ @ @ @ @ @ @ @ @ * * * * # # # # # * * * * * # @ # * * * * @ @ # @ @ @ @ @ # # # # : : : : : : : : : : : : : : : : : : : : : : : : : : : : : > > 5 5 5 5 5 5 5 5 5 5 5 5 5 5 5 5 5 5 5 5 5 5 5 5 5 5 5 5 9 > : # # * @ @ @ # # * * @ # @ @ * * * * @ @ # # # # # # # # # # # # # # # # # # # # # # # # # # # # # # # # # # # # # # # # # : > > > > 5 5 5 5 > > > > > 5 > > > > > > 5 5 5 > > > > > 5 5 5 5 5 5 5 5 5 5 5 5 5 5 5 5 5 5 5 5 5 5 5 5 5 5 5 5 5 5 9 5 5 > : @ @ . . . . . . @ @ @ @ @ @ @ @ @ @ @ @ @ @ @ @ @ @ @ @ @ @ @ @ @ @ @ @ @ @ @ @ @ @ @ @ @ @ @ @ @ @ @ @ @ @ @ @ @ $ @ @ # # : : > > > > > : : : : : : > > > > > > > > : : : : > > > > > > > > : : : : > > > > : : > > > > : : : : > > > > : : > > , : # # @ @ @ @ @ @ @ @ @ @ * @ @ @ @ @ @ @ @ @ @ @ @ @ @ @ @ @ @ @ @ @ @ @ @ @ @ @ @ @ @ @ @ @ @ @ @ @ @ @ @ @ @ @ @ @ @ @ @ @ ",
"L.) = * * * . @ # # # # @ @ @ @ @ @ @ @ * * @ @ @ @ @ @ @ @ @ @ # # # # # # # # # # # # # # # # # # # # # # # # # # * * # # # * * @ @ @ @ @ @ @ @ @ @ @ @ @ @ @ @ @ @ @ @ @ @ @ @ @ @ @ @ * * * @ @ @ @ @ @ @ @ * * @ @ @ @ @ @ * * * @ @ @ @ @ @ @ # # # # : : : : : : : : : : : : : : : : : : : : : : : : : : : : : > > 9 5 5 5 5 5 5 5 5 5 5 5 5 5 5 5 5 5 5 5 5 5 5 5 5 5 5 5 < < : # # * @ * # # # # * # # * * # * # # # # @ @ # # # # @ @ # # # # # # # # # # # # @ @ @ # # # # # @ @ @ # # # # # # # # # # : : > > > 5 5 5 > > > > > > > > > > > > > > > > > > > > > 5 5 > > > > 5 5 5 5 5 5 5 5 5 5 5 5 5 5 5 5 5 5 5 5 5 5 5 5 9 5 5 < : @ @ . . . . . . @ @ @ @ @ @ @ @ @ @ @ @ @ @ @ @ @ @ @ @ @ @ @ @ @ @ @ @ @ @ @ @ @ @ @ @ @ @ @ @ @ @ @ @ @ @ @ @ @ @ @ @ # : : : : > > > > > : > : : : : : : : : : > > > : : : : : : : : : > > > : : : : : : : : : : : > : : : : : : : > : : : : : , : # # @ @ @ @ @ @ @ @ @ @ @ @ @ @ @ @ @ @ @ @ @ @ @ @ @ @ @ @ @ @ @ @ @ @ @ @ @ @ @ @ @ @ @ @ @ @ @ @ @ @ @ @ @ @ @ @ @ @ @ @ ",
"L.s = * # * . @ @ # # # @ @ @ * @ @ @ @ * * @ @ @ @ @ @ @ @ @ @ # # # # # # # # # # # # # # # # # # # # # # # # # # * * * # # # @ @ @ @ @ @ @ @ @ @ @ @ @ @ @ @ @ @ @ @ @ @ @ @ @ @ @ @ @ @ * # @ @ @ @ @ @ @ @ @ # @ @ @ @ @ @ * * @ @ @ @ @ @ $ @ # # # # : : : : : : : : : : : : : : : : : : : : : : : : : : : : : > > 9 9 9 5 5 5 5 5 5 5 5 5 5 5 5 5 5 5 5 5 5 5 5 5 5 5 5 5 > < : # # * @ * # # # # # # # * * # # # # # # @ @ # # # # @ @ # # # # * # # # # # # # @ @ @ @ # # # # @ @ @ @ # # # # # # # # # : : > > > 5 > 5 > > > > > > > > > > > > > > > > > > > > > 5 5 > > > > 5 5 5 5 5 5 5 5 5 5 5 5 5 5 5 5 5 5 5 5 5 5 5 5 5 5 5 < : # @ . . . . . . @ @ @ @ @ @ @ @ @ @ @ @ @ @ @ @ . @ @ @ @ @ @ @ @ @ @ @ @ @ @ @ @ @ @ @ @ @ @ @ @ @ @ @ @ @ @ @ $ @ @ # # : : : : > > > > > : > : : : : : : : : : > > > : : : : : : : : : > > > : : : : : : : : : : : > : : : : : : : > : : : : : : : # # @ @ @ @ @ @ @ @ @ @ @ @ @ @ @ @ @ @ @ @ @ @ @ @ @ @ @ @ @ @ @ @ @ @ @ @ @ @ @ @ @ @ @ @ @ @ @ @ @ @ @ @ @ @ @ @ @ @ @ @ ",
"(.s = * # * @ $ $ # # # @ @ * * * @ @ @ @ @ @ # @ @ @ # # # @ @ # # # # # # # # # # # # # # # # # # # # # # # # # # # # # # # # @ $ @ $ @ $ @ @ @ $ @ $ @ $ @ $ @ $ @ @ @ @ @ $ @ $ @ @ @ $ @ $ @ @ # # @ @ @ @ @ @ @ @ @ @ # # @ @ @ @ @ @ @ @ $ @ $ @ # # # : : : : : > : > : : : : : > : : : : : : : : : : : > : : > > 5 5 5 5 5 5 5 5 5 5 5 5 5 5 5 5 5 5 5 5 5 5 5 5 5 5 5 5 9 > : # # # @ # # @ # # # # # @ @ @ # # # @ @ @ @ * # # # # @ # # # # # # # # # # # # # # # # # # # # # # # # # @ @ @ # # # # # : : > > > 5 > 5 > > > > > > > > > > > > > > > > > > > > > > > > > > > > > 5 5 5 5 5 5 5 5 5 5 5 5 5 5 5 5 5 5 > 5 5 5 5 5 5 > : # @ @ @ . @ @ @ @ @ @ . . . . . . . . @ @ @ @ . . . . . . . @ @ @ @ @ @ @ @ @ @ @ @ @ @ @ @ @ @ @ @ @ @ @ @ @ @ @ @ @ # # : : : : : > : : : : > > : : : : : : : : : > > > : : : : > > : : : : : : : > > > : : : : : > : : : : : : : > : : : : : > > : : # @ @ @ @ @ @ @ @ @ @ @ @ @ @ @ @ @ @ @ @ # @ @ @ @ @ @ @ @ @ @ @ @ @ @ . . . . . . . @ @ @ @ @ @ @ @ @ @ @ @ @ @ @ @ @ @ ",
"(.s @ * # # @ $ $ # # # @ @ * * # @ @ @ # @ # # @ @ @ # # # @ # # # # # # # # # # # # # # # # # # # # # # # # # # # # # # # # # @ @ @ $ @ $ @ @ @ $ @ $ @ $ @ $ @ $ @ @ @ @ @ $ @ @ @ @ @ $ $ $ @ @ # # # @ # @ # @ # @ # @ # # * @ @ @ @ @ @ @ @ @ @ @ # # 1 : : : : : > > > : > : : : > > > : : : : : : : : : > : : > > 5 5 5 5 5 5 5 5 5 5 5 5 5 5 5 5 5 5 5 5 5 5 5 5 5 5 5 5 9 > : # # * @ # # @ @ # # # # @ @ @ @ # # # # @ @ # # # # @ @ # # # # # # # @ # # # # # # # # # # # # # # # # @ @ @ @ # # # # # : : > > > 5 5 5 > > > > > > > > > > > > > > > > > > > > > > > > > > > > > 5 5 5 5 5 5 5 5 5 5 5 5 5 5 5 5 5 5 5 5 5 5 5 5 5 > : # @ @ @ . @ @ @ @ @ @ . . . . . . . . @ @ @ @ . . . . . . @ @ @ @ @ @ @ @ @ @ @ @ @ @ @ @ @ @ @ @ @ @ @ @ @ @ @ @ @ @ # # # 1 : : : > : : : : > > : : : : : : : : : > > > : : : : > > : : : : : : : > > > : : : : : > : : : : : : : : : : : > > > > : : # @ @ @ @ @ $ @ @ @ @ @ @ @ @ # @ @ @ @ @ @ @ @ @ @ @ @ @ @ @ @ @ @ @ . . . . . . . . @ @ @ @ @ @ @ @ @ @ @ @ @ @ @ @ @ @ ",
"(.s @ * # # @ $ $ # # # @ $ # * # @ @ @ # # # # @ @ @ @ # # # # # # # # # # # # # # # # # # # # # # # # # # # # # # # # # # # # @ @ @ @ @ @ @ @ @ @ @ @ @ @ @ @ @ @ @ @ @ @ @ @ @ @ @ @ @ @ @ @ # # # # # # # # # @ # # # # # # * * * * # # @ @ @ @ # # # # 1 : : : : : : : : : : : : : : : : : : : : : : : : : > : : > > 5 5 5 5 5 5 5 5 5 5 5 5 5 5 5 5 5 5 5 5 5 5 5 5 5 5 5 5 9 > : # # # @ # @ @ @ @ # # # # @ # # # # # # @ # # # # # @ @ # # @ @ # @ @ @ # # # # # # # # # # # # # # # # # # @ @ # # # # # : : > > > 5 5 > 5 > > > > > 5 > 5 5 5 > > > > > > > > > > > > > > 5 5 5 5 5 5 5 5 5 5 5 5 5 5 5 5 5 5 5 5 5 5 5 5 5 5 9 9 5 > : # @ @ @ . . @ @ . @ @ . . @ . @ @ . . @ @ @ . . . . . . . @ @ @ @ @ @ @ @ @ @ @ @ @ @ @ @ @ @ @ @ @ @ @ @ @ @ @ $ @ @ # # # 1 : : > > > > : : > > > > > > > > : : : : > > > > : > > > > > : : : : : : > > > > : : > > > > : : : : > > > > : > > > > : : # @ @ @ @ @ $ @ @ @ @ @ @ # @ @ @ @ @ @ @ @ @ @ @ @ @ @ @ @ @ @ @ @ @ . . . . . . . . @ @ @ @ @ @ @ @ @ @ @ @ @ @ @ @ @ @ ",
"H.s @ # # # @ @ $ # # # @ @ # * # @ @ @ @ # # # @ @ @ @ # # @ # # # # # # # # # # # # # # # # # # # # # # # # # # # # # # # # # # @ @ @ @ @ @ @ @ @ @ @ @ @ @ @ @ @ @ @ @ @ @ @ @ @ @ @ @ @ * * # # # # # # # # # # # # # # # # * * * * # # # # # # # # # : 1 : : : : : : : : : : : : : : : : : : : : : : : : : > : > > > 5 5 5 5 5 5 5 5 5 5 5 5 5 5 5 5 5 5 5 5 5 5 5 5 5 5 5 5 9 > : # # # @ # @ @ @ @ # # # # # # # # # # # @ # # # # @ @ @ @ @ @ @ @ @ @ @ # # # # # # # # # # # # # # # # # # # @ # # # # # : : > > > 5 5 > > > > > > > > > 5 > > > > > > > > > > > > > > > > > > 5 5 5 5 5 5 5 5 5 5 5 5 5 5 5 5 5 5 5 5 5 5 5 5 9 9 5 > : # @ @ @ . . @ . . @ @ @ . @ @ @ @ . . @ @ @ . . . @ . . . . @ @ @ @ @ @ @ @ @ @ @ @ @ @ @ @ @ @ @ @ @ @ @ @ @ @ $ $ @ @ # # : : : > > > > : > > > > > > > > > : : : : > > > > : : > > > > > : : : : : > > > > : : > > > > : : > : > > > > : : > > > : : # # @ @ @ @ @ @ @ @ @ @ @ @ @ @ @ @ @ @ @ @ @ @ @ @ @ @ @ @ @ @ @ @ @ . . . @ @ @ . . @ @ @ @ @ @ @ @ @ @ @ @ @ @ @ @ @ @ ",
"F.s @ # # # @ @ $ # # # @ @ # # # # # # # # @ @ # # # # @ # # # # # # # # # # # # # # # # # # # # # # # # # # # # # # # # # # # # * @ @ @ @ @ @ @ @ # # # * @ @ # @ @ @ @ * * @ # @ @ @ @ * * * * * * # # * * * # # * * * * * * # # # # # # # # # # # # # : : : : : : : : : : : : : : : : : : : : > : : : : : : : : > > > > 5 5 5 5 5 5 5 5 5 5 5 5 5 5 5 5 5 5 5 5 5 5 5 5 5 5 5 9 > : # # # @ @ @ @ @ @ @ @ # # # # # # # # # # # # # # # # # # # # @ @ @ # # # # # # # # # # # # # # # # # # # # @ @ # # # # # : , < > > > 5 > > > > 5 5 5 5 5 5 5 > > > 5 > > > > > > > 5 5 5 5 5 5 5 5 5 5 5 5 5 5 5 5 5 5 5 5 5 5 5 5 5 5 5 5 5 5 9 9 5 > : # @ @ . . . . . . . . @ @ @ @ @ @ @ @ . . . . @ @ . . . . @ @ @ @ @ @ @ @ @ @ @ @ @ @ @ @ @ @ @ @ @ @ @ @ @ @ @ $ $ @ @ # # : : : > > > > > > > > > > > > > > > > > > > > > > > > > > > > > > > > > > > > > > > > > > > > > > > > > > > > > > > : > : : # @ @ @ @ @ @ @ @ # # @ @ @ @ @ @ @ @ @ @ @ @ @ @ @ @ @ @ @ @ @ @ @ @ @ @ . . . . . . . . . . . . . . . . . . . . . . . . ",
"F.s @ # # # @ @ # # # # @ @ # # # # # # # # @ @ # # # # @ # # # # # # # # # # # # # # # # # # # # # # # # # # # # # # # # # # * * @ @ @ @ @ @ @ @ @ # @ * @ @ @ # @ @ @ @ @ * @ # @ @ @ @ @ * * * * * # * * * * # # * * * * * * # # # # # # # # # # # # # : : : : : : : : : : : : : : : : : : : : > : : : : : : : : > > > > 5 5 5 5 5 5 5 5 5 9 5 5 5 5 5 5 5 5 5 5 5 5 5 5 5 5 5 9 < : # # # @ @ @ @ @ @ @ # # # # # # # # # # # # # # # # # # # # # @ @ @ # # # # # # # # # # # # # # # # # # # # @ @ # # # # # : , < > > > > > > > > 5 5 5 5 5 5 5 > > > 5 5 > > > > > > 5 5 5 5 5 5 5 5 5 5 5 5 5 5 5 5 5 5 5 5 5 5 5 5 5 5 5 5 5 5 9 9 5 > : # @ . . . . . . . . . @ @ @ @ @ @ @ @ @ . . . @ @ . @ . . @ @ @ @ @ @ @ @ @ @ @ @ @ @ @ @ @ @ @ @ @ @ @ @ @ @ @ @ $ @ @ # # : : : > > > > > > > > > > > > > > > > > > > > > > > > > > > > > > > > > > > > > > > > > > > > > > > > > > > > > > > : > : # # @ @ @ @ @ @ @ @ # # @ @ @ @ @ @ @ @ @ @ @ @ @ @ @ @ @ @ @ @ @ @ @ @ @ @ . . . . . . . . . . . . . . . . . . . . . . . . ",
"Z.u @ # : # @ @ @ # # # @ @ * # # @ # # # # @ @ # # @ @ @ @ # # # # # # # # # # # # # # # # # # # # # # # # # # # # # # # # # * @ @ @ @ @ @ @ @ @ @ @ @ @ @ @ @ @ @ @ @ @ @ @ @ @ @ @ @ @ @ @ @ @ * * * * * @ @ * * * * * * * * * # # # # # # # # # # # # : : : : : : : : : : : : : : : : : : : : > : : : : : : : : > > > 5 5 5 5 5 5 5 5 5 9 9 5 5 5 5 5 5 5 5 5 5 5 5 5 5 5 5 5 5 < : # # * @ # # # # # # # # @ @ @ @ # # # # # # @ @ @ @ # # # # # # @ @ # # # # # # # # # # # # # # # # # # # # # @ # # # # # : , < > > > 5 5 5 5 5 5 5 5 5 5 5 5 5 5 5 5 5 5 5 5 5 5 5 > > 5 5 5 5 9 5 9 5 5 5 5 5 5 5 5 5 5 5 5 5 5 5 5 5 5 5 5 5 6 5 5 > : @ @ . . . . . @ @ @ @ @ @ . . . . @ @ @ . . @ @ @ @ . @ @ @ @ @ @ @ @ @ @ @ @ @ @ @ @ @ @ @ @ @ @ @ @ @ @ @ @ @ @ $ @ @ # # : 2 2 > > > > > > > > > > > > > > > > > > > > > > > > > > > > > > > > > > > > > > > > > > > > > > > > > > > > > > > : > : # # @ @ @ @ @ @ @ @ # # @ @ @ # @ @ @ @ @ @ @ @ # @ @ @ @ @ @ @ @ @ @ @ @ @ @ @ . . . . . @ . . . . . . . . . @ . . . . . . ",
"Z.u @ # : # @ @ @ # # # @ @ * * # @ # # # # @ @ # # @ @ @ @ # # # # # # # # # # # # # # # # # # # # # # # # # # # # # # # # # * @ @ @ @ @ @ @ @ @ @ @ @ @ @ @ @ @ @ @ @ @ @ @ @ @ @ @ @ @ @ @ $ @ @ @ @ @ @ @ @ @ @ @ @ @ @ @ @ # # # # # @ @ @ @ # # # # # : : : : : : : : : : : : : : : : : : : > : : : : : : > : > > > 5 5 5 5 5 5 5 5 5 9 9 5 5 5 5 5 5 5 5 5 5 5 5 5 5 5 5 5 5 > : # # * @ # # # # # # # # @ @ @ @ # # # # # # @ @ @ @ # # # # # # # @ # # # # # # # # # # # # # # # # # # # # # @ # # # # # : , < > > 5 5 5 5 5 5 5 5 5 5 5 5 5 5 5 5 5 5 5 5 5 5 5 5 > > 5 5 5 5 9 9 9 5 5 5 5 5 5 5 5 5 5 5 5 5 5 5 5 5 5 5 5 5 6 5 5 > : @ @ . . . . . @ @ @ @ @ . . . . . . . @ @ @ @ @ @ @ @ @ @ @ @ @ @ @ @ @ @ @ @ @ @ @ @ @ @ @ @ @ @ @ @ @ @ @ @ @ @ $ @ @ # # : 2 2 > > > > > > > > > > > > > > > > > > > > > > > > > > > > > > > > > > > > > > > > > > > > > > > > > > > > > > > > > : : # @ @ $ @ @ @ @ @ @ # @ @ @ @ @ @ @ # @ @ @ @ # @ @ @ @ @ @ @ @ @ @ @ @ @ @ @ . . . . @ @ . . . . . . @ . @ . . . . . . . ",
"Z.u @ # : : @ $ @ # # # @ @ * # # # # # # # # # # # # # # # # # # # # # # # # # # # # # # # # # # # # # # # # # # # # # # # # @ @ @ @ @ @ @ @ @ @ @ @ @ @ @ @ @ @ @ @ @ @ @ @ @ @ @ @ @ @ @ @ @ @ @ @ @ $ @ @ $ $ $ $ $ $ $ $ $ @ # # @ @ $ @ $ @ @ # # # # : : : : : : : : : : : : : : : : : : : : > > : : : : : : > > > 5 5 5 6 6 6 6 6 6 6 6 6 6 6 6 6 6 6 6 6 6 9 9 5 5 5 5 5 5 < : # # # * @ # # # @ @ @ @ @ # # @ @ @ @ @ @ @ @ @ @ @ @ @ # # # # # # # # # # # # # # # # # # # # # # # # # # # # # # # # : : : < > > 5 5 5 5 5 5 5 5 5 5 5 5 5 5 5 5 5 5 9 9 > 9 9 9 5 5 5 5 5 5 5 5 5 5 5 5 5 5 5 5 5 5 5 5 5 5 5 5 5 5 5 5 5 5 5 5 5 < : @ @ . .   . . @ @ . . . . @ @ @ @ . . . . @ @ @ @ @ @ @ @ @ @ @ @ @ @ @ @ @ @ @ @ @ @ @ @ @ @ @ @ @ @ @ @ @ @ @ . @ @ @ # # : : > > > > > > > > > > > > > > > > > > > > > > > > > > > > > > > > > > > > > > > > > > > > > > > > > > > > > > > > > > : : # # $ $ @ @ @ @ @ @ @ @ @ @ @ @ @ @ @ @ @ @ @ @ @ @ @ @ @ @ @ @ @ @ @ @ @ @ @ @ @ @ @ @ . . . . . . . . . . . . . . . . . ",
"Z.u @ # : : @ $ # # # # * * # # * * * * * * # # # # # # * * # # # # # # # # # # # # # # # # # # # # # # # # # # # # # # # # # # @ @ @ @ @ @ . . @ @ . . @ @ @ @ @ @ @ @ @ @ @ @ . . . . @ @ @ @ @ @ @ @ @ @ @ @ @ @ @ @ @ @ @ @ @ @ @ @ @ @ @ @ @ $ @ @ # # # : : : : : : : : : : : : : : : : : : : : > : : : : : : > > 5 5 5 5 6 6 6 6 6 6 6 6 6 6 6 6 6 6 6 6 6 6 9 9 5 5 6 5 5 5 < : # # # * @ @ # # @ @ @ @ # # # # @ @ @ @ @ @ @ @ @ @ @ @ # # # # # # # # # # # # # # # # # # # # # # # # # # # # # # # # # : : < > > 5 5 5 5 5 5 5 5 > > 5 5 5 5 5 5 5 > > 5 > > > > 5 5 9 9 5 5 5 5 5 5 5 5 5 5 5 9 5 9 5 5 5 5 5 9 5 5 5 5 5 5 9 5 5 < : @ @ . . . . . @ @ @ @ @ @ @ @ @ @ @ @ @ @ @ @ @ @ @ @ @ @ @ @ @ @ @ @ @ @ @ @ @ @ @ @ @ @ @ @ @ @ @ @ @ @ @ @ @ @ @ @ @ # # : : > > > > > > : > : > : > > > > > > > : > > > > > : > : > > > > > > > : > > > > > : > > > > > > > > > > > > > > > > > : : # @ @ $ @ @ @ @ @ @ @ @ @ @ @ @ @ @ @ @ @ @ @ @ @ @ @ @ @ @ @ @ @ @ @ @ @ @ @ @ @ @ @ @ . @ . @ . @ . @ . @ . @ . @ . @ . ",
"F.u @ # : : @ @ # # # # * * # # # * * * * * * * * * # * * * * * # # # # # # # # # # # # # # # # # # # # # # # # # # # # # # # # @ @ @ @ @ @ @ @ @ @ @ @ @ @ @ @ @ @ @ @ @ @ @ @ @ @ @ @ @ @ @ @ $ $ @ @ @ $ @ $ @ $ @ $ @ $ @ @ @ # @ @ $ $ $ $ $ $ # # # # # # : : : : > > > > : : : : > > > > : > > > > > > > > > > > 5 9 5 5 6 6 6 6 6 6 6 6 6 6 6 6 6 6 6 6 6 6 6 9 6 6 6 5 5 5 < : # # # * # # # # # @ @ # # # # # # @ @ @ # # @ # # @ @ @ @ @ # # @ @ @ @ # # # # # # # # # # # # # # # # @ @ @ @ # # # # # : : > > > 5 5 > > > > > > > > > > > > > > > > > > > > > > > > 9 9 9 5 5 5 5 5 5 9 5 9 9 > 9 9 5 > 5 > 5 9 9 5 > > 5 5 5 5 > < : @ @ . . . . @ @ @ @ @ @ @ @ @ @ @ @ @ @ @ @ @ @ @ @ @ @ @ @ @ @ @ @ @ @ @ @ @ @ @ @ @ @ @ @ @ @ @ @ @ @ @ @ @ @ @ @ @ # # # : : : : : : : > : : : : : > : > : : : : : > : > : : : : : > : > : : : : : : : : : : : : : : : : : : : : : : : : : > > > : : # @ @ @ @ @ @ @ @ @ @ @ @ @ @ @ @ @ @ @ @ @ @ @ @ @ @ @ @ @ @ @ @ @ @ @ @ @ @ @ @ @ @ @ @ @ @ @ @ @ @ @ @ @ @ @ @ @ @ @ @ ",
"H.u @ # : : @ $ # # # # * # # # # # # # * * * # # # # # * * # # # # # # # # # # # # : # # # # # # # # # # # # # # # # # # # # # @ @ @ @ @ @ @ @ @ @ @ @ @ @ @ @ @ $ @ @ @ @ @ @ @ @ @ @ @ $ @ $ @ @ # @ * @ @ @ # @ # @ * @ @ # # # # # @ @ @ @ # # # # # # : : : : : : > : > : : : : : > : > > > > : : > > : : > > > > 5 5 5 5 5 5 5 5 6 6 6 6 5 5 9 9 9 5 5 5 5 5 5 5 5 5 5 5 5 5 < : # # # * # @ # # # @ @ # # # # # # # @ @ # # # # # # @ # @ @ @ # @ @ @ @ # # # # # # # # # # # # # # # # @ @ @ @ # # # # # : : > > > 5 9 > > > > > > > > > > > > > > 5 > > > > > > > > > 9 9 9 9 > > 5 > 9 > 9 > > > > > > > > > 9 > 9 > > > 5 5 5 5 > < : @ . @ . . . @ @ . . . @ @ . @ @ @ @ @ . . . . @ @ @ @ @ @ @ @ @ @ @ @ @ @ @ @ @ @ @ @ @ @ @ @ @ @ @ @ @ @ @ @ @ @ @ # # # # : : : : : : : : : : : : : : : : : : : : : : : : : : : : : : : : : : : : : : : : : : : : : : : : : : : : : : : : : > > > : : # @ @ @ @ @ @ @ @ @ @ @ @ @ @ @ @ @ @ @ @ @ @ @ @ @ @ @ @ @ @ @ @ @ @ @ @ @ @ @ @ @ @ @ @ @ @ @ @ @ @ @ @ @ @ @ @ @ @ @ @ ",
"H.) $ # : : @ $ @ # # # @ @ # # # # # # # # # # # # # # # # # # # # # # # # # # : # : # # # # # # # # # # # # # # # # # # # # # # @ # @ # @ # @ # @ # @ # @ # @ # @ # @ @ @ @ @ @ @ # @ # @ # # # # # # # # # # # # # # # # # # # # # # # # # # # # # # # : : : : : > : > : > : > : > : > : > : > > > > : : : : > > > > 5 6 6 6 5 5 5 5 5 5 5 5 5 9 9 9 5 5 5 5 5 5 5 5 5 5 5 5 5 5 < : # # # # # # @ @ @ @ # # # @ @ @ # # # # # # @ @ @ # # # @ @ # # # @ @ @ # # # # # # # # # # # # # # # # @ @ @ @ # # # # # : < < > > 5 9 > > > > > > > > > > > < > > > > > > > > > > > > > > > > > > > > > > > > > > > > > > > > > > > > > > > 5 5 5 > < : # @ . @ . @ @ . . . . . . . . . . . . . . . . . . @ @ @ @ @ @ @ @ @ @ @ @ @ @ @ @ @ @ @ @ @ @ @ @ @ @ @ @ @ @ @ # # # # # # : : : : : : : : : : : : : : : : : : : : : : : : : : : : : : : : : : : : : : : : : : : : : : : : : : : : : : : : > < < > : : # # @ @ @ @ @ @ @ # # @ @ @ @ @ @ @ @ @ # @ @ @ @ @ @ @ @ @ @ @ @ @ @ @ @ @ @ @ @ @ @ @ @ @ @ @ @ @ @ @ @ @ @ @ @ @ @ @ @ ",
"L.) & : : : @ $ # # # # # # # # # # # # # # # # # # # # * # # # # : : : : : : : : : : : : : : : : # # # # # # : # # # # # # # # # # # # # # # # # # # # # # # # # # # # # # # # # # # # # # # # # # : # : # : # : # : # : # : : : : # # # # # # # # # : : : : : > > > > > > > > > > > > > > > > > > > > : : : : > > > > 5 6 6 5 5 5 5 5 5 5 5 5 5 9 6 6 5 5 5 5 5 5 5 5 5 5 5 5 5 5 < : # # # # * * * * # # * # * * * * # # * # * * * * # # * # @ @ # # # # @ @ # # # # # # # # # # # # # # # # # # # @ # # # # : : < < > > > > > > > > > > > > > > > > > > > > > > > > > > > > > > > > > > > > > > > > > > > > > > > > > > > < < < > > 9 9 > < : # @ @ @ @ @ @ @ @ @ @ . . . . @ @ @ @ @ @ @ @ @ @ @ @ @ @ @ @ @ @ @ @ # # # # @ @ @ @ @ @ @ @ # # # # @ @ @ @ @ # # # # # : : : : : , 1 1 1 1 : : : : : : : : : : : : : : : : : : : : : : : : : : : : : : : : : : : : : : : : : : : : : : : : : : : : : # # $ @ @ @ @ @ @ # # @ @ @ @ @ @ @ @ @ @ @ @ @ @ @ @ @ @ @ @ @ @ @ @ @ @ @ @ @ @ @ @ @ @ @ @ @ @ @ @ @ @ @ @ @ @ @ @ @ @ ",
"(.) * : : : @ % # # : # * * # : # # # # # # # # # # # # # # # # : : : : : : : : : : : : : : : : : : : : : : : : : : : : : : : : : : : : : : : : : : : : : : : : : : : : : : : : : : : : : : : : : : > : > : > : > : > : > : > : : : : : : : : : : : : : > > > > > > > > > > > > > > > > > > > > > > > > > > > > > > > > 5 5 5 5 5 5 5 5 5 5 5 5 5 5 5 5 5 5 5 5 5 5 5 5 5 5 5 5 5 5 < : # # # # * * * * # # # # * * * * # # # # * * * * # # # # * * * * # # * * # # # # # # # # # # # # # # # # # # # # # # # # : : , > > > > > > : : : > > : : : : : : : : : : : : : : : : : : > > > > > > > > > > > > > > > > > > > > > > > > : : > > > > > > 1 # @ @ $ @ @ @ @ @ @ @ @ @ @ @ @ @ @ @ @ @ @ @ @ @ @ @ @ @ @ @ @ @ * * * * * * # # # # # # # # # # # # # # # # # # # # # # # : : : : : : : : : : : : : : : : : : : : : : : : : : : : : : : : : : : : : : : : : : : : : : : : : : : : : : : : : : : : : : # # $ @ @ @ @ @ @ # # @ @ @ @ @ @ @ @ @ @ @ @ @ @ @ @ @ @ @ @ @ @ @ @ @ @ @ @ @ @ @ @ @ @ @ @ @ @ @ @ @ @ @ @ # @ @ @ @ @ ",
"_.) * : : : # % # : : : # # : : # # # # : # # # # # # # : # # : : > : : : > > > : : : : : : : > > > : : : : : : : : > > > > > > 9 5 9 5 9 5 9 5 9 9 9 9 9 5 9 5 9 9 9 5 6 9 9 9 9 5 9 9 9 5 9 5 6 6 6 6 6 6 6 6 6 6 9 6 6 6 6 6 9 9 9 9 6 6 9 6 q 6 6 6 5 5 5 5 5 > > > > > > > > > > > > > > > > > > > > > > > > > > > 5 5 5 5 5 5 5 5 5 5 5 5 5 5 5 5 5 5 5 5 5 5 5 5 5 5 5 5 5 9 < : # # # # # # * # # # # # * # * # # # # # * # * # # # # # # # # # # # # # # # # # # # # # # # # # # # # # # # # # # # # # # : : : : : : : : : : : : : : : : : : : : : : : : : : : : : : : : : : : : : : : # # : : : : : : : : : : # # : # # # # : : : : # 1 # @ @ $ @ @ * @ @ $ $ $ $ $ $ $ $ $ $ $ $ @ @ @ @ @ @ * # * # * # * * * # # # # # # # # # * # * # # # * # * # # # # # # # # # # # # # # # # # # # # # # # # # # # # # # # # # # # # # # # # # # # # # # # # # # # # # # # # # # # # # # # # # # # # # # # @ @ @ @ @ @ @ @ @ # # # # @ @ @ # # # # # # # # # @ * * * * * * * * * * $ $ * * * * * * # * # * # * # * # * # * # * # * ",
"R._ 1 > > > # % : : : : : : : : : : : : : : : : : : : : : : : : > > > > > > > > > > > > > > > > > > > > > > > > > > > > > > 9 0 @.@.@.@.@.@.@.o.@.@.@.@.@.@.@.@.@.@.@.o.@.@.@.@.@.@.@.@.@.@.@.o.@.o.@.o.@.@.@.@.@.o.@.o.@.@.@.@.@.@.@.@.@.@.@.@.@.@.@.@.0 6 5 5 5 5 5 5 5 5 5 5 5 5 5 5 5 5 5 5 5 5 5 5 5 5 5 5 5 5 5 5 5 5 5 5 5 5 5 5 5 5 5 5 5 5 5 5 5 5 5 5 5 5 5 5 5 5 5 9 5 > > : : # # # # # # # # # # # # # # # # # # # # # # # # # # # # # # # # # # # # # # # # # # # # # # # # # # # # # # # # # # # # # # # # # # # # # # # # # # # # # # # # # # # # # # # # # # # @ @ @ @ @ @ @ @ @ @ @ @ @ @ @ @ @ @ @ @ @ @ @ @ @ @ @ @ @ @ @ @ # # # # # # # # # # # # @ @ # # # # @ @ @ # # # # # # # # @ # # # # # # # # # # # # # # # # # # # # # # # # # # : : : # # # # @ @ @ @ @ @ @ @ @ @ . @ . @ @ @ @ @ . @ . @ @ @ @ @ @ @ @ @ @ @ @ @ @ @ @ @ @ @ @ @ @ @ @ @ @ @ @ @ @ @ @ @ @ @ @ @ @ @ @ # # * # # # # # # # # # # # # # # # # # # # # # # # # # # # # # # : : 1 : : : : # # # # : : : : : : : : : : : : : : : : : : ",
"R. .1 > > > # : : : > : : : : : > : : : : : : : : : : : : : : > > > > > > > > > > > > > > > > > 5 5 > > > > > > > > 5 > > 5 9 0 o.O.O.O.O.O.O.O.O.O.O.O.O.O.O.O.O.O.O.O.O.O.O.O.O.O.O.O.O.O.O.O.O.O.O.O.O.O.O.O.O.O.O.O.O.O.O.O.O.O.O.O.o.o.O.O.O.O.O.O.o.6 5 5 5 5 5 5 5 5 5 5 5 5 5 5 5 5 5 5 5 5 5 5 5 5 5 5 5 5 5 5 5 5 5 5 5 5 5 5 5 5 5 5 5 5 5 5 5 5 5 5 5 > 5 5 5 5 9 5 5 > > : : # # # : : : : : : : : : : : : : : : : : : : : : : : : : : : : : : : : : : : : # # # # # # : : : : : : : # # # # # # # # # # # # # # # @ # @ @ @ @ # # # # @ @ # @ # # * * # * # # @ @ @ @ @ @ @ @ @ @ @ @ @ @ @ @ @ @ @ @ @ @ @ @ @ @ . . . . @ @ @ @ @ @ # # # # # # # # # # # # # # # # # # # # # # # # # # # # # # # # # # : : : : : : : : : : : : : : : : # # # # : : : # # # @ @ @ . . . . . . . . . . . . . . . . . . . . . . . . . . . . . @ @ @ @ @ @ @ @ @ @ @ @ @ @ @ @ @ @ @ @ @ @ @ @ @ @ @ @ @ @ @ # * # # # # # # # # # # # # # # # # # # # # # # # # # # # # # : : : : : : : : : : : : : : : : : : : : : : : : : : : : : : ",
"R. .1 > > > # : : : > > : : : : > : : : : : : : : : : : : : : > > > > > > > > > > > > > > > > > > > > > > > > > > > 5 > > 5 9 0 o.O.O.O.O.O.O.O.O.O.O.O.O.O.O.O.O.O.O.O.O.O.O.O.O.O.O.O.O.O.O.O.O.O.O.O.O.O.O.O.O.O.O.O.O.O.O.O.O.O.O.O.o.o.O.O.O.O.O.O.o.6 5 5 5 5 5 5 5 5 5 5 5 5 5 5 5 5 5 5 5 5 5 5 5 5 5 5 5 5 5 5 5 5 5 5 5 5 5 5 5 5 5 5 5 5 5 5 5 5 5 5 5 > 5 5 5 5 9 5 5 > > : : # # # : : : : : : : : : : : : : : : : : : : : : : : : : : : : : : : : : : : : : : # : # # # : : : : : : : : : # # # # # # # # @ @ # # # # # # # # # # # # @ @ @ @ @ # * * * * * * @ @ @ @ @ @ @ @ @ @ @ @ @ @ @ @ @ @ @ @ @ @ @ @ @ @ . . . . @ @ @ @ @ @ # # # # # # # # # # # # # # # # # # # # # # # # # @ # # # # # # # # # # # # : : : : : : # # : : : : : : : : : : : # # # @ @ @ . . . . . . . . . . . . . . . . . . . . . . . . . . . . . @ @ @ @ @ @ @ @ @ @ @ @ @ @ @ @ @ @ @ @ @ @ @ @ @ @ @ @ @ @ @ # # # # # # # # # # # # # # # # # # # # # # # # # # # # # # # : : : : : : : : : : : : : : : : : : : : : : : : : : : : : : ",
"R. .1 > > > # , : : > : : : > > > : : : : : : : : : : : : : : : > > > > > > > > > > > > > > > > > > > > > > > > > > 5 > > 5 9 0 o.O.O.O.O.O.O.O.O.O.O.O.O.O.O.O.O.O.O.O.O.O.O.O.O.O.O.O.O.O.O.O.O.O.O.O.O.O.O.O.O.O.O.O.O.O.O.O.O.O.O.O.o.o.O.O.O.O.O.O.o.6 5 5 5 5 5 5 5 5 5 5 5 5 5 5 5 5 5 5 5 5 5 5 5 5 5 5 5 5 5 5 5 5 5 5 5 5 5 5 5 5 5 5 5 5 5 5 5 5 5 5 5 > 5 5 5 5 5 5 5 > > : : # # # : : : : : : : : : : : : : : : : : : : : : : : : : : : # # : : : : : : : : : : : # # # : : : : : : : : : # # # # # # # # @ @ # # # # # # # # # # # # # @ @ @ @ # * * * * * * @ @ @ @ @ @ @ @ @ @ @ @ @ @ @ @ @ @ @ @ @ @ @ @ @ @ . . . . @ @ @ @ @ @ # # # # # # # # # # # # # # # # # # # # # # # # # @ # # # # # # # # # # # # : : : : # # # # : : : : : : : : : : : # # # @ @ @ . . . . . . . . . . . . . . . . . . . . . . . . . . . . . @ @ @ @ @ @ @ @ @ @ @ @ @ @ @ @ @ @ @ @ @ @ @ @ @ @ @ @ @ @ @ # * # # # # # # # # # # # # # # # # # # # # # # # # # # # # # : : : : : : : : : : : : : : : : : : : : : : : : : : : : : : ",
"R. .1 > > > # , : : > : : : > > > : : : : : : : : : : : : : : : > > > > > > > > > > > > > > > > > > > > > > > > > > 5 > > 5 9 0 @.O.O.O.O.O.O.O.O.O.O.O.O.O.O.O.O.O.O.O.O.O.O.O.O.O.O.O.O.O.O.O.O.O.O.O.O.O.O.O.O.O.O.O.O.O.O.O.O.O.O.O.O.O.O.O.O.O.O.O.o.6 5 5 5 5 5 5 5 5 5 5 5 5 5 5 5 5 5 5 5 5 5 5 5 5 5 5 5 5 5 5 5 5 5 5 5 5 5 5 5 5 5 5 5 5 5 5 5 5 5 5 5 5 5 5 5 5 9 5 5 > > : : # # # : : : : : : : : : : : : : : : : : : : : : : : : : : : : # # # : : : : : : : : : : : : : : : : : : : # # # # # # # # # # @ @ # # # # # # # # # # # # @ @ @ @ # # * * * * * * @ @ @ @ @ @ @ @ @ @ @ @ @ @ @ @ @ @ @ @ @ @ @ @ @ @ . . . . @ @ @ @ @ @ # # # # # # # # # # # # # # # # # # # # # # @ @ @ @ # # # # # # # # : : : : : : # : : : # # : : : : : : : : : : : # # # @ @ @ . . . . . . . . . . . . . . . . . . . . . . . . . . . . . @ @ @ @ @ @ @ @ @ @ @ @ @ @ @ @ @ @ @ @ @ @ @ @ @ @ @ @ @ @ @ @ * # # # # # # # # # # # # # # # # # # # # # # # # # # # # # : : : : : : : : : : : : : : : : : : : : : : : : : : : : : : ",
"R. .1 > > > # , : : > : : : > > > : : : : : : : : : : : : : : : > > > > > > > > > > > > > > > > 5 > > > > > > > > > 5 > > 5 9 0 @.O.O.O.O.O.O.O.O.O.O.O.O.O.O.O.O.O.O.O.O.O.O.O.O.O.O.O.O.O.O.O.O.O.O.O.O.O.O.O.O.O.O.O.O.O.O.O.O.O.O.O.o.O.O.O.O.O.O.O.o.6 5 5 5 5 5 5 5 5 5 5 5 5 5 5 5 5 5 5 5 5 5 5 5 5 5 5 5 5 5 5 5 5 5 5 5 5 5 5 5 5 5 5 5 5 5 5 5 5 5 5 5 5 5 5 5 5 5 5 5 5 > : : # # # : : : : : : : : : : : : : : : : : : : : : : : : : : : : # # # # : : : : : : : : : : : : # : : : : : # # # # # # # # # # @ @ # # @ @ # # # # # # # # @ @ # @ # # * * * * * * @ * @ @ @ @ @ @ @ @ @ @ @ @ @ @ @ @ @ @ @ @ @ @ @ @ . . . . @ @ @ @ @ @ # # # # # # # # # # # # # # # # # # # # # # @ @ @ @ # # # # # # # # : : : : : : # # : : : : : : : : : : # : : : : # # # @ @ @ . . . . . . . . . . . . . . . . . . . . . . . . . . . . . @ @ @ @ @ @ @ @ @ @ @ @ @ @ @ @ @ @ @ @ @ @ @ @ @ @ @ @ @ @ @ @ * # # # # # # # # # # # # # # # # # # # # # # # # # # # # # : : : : : : : : : : : : : : : : : : : : : : : : : : : : : : ",
"R. .1 > > > # : : : > : : : : : : : : : : : : : : : : : : : : > > > > > > > > > > > > > > > > > 5 5 > > > > > > > > 5 > 5 5 9 0 @.O.O.O.O.O.O.O.O.O.O.O.O.O.O.O.O.O.O.O.O.O.O.O.O.O.O.O.O.O.O.O.O.O.O.O.O.O.O.O.O.O.O.O.O.O.O.O.O.O.O.O.o.O.O.O.O.O.O.O.o.6 5 5 5 5 5 5 5 5 5 5 5 5 5 5 5 5 5 5 5 5 5 5 5 5 5 5 5 5 5 5 5 5 5 5 5 5 5 5 5 5 5 5 5 5 5 5 5 5 5 5 5 5 5 5 5 5 9 5 5 > > : : # # # : : : : : : : : : : : : : : : : : : : : : : : : : : : : : # : : : : : : # # # # : : # # # # : : : # # # # # # # # # # # # # # # @ @ @ # # # @ # # # # @ # # # # * * # * # @ @ @ @ @ @ @ @ @ @ @ @ @ @ @ @ @ @ @ @ @ @ @ @ @ @ @ @ @ . . @ @ @ @ # # # # # # # # # # # # # # # # # # # # # # # # # # # # # # # # # # # # : : : : : # # # : : : : : : : : # # # # : : : # # # @ @ @ . . . . . . . . . . . . . . . . . . . . . . . . . . . . . @ @ @ @ @ @ @ @ @ @ @ @ @ @ @ @ @ @ @ @ @ @ @ @ @ @ @ @ @ @ @ # * # # # # # # # # # # # # # # # # # # # # # # # # # # # # # : : : : : : : : : : : : : : : : : : : : : : : : : : : : : : ",
"R. .1 > > > # : : : > : : : : : : : : : : : : : : : : : : : : > > > > > > > > > > > > > > > > > 5 5 > > > > > > > > 5 > 5 5 9 0 @.O.O.O.O.O.O.O.O.O.O.O.O.O.O.O.O.O.O.O.O.O.O.O.O.O.O.O.O.O.O.O.O.O.O.O.O.O.O.O.O.O.O.O.O.O.O.O.O.O.O.O.o.o.O.O.O.O.O.O.o.6 5 5 5 5 5 5 5 5 5 5 5 5 5 5 5 5 5 5 5 5 5 5 5 5 5 5 5 5 5 5 5 5 5 5 5 5 5 5 5 5 5 5 5 5 5 5 5 5 5 5 5 5 5 5 5 5 9 5 5 > > : : # # # : : : : : : : : : : : : : : : : : : : : : : : : : : : : : : : : : : : # # # # # : : : # # # : : : : # # # # # # # # # # @ # # # @ @ @ # # # @ @ # # # @ # # # # # # # # # @ @ @ @ @ @ @ @ @ @ @ @ @ @ @ @ @ @ @ @ @ @ @ @ @ @ @ @ @ . . @ @ @ @ # # # # # # # # # # # # # # # # # # # # # # # # # # # # # # # # # # # # : : : : # # # # : : : : # : : : # # # # : : : # # # @ @ @ . . . . . . . . . . . . . . . . . . . . . . . . . . . . . @ @ @ @ @ @ @ @ @ @ @ @ @ @ @ @ @ @ @ @ @ @ @ @ @ @ @ @ @ @ @ # * # # # # # # # # # # # # # # # # # # # # # # # # # # # # # : : : : : : : : : : : : : : : : : : : : : : : : : : : : : : ",
"Y.z 1 > > > # , : : > > : : : : : : : : : : : : : : : : : : : > > > > > > > > > > > > > > > > > > > > > > > > > > > > > 5 > 9 0 @.O.O.O.O.O.O.O.O.O.O.O.O.O.O.O.O.O.O.O.O.O.O.O.O.O.O.O.O.O.O.O.O.O.O.O.O.O.O.O.O.O.O.O.O.O.O.O.O.O.O.O.o.o.O.O.O.O.O.O.o.6 5 5 5 5 5 5 5 5 5 5 5 5 5 5 5 5 5 5 5 5 5 5 5 5 5 5 5 5 5 5 5 5 5 5 5 5 5 5 5 5 5 5 5 5 5 5 5 5 5 5 5 > 5 5 5 5 9 5 5 > > > : # # # : : : : : : : : : : : : : : : : : : : : : : : : : : : # # # : : # # # # : : : : : : : # # # : : : : : : # # # # # # # # @ @ # # @ @ # # # # @ @ # # @ @ # # # # # # # # * * * @ @ @ @ @ @ @ @ @ @ @ @ @ @ @ @ @ @ @ @ @ @ @ @ @ . . . . @ @ @ @ @ @ # # # # # # # # # # # # # # # # # # # # # # # # # # # # # # # # # # # # # # : : : : : : : : # # : : : : : : : : : # # # @ @ @ . . . . . . . . . . . . . . . . . . . . . . . . . . . . . @ @ @ @ @ @ @ @ @ @ @ @ @ @ @ @ @ @ @ @ @ @ @ @ @ @ @ @ @ @ @ # * # # # # # # # # # # # # # # # # # # # # # # # # # # # # # : : : : : : : : : : : : : : : : : : : : : : : : : : : : : : ",
"Y.z 1 > > > # , : : > > : : : : > : : : : : : : : : : : : : : > > > > > > > > > > > > > > > > > > > > > > > > > > > > > 5 > 9 0 o.O.O.O.O.O.O.O.O.O.O.O.O.O.O.O.O.O.O.O.O.O.O.O.O.O.O.O.O.O.O.O.O.O.O.O.O.O.O.O.O.O.O.O.O.O.O.O.O.O.O.O.o.o.O.O.O.O.O.O.o.6 5 5 5 5 5 5 5 5 5 5 5 5 5 5 5 5 5 5 5 5 5 5 5 5 5 5 5 5 5 5 5 5 5 5 5 5 5 5 5 5 5 5 5 5 5 5 5 5 5 5 5 > 5 5 5 5 9 5 5 5 > > : # # # : : : : : : : : : : : : : : : : : : : : : : : : : : : : # # : : # # # # : : : : : : # # # # : : : : : : # # # # # # # # @ @ # # @ @ # # # # @ @ # # # @ # # # # # # # # * * * * @ @ @ @ @ @ @ @ @ @ @ @ @ @ @ @ @ @ @ @ @ @ @ @ . . . . @ @ @ @ @ # # # # # # # # # # # # # # # # # # # # # # # # # # # # # # # # # # # # # # : : : : : : : : : # # : : : : # # : : : # # # @ @ @ . . . . . . . . . . . . . . . . . . . . . . . . . . . . . @ @ @ @ @ @ @ @ @ @ @ @ @ @ @ @ @ @ @ @ @ @ @ @ @ @ @ @ @ @ @ # * # # # # # # # # # # # # # # # # # # # # # # # # # # # # # : : : : : : : : : : : : : : : : : : : : : : : : : : : : : : ",
"Y.z 1 > > > # , : : > : : : : : > : : : : : : : : : : : : : : > > > > > > > > > > > > > > > > > > > > > > > > > > > > > 5 > 9 0 o.O.O.O.O.O.O.O.O.O.O.O.O.O.O.O.O.O.O.O.O.O.O.O.O.O.O.O.O.O.O.O.O.O.O.O.O.O.O.O.O.O.O.O.O.O.O.O.O.O.O.O.o.o.O.O.O.O.O.O.o.6 5 5 5 5 5 5 5 5 5 5 5 5 5 5 5 5 5 5 5 5 5 5 5 5 5 5 5 5 5 5 5 5 5 5 5 5 5 5 5 5 5 5 5 5 5 5 5 5 5 5 5 > 5 5 5 5 9 5 5 > > > : # # # : : : : : : : : : : : : : : : : : : : : : : : : : : : # # # : : : : : : : : # # : # # # # # : : : : : : # # # # # # # # @ @ # # @ @ # # # # # @ # # @ @ # # # # * * # # * * @ @ @ @ @ @ @ @ @ @ @ @ @ @ @ @ @ @ @ @ @ @ @ @ @ @ . . . . @ @ @ @ # # # # # # # # # # # # # # # # # # # # # # # # # # @ @ # # # # # # # # # # : : : : # # # # : : # : : : : # # # : : : # # # @ @ @ . . . . . . . . . . . . . . . . . . . . . . . . . . . . . @ @ @ @ @ @ @ @ @ @ @ @ @ @ @ @ @ @ @ @ @ @ @ @ @ @ @ @ @ @ @ # # # # # # # # # # # # # # # # # # # # # # # # # # # # # # # : : : : : : : : : : : : : : : : : : : : : : : : : : : : : : ",
"Y.z 1 > > > # : : : > : : : : : > : : : : : : : : : : : : : : > > > > > > > > > > > > > > > > > 5 5 > > > > > > > > > > 5 5 9 0 o.O.O.O.O.O.O.O.O.O.O.O.O.O.O.O.O.O.O.O.O.O.O.O.O.O.O.O.O.O.O.O.O.O.O.O.O.O.O.O.O.O.O.O.O.O.O.O.O.O.O.O.o.o.O.O.O.O.O.O.o.6 5 5 5 5 5 5 5 5 5 5 5 5 5 5 5 5 5 5 5 5 5 5 5 5 5 5 5 5 5 5 5 5 5 5 5 5 5 5 5 5 5 5 5 5 5 5 5 5 5 5 5 > 5 5 5 5 9 5 5 > > > : # # # : : : : : : : : : : : : : : : : : : : : : : : : : : : : # # : : : : : : # # # # : # # # # # : : : : : : # # # # # # # # @ @ # # @ @ # # # # # # # # @ @ @ # # # * # # # * # @ @ @ @ @ @ @ @ @ @ @ @ @ @ @ @ @ @ @ @ @ @ @ @ @ @ . . . . @ @ @ @ # # # # # # # # # # # # # # # # # # # # # # # # # # @ @ # # # # # # # # : # : : : : # # # # : : # # : : : # # # : # : # # # @ @ @ . . . . . . . . . . . . . . . . . . . . . . . . . . . . . @ @ @ @ @ @ @ @ @ @ @ @ @ @ @ @ @ @ @ @ @ @ @ @ @ @ @ @ @ @ @ # # # # # # # # # # # # # # # # # # # # # # # # # # # # # # # : : : : : : : : : : : : : : : : : : : : : : : : : : : : : : ",
"Y.z 1 > > > # , : : > : : : > > > : : : : : : : : : : : : : : > > > > > > > > > > > > > > > > > 5 5 > > > > > > > > > 5 5 5 5 0 @.O.O.O.O.O.O.O.O.O.O.O.O.O.O.O.O.O.O.O.O.O.O.O.O.O.O.O.O.O.O.O.O.O.O.O.O.O.O.O.O.O.O.O.O.O.O.O.O.O.O.O.o.o.O.O.O.O.O.O.o.6 5 5 5 5 5 5 5 5 5 5 5 5 5 5 5 5 5 5 5 5 5 5 5 5 5 5 5 5 5 5 5 5 5 5 5 5 5 5 5 5 5 5 5 5 5 5 5 5 5 5 5 5 5 5 5 5 9 5 5 > < : : # # # : : : : : : : : : : : : : : : : : : : : : : : : : : : : : : : : : : # : : : # # : : # # # # : : # # # # # # # # # # # # @ @ @ @ # # # # # # # # # # # # @ @ @ @ * * # # @ @ @ @ @ @ @ @ @ @ @ @ @ @ @ @ @ @ @ @ @ @ @ @ @ @ @ @ . . . . @ @ @ @ @ @ # # # # # # # # # # # # # # # # # # # # # # # @ @ @ # # # # # # # # : : : : : # # # # # # : : : : : : : : : : : : # # # @ @ @ . . . . . . . . . . . . . . . . . . . . . . . . . . . . . @ @ @ @ @ @ @ @ @ @ @ @ @ @ @ @ @ @ @ @ @ @ @ @ @ @ @ @ @ @ @ # * # # # # # # # # # # # # # # # # # # # # # # # # # # # # # : : : : : : : : : : : : : : : : : : : : : : : : : : : : : : ",
"Y.z 1 > > > # , : : > : : : : > > : : : : : : : : : : : : : : > > > > > > > > > > > > > > > > > 5 5 > > > > > > > > > 5 5 5 5 0 @.O.O.O.O.O.O.O.O.O.O.O.O.O.O.O.O.O.O.O.O.O.O.O.O.O.O.O.O.O.O.O.O.O.O.O.O.O.O.O.O.O.O.O.O.O.O.O.O.O.O.O.o.o.O.O.O.O.O.O.o.6 5 5 5 5 5 5 5 5 5 5 5 5 5 5 5 5 5 5 5 5 5 5 5 5 5 5 5 5 5 5 5 5 5 5 5 5 5 5 5 5 5 5 5 5 5 5 5 5 5 5 5 5 5 5 5 5 9 5 5 > > : : # # # : : : : : : : : : : : : : : : : : : : : : : : : : : : # : : : : : : # # : : : : : : # : # # : : # # # # # # # # # # # # @ @ # # # # * # # # # # # # @ @ @ @ # @ * * # # # # @ @ @ @ @ @ @ @ @ @ @ @ @ @ @ @ @ @ @ @ @ @ @ @ @ @ . . . . @ @ @ @ @ @ # # # # # # # # # # # # # # # # # # # # # # # # @ @ # # # # # # # # : : : : : : # # # # : : : : : # : : : : : : : # # # @ @ @ . . . . . . . . . . . . . . . . . . . . . . . . . . . . . @ @ @ @ @ @ @ @ @ @ @ @ @ @ @ @ @ @ @ @ @ @ @ @ @ @ @ @ @ @ @ # * # # # # # # # # # # # # # # # # # # # # # # # # # # # # # : : : : : : : : : : : : : : : : : : : : : : : : : : : : : : ",
"Y.z 1 > > > # , : : > : : : > > > : : : : : : : : : : : : : : > > > > > > > > > > > > > > > > > > > > > > > > > > > > > > > 5 0 @.O.O.O.O.O.O.O.O.O.O.O.O.O.O.O.O.O.O.O.O.O.O.O.O.O.O.O.O.O.O.O.O.O.O.O.O.O.O.O.O.O.O.O.O.O.O.O.O.O.O.O.O.O.O.O.O.O.O.O.o.6 5 5 5 5 5 5 5 5 5 5 5 5 5 5 5 5 5 5 5 5 5 5 5 5 5 5 5 5 5 5 5 5 5 5 5 5 5 5 5 5 5 5 5 5 5 5 5 5 5 5 5 5 5 5 5 5 9 5 5 > > : : # # # : : : : : : : : : : : : : : : : : : : : : : : : : : : # : : : : : # # # : : : : : : : : # : : : : : : : # # # # # # # # # # # # # # @ @ # @ # # # @ @ @ @ @ # # * * # # * * @ @ @ @ @ @ @ @ @ @ @ @ @ @ @ @ @ @ @ @ @ @ @ @ @ @ . . . . @ @ @ @ @ @ # # # # # # # # # # # # # # # # # # # # # # # # # # # # # # # # # # : : : : : : # # # # : : : : # # # # : : : : : # # # @ @ @ . . . . . . . . . . . . . . . . . . . . . . . . . . . . . @ @ @ @ @ @ @ @ @ @ @ @ @ @ @ @ @ @ @ @ @ @ @ @ @ @ @ @ @ @ @ # * # # # # # # # # # # # # # # # # # # # # # # # # # # # # # : : : : : : : : : : : : : : : : : : : : : : : : : : : : : : ",
"Y.z 1 > > > # , : : > : : : > > > : : : : : : : : : : : : : : : > > > > > > > > > > > > > > > > > > > > > > > > > > > > 5 > 5 0 @.O.O.O.O.O.O.O.O.O.O.O.O.O.O.O.O.O.O.O.O.O.O.O.O.O.O.O.O.O.O.O.O.O.O.O.O.O.O.O.O.O.O.O.O.O.O.O.O.O.O.O.O.O.O.O.O.O.O.O.o.6 6 5 5 5 5 5 5 5 5 5 5 5 5 5 5 5 5 5 5 5 5 5 5 5 5 5 5 5 5 5 5 5 5 5 5 5 5 5 5 5 5 5 5 5 5 5 5 5 5 5 5 5 5 5 5 5 9 5 5 > > : : # # # : : : : : : : : : : : : : : : : : : : : : : : : : : : # : : : : : : # # : : : : : : : : : : : : : : : : # # # # # # # # # # # # # @ @ @ @ @ # # # @ @ @ # # # # # # # # * # @ @ @ @ @ @ @ . . . . . @ . @ . @ . @ . @ . @ . @ . . . . . . @ @ @ $ @ # # # # # # # # @ @ # # # @ @ @ # # # # @ @ # # # # # # # # # # # # # # # # : : : # # # : : : : # # # : : : : : # # # # @ @ @ . . . . . . . . . . . . . . . . . . . . . . . . . @ @ @ @ @ @ @ @ @ @ @ @ @ @ @ @ @ @ @ @ @ @ @ @ @ @ @ @ @ @ @ @ @ @ @ # * # # # # # # # # # # # # # # # # # # # # # # # # # # # # : : : : : : : : : : : : : : : : : : : : : : : : : : : : : : : ",
"R. .1 > > > # , : : > : : : : > > : : : : : : : : : : : : : : > > 5 5 5 > > > > > > 5 5 5 > > > > 5 > > > > > > > > > > 5 > 5 0 @.O.O.O.O.O.O.O.O.O.O.O.O.O.O.O.O.O.O.O.O.O.O.O.O.O.O.O.O.O.O.O.O.O.O.O.O.O.O.O.O.O.O.O.O.O.O.O.O.O.O.O.O.O.O.O.O.O.O.#.o.o.6 5 5 5 5 5 5 5 5 5 5 5 5 5 5 5 5 5 5 5 5 5 5 5 5 5 5 5 5 5 5 5 5 5 5 5 5 5 5 5 5 5 5 5 5 5 5 5 5 5 > > 5 5 5 5 9 5 5 > > : : # # # : : : : : : : : : : : : : : : : : # # # # # : # # # # # # # # # : : : : : : : : : : : : # # # # : : : : : # # # # # # # # # # # # # # # # # @ @ @ # # # # # # # # # # # # # @ @ @ @ @ . . . . . . . . . . . . . . . . . . . . . .   . . . @ @ @ $ @ # # # # # # @ @ @ @ # @ @ @ @ @ @ @ @ @ # # # @ @ @ @ # # # # # # # # # # # : : : : : : : : : : : : : : : : : # # # # # @ @ @ . . . . . . . .                   . . .     . . . @ @ @ @ @ @ @ @ # # # # # # @ @ @ @ @ @ @ @ @ @ @ @ @ @ @ @ @ @ @ @ @ @ # # # # # # # # # # # * * # # # * * * * * * * * * # # # # : : : : : : : : : : : : : : : : : : : : : : : : : : : : : : : ",
"R. .1 > > > # , : : > : : : > > > : : : : : : : : : : : : : : > > 5 5 5 > > > > > > 5 5 5 > > > > > > > > > > > > > > > 5 > 5 0 @.O.O.O.O.O.O.O.O.O.O.O.O.O.O.O.O.O.O.O.O.O.O.O.O.O.O.O.O.O.O.O.O.O.O.O.O.O.O.O.O.O.O.O.O.O.O.O.O.o.O.O.O.O.O.O.O.O.#.#.o.6 6 6 5 5 5 5 5 5 5 5 5 5 5 5 5 5 5 5 5 5 5 5 5 5 5 5 5 5 5 5 5 5 5 5 5 5 5 5 5 5 5 5 5 5 5 5 5 5 5 5 > > 5 5 5 5 9 5 5 > > : : # # # : : : : : : : : : : : : : : : : : # # # # # : : # # # # # # # # : : : : # : : : : : : : # # # : : : # : : : # # # # # # # # # # # # # # # # # @ # # # # # # # # # # # # # # @ @ @ @ @ . . . . . . . . . . . . . . . . . . . . . . . . . . @ @ @ $ @ # # # # # # @ @ @ @ @ @ @ @ @ @ @ @ @ @ # # # # @ @ # # # # # # # # # # # # : : : : : : : : : : : : : : : : : # # # # # @ @ @ . . . . . . . .                   . . . .   . . . . . @ @ @ @ @ @ @ @ @ @ # @ @ @ @ @ @ @ @ @ @ @ @ @ @ @ @ @ @ @ @ @ @ @ # # # # # # # # # # * * * # * # * # * * * * * * * # # : : : : : : : : : : : : : : : : : : : : : : : : : : : : : : : : : ",
"R. .1 > > > # : : : > : : : : > > : : : : : : : : : : : : : : > > > > > > > > > > > > > > > > > 5 5 > > > > > > > > > > 5 > 5 0 o.O.O.O.O.O.O.O.O.O.O.O.O.O.O.O.O.O.O.O.O.O.O.O.O.O.O.O.O.O.O.O.O.O.O.O.O.O.O.O.O.O.O.O.O.O.O.O.o.o.O.O.O.O.O.O.O.O.O.o.o.6 6 5 5 5 5 5 5 5 5 5 5 5 5 5 5 5 5 5 5 5 5 5 5 5 5 5 5 5 5 5 5 5 5 5 5 5 5 5 5 5 5 5 5 5 5 5 5 5 5 5 > > 5 5 5 5 5 5 5 > > : : # # # : : : : : : : : : : : : : : : : : : : : : : : : : : : : # # # # : : # : # # : : # # : : # : : : # # # # : : # # # # # # # # # # # # # # # # # # # # # # # # # # # # # # # # # @ @ @ @ @ @ . . . . . @ . @ . @ . @ . @ . @ . @ . . . . @ @ @ @ @ @ # # # # # # # # # # # # # # # # # # # # # # # # # # # # # # # # # # # # # # # : : : # # # # : : : : : # # : # : : : # # # @ @ @ . . . . . . . . . . . . . . . . . . . . . . . .   . . . . . . . . . . @ @ @ @ . . @ @ . . . . . . . . . . . @ @ @ @ @ @ # # # # # # # # # # # # * * * # # # # # # # # # # * # # # # : : : : : : : : : : : : : : : : : : : : : : : : : : : : : : : ",
"R. .1 > > > # # : : : : 1 : : > : : : : : : : : : : : : : : : > > > > > > > > > > > > > > > > > 5 5 > > > > > > > > > > 5 > 5 0 o.O.O.O.O.O.O.O.O.O.O.O.O.O.O.O.O.O.O.O.O.O.O.O.O.O.O.O.O.O.O.O.O.O.O.O.O.O.O.O.O.O.O.O.O.O.O.O.o.o.O.O.O.O.O.O.O.O.o.@.o.6 6 5 5 5 5 5 5 5 5 5 5 5 5 5 5 5 5 5 5 5 5 5 5 5 5 5 5 5 5 5 5 5 5 5 5 5 5 5 5 5 5 5 5 5 5 5 5 5 5 5 5 > 5 5 5 5 9 5 5 > > : : : # # # : : : : : : : : : : : : : : : : : : : : : : : : : : : # # # # : : # # # # : : # # : : : : : : : # # # : # # # # # # # # @ # # # # # # # # # # # # # # # # # # # # # # # # # # @ @ @ @ @ @ @ @ @ @ @ @ @ @ @ @ @ @ @ @ @ @ @ @ @ @ @ @ @ @ @ @ # # # # # # # # # # # # # # # # # # # # # # # # # # # # # # # # # : : : : : : : : : : # # # # : : : : : # # # : : : : : # # @ @ @ @ @ . . . . . . . . . . . . . . . . . . . . .     + +     . . . . . . . . . . . . . . . . . . . . . . . . . . @ @ @ @ @ # # # # # # # # # # # # # # # # # # # # # # # # # # # # # # : : : : : : : : : : : : : : : : : : : : : : : : : : : : : : : ",
"R. .1 > > > # # : : > : 1 : : : : : : : : : : : : : : : : : : : > > > > > > > > > > > > > > > > 5 5 > > > > > > > > > 5 5 5 5 0 o.O.O.O.O.O.O.O.O.O.O.O.O.O.O.O.O.O.O.O.O.O.O.O.O.O.O.O.O.O.O.O.O.O.O.O.O.O.O.O.O.O.O.O.O.O.O.O.O.O.O.O.O.O.O.O.O.O.@.@.6 6 5 5 5 5 5 5 5 5 5 5 5 5 5 5 5 5 5 5 5 6 5 5 5 5 5 5 5 5 5 5 5 5 5 5 5 5 5 5 5 5 5 5 5 5 5 5 5 5 5 5 5 5 5 5 5 5 9 5 5 > > > : : # # # # : : : : # # # : : : # # # # : : : : : : : : : : : # # : : : : # # # # # : : # # # : : : : : : : : # # # # # # # # @ @ @ @ # * # # # # # # # # * # # # # # # # # # # * * * * @ @ @ @ @ @ @ @ @ @ @ @ @ @ @ @ @ @ @ @ @ @ @ @ @ @ @ @ @ @ @ @ # # # # # # # # # # # # # # # # # # # # # # # # # # # # # # # # : : : : : : : : : # # # # # # # # # # # # # # : : : : : : # # @ @ . . . . . . . . . . . . . . . . . . . . . . .     + + . . . . . . . . . . . . . . . . . . . . . . . . . . . . @ @ @ @ @ # * # # # # : # # : # : # : # # # # # # # : # : # # # # # # # # # : : : : : : : : : : : : : : : : : : : : : : : : : : : : ",
"R. .1 > > > # % : : > : : : : : : : : : : : : : : : : : : : : : > > > > > > > > > > > > > > > > > > > > > > > > > > > 5 5 5 5 0 o.O.O.O.O.O.O.O.O.O.O.O.O.O.O.O.O.O.O.O.O.O.O.O.O.O.O.O.O.O.O.O.O.O.O.O.O.O.O.O.O.O.O.O.O.O.O.O.O.O.O.O.O.O.O.O.O.o.@.@.6 6 5 5 5 5 5 5 5 5 5 5 5 5 5 5 5 5 5 5 6 6 5 5 5 5 5 5 5 5 5 5 5 5 5 5 5 5 5 5 5 5 5 5 5 5 5 5 5 5 5 5 5 5 5 5 5 5 9 9 5 > > > : : # # # # # # : : # # # : : : # # # # : : : : : : : : : : : # : : # : : # # # # # : : # # : : : : : : : : : : # # # # # # # @ @ @ @ @ * * * # # # # * * * * * # # * # # # # * * * * * @ @ @ @ @ @ @ @ @ @ @ @ @ @ @ @ @ @ @ @ @ @ @ @ @ @ @ @ @ @ @ @ * * # # # # # # # # # # # # # # # # # # # # # # # # # # # # # # : : : : : : : : : # # # # # # # # # # # # # # : : : : : : # @ @ @ . . . . . . . . . . . . . . . . . . . . . . . . . . . . . . . . . @ @ @ @ @ @ @ . @ @ . . . . @ @ @ @ . . . @ @ @ @ @ @ # * # # # # # # : : # : : : # # # # # # # # # : : # # # # # # # # : : : : : : : : : : : : : : : : : : : : : : : : : : : : ",
"R. .1 > > > # % : : : : : : : : : : : : : : : : : : : : : : : : > > > > > > > > > > > > > > > > 5 > > > > > > > > > > > 5 5 5 0 o.O.O.O.O.O.O.O.O.O.O.O.O.O.O.O.O.O.O.O.O.O.O.O.O.O.O.O.O.O.O.O.O.O.O.O.O.O.O.O.O.O.O.O.O.O.O.O.O.O.O.O.O.O.O.O.O.o.o.o.6 6 6 5 5 5 5 5 5 5 5 5 5 5 5 5 5 5 5 5 6 6 6 6 6 6 5 5 5 5 5 5 5 5 5 5 5 5 5 5 5 5 5 5 5 5 5 5 5 5 5 5 5 5 5 5 5 5 9 9 5 5 > > : : # # # # # # : : : # # # : : # # # # : : : : : : : : : : : # : : : : : : # # # # : : : : : : : : # # : : : : # # # # # # # @ @ @ @ @ * * * * * * * * * * * * * * * * * * * * * * * @ @ @ @ @ @ @ @ @ @ @ @ @ @ @ @ @ @ @ @ @ @ @ @ @ @ @ @ @ @ @ @ @ @ @ @ * # # # # # # # # # # # # # # # # # # # # # # # # # # # # : : : : : : : : : # # # # # # # # # # # # # # : : : : : # # @ @ . . . . O O . . . . . . . . . . . . . . . . . . . . . @ @ @ @ @ @ @ @ @ @ @ * @ @ @ @ @ @ @ @ @ @ @ @ @ @ @ @ @ @ @ @ @ @ @ * * # # # # # # # : : # # # # # # # # # # # # # # # # # # # # # # # : : : : : : : : : : : : : : : : : : : : : : : : : : ",
"R. .1 > > > # % : : : : : : : : : : : : : : : : : : : : : : : : > > > > > > > > > > > > > > > > 5 5 > > > > > > > > > 5 5 5 5 0 O.O.O.O.O.O.O.O.O.O.O.O.O.O.O.O.O.O.O.O.O.O.O.O.O.O.O.O.O.O.O.O.O.O.O.O.O.O.O.O.O.O.O.O.O.O.O.O.O.O.O.O.O.O.O.O.O.O.o.o.o.6 6 5 6 5 5 5 5 5 5 5 5 5 5 5 5 5 5 5 6 6 6 6 6 6 5 5 5 5 5 5 5 5 5 5 5 5 5 5 5 5 5 5 5 5 5 5 5 5 5 5 5 5 5 5 5 5 5 9 5 5 > > : : # # # # # # : : # # # # : : : # # # : : : : : : : : : : : # : : : : : : : : # # : : : : : : # # # # : : : : # # # # # # # @ @ @ @ @ @ @ @ * @ @ @ @ @ @ @ @ * @ @ @ * * * * * @ @ @ @ @ @ @ @ . . . . . @ . @ . @ . @ . @ . @ . @ . . . . @ @ @ @ @ @ @ @ @ # # # # # # # # # # # # # # # # # # # # # # # # # # # # # # # # : : : : # # # # # # # # # # # # # # # # : : : # # * @ @ . . . . O O . . . . . . . . . . . . . . . . . . . @ @ @ @ @ @ @ @ * * * * * * * # # # # # # # @ @ # # # # # # @ @ @ @ @ @ @ $ * * * * # # # # # # # # # # # # # # # # # # # # # # # # # # # # # : : : : : : : : : : : : : : : : : : : : : : : : : : ",
"Y._ 1 > > > # % : : : : : : : : : : : : : : : : : : : : : : : : > > > > > > > > > > > > > > > > > 5 5 5 > > > > > > 5 5 5 5 5 6 O.O.O.O.O.O.O.O.O.O.O.O.O.O.O.O.O.O.O.O.O.O.O.O.O.O.O.O.%.O.%.O.O.O.O.O.O.O.O.O.O.O.O.O.O.O.O.O.O.O.O.O.%.O.O.O.O.O.O.o.o.o.6 6 6 5 5 5 5 5 5 5 5 5 5 5 5 5 5 5 6 6 6 6 6 6 6 6 5 5 5 5 5 5 5 5 5 5 5 5 5 5 5 5 5 5 5 5 5 5 5 5 5 5 5 5 5 5 5 9 9 5 5 > : : : : # # # : # # # # # # # # # # # # : : : : : : : : : : : : : : : : : : # # # : : : # # # : : : # # : : : : # # # # # # # @ @ @ $ * @ @ @ @ @ @ @ @ @ @ @ @ @ @ @ @ @ @ @ @ @ @ @ @ @ @ @ . . . . . . . . . . . . . . . . . . . . . . . . . . @ @ @ @ @ @ @ @ @ @ @ @ @ @ @ @ @ @ # # # # # @ @ @ # # # # # # # # # # # # # # # # # # # # # # # # # # # # # # # # # # # # # # * $ @ . .     . . . . .   .   .   .   . + .   .   . . . @ @ @ @ @ @ @ @ @ @ * @ # * * * @ @ @ @ @ @ @ @ @ @ @ @ @ @ @ @ . . @ $ @ $ $ $ * # # # # # * # # # # # # # # # # # # # # # # # # # # # # : : 1 : : : : : : : : : : : : : 1 1 : : : : : : : : : : ",
"E._ 1 > > > : , : > > : : : : > : : : : : : > : : : > : : : : : > > > > > > > > > > > > > > > > 5 5 5 5 > > > > > 5 5 5 5 5 6 o.O.O.O.O.O.O.O.O.O.O.O.O.O.O.O.O.O.O.O.O.O.O.O.O.O.O.O.O.O.O.O.O.O.O.O.O.O.O.O.O.O.O.O.O.O.O.O.O.O.O.O.O.O.O.O.O.O.O.O.o.o.o.o.6 6 5 5 5 5 5 5 5 5 5 5 5 5 5 5 6 6 6 6 6 6 6 6 6 5 5 5 5 5 5 5 5 5 5 5 5 5 5 5 5 5 5 5 5 5 5 5 5 5 5 5 5 5 5 9 9 5 5 5 > : : : # # # : : : # : # : # : : : # : : : : : : : : : : : : : : : : : : : : # # # : : : # # # # : : : : : : : : # # # # # # # # # # * * @ @ @ $ @ $ @ $ @ $ @ $ @ @ @ @ @ @ @ @ @ $ $ $ @ . @ . . . . . . . . . . . . . . . . . . . . . @ @ . . . . @ @ @ $ $ $ @ @ @ $ @ @ @ @ @ @ # # # # # # @ @ # # # # # # # # # # # # # # # # # # # # : # : # : # : # : # : # : # : # # # # $ $ @ . .     . . .                   .   .           . . @ . . @ @ @ @ @ @ @ @ @ @ @ @ @ @ @ & & & @ @ @ @ @ @ @ & @ @ @ @ $ $ $ $ $ * * * * * * # # # # # # # # # # # # # # # # # # # # # # # : : : : : : : : : : : : : : : : : : : : : : : : : : : : : ",
"E._ 1 > > > : , : > > > : : > > > > > : > > > > > > > > > > > > > > > > > > > > > > > > > > > > > > 5 > > > > > > > 5 > 5 5 6 0 o.O.O.O.O.O.O.O.O.O.O.O.O.O.O.O.O.O.O.O.O.O.O.O.O.O.O.O.O.O.O.O.O.O.O.O.O.O.O.O.O.O.O.O.O.O.O.O.O.O.O.O.O.O.O.O.O.O.O.o.o.o.o.6 6 6 6 6 5 5 5 5 6 6 6 6 5 5 5 5 5 5 6 6 6 6 5 5 6 6 5 5 5 5 5 5 5 5 5 5 5 5 5 5 5 5 5 5 5 5 5 5 5 5 5 5 5 5 5 5 5 5 5 > : : : # # # : : : : : : : : : : : : : : : : : : : : : : : : : : : : : : : : : # : : : : : # : : : : : : : : : : # # # # # # # # # # # * @ @ @ @ # @ @ @ @ @ # @ # @ @ @ @ @ @ @ @ @ @ $ @ @ @ @ @ @ @ @ @ @ @ @ @ @ @ @ @ @ @ @ @ @ @ @ @ @ @ @ @ @ @ @ $ $ $ $ # @ @ @ # # @ @ @ @ @ @ @ @ # @ @ @ @ @ # # # # # # # # # # # # # # # # : : : : : # : : : : : : : # : : : # # # # # $ @ . . .   . . . . . . . . . . . . . . . . . . .             . . . . . . @ @ @ @ @ . . . . @ @ . . . @ . . . . @ @ @ @ @ @ $ @ $ # * # # # # # # # # # # # # # # # # # # # # # # # # : : : : : : : : : : : : : : : : : : : : : : : : : : : : : : : : : ",
"T._ 1 > 5 > : : > > > > : : > > > > > > > > > > > > > > > > > > > > > > > > > > > > > > > > > > 5 5 5 > > > > > > > > 5 5 5 6 0 @.o.o.o.o.o.o.o.o.o.o.o.o.o.o.o.o.o.o.o.O.O.O.o.o.o.o.o.O.O.O.O.O.O.o.o.o.o.o.o.o.o.o.o.O.O.O.O.O.O.O.O.O.O.O.O.@.@.o.@.o.o.6 6 6 6 6 6 5 5 5 5 6 6 6 6 5 5 5 5 6 5 5 6 6 6 5 5 6 5 5 5 5 5 5 5 5 5 5 5 5 5 5 5 5 5 5 5 5 5 5 5 5 5 5 5 5 5 5 5 5 5 > > : : : : : : : : : : : : : : : : : : : : : : : : : : : : : : : : : : : : : : # # : : : : : : : : : : : : : : : : # # # # # # # # # # # # # @ # @ # # # @ # @ # # # @ # @ # @ # @ @ @ # @ @ @ @ @ @ @ @ @ @ @ @ @ @ @ @ @ @ @ @ @ @ @ @ @ @ @ @ @ @ @ @ @ @ @ # # # # # @ # # # @ @ @ @ @ @ @ @ @ @ @ @ @ # # # # # # # # # # # # # # # # : : : : # # # : : : : : : # : : : : : # # # @ @ @ @ . . . . @ @ @ . @ @ @ @ @ @ @ @ . . @ @ @ . .       . . . . . . @ @ @ @ @ @ @ . . . . . . . . . . . . . . @ @ @ @ @ # # # # # # # # # # # # # # # # # # # # # # # # # # # # # # : : : : : : : : : : : : : : : : : : : : : : : : : : : : : : : : ",
"T.z 1 > 5 > : : > > > > : : > > > > > > > > > > > > > > > > > > > 5 5 5 5 5 5 5 5 5 5 5 5 5 5 5 5 5 > > > > > > > > > 5 5 5 6 6 +.@.@.@.@.@.@.@.@.@.@.@.@.@.@.@.@.@.@.@.@.@.@.@.@.@.@.@.@.@.@.@.@.@.@.@.@.@.@.@.@.@.@.@.@.@.@.@.@.@.@.@.@.@.@.@.@.@.@.@.@.0 6 6 6 6 5 5 5 5 6 5 6 6 5 5 5 5 6 5 6 6 6 6 6 6 5 5 6 6 5 5 5 5 5 5 5 5 5 5 5 5 5 5 5 5 5 5 5 5 5 5 5 5 5 5 5 5 5 5 5 5 > > : : : : : : : : : : : : : : : : : : : : : : : : : : : : : : : : : : : : # # : : : # # # : : : : : : : : # # # # : : : # # # # # # # # # # # # # # # # # # # # # # # # # # # # # # # # # # # # # # @ # # @ @ # @ # @ # @ # @ # @ # @ # @ @ @ @ # @ @ @ # # # # # # # # # # # # # # # # # # # # # # # # # # # # # # # : # : : : : : : : : : : : : : : : : : : : : : : : : : : : : : # # @ @ @ @ @ @ @ @ @ @ @ @ @ @ @ @ @ @ @ @ @ @ @ @ @ @ . @ @ @ @ @ @ @ @ @ @ # # # # @ @ @ @ @ @ @ @ @ @ @ @ @ @ @ # # # # # # # # : # # # # # # # # # # # # # # # # # # # # # # # # # # : : : : : : : : : : : : : : : : : : : : : : : : : : : : : : : : ",
"T.z 2 5 5 5 : : > > > > > > > > > > > > > > > > > > > > > > > > 5 5 5 5 5 5 5 5 5 5 5 5 5 5 5 5 5 5 5 5 5 5 5 5 5 5 5 5 5 5 6 6 0 6 0 6 0 6 0 6 0 6 0 6 0 6 0 6 0 6 0 6 0 6 0 6 6 6 6 6 6 6 6 6 6 6 6 6 6 6 6 6 6 6 6 6 6 6 6 6 6 6 6 6 6 6 6 6 0 0 0 0 6 6 6 6 6 6 5 5 6 6 6 6 6 6 5 5 6 6 6 6 6 6 6 6 6 6 6 6 6 6 5 5 5 5 5 5 5 5 5 5 5 5 5 5 5 5 5 5 5 5 5 5 5 5 5 5 6 6 9 9 9 5 5 > : : : : : : : : : : : : : : : : : : : : : : : : : : : : : : : : : : : : : # : : # # # # : : : : : : : : # # # # : : : : : : : : : : : : : : : : : : : : : : : : : : : : : : : : : : : : : # : # # # # # # # # # # # # # # # # # # # # # # # # # # # : # : : : : : : : : : : : : : : : : : : : : : : : : : : : : : : : : : : : : : : : : : : : : : : : : : : : : : : : : > > : : : : : # # # # # # # : : # # # # # # # # # # # # # # # # # # # # # : : : : : : : : : : : : : : : : : : : : : : : : : : : : : : : : : : : : : : : : : : : : : : : : : : : : : : : : : : : : : : : : : : : : : : : : : : : : : : : : : : : : : : : : : : : : : ",
"T.E 2 9 5 5 > > > 5 5 5 > > 5 5 5 5 5 5 > > 5 5 5 5 5 5 5 5 5 5 5 9 9 9 9 9 9 9 9 9 9 9 9 9 9 9 5 5 5 5 5 5 5 5 5 5 5 5 9 5 5 5 5 > > > > > > > 5 5 5 5 > > > > 5 5 > > > > 5 > 5 5 > 5 > 5 5 5 5 5 5 5 5 5 5 5 5 5 5 5 5 5 5 5 5 5 > > > > 5 5 5 5 5 5 5 9 9 0 6 6 6 6 6 6 6 6 6 6 6 6 6 6 6 6 6 6 6 6 6 6 6 6 6 6 6 6 5 5 5 5 5 5 5 5 5 5 5 5 5 5 5 5 5 5 5 5 5 5 5 5 6 6 6 9 9 5 5 > > : : : : : : : : : : : : : : : : : : : : : : : : : : : : : : : : : : : : # : : : : # : # # # # : : : : # # # # : : : : : : : > 2 2 2 > > > > > > > > > > > > > > > > > > > > > > > > > > > > > > : > > > < > < > < > < > < > < > < > < > < > > > > > > > > > > > > > : > > > : > > > > > > > > > > > > > > > > > > > > > > > > > > > > > , , < > > > > < , : : > > < > > > > > > > > > > > < < > > > > > > > > > > > > > > > > > > > > > > > > 5 5 9 9 9 9 9 6 6 6 6 6 6 6 6 6 5 5 5 5 6 5 6 6 5 5 5 5 9 6 9 5 5 > > > > > > > > > > > > > > > > > > > > > > > > > > > : : : : > : : : > > > > > > > > > > > > > > > > : : > > > > > > > > ",
"T.` 4 6 6 6 > > 5 9 9 9 9 5 5 5 5 5 5 5 5 5 5 5 5 5 5 5 5 5 5 5 9 5 9 5 9 5 9 5 9 5 9 5 9 5 9 5 5 5 5 5 5 5 5 5 5 5 9 6 0 5 5 5 : : : : : : : : : : : : : : : : : : : : : : : : : : : : : : : : > > > > > > > > > > > > > > > > > > : : : : > > : : : > > 5 6 0 6 6 6 6 6 6 6 6 6 6 6 6 6 6 6 6 6 6 6 6 6 6 6 6 6 6 6 6 6 5 6 6 9 9 9 9 6 6 6 5 9 9 9 9 6 6 6 6 9 9 9 6 6 6 6 6 9 9 5 5 > : : : : : > > > : > : > : > : > : > : : : : > > > : : : : : : : : : : # # : : : : : : # # # # # : : : # # # # : : : : : : 2 2 2 2 2 9 5 5 5 9 5 9 5 5 5 9 5 9 5 5 5 > > > 5 5 5 9 5 9 9 9 9 9 9 9 6 6 9 9 9 9 9 9 9 9 9 9 9 9 9 9 9 9 9 9 9 9 q q 7 7 5 5 5 9 > > > > > > > > > > > > > > > > > > > > > > > > 9 > 9 9 5 5 5 5 5 5 5 5 > < < < < < < < < < < < < < < > 5 5 > > 5 5 9 9 q q 9 9 9 9 9 9 6 6 6 6 6 6 6 6 6 6 6 6 6 6 6 0 0 6 6 6 0 0 @.@.@.@.@.@.@.@.@.@.@.@.@.@.@.@.@.@.@.@.@.@.@.@.@.@.@.$.$.0 0 5 9 5 5 9 9 > > > > > 5 5 5 5 5 5 5 5 5 9 9 9 5 5 5 > > < > > > > > > > > > > > > > > > > > > > > > > > > > > > > > > > > ",
"U.E 2 6 6 6 > > 9 6 6 9 5 5 5 5 5 5 5 5 5 5 5 5 5 5 5 5 5 5 5 5 9 5 6 5 6 5 6 5 6 5 6 5 6 5 6 5 5 5 6 6 6 6 6 6 6 5 5 5 5 5 5 > : : : : : : : : : : : : : : : : : : : : : : : : : : : : : : : : : : : : : : : : : : : : : : : : : : : : : : : : : : : : > 5 9 0 6 6 6 6 6 6 6 6 6 6 6 6 6 6 6 6 6 6 6 6 6 6 6 6 6 6 6 6 6 6 6 6 6 6 6 6 6 6 6 6 6 6 6 6 6 6 6 6 6 6 6 6 6 6 6 6 5 5 5 > > > > > > > > > > : > : > : > > > : > : > > : : : : > > > : : : : : : : : # : : : : : : # # # # # : : : # # # # # # : : : : < > > > 5 5 5 5 5 5 5 5 5 5 5 5 5 5 5 5 5 5 5 > 5 5 5 5 5 5 5 5 5 6 5 5 5 5 5 5 5 5 6 6 6 6 6 6 6 6 6 6 6 6 5 5 5 5 5 5 6 6 5 5 5 5 5 5 5 > > > > > > > > > > 5 > > > > > > > > 5 5 > > > > > > > > 5 5 5 5 > > 5 5 > > > > > > > > 5 > > > > > > > 5 5 5 6 0 0 6 6 6 6 6 6 6 6 6 6 6 6 6 6 6 6 6 6 6 6 6 6 0 6 6 6 6 o.o.o.o.o.O.O.O.O.o.o.o.o.O.o.O.o.O.o.O.o.O.o.O.o.O.o.o.o.@.@.6 6 5 5 5 5 5 5 5 5 5 5 5 5 5 5 5 5 5 5 5 5 5 5 5 5 5 5 5 > 5 > > > > > > > > > > > > > > > > > > > > > > > > > > > > > > > ",
"U.E 2 6 6 6 5 5 5 6 6 6 5 5 5 6 5 5 5 5 5 5 5 5 5 5 5 5 5 5 5 5 6 6 6 6 6 6 6 6 6 6 6 6 6 6 6 6 5 5 6 5 6 6 6 6 6 6 6 5 5 5 5 > : : : : # # # # : : : : # # : : : : # # # # : : : : # # # : : : : : : : : : : : : : : : : : : : : : : : : : : : : # : : > 5 6 0 6 6 6 6 6 6 6 6 6 6 6 6 6 6 6 6 6 6 6 6 6 6 0 6 6 6 6 6 6 6 6 6 6 6 6 6 6 6 6 6 6 6 6 6 6 6 6 6 6 6 6 6 6 6 6 6 6 5 5 > > > > > > > > > > > > > > > > > > > > > > > > > > > > > : : : : : : : # # # : : : : # : # : # # : : : : # # # # # # : : : : > > 9 5 5 5 5 5 5 5 5 5 5 5 5 5 5 5 5 5 5 5 5 5 5 5 5 5 5 5 5 5 6 6 6 6 6 6 6 6 6 6 6 6 6 6 6 6 6 6 6 6 6 6 6 6 6 6 6 6 5 5 5 5 5 5 5 5 5 5 > 5 5 5 5 5 5 5 5 5 5 5 > 5 5 5 5 5 5 5 > > > > 5 > > > 5 5 5 5 5 5 5 5 > > > 5 > > > 5 5 5 5 > > > > > 5 5 6 6 6 6 6 6 6 6 6 6 6 6 6 6 6 6 6 6 6 6 6 6 6 6 6 6 6 6 6 6 6 o.o.o.O.O.O.O.O.O.O.O.O.O.O.O.O.O.O.O.O.O.O.O.O.O.O.O.O.O.O.o.o.6 5 5 5 5 5 5 5 5 5 5 5 5 5 5 5 5 5 5 5 5 5 5 5 5 5 5 5 5 5 5 5 5 > > > > > > > > > > > > > > > > > > > > > > > > > > > > ",
"U.E 2 6 6 6 5 5 5 6 6 6 5 5 5 6 5 5 5 5 5 5 5 5 5 5 5 5 5 5 5 5 6 6 6 6 6 6 6 6 6 6 6 6 6 6 6 6 5 5 5 6 6 6 6 6 6 6 6 5 5 5 5 > : : : : : : # # : : # # # : : : : : # # # # : : : : : # : : : : : : : : : : : : : : : : : : : : : : : : : : : : : # : : > 5 6 0 6 6 6 6 6 6 6 6 6 6 6 6 6 6 6 6 6 6 6 6 6 6 6 6 6 6 6 6 6 6 6 6 6 6 6 6 6 6 6 6 6 6 6 6 6 6 6 6 6 6 6 6 6 6 6 6 6 5 5 > > > > > > > > > > > > > > > > > > > > > > > > > > > > > > : : : : : : # # # : : # # # # : : : : : : : : : : : : # # : : : > > > 9 5 5 5 5 5 5 5 5 5 5 5 5 5 5 5 5 5 5 5 5 5 5 5 5 5 5 5 5 5 6 6 6 6 6 6 6 6 6 6 6 6 6 6 6 6 6 6 6 6 6 6 6 6 6 6 6 6 5 5 5 5 5 5 5 5 5 5 > > > 5 5 5 5 5 5 5 5 5 > > 5 5 > > 5 5 > 5 5 > 5 5 > > 5 5 5 5 5 5 5 5 > > 5 5 > > 5 5 5 5 > > > > > 5 5 5 6 6 6 6 6 6 6 6 6 6 6 6 6 6 6 6 6 6 6 6 6 6 6 6 6 6 6 6 6 6 6 o.o.o.O.O.O.O.O.O.O.O.O.O.O.O.O.O.O.O.O.O.O.O.O.O.O.O.O.O.O.o.o.6 5 5 5 5 5 5 5 5 5 5 5 5 5 5 5 5 5 5 5 5 5 5 5 5 5 5 5 5 5 5 5 5 5 > > > > > > > > > > > > > > > > > > > > > > > > > > > ",
"!.E 2 6 6 6 5 5 5 6 6 6 5 5 5 6 5 5 5 5 5 5 5 5 5 5 5 5 5 5 5 5 6 6 6 6 6 6 6 6 6 6 6 6 6 6 6 6 5 5 5 5 6 6 6 6 6 6 6 5 5 5 5 > : : : : : : : # : : : # # # : : : # # # # # : : : : : # : : : : : : : : : : : : : : : : : : : : : : : : : : : : : # : : > 5 6 0 6 6 6 6 6 6 6 6 6 6 6 6 6 6 6 6 o.6 6 6 6 6 6 6 6 6 6 6 6 6 6 6 6 6 6 6 6 6 6 6 6 6 6 6 6 6 6 6 6 6 6 6 6 6 6 6 6 5 5 > > > > > > > > > > > > > > > > > > > > > > > > > > > > > > : : : : : : # : # : : # # # # : : : : : : : : : : : : # # : : : > > > 9 5 5 5 5 5 5 5 5 5 5 5 5 5 5 5 5 5 5 5 5 5 5 5 5 5 5 5 5 5 6 6 6 6 6 6 6 6 6 6 6 6 6 6 6 6 6 6 6 6 6 6 6 6 6 6 6 6 5 6 5 5 5 5 5 5 5 > 5 5 > 5 5 5 5 > 5 5 5 5 > > 5 5 > > 5 5 5 5 5 5 5 5 > 5 5 5 > > > > 5 5 5 > 5 5 5 5 5 5 5 5 > > > > > > 5 5 6 6 6 6 6 6 6 6 6 6 6 6 6 6 6 6 6 6 6 6 6 6 6 6 6 6 6 6 6 6 6 o.o.o.O.O.O.O.O.O.O.O.O.O.O.O.O.O.O.O.O.O.O.O.O.O.O.O.O.O.O.o.o.6 5 5 5 5 5 5 5 5 5 5 5 5 5 5 5 5 5 5 5 5 5 5 5 5 5 5 5 5 5 5 5 5 5 > > > > > > > > > > > > > > > > > > > > > > > > > > > ",
"!.` 2 6 6 6 5 5 5 6 6 6 5 5 5 6 5 5 5 5 5 5 5 5 5 5 5 5 5 5 5 5 6 6 6 6 6 6 6 6 6 6 6 6 6 6 6 6 5 5 5 5 6 6 6 6 6 6 6 5 5 5 5 > : : : : : : : : # # # # : # # # : : # # # # : : : : # # : : : : : : : : : : : : : : : : : : : : : : : : : : : : : # : : > 5 6 0 6 6 6 6 6 6 6 6 6 6 6 6 6 6 6 6 o.6 6 6 6 6 6 6 6 6 6 6 6 6 6 6 6 6 6 6 6 6 6 6 6 6 6 6 6 6 6 6 6 6 6 6 6 6 6 6 6 5 5 5 > > > > > > > > > > > > > > > > > > > > : : > > > > > > > > : : : : : # : : # # : : : : : : : : : : : : : : # : : : : : : : > > 9 5 5 5 5 5 5 5 5 5 5 5 5 5 5 5 5 5 5 5 5 5 5 5 5 5 5 5 5 5 6 6 6 6 6 6 6 6 6 6 6 6 6 6 6 6 6 6 6 6 6 6 6 6 6 6 6 6 6 5 5 5 5 5 5 5 > > 5 5 5 5 5 5 > > > 5 5 5 5 5 5 5 > > 5 5 5 5 5 5 5 5 5 5 > > > > > > > 5 5 5 5 5 5 5 5 5 5 > > > 5 > 5 5 5 5 6 6 6 6 6 6 6 6 6 6 6 6 6 6 6 6 6 6 6 6 6 6 6 6 6 6 6 6 6 6 o.o.o.o.O.O.O.O.O.O.O.O.O.O.O.O.O.O.O.O.O.O.O.O.O.O.O.O.O.O.O.o.o.6 5 5 5 5 5 5 5 5 5 5 5 5 5 5 5 5 5 5 5 5 5 5 5 5 5 5 5 5 5 5 > > > > > > > > > > > > > > > > > > > > > > > > > > > > > > ",
"!.' q 6 6 6 5 5 5 6 6 6 5 5 5 6 5 5 5 5 5 5 5 5 5 5 5 5 5 5 5 5 6 6 6 6 6 6 6 6 6 6 6 6 6 6 6 6 5 5 5 5 6 6 6 6 6 6 6 5 5 5 5 > : : : : : : : : : : # # : # # # : : # # # # : : : : # # : : : : : : : : : : : : : : : : : : : : : : : : : : : : : # : : > 5 6 0 6 6 6 6 6 6 6 6 6 6 6 6 6 6 6 6 o.o.6 6 6 6 6 6 6 6 6 6 6 6 6 6 6 6 6 6 6 6 6 6 6 6 6 6 6 6 6 6 6 6 6 6 6 6 6 6 6 5 5 5 > > > > > > > > > > > > > > > > > > > > : : > > > > > > > : : : : : : # : : : # : : : : # # : : : : : : : : # # : : : : : : > > 9 5 5 5 5 5 5 5 5 5 5 5 5 5 5 5 5 5 5 5 5 5 5 5 5 5 5 5 5 5 6 6 6 6 6 6 6 6 6 6 6 6 6 6 6 6 6 6 6 6 6 6 6 6 6 6 6 6 6 5 5 5 5 5 5 5 > > 5 5 5 5 > 5 > > > > > 5 > > 5 5 > > 5 5 5 5 5 5 5 5 5 5 > > > > > > 5 5 5 5 5 5 5 5 5 5 5 > > > 5 > 5 5 5 5 6 6 6 6 6 6 6 6 6 6 6 6 6 6 6 6 6 6 6 6 6 6 6 6 6 6 6 6 6 6 o.o.o.o.O.O.O.O.O.O.O.O.O.O.O.O.O.O.O.O.O.O.O.O.O.O.O.O.O.O.O.o.o.6 5 5 5 5 5 5 5 5 5 5 5 5 5 5 5 5 5 5 5 5 5 5 5 5 5 5 5 5 5 5 > > > > > > > > > > > > > > > > > > > > > > > > > > > > > > ",
"!.' q 6 6 6 5 5 5 6 6 6 5 5 5 6 5 5 5 5 5 5 5 5 5 5 5 5 5 5 5 5 6 6 6 6 6 6 6 6 6 6 6 6 6 6 6 6 5 5 5 5 6 6 6 6 6 6 6 5 5 5 5 > : : # # # # : : : : : : # : : # : : : : # : : : : : # # # : : : : : : : : : : : : : : : : : : : : : : : : : : : : # : : > 5 6 0 6 6 6 6 6 6 6 6 6 6 6 6 6 6 6 6 6 6 6 6 0 6 6 6 6 6 6 6 6 6 6 6 6 6 6 6 6 6 6 6 6 6 6 6 6 6 6 6 6 6 6 6 6 6 6 6 6 5 5 5 > > > > > > > > > > > > > > > > > > > > : : > > > > > > > : : : : : : # : : # # : : : : # # # # : : : : : # # # : : : : : > > > > > 5 5 5 5 5 5 5 5 5 5 5 5 5 5 5 5 5 5 5 5 5 5 5 5 5 5 5 5 6 6 6 6 6 6 6 6 6 6 6 6 6 6 6 6 6 6 6 6 6 6 6 6 6 6 6 6 5 5 5 5 5 5 5 > > > > > 5 5 5 5 5 5 5 5 > 5 > > > > 5 5 5 5 5 5 > > > > 5 5 5 5 5 5 5 5 5 5 > 5 > > > > 5 5 5 > 5 5 > > > 5 5 5 6 6 6 6 6 6 6 6 6 6 6 6 6 6 6 6 6 6 6 6 6 6 6 6 6 6 6 6 6 6 o.o.o.o.O.O.O.O.O.O.O.O.O.O.O.O.O.O.O.O.O.O.O.O.O.O.O.O.O.O.O.o.6 6 5 5 5 5 5 5 5 5 5 5 5 5 5 5 5 5 5 5 5 5 5 5 5 5 5 5 5 5 5 5 > > > > > > > > > > > > > > > > > > > > > > > > > > > > > > ",
"!.' q 6 6 6 5 5 5 6 6 6 5 5 5 6 5 5 5 5 5 5 5 5 5 5 5 5 5 5 5 5 6 6 6 6 6 6 6 6 6 6 6 6 6 6 6 6 6 6 5 5 6 6 6 6 6 6 6 5 5 5 5 > : : # # # # # # : : : : : : : : : : : : : : : : : : # # # : : : : : : : : : : : : : : : : : : : : : : : : : : : : # : : > 5 6 6 6 6 6 6 6 6 6 6 6 6 6 6 6 6 6 6 6 6 6 6 6 6 6 6 6 6 6 6 6 6 6 6 6 6 6 6 6 6 6 6 6 6 6 6 6 6 6 6 6 6 6 6 6 6 6 6 6 5 5 5 > > > > > > > > > > > > > > > > > > > > : : > > > > > > > : : : : : : # : : # # # : : : # # # : : : # # : : # # : : : : : > > > > > 5 5 5 5 5 5 5 5 5 5 5 5 5 5 5 5 5 5 5 5 5 5 5 5 5 5 5 5 6 6 6 6 6 6 6 6 6 6 6 6 6 6 6 6 6 6 6 6 6 6 6 6 6 6 6 6 5 5 5 5 5 5 5 5 > > > 5 5 5 5 > > 5 5 > > 5 > > > > 5 5 5 5 5 5 > > > > > > 5 5 5 5 5 5 5 5 > > > > > 5 5 5 5 5 5 5 > > > 5 5 5 6 6 6 6 6 6 6 6 6 6 6 6 6 6 6 6 6 6 6 6 6 6 6 6 6 6 6 6 6 6 o.o.o.O.O.O.O.O.O.O.O.O.O.O.O.O.O.O.O.O.O.O.O.O.O.O.O.O.O.O.O.o.o.6 5 5 5 5 5 5 5 5 5 5 5 5 5 5 5 5 5 5 5 5 5 5 5 5 5 5 5 5 5 5 > > > > > > > > > > > > > > > > > > > > > > > > > > > > > > ",
"!.' 2 6 6 6 5 5 5 6 6 6 5 5 5 6 5 5 5 5 5 5 5 5 5 5 5 5 5 5 5 5 6 6 6 6 6 6 6 6 6 6 6 6 6 6 6 6 6 6 6 6 6 6 6 6 6 6 6 5 5 5 5 > : : # # : : : : : # # # : # : : : : : : # : : : : : # : : : : : : : : : : : : : : : : : : : : : : : : : : : : : 1 # : : > 5 6 6 6 6 6 6 6 6 6 6 6 6 6 6 6 6 6 6 6 6 6 6 6 6 6 6 6 6 6 6 6 6 6 6 6 6 6 6 6 6 6 6 6 6 6 6 6 6 6 6 6 6 6 6 6 6 6 6 6 5 5 5 > > > > > > > > > > > > > > > > > > > > : : > > > > > > > : : : : : : # : : : : # # # : : : : : # # # # : : : : # # : : : : > > 9 5 5 5 5 5 5 5 5 5 5 5 5 5 5 5 5 5 5 5 5 5 5 5 5 5 5 5 5 5 6 6 6 6 6 6 6 6 6 6 6 6 6 6 6 6 6 6 6 6 6 6 6 6 6 6 6 6 5 5 5 5 5 5 5 5 > > > > 5 5 5 5 5 5 > > > > > 5 5 5 5 5 5 5 5 5 5 5 5 5 5 > > > 5 5 5 5 5 5 5 5 5 5 5 5 5 > > > 5 5 > > 5 5 5 5 6 6 6 6 6 6 6 6 6 6 6 6 6 6 6 6 6 6 6 6 6 6 6 6 6 6 6 6 6 6 o.o.o.o.O.O.O.O.O.O.O.O.O.O.O.O.O.O.O.O.O.O.O.O.O.O.O.O.O.O.O.o.o.6 5 5 5 5 5 5 5 5 5 5 5 5 5 5 5 5 5 5 5 5 5 5 5 5 5 5 5 5 5 5 5 > > > > > > > > > > > > > > > > > > > > > > > > > > > > > ",
"!.' 2 6 6 6 5 5 5 6 6 6 5 5 5 6 5 5 5 5 5 5 5 5 5 5 5 5 5 5 5 5 6 6 6 6 6 6 6 6 6 6 6 6 6 6 6 6 6 6 6 6 6 6 6 6 6 6 6 5 5 5 > > : : : # : : : : # # # # : : : : : : : : # : : : : : # # : : : : : : : : : : : : : : : : : : : : : : : : : : : : 1 # : : > 5 6 6 6 6 6 6 6 6 6 6 6 6 6 6 6 6 6 6 o.6 6 6 6 6 0 6 6 6 6 6 6 6 6 6 6 6 6 6 6 6 6 6 6 6 6 6 6 6 6 6 6 6 6 6 6 6 6 6 6 5 5 > > > > > > > > > > > > > > > > > > > > > : : > > > > > > > : : : : : : # : : # # # # : : : : : : : : # # : : : : # # : : : : > > 9 5 5 5 5 5 5 5 5 5 5 5 5 5 5 5 5 5 5 5 5 5 5 5 5 5 5 5 5 5 6 6 6 6 6 6 6 6 6 6 6 6 6 6 6 6 6 6 6 6 6 6 6 6 6 6 6 6 5 5 5 5 5 5 5 5 5 > > > 5 5 5 5 > 5 > > > > 5 5 5 5 > 5 5 > 5 5 5 5 5 5 5 5 > > 5 5 5 5 > > 5 5 5 5 5 5 > > > > 5 5 > > 5 5 5 5 6 6 6 6 6 6 6 6 6 6 6 6 6 6 6 6 6 6 6 6 6 6 6 6 6 6 6 6 6 6 6 o.o.o.O.O.O.O.O.O.O.O.O.O.O.O.O.O.O.O.O.O.O.O.O.O.O.O.O.O.O.o.o.6 5 5 5 5 5 5 5 5 5 5 5 5 5 5 5 5 5 5 5 5 5 5 5 5 5 5 5 5 5 5 5 > > > > > > > > > > > > > > > > > > > > > > > > > > > > > ",
"^.' 2 6 6 6 5 5 5 6 6 6 5 5 5 6 5 5 5 5 5 5 5 5 5 5 5 5 5 5 5 5 6 6 6 6 6 6 6 6 6 6 6 6 6 6 6 6 5 5 6 6 6 6 6 6 6 6 6 5 5 5 5 > : : : : : : : # : : # : : : # # : : # : # # : : : # # # # : : : : : : : : : : : : : : : : : : : : : : : : : : : : # : : > 5 6 0 6 6 6 6 6 6 6 6 6 6 6 6 6 6 6 6 o.6 6 6 6 6 6 6 6 6 6 6 6 6 6 6 6 6 6 6 6 6 6 6 6 6 6 6 6 6 6 6 6 6 6 6 6 6 6 6 6 5 5 5 > > > > > > > > > > > > > > > > > > > > : : > > > > > > > : : : : : : # : # # # # # : : # # : : : : : : : : : : # # : : : > > > 9 5 5 5 5 5 5 5 5 5 5 5 5 5 5 5 5 5 5 5 5 5 5 5 5 5 5 5 5 5 6 6 6 6 6 6 6 6 6 6 6 6 6 6 6 6 6 6 6 6 6 6 6 6 6 6 6 6 5 5 5 5 5 5 5 5 > > > > 5 5 > > > > 5 > 5 5 5 5 5 5 > > > > > > 5 5 5 5 5 5 > > > 5 > > > > > > 5 5 5 5 5 5 > 5 5 > > > > 5 > 5 6 6 6 6 6 6 6 6 6 6 6 6 6 6 6 6 6 6 6 6 6 6 6 6 6 6 6 6 6 6 o.o.o.o.O.O.O.O.O.O.O.O.O.O.O.O.O.O.O.O.O.O.O.O.O.O.O.O.O.O.O.o.o.6 5 5 5 5 5 5 5 5 5 5 5 5 5 5 5 5 5 5 5 5 5 5 5 5 5 5 5 5 5 5 5 5 > > > > > > > > > > > > > > > > > > > > > > > > > > > > ",
"^.' 2 6 6 6 5 5 5 6 6 6 5 5 5 6 5 5 5 5 5 5 5 5 5 5 5 5 5 5 5 5 6 6 6 6 6 6 6 6 6 6 6 6 6 6 6 6 5 5 5 5 6 6 6 6 6 6 6 5 5 5 5 > : : : : : : : # : : : : : : # # : : # # # # : : : : # # # : : : : : : : : : : : : : : : : : : : : : : : : : : : : # : : > 5 6 0 6 6 6 6 6 6 6 6 6 6 6 6 6 6 6 6 o.o.6 6 6 6 6 6 6 6 6 6 6 6 6 6 6 6 6 6 6 6 6 6 6 6 6 6 6 6 6 6 6 6 6 6 6 6 6 6 6 5 5 5 > > > > > > > > > > > > > > > > > > > > : : > > > > > > > : : : : : : # : # # # # # : : # # : : : : : : : : # # # # : : : : > > 5 5 5 5 5 5 5 5 5 5 5 5 5 5 5 5 5 5 5 5 5 5 5 5 5 5 5 5 5 5 6 6 6 6 6 6 6 6 6 6 6 6 6 6 6 6 6 6 6 6 6 6 6 6 6 6 6 6 5 5 5 5 5 5 5 5 > > > > 5 5 > > > > 5 5 5 5 5 5 5 5 > > > > > > 5 5 5 5 5 5 > > 5 5 > > > > > 5 5 5 5 5 5 5 > > 5 > > > > 5 > 5 5 6 6 6 6 6 6 6 6 6 6 6 6 6 6 6 6 6 6 6 6 6 6 6 6 6 6 6 6 6 o.o.o.o.O.O.O.O.O.O.O.O.O.O.O.O.O.O.O.O.O.O.O.O.O.O.O.O.O.O.O.o.o.6 5 5 5 5 5 5 5 5 5 5 5 5 5 5 5 5 5 5 5 5 5 5 5 5 5 5 5 5 5 5 5 5 > > > > > > > > > > > > > > > > > > > > > > > > > > > > ",
"^.' 2 6 6 6 5 5 5 6 6 6 5 5 5 6 5 5 5 5 5 5 5 5 5 5 5 5 5 5 5 5 6 6 6 6 6 6 6 6 6 6 6 6 6 6 6 6 5 5 6 6 6 6 6 6 6 6 6 5 5 5 5 > : : : : : : # # : : # # : : : : : # # # # : : : : : # # # : : : : : : : : : : : : : : : : : : : : : : : : : : : : # : : > 5 6 0 6 6 6 6 6 6 6 6 6 6 6 6 6 6 6 6 6 6 6 6 6 6 6 6 6 6 6 6 6 6 6 6 6 6 6 6 6 6 6 6 6 6 6 6 6 6 6 6 6 6 6 6 6 6 6 6 6 5 5 5 > > > > > > > > > > > > > > > > > > > > > > > > > > > > > : : : : : : # : : # # # # : : # # : : : : : : : # # # : : : : : : > > > 5 5 5 5 5 5 5 5 5 5 5 5 5 5 5 5 5 5 5 5 5 5 5 5 5 5 5 5 5 6 6 6 6 6 6 6 6 6 6 6 6 6 6 6 6 6 6 6 6 6 6 6 6 6 6 6 6 5 5 5 5 5 5 5 5 5 > 5 > > > > 5 5 5 5 5 5 5 5 5 5 5 > > > > > > > > > > > > 5 5 > > > > > 5 > > > > > > > 5 5 5 5 > > > > 5 5 5 6 6 6 6 6 6 6 6 6 6 6 6 6 6 6 6 6 6 6 6 6 6 6 6 6 6 6 6 6 6 6 o.o.o.O.O.O.O.O.O.O.O.O.O.O.O.O.O.O.O.O.O.O.O.O.O.O.O.O.O.O.o.o.6 5 5 5 5 5 5 5 5 5 5 5 5 5 5 5 5 5 5 5 5 5 5 5 5 5 5 5 5 5 5 5 > > > > > > > > > > > > > > > > > > > > > > > > > > > > > ",
"!.' 2 6 6 6 5 5 5 6 6 6 5 5 5 6 5 5 5 5 5 5 5 5 5 5 5 5 5 5 5 5 6 6 6 6 6 6 6 6 6 6 6 6 6 6 6 6 5 5 6 6 6 6 6 6 6 6 6 5 5 5 5 > : : : : : : # # : : # # : : : : : # # # # # : : : : : # # : : : : : : : : : : : : : : : : : : : : : : : : : : : : : : : > 5 6 0 6 6 6 6 6 6 6 6 6 6 6 6 6 6 6 6 6 0 6 6 6 6 6 6 6 6 6 6 6 6 6 6 6 6 6 6 6 6 6 6 6 6 6 6 6 6 6 6 6 6 6 6 6 6 6 6 6 5 5 5 > > > > > > > > > > > > > > > > > > > > > > > > > > > > > : : : : # : # : : # : # # : : # # : : # : : : # # # # : : : : : : > > 5 5 5 5 5 5 5 5 5 5 5 5 5 5 5 5 5 5 5 5 5 5 5 5 5 5 5 5 5 5 6 6 6 6 6 6 6 6 6 6 6 6 6 6 6 6 6 6 6 6 6 6 6 6 6 6 6 6 5 5 5 5 5 5 5 5 > > 5 > > > 5 5 5 5 5 5 5 5 5 5 5 5 > > > 5 > > 5 5 > > > > 5 5 5 > > > > 5 > > 5 > > > > 5 5 5 5 > > > > 5 5 5 6 6 6 6 6 6 6 6 6 6 6 6 6 6 6 6 6 6 6 6 6 6 6 6 6 6 6 6 6 6 6 o.o.o.O.O.O.O.O.O.O.O.O.O.O.O.O.O.O.O.O.O.O.O.O.O.O.O.O.O.O.o.o.6 5 5 5 5 5 5 5 5 5 5 5 5 5 5 5 5 5 5 5 5 5 5 5 5 5 5 5 5 5 5 5 5 > > > > > > > > > > > > > > > > > > > > > > > > > > > > ",
"!.' 2 6 6 6 5 5 5 6 6 6 5 5 5 6 5 5 5 5 5 5 5 5 5 5 5 5 5 5 5 5 6 6 6 6 6 6 6 6 6 6 6 6 6 6 6 6 5 5 6 6 6 6 6 6 6 6 6 5 5 5 5 > : # # # : : : # : : # # : : : : : : # # # # : : : : # # : : : : : : : : : : : : : : : : : : : : : : : : : : : : : # : : > 5 6 0 6 6 6 6 6 6 6 6 6 6 6 6 6 6 6 6 6 6 6 6 6 6 6 6 6 6 6 6 6 6 6 6 6 6 6 6 6 6 6 6 6 6 6 6 6 6 6 6 6 6 6 6 6 6 6 6 6 5 5 > > > > > > > > > > > > > > > > > > > > > > > > > > > > > > : : : : # # # : : : : # : : : : : : : # # # : : : # : : : : : : : > > > > 5 5 5 5 5 5 5 5 5 5 5 5 5 5 5 5 5 5 5 5 5 5 5 5 5 5 5 5 6 6 6 6 6 6 6 6 6 6 6 6 6 6 6 6 6 6 6 6 6 6 6 6 6 6 6 6 5 5 5 5 5 5 5 5 5 5 5 5 > > 5 5 5 5 > > > > 5 5 5 5 > > 5 5 5 5 5 5 > > 5 5 5 5 > > > > 5 5 5 5 5 5 > > 5 5 5 5 5 > > > > 5 5 5 6 6 6 6 6 6 6 6 6 6 6 6 6 6 6 6 6 6 6 6 6 6 6 6 6 6 6 6 6 6 6 o.o.o.O.O.O.O.O.O.O.O.O.O.O.O.O.O.O.O.O.O.O.O.O.O.O.O.O.O.O.o.o.6 5 5 5 5 5 5 5 5 5 5 5 5 5 5 5 5 5 5 5 5 5 5 5 5 5 5 5 5 5 5 5 5 5 > > > > > > > > > > > > > > > > > > > > > > > > > > > ",
"^.' 2 6 6 6 5 5 5 6 6 6 5 5 5 5 5 5 5 5 5 5 5 5 5 5 5 5 5 5 5 5 6 6 6 6 6 6 6 6 6 6 6 6 6 6 6 6 6 6 6 6 6 6 6 6 6 6 6 5 6 5 5 > : # # # : # : # : # # # : # : # : # : # : # : # : # : # : # : : : : : : : : : : : : : : : : : : : : : : : : : : : : : : > 5 9 0 6 6 6 6 6 6 6 6 6 6 6 6 o.6 6 6 6 6 o.6 6 6 6 6 6 6 6 6 6 6 6 6 6 6 6 6 6 6 6 6 6 6 6 6 6 6 6 6 6 6 6 6 6 6 6 6 6 5 5 5 > > > > > > > > > > > > > > > > > > > > > : : : > : > > > : : : : : # # : : : : : : : : : : : : # # # # : : : : : : : : : : < > 9 > 5 5 5 5 5 5 9 5 5 5 5 5 5 5 9 5 9 5 5 5 5 5 5 5 5 5 5 5 6 6 6 6 6 6 6 6 6 6 6 6 6 6 6 6 6 6 6 6 6 6 6 6 6 6 6 6 5 5 5 5 5 5 5 5 5 5 5 5 > > 5 5 5 5 > > > > > > 5 5 5 > 5 5 5 5 5 5 5 5 5 5 5 5 > > > > 5 5 5 5 5 5 > 5 5 > 5 5 5 5 > > > > 5 5 5 6 6 6 6 6 6 6 6 6 6 6 6 6 6 6 6 6 6 6 6 6 6 6 6 6 6 6 6 6 o.o.o.O.O.O.O.O.O.O.O.O.O.O.O.O.O.O.O.O.O.O.O.O.O.O.O.O.O.O.O.o.o.6 6 5 5 5 5 5 5 5 5 5 5 5 5 5 5 5 5 5 5 5 5 5 5 5 5 5 5 5 5 > 5 5 5 > > > > > > > > > > > > > > > > > > > > > > > > > > > ",
"T.E 2 6 6 6 5 5 5 6 6 9 5 5 5 5 5 5 5 5 5 5 5 5 5 5 5 5 5 5 5 5 6 6 0 6 0 6 6 6 6 6 6 6 6 6 6 6 6 6 6 6 6 6 6 6 6 6 6 6 9 5 5 > : # # # # # # # # # # # # # # # # # # # # # # # # # # # # # # # : : : : : : : : : : : : : : : : : : : : : : : : : : : : > 5 6 0 6 6 o.6 o.6 o.6 o.6 o.6 6 6 o.o.o.o.o.o.o.0 0 0 0 0 0 0 6 6 0 6 6 6 6 6 6 6 6 6 6 6 6 6 6 6 6 6 6 6 6 6 6 6 6 6 6 9 9 5 > > > > > > > > > > > > > > > > > > > > : : : : > : : : : : : : : : : # : # # # # # # # # # # # # # # # : : : : : : : : : : < > 9 5 5 9 5 5 9 9 9 9 9 5 9 9 9 9 9 5 9 5 5 5 5 9 5 5 5 5 6 6 6 6 6 6 6 6 6 6 6 6 6 6 6 6 6 6 6 6 6 6 6 6 6 6 6 5 5 5 5 5 5 5 5 > > > 5 5 5 5 5 5 5 5 5 5 5 5 5 5 5 5 5 5 5 5 5 5 5 5 5 5 5 5 5 5 5 5 5 5 5 5 5 5 5 5 5 5 5 5 5 5 5 5 5 5 5 5 5 5 > 5 5 0 6 6 6 6 6 6 6 6 6 6 6 6 6 6 6 6 6 6 6 6 6 6 6 6 o.6 o.o.o.o.O.O.O.O.O.O.O.O.O.O.O.O.O.O.O.O.O.O.O.O.O.O.O.O.O.O.O.O.O.O.o.6 6 5 5 5 5 5 5 > > > 5 5 5 5 5 5 5 5 5 5 5 5 5 5 5 5 5 5 5 > > > > > > > > > > 5 5 5 > > > 5 5 5 > > > 5 5 5 > > > 5 > > ",
"T.E 2 6 6 6 5 5 5 6 6 5 5 5 5 5 5 5 5 5 5 5 5 5 5 5 5 5 5 5 5 5 6 6 6 6 6 6 6 6 6 6 6 6 6 6 6 6 6 6 6 6 6 6 6 6 6 6 6 6 9 9 5 > : # # # # # # # # # # # # # # # # # # # # # # # # # # # # # # # : : : : : : : : : : : : : : : : : : : : : 1 : : : : : : > 5 6 0 0 6 o.6 o.6 o.6 o.6 6 6 o.6 o.o.o.o.o.o.0 0 0 0 0 0 0 0 6 6 6 6 6 6 6 6 6 6 6 6 6 6 6 6 6 6 6 6 6 6 6 6 6 6 6 6 6 9 9 5 > > > > > > > > > > > > > > > > > > > > : : : : : : : : : : : : : : : : # # : # : # # # # # : # : # # : : : : : : : # # : : < > 9 5 5 9 5 5 9 5 9 9 9 9 9 9 9 9 9 5 9 5 5 5 5 5 9 5 5 5 5 6 6 6 6 6 6 6 6 6 6 6 6 6 6 6 6 6 6 6 6 6 6 6 6 6 6 5 5 5 5 5 5 5 5 > > > > > 5 5 5 5 5 5 5 5 5 5 5 5 5 5 5 5 5 5 5 5 5 5 5 5 5 5 5 5 5 5 5 5 5 5 5 5 5 5 5 5 5 5 5 5 5 5 5 5 5 5 5 5 > 5 5 6 6 6 6 6 6 6 6 6 6 6 6 6 6 6 6 6 6 6 6 6 6 6 6 6 o.o.o.o.o.o.O.O.O.O.O.O.O.O.O.O.O.O.O.O.O.O.O.O.O.O.O.O.O.O.O.O.O.O.O.o.o.6 6 6 5 5 5 5 5 > > > 5 5 5 5 5 5 5 5 5 5 5 5 5 5 5 5 5 5 5 > > > > > > > > > > 5 5 5 > > > 5 5 5 > > > > 5 5 > > > 5 > > ",
"T.E 2 6 6 6 5 5 5 6 6 5 5 5 5 5 5 5 5 5 5 5 5 5 5 5 5 5 5 5 5 5 6 6 6 6 6 6 6 6 6 6 6 6 6 6 6 6 6 6 6 6 6 6 6 5 0 6 9 9 5 5 5 > : # : # : # : # : # : # : # : # : # : # : # : # : # : # : : : : : : : : : : : : : : : : : : : : : : : : : 1 : : : : : : > > 9 0 6 6 6 6 6 6 6 6 6 6 6 6 6 6 6 6 6 6 6 6 6 6 6 6 6 6 6 6 6 6 6 6 6 6 6 6 6 6 6 6 6 6 6 6 6 6 6 9 6 5 5 5 5 5 6 9 9 5 5 5 > > > > > > > > > > > > > > > > > > > > > > > > > > : : : : : : : : : : # # : : : : : # : # : : : : : # # # # # # # : : : : > > 5 5 5 5 5 5 5 5 9 5 9 5 5 5 5 5 5 5 5 5 5 5 5 5 5 5 5 5 5 5 5 6 6 6 6 6 6 5 6 5 6 5 6 5 6 6 6 6 6 5 6 6 6 6 6 6 6 6 5 5 5 5 5 5 > > > > > > 5 > 5 5 5 5 > > > > > > 5 5 5 5 > > > > > 5 > > 5 > 5 5 5 5 5 5 5 5 5 5 > > > > 5 5 > > > > > 5 > > > 5 9 6 6 6 6 6 6 6 6 6 6 6 6 6 6 6 6 6 6 6 6 6 6 6 6 6 6 6 6 6 o.o.o.O.O.O.O.O.O.O.O.o.O.O.O.O.O.O.O.O.O.O.O.O.O.O.O.O.O.o.@.o.o.6 6 5 5 5 5 5 5 5 5 5 5 5 5 5 5 5 5 5 5 5 5 5 5 5 5 5 5 5 5 > > > > > > > > > > > 5 5 > > > > > > > > > > > > > > > > > > ",
"T.E 2 6 6 6 5 5 5 6 6 9 5 5 5 5 5 5 5 5 5 5 5 5 5 5 5 5 5 5 5 5 9 9 9 5 9 9 9 9 9 9 9 9 5 5 9 6 6 6 9 6 6 6 5 5 6 6 9 5 5 5 5 > : : : : : : : : : : : : : : : : : : : : : : : : : : : : : : : : : : : : : : : : : : : : : : : : : : : : 1 # : : : : : : > > 9 9 6 6 6 6 6 6 6 6 6 6 6 6 6 6 6 6 6 6 6 6 6 6 6 6 6 6 6 6 6 6 6 6 9 9 9 9 5 5 5 6 9 9 9 9 9 9 9 5 5 5 5 5 5 5 9 6 9 5 5 > > > > > > > > > > > > > > > > > > > > > > > > > > > > : : : : : : : : : : : : : : : : : : : : : : : : : # # # # # # : : : : > > 5 5 5 5 5 5 5 5 5 5 5 5 5 5 5 5 5 5 5 5 > > 5 5 5 5 5 5 5 5 5 5 6 6 6 5 5 5 5 5 5 5 5 5 6 6 5 5 5 5 5 5 6 6 6 6 6 6 6 5 5 5 5 5 > > > > > > > > 5 5 5 5 > > > > > > 5 5 5 5 5 > > > 5 > > > > > 5 5 5 5 5 5 5 5 5 5 > > > > 5 5 > > > > > > > > 5 5 9 6 6 6 6 6 6 6 6 6 6 6 6 6 6 6 6 6 6 6 6 6 6 6 6 6 6 6 6 6 6 o.o.o.O.O.O.O.O.O.O.O.O.O.O.O.O.O.O.O.O.O.O.O.O.O.O.O.o.@.@.o.6 6 5 5 5 5 5 5 5 5 5 5 5 5 5 5 5 5 5 5 5 5 5 5 5 5 5 5 5 5 > > > > > > > > > > > > 5 > > > > > > > > > > > > > > > > > > > ",
"!.E 2 6 6 6 5 5 5 6 6 6 5 5 5 6 5 5 5 5 5 5 5 5 5 5 5 5 5 5 5 5 5 5 5 5 5 5 5 5 5 5 5 5 5 5 5 5 5 5 5 5 5 5 5 5 5 5 5 5 5 5 5 > : : : : : : : : : : : : : : : : : : : : : : : : : : : : : : : : : : : : : : : : : : : : : : : : : : : # # # # : : : : : > > 9 6 6 6 6 6 6 6 6 6 6 6 6 6 6 6 6 6 6 6 6 6 6 6 6 6 6 6 6 6 5 5 5 5 5 5 5 5 5 5 5 5 5 5 5 5 5 5 5 5 5 5 5 5 5 5 5 5 5 5 5 > > : : : > > > > > > > > > > > > > > > > > > > > > > : : : : : : # # : : : : : : : : : : : : : : : : : : # # # # # # : : : > > 5 5 5 5 5 5 5 5 5 5 5 5 5 5 5 5 5 5 5 5 5 > > 5 5 5 5 5 5 5 5 5 5 6 6 6 5 5 5 5 5 5 5 5 5 5 5 5 5 5 5 5 6 6 6 6 6 6 6 6 6 5 5 5 5 > > > > > > 5 5 5 > > > > > > > > > > > > > > > > > > > > > 5 5 5 > > > > > > > 5 5 > > > > > > > > > > > > > > 5 5 5 6 6 6 6 o.o.o.o.6 6 6 6 6 6 6 6 6 6 6 6 6 6 6 6 6 6 6 6 6 6 o.o.o.O.O.O.O.O.O.O.O.O.O.O.O.O.O.O.O.O.O.O.O.O.O.O.O.o.o.o.o.6 6 5 5 5 5 5 5 5 6 6 6 9 5 5 5 9 9 9 9 9 5 5 5 9 9 9 5 5 5 > > > > > > > > > > > > > > > > > > > > > > > > > > > > > > > > ",
"!.E q 6 6 6 5 5 5 6 6 6 5 5 5 6 5 5 5 5 5 5 5 5 5 5 5 5 5 5 5 5 6 5 5 5 5 5 5 5 5 5 5 5 5 5 6 6 5 5 6 5 5 5 5 5 5 5 5 5 5 5 5 > : : : : : : : : : : : : : : : : : : : : : : : # : : : : : 1 : : : : : : : : : : : : : : : : : : : : # # # # # : : : : : > > 9 6 6 6 6 6 6 6 6 6 6 6 6 6 6 6 6 6 6 6 6 6 6 6 6 6 6 6 6 6 6 5 5 5 5 5 5 5 5 5 6 5 5 5 5 5 5 5 6 6 5 6 6 5 6 5 5 5 5 5 5 > > : : : > > > > > > > > > > > > > > > > > > > > > > > : : : : : : : # : : : : : : : : : : : : : : : : : # # # # # : : : : > 5 5 5 5 5 5 5 5 5 5 5 5 5 5 5 5 5 5 5 5 5 5 > 5 5 5 5 5 5 5 5 5 5 5 5 6 6 5 5 5 5 5 5 5 6 5 5 5 6 5 6 5 6 6 6 6 6 6 6 6 6 6 5 5 5 5 5 > > > > > 5 5 > > > > > > > > > > > > > > > > > > > > > > 5 5 > > > > > > > > 5 5 > > > > > > > > 5 > > > > > 5 5 5 6 6 6 6 6 o.o.o.o.6 6 6 6 6 6 6 6 6 6 6 6 6 6 6 6 6 6 6 6 o.o.o.o.O.O.O.O.O.O.O.O.O.O.O.O.O.O.O.O.O.O.O.O.O.O.O.O.O.o.o.o.6 5 5 5 5 5 5 5 5 6 6 6 5 5 5 5 9 9 9 9 9 5 5 5 9 9 9 5 5 5 5 > > > > > > > > > > > > > > > > > > > > > > > > > > > > > > > ",
"!.E q 6 6 6 5 5 5 6 6 6 9 5 5 6 6 6 6 6 6 6 6 6 6 6 6 6 6 6 6 6 6 6 6 5 6 5 6 5 6 5 6 6 6 6 6 6 6 6 6 6 6 5 6 6 6 5 5 5 5 5 5 > : # : # : # : # # # : # : # : # : # : # : # : # : # : # : # : : : : : : : : : : : : : : : : : : : # : # # # # # : : : > > > 6 0 6 6 6 6 6 6 6 6 6 6 6 6 6 6 6 6 6 6 6 6 6 6 6 6 6 6 6 6 6 6 6 6 6 5 6 6 6 6 6 6 6 6 6 5 6 5 6 6 6 6 6 6 6 6 6 5 5 5 5 > > > : : > > > > > > > > > > > > > > > > > > > > > : > : : : : : : : # # # : : : : : : : : : : : : : : # # * # # # : : : : > > 5 5 5 5 5 5 5 5 5 5 5 5 5 5 5 5 5 5 5 5 5 5 5 5 5 5 5 5 5 5 5 5 6 6 6 6 6 6 5 6 6 6 6 6 6 6 5 6 5 6 5 6 6 6 6 6 6 6 6 6 5 5 5 5 5 5 > > > > > 5 5 > > > > > > 5 5 5 5 > > 5 5 5 5 > > > > > > 5 5 > > > > > > > > 5 5 5 > > > > > 5 5 5 5 5 5 5 5 5 5 5 6 6 6 6 6 o.o.o.o.6 6 6 6 6 6 6 6 6 6 6 6 6 6 6 6 6 6 6 6 o.o.o.O.O.O.O.O.O.O.O.O.O.O.O.O.O.O.O.O.O.O.O.O.O.O.O.O.O.O.O.o.6 5 5 > > > 5 5 9 6 6 6 9 5 9 5 9 5 9 5 9 5 5 5 9 5 9 5 5 5 5 > > > > > > > > > > > > > > > > > > > > > > > > > > > > > > > ",
"!.E q 6 6 6 5 5 5 6 6 6 6 5 5 6 6 6 6 6 6 6 6 6 6 6 6 6 6 6 6 6 6 6 6 6 6 6 6 6 6 6 6 6 6 6 6 6 6 6 6 6 6 6 6 6 6 6 6 5 5 5 5 > : # # # # # # # # # # # # # # # # # # # # # # # # # # # # # # # : : : : : : : 1 : : : : : : : : : # # # # # # : : : : > > 9 9 0 6 6 6 6 6 6 6 6 6 6 6 6 6 6 6 6 6 6 6 6 6 6 6 6 6 6 6 6 6 6 6 6 6 6 6 6 6 6 6 6 6 6 6 6 6 6 6 6 6 6 6 6 6 6 6 6 5 5 5 5 > > > > > > > > > > > > > > > > > > > > > > > > > > : : : : : : : : : # # # : # : # : # : # : # : # : # # # # # # : : : : > > 5 5 5 5 5 5 5 5 5 5 5 5 5 5 5 5 5 5 5 5 5 5 5 5 5 5 5 5 5 5 6 6 6 6 6 6 6 6 6 6 6 6 6 6 6 6 6 6 6 6 6 6 6 6 6 6 6 6 6 6 5 5 5 5 5 5 5 > > > > 5 5 > > > > > > 5 5 5 5 5 > 5 5 5 5 5 > > > > > 5 5 > > > > > > > > 5 5 > > 5 > > > 5 5 5 5 5 5 5 5 5 5 6 6 6 6 6 o.o.o.o.o.6 6 6 6 6 6 6 6 6 6 6 6 6 6 6 6 6 6 6 6 o.o.O.O.O.O.O.O.O.O.O.O.O.O.O.O.O.O.O.O.O.O.O.O.O.O.O.O.O.O.O.o.o.6 5 > > > > 5 9 9 6 9 9 5 5 5 5 5 5 5 5 5 5 5 5 5 5 5 5 5 5 5 > > > > > > > > > > > > > > > > > > > > > > > > > > > > > > ",
"^.` 2 6 6 0 5 5 9 6 6 9 9 9 5 5 5 6 6 6 5 5 5 5 5 5 5 6 6 5 5 6 6 6 6 6 6 6 6 6 6 6 6 6 6 6 6 6 6 6 6 6 6 6 6 6 0 0 6 0 0 6 5 > : # # # # # # # # # # # # # # # # # # # # # # # # # # # # # # # # # : # : # : # : # : # : # : : : : : : : : : : : : : > > > 9 6 6 o.o.6 o.6 o.6 o.o.o.6 o.o.o.o.o.o.o.o.o.6 o.6 6 6 6 6 6 6 6 6 6 6 6 6 6 6 6 6 6 6 6 6 6 6 6 6 6 6 6 6 6 6 6 6 6 6 5 5 > > > > > > > > > > > > > > > > > > > > > > > > > > > : : : : : : : : # # # # # # # # # # # # # # # # # # # # # # : : : : > 5 5 5 5 5 5 5 5 5 5 5 5 5 5 5 5 5 5 5 5 5 5 5 5 5 5 5 5 5 6 5 6 6 6 6 6 6 6 6 6 6 6 6 6 6 6 6 6 6 6 6 6 6 6 0 0 0 0 0 0 0 0 5 5 5 5 5 > 5 5 > > > > 5 5 5 5 5 5 5 5 > > > > 5 5 5 > > > 5 5 > > > > 5 5 5 5 > > > > 5 5 5 5 5 5 5 > > > 5 5 5 5 5 5 5 5 6 6 0 0 0 o.o.o.o.o.o.o.o.o.o.o.o.o.o.o.o.o.o.o.o.6 o.o.o.o.o.o.O.O.O.O.%.%.%.O.O.O.O.O.O.O.O.O.%.%.O.%.%.%.O.O.O.%.%.%.%.O.o.6 5 > > > > > 5 5 9 9 5 5 5 9 5 9 5 9 5 > 5 9 5 9 5 5 5 5 5 5 > > > > > > > > > > > > > > > > > > > > > > > > > > > > > > ",
"^...4 6 6 0 5 7 9 9 9 9 5 5 5 5 5 5 5 5 5 5 5 5 5 5 5 5 5 5 5 5 6 6 6 6 6 6 6 6 6 6 6 6 6 6 6 6 6 6 6 6 6 6 6 6 6 6 6 6 6 6 5 > : # # # # # # # # # # # # # # # # # # # # # # # # # # # # # : # # # : : : : : : : : : : : # : : 1 : : : : : : : : : : > > > 9 6 6 6 6 6 6 6 6 6 6 6 6 6 6 6 6 6 6 6 6 6 6 6 6 6 6 6 6 6 6 6 6 6 6 6 6 6 6 6 6 6 6 6 6 6 6 6 6 6 6 6 6 6 6 6 6 6 6 6 5 5 > > > > > > > > > > > > > > > > > > > > > > > > > > > > : : : : : # : : # # # # # # # # # # # # # # : : : # : : : : : : : > 5 5 5 5 5 5 5 5 5 5 5 5 5 5 5 5 5 5 5 5 5 5 5 5 5 5 5 5 5 5 5 6 6 6 6 6 6 6 6 6 6 6 6 6 6 6 6 6 6 6 6 6 6 6 6 6 6 6 9 9 5 5 5 5 5 5 5 5 5 5 > > > > 5 > 5 > 5 > 5 > 5 > 5 > 5 > 5 > > > 5 > > > > > 5 > 5 > > > > > 5 > 5 > 5 5 5 > > > 5 5 5 5 5 5 5 5 5 6 6 6 6 6 6 6 6 6 6 6 6 6 6 6 6 6 6 6 6 6 6 6 6 6 6 6 6 o.o.o.O.O.O.O.O.O.O.O.O.O.O.O.O.O.O.O.O.O.O.O.O.O.O.O.O.O.O.%.O.O.o.6 5 5 5 > > > 5 9 9 9 9 5 5 5 9 5 9 5 5 5 9 5 9 5 9 5 9 5 5 5 5 5 > > > > > > > > > > > > > > > > > > > > > > > > > > > > ",
"^...4 9 6 0 5 7 5 9 9 9 > > 5 5 5 5 5 5 5 5 5 5 5 5 5 5 5 5 5 5 0 6 6 6 6 6 6 6 6 6 6 6 6 6 6 6 0 6 0 6 6 0 6 6 6 6 6 5 6 5 5 > : # # # # # # # # # : # # # : # # # # # # # : # # # # # # # : : : : : : : : : : : : : : : : : : : : : : : : : : : : : > > 5 9 6 6 6 6 6 6 6 6 6 6 6 6 6 6 6 6 6 6 6 6 6 6 6 6 6 6 6 6 6 6 6 6 6 6 6 6 6 6 6 6 6 6 6 6 6 6 6 6 0 6 6 6 6 6 6 6 6 6 9 9 5 5 > > > > : : : > > > > : : : : > > > > > > > > > > > > > : : : : : : : : # : # : # : # : # : # : # : : : : : : : : : > > > > > > > > 9 5 5 5 5 5 5 5 5 5 5 5 5 5 5 5 5 5 5 5 5 5 5 5 5 6 6 6 6 6 6 6 6 6 6 6 6 6 6 6 6 6 6 6 6 6 6 6 6 9 9 6 6 6 6 5 6 5 5 5 5 5 5 5 5 5 5 5 > 5 5 5 5 5 5 5 5 5 5 5 5 5 5 5 5 5 5 5 5 5 5 5 > 5 5 5 5 5 5 5 > 5 5 5 5 5 5 5 5 5 5 5 5 5 5 5 5 5 5 5 5 5 6 6 6 6 6 6 6 6 6 6 6 6 6 6 6 6 6 6 6 6 6 6 6 6 6 6 6 o.o.o.O.O.O.O.O.O.O.O.O.O.O.O.O.O.O.O.O.O.O.O.O.O.O.O.O.O.O.O.O.o.6 5 5 5 5 5 5 5 5 5 5 5 5 5 5 5 5 5 5 5 5 5 5 5 5 5 5 6 6 6 5 5 5 5 5 > > > > > > 5 5 > > > > 5 > > > 5 > > > > > > > > > ",
"^...2 9 6 6 > > 9 9 9 6 > > 5 5 5 5 5 5 5 5 9 5 5 5 5 5 5 5 5 5 6 6 6 6 6 6 6 6 6 6 9 6 9 6 6 6 0 0 6 0 6 6 0 6 9 5 9 6 9 5 5 > : : : : : : : : : : : : : : : : : : : : : : : : : : : # : : : : : : : : : : : : : : : : : : : : : : : : : : > > > > : > > 5 9 6 6 6 6 6 6 6 6 6 6 6 6 6 6 6 6 6 6 6 6 6 6 6 6 5 0 0 0 0 6 5 6 6 6 6 6 6 6 6 0 6 0 6 6 6 6 6 6 6 6 5 6 6 6 6 6 6 9 5 5 5 > > > > : : : : > > > > : : : : > > > > > > > > > > > > > : : : : : : : : : : : : : : : : : : : : : : : : : : : : : : : > > > > > < < > > 9 > > 5 9 5 9 5 > 5 9 5 9 > > > > 5 5 5 5 5 5 9 5 0 0 0 0 0 6 6 6 6 6 5 5 5 5 6 6 6 6 5 5 5 5 6 6 6 9 5 5 5 6 5 5 5 5 5 5 5 5 5 5 5 5 5 5 5 5 5 5 5 5 5 5 5 5 5 5 5 5 5 5 5 5 5 5 5 5 5 5 5 5 5 5 5 5 5 5 5 5 5 5 5 5 5 5 5 5 5 5 5 5 5 5 5 5 6 6 6 6 6 6 6 6 6 6 6 6 6 6 6 6 6 6 6 6 6 6 6 6 6 6 6 0 0 o.#.@.@.@.@.@.@.@.@.@.@.@.@.@.@.@.o.@.@.@.@.@.@.@.o.o.@.@.@.o.o.6 5 5 5 5 5 5 5 5 5 5 5 5 5 5 5 5 5 5 5 5 5 5 5 5 5 5 5 5 5 5 5 5 5 > > > > > 5 > 5 5 > > > > > > > > > 5 > 5 > > > > > > ",
"E...2 5 5 5 > < 9 5 9 9 < > > 5 5 5 9 5 9 5 9 5 9 5 9 5 9 5 9 9 9 > 5 > 5 > 5 > 5 > 5 > 5 > 5 5 5 5 5 5 5 5 5 9 5 5 5 > > > > > : : : : : : : : : : : : : : : : : : : : : : : : : : : : : : : > > > > > > > > > > > > > > > > > > > > > > > > > > > > > > > > 9 5 5 5 5 5 5 5 5 5 5 5 5 5 5 5 5 5 5 5 5 5 5 5 5 9 6 6 5 9 5 9 9 > > 5 > 5 > 5 > 5 > 5 > 5 > 5 > > > > > > > 9 9 > > > > > > : : : : : > > : > : : : > > : : : > : : : : > > : : > > > : > > : > > : > : > : > : > : > : > : > > > > > > > > > > > > > > < < , : , > > > > > > > > > > > > > > > > > > > > > > > 5 9 9 9 9 6 6 9 9 5 9 5 9 5 9 5 9 5 9 5 9 5 9 9 > > > > 5 5 5 5 5 5 5 5 5 5 5 5 5 5 5 5 5 5 5 5 5 5 5 5 5 5 5 5 5 5 5 5 5 5 5 5 5 5 5 5 5 5 5 5 5 5 5 5 5 5 5 5 5 5 5 5 5 5 5 5 5 5 5 5 5 5 5 5 5 5 5 5 5 5 5 5 5 5 5 5 5 5 5 5 5 5 5 5 5 5 5 5 9 9 5 9 6 6 0 0 0 6 0 0 0 6 0 6 6 6 0 6 0 6 0 6 0 0 0 0 0 6 0 6 0 0 0 6 6 6 6 6 6 6 6 6 6 6 6 6 6 6 6 6 6 5 6 5 6 6 6 6 6 6 6 6 6 6 6 6 5 5 5 5 5 5 5 5 5 5 5 5 5 5 > 5 5 5 5 5 5 5 5 5 5 5 5 5 5 5 ",
"E. .1 5 5 5 : > > > 5 > > : > > > > > > > > > > > > > > > > > > : : : : : : : : : : : : : : : : > > > > > : > : : : > : : : : : > > > > 5 > 5 > > > 5 > 5 > > > 5 > 5 > 5 > > > > > > > > > 9 9 5 5 5 5 5 5 5 5 5 5 5 5 5 5 5 5 5 5 5 5 5 5 5 9 > > > > > > > > > > > > > > > > > > > > > > > > > > > > > > > > > > > > > : > : : : : : : : : : : : : : : : : : : : : : : : : : : : > : : : : : : : > > : : : : : : > > : : : : : : : : : > : > > > > > < > > > > > 5 > 5 > 5 > 5 > 5 > 5 > 5 5 5 5 5 5 5 5 > > 5 > : : : : 1 # # : : # : # : # : : : : : # : # : : : : : : : : : : > > > > > > > > > > > > > > > > > > > > > > > > > > > > > > 5 5 5 5 5 5 5 5 5 5 5 5 5 5 5 5 5 5 5 5 5 5 5 5 5 5 5 5 5 5 5 5 5 5 5 5 5 5 5 5 5 5 5 5 5 5 5 5 5 5 5 5 5 5 5 5 5 5 5 5 5 5 5 5 5 > > > > > > > > > > > > > > > > > > > > > > > > > > > > > 5 5 5 5 > > > > > > > > > > > > > > > > > > > > > > > > > 5 5 6 0 o.o.o.o.o.o.o.o.o.o.o.o.o.o.o.o.o.o.o.o.o.o.o.o.o.o.o.0 6 6 6 5 5 5 5 5 5 5 5 5 5 5 5 9 9 5 5 5 5 5 5 5 5 5 5 5 5 5 5 ",
"E._ 1 > 5 5 : : > > > > : : > > > > > > > > > > > > > > > > > : # # # # # # # # # # # # # # # # : : : : : # : # # # : : # # : : 5 5 9 5 9 9 9 5 9 9 9 9 9 5 9 9 9 5 9 5 9 9 9 5 9 5 9 5 9 5 6 9 5 5 6 5 6 5 5 5 6 5 6 5 5 5 5 5 5 9 5 9 5 9 5 9 9 9 5 5 > > > : : : : : : : : : : : : : : : : : : : : : : : : : : : : : : : : # # # # # # # # # # # # # # # # # # # # # # # # # : : : : 1 1 : : : > > > : : : : : > > > : : : : : : : : : : : > > > > > > 9 9 5 6 5 5 5 5 5 5 5 5 5 5 5 5 5 5 5 5 5 6 6 6 6 6 9 9 > : # # # * # # # # # # # # # # # # # # # # # # # # # # # # # # # : : : : : : : : : : : : : : : : : : : : : : : : : : : > > > > 5 5 5 5 5 5 5 5 5 5 5 5 5 6 6 5 6 5 5 5 5 5 5 5 5 5 5 5 5 6 6 5 5 5 5 5 5 6 6 5 5 5 5 5 5 6 5 5 6 5 5 5 5 5 5 6 6 5 5 5 5 5 5 > > > > > > > > > : > : > : > : > : : : > : > : : : : : > > > > : : : : : : : : : : : : : : : : : : : : : : : : # # # : 5 0 @.@.o.O.O.O.O.O.O.o.o.o.O.o.O.o.O.o.O.o.O.o.O.o.O.o.@.@.@.o.6 6 6 5 5 5 5 5 5 5 5 5 6 6 6 6 6 6 6 6 6 6 5 5 6 6 5 5 5 5 ",
"E._ 1 > > > : : > > > > : : > > > > > > > > > : > : > > > > > : : # # # # # # # # # # # # # # # # # : # # # # # # # # # # # # : 5 5 9 9 9 9 9 9 9 9 9 5 9 5 9 9 9 9 9 9 9 9 9 9 9 5 9 5 9 5 9 9 5 6 6 6 6 6 6 6 6 6 6 6 6 6 6 5 9 9 9 5 5 5 5 5 6 6 6 5 5 > : : : : : : : : : # # # : : : : : : : # # : : : # # # : : # # # # # # # # # # # # # # # # # # # # # # # # # # # # # # # # : : : : : : : > > : : : : : > > > : : : : : : : : : : : > > > > 9 9 6 9 6 9 6 6 6 6 6 6 6 6 6 6 6 6 6 6 6 5 5 5 6 6 6 9 6 9 > : # # # # @ * # # # # # # # # # # # # # # # # # # # # # # # # # # : : : : : : : : : : : : : : : : : : : : : : : : : : : > > > 5 5 5 6 5 5 5 6 6 6 6 6 6 6 6 6 6 6 6 6 6 6 5 6 6 6 6 6 6 6 6 6 6 6 6 6 6 6 6 6 6 6 6 6 6 6 6 6 6 6 6 6 6 6 6 6 6 6 6 5 5 5 5 > > > > > > > > > : : : : : : : : : : : : : : : : : : : : : : : : # # # # # # # # # # # # # # # # # # # # # # # # # # : > 6 @.o.O.O.O.O.O.O.O.O.O.O.O.O.O.O.O.O.O.O.O.O.O.O.O.O.O.o.o.o.6 6 5 5 5 5 5 5 6 6 6 6 6 6 6 6 6 6 0 6 0 6 0 6 0 0 0 6 0 6 ",
"E._ 1 > > > : , : : > : : : : > > : > : > : > : > : > : > : > : # # # # # # # # # # # # # # # # # # : # # # # # # # # # # # : : 5 5 9 5 9 5 9 5 9 5 9 5 9 5 9 5 9 5 9 5 9 5 9 5 9 5 9 5 5 5 9 9 6 6 6 6 6 6 6 6 6 6 6 6 6 6 6 6 6 6 9 5 5 5 6 6 6 6 6 5 5 > : : : : : : : : : : : : : # # # : : : : : : # # # # # : # # # # # # # # # # # # # # # # # # # # # # # # # # # # # # # # # : : : : : : : : : : : : : : : : : : : : : : : : : : : : > > > > 5 6 6 9 9 6 6 6 6 6 6 6 6 6 6 6 6 6 6 6 6 5 5 6 6 6 6 6 6 9 > # # * @ @ # # # # @ @ @ # # # # # # @ @ # # # # @ @ # # # # # # # # : : : : : : : : : : : : : : : : : : : : : : : : : : : > 5 5 0 6 6 6 5 6 6 6 6 6 6 6 6 6 6 6 6 6 6 6 6 6 6 6 6 6 6 6 6 6 6 6 6 6 6 6 6 6 6 6 6 6 6 6 6 6 6 6 6 6 6 6 6 6 6 6 6 6 0 6 5 > > > > : : : : : : : : : : : : : : : : : : : : : : : : : : : : # # # # # # # # # # # # # # # # # # # # # # # # # # # # : > 0 @.o.O.O.O.O.O.O.O.O.O.O.O.O.O.O.O.O.O.O.O.O.O.O.O.O.O.o.@.o.6 6 6 9 5 6 6 6 5 6 6 6 6 5 6 5 6 5 6 5 6 5 6 5 6 5 6 5 6 5 ",
"E. .1 > > > # , : : > : : : : : : : : : : : : : : : : : : : : : # # # # # # # # # # # # # # # # # # # # # # # # # # # # # : : > 5 5 5 5 5 5 5 5 5 5 5 5 5 5 5 5 5 5 5 5 5 5 5 5 5 5 5 5 5 5 5 6 6 6 6 6 6 6 6 6 6 6 6 6 6 6 6 6 6 6 6 5 5 5 6 6 6 6 6 5 9 > : # : : : # : : : : : : : # # # : : : : : : # : # # : : # # # # # # # # # # # # # # # # # # # # # # # # # # # # # # # # : : : : : : : : : : : : : : : : : : : : : : : : : : : : : : > > > 5 6 9 6 6 6 6 6 6 6 6 6 6 6 6 6 6 6 6 6 5 5 5 6 6 6 6 6 5 6 : # # * @ @ # # * # # @ @ # # # # @ @ @ @ # # # # @ @ # # # # # # # # : : : : : : : : : : : : : : : : : : : : : 1 : # # : : : 5 9 6 6 6 6 5 5 6 6 6 6 6 6 6 6 6 6 6 6 6 6 6 6 6 6 6 6 6 6 6 6 6 6 6 6 6 6 6 6 6 6 6 6 6 6 6 6 6 6 6 6 6 6 6 6 6 6 6 6 6 9 > > > : : : : : : : : : : : : : : : : : : : : : : : > : : : : : # # # # # # # # # # # # # # # # # # # # # # # # # # # # # : > 0 @.o.O.O.O.O.O.O.O.o.O.O.O.O.O.O.O.O.O.O.O.O.O.O.O.O.O.O.o.o.6 6 6 5 5 5 9 9 6 6 6 6 6 6 6 6 6 6 6 6 6 6 6 6 6 6 6 6 6 6 ",
"R. .1 > > > # : : : > : : : : : : : : : : : : : : : : : : : : : # # # # # # # # # # # # # # # # # # # # # # # # # # # # # : : > 5 5 5 5 5 5 5 5 5 5 5 5 5 5 5 5 5 5 5 5 5 5 5 5 5 5 5 5 5 5 5 6 6 6 6 6 6 6 6 6 6 6 6 6 6 6 6 6 6 6 6 5 5 5 6 6 6 6 6 5 9 > : : : # # # # # : : : : : : # : : : : : : : : : : : : : # # # # # # # # # # # # # # # # # # # # # # # # # # # # # # # # : : : : > : : : : : : : : : : : : : : : : : : : : : : : : : > > > 5 6 9 6 6 6 6 6 6 6 6 6 6 6 6 6 6 6 6 6 5 5 5 6 6 6 6 6 6 6 : # # # @ @ # # # # # @ # # # # @ @ @ @ @ # # * # # @ # # # # # # : : : : : : : : : : : : : : : : : : : : : : : 1 : # # : : : 5 9 6 6 6 6 5 5 6 6 6 6 6 6 6 6 6 6 6 6 6 6 6 6 6 6 6 6 6 6 6 6 6 6 6 6 6 6 6 6 6 6 6 6 6 6 6 6 6 6 6 6 6 6 6 6 6 6 6 6 6 9 > > > : : : : : : : : : : : : : : : : : : : : : : : > : : : : : # # # # # # # # # # # # # # # # # # # # # # # # # # # # # : > 0 @.o.O.O.O.O.O.O.O.o.O.O.O.O.O.O.O.O.O.O.O.O.O.O.O.O.O.O.o.o.6 6 6 9 6 6 9 6 6 6 6 6 6 6 6 6 6 6 6 6 6 6 6 6 6 6 6 6 6 6 ",
"R._ 1 > > > # # : : > : : : > > : : : : : : : : : : : : : : : : # # # # # # # # # # # # # # # # # # # # # # # # # # # # # : : > 5 5 5 5 5 5 5 5 5 5 5 5 5 5 5 5 5 5 5 5 5 5 5 5 5 5 5 5 5 5 5 6 6 6 6 6 6 6 6 6 6 6 6 6 6 6 6 6 6 6 6 5 5 5 6 6 6 6 6 5 9 > : : : # # # # # : : : : : : # : : : : : : : : : : : : : # # # # # # # # # # # # # # # # # # # # # # # # # # # # # # # # : : : : : : : : : : : : : : : : : : : : : : : : : : : : : : > > > 5 6 9 6 6 6 6 6 6 6 6 6 6 6 6 6 6 6 6 6 5 5 5 6 6 6 6 6 6 6 : # # # @ @ # # # # # @ @ # # # @ @ @ @ @ # # # # # # # # # # # # : : : : : : : : : : : : : : : : : : : : : : : : : : # : : : 5 9 6 6 6 6 5 6 6 6 6 6 6 6 6 6 6 6 6 6 6 6 6 6 6 6 6 6 6 6 6 6 6 6 6 6 6 6 6 6 6 6 6 6 6 6 6 6 6 6 6 6 6 6 6 6 6 6 6 6 6 9 > > > : : : : : : : : : : : : : : : : : : : : : : : > : : : : : # # # # # # # # # # # # # # # # # # # # # # # # # # # # # : > 0 @.o.O.O.O.O.O.O.O.o.O.O.O.O.O.O.O.O.O.O.O.O.O.O.O.O.O.O.o.o.6 6 6 9 6 6 6 5 6 6 6 6 6 6 6 6 6 6 6 6 6 6 6 6 6 6 6 6 6 6 ",
"Y.z * > > > # # : : > > : : > : > : : : : : : : : : : : : : : : # # # # # # # # # # # # # # # # # # # # # # # # # # # # # : : > 5 5 5 5 5 5 5 5 5 5 5 5 5 5 5 5 5 5 5 5 5 5 5 5 5 5 5 5 5 5 5 6 6 6 6 6 6 6 6 6 6 6 6 6 6 6 6 6 6 6 6 5 5 5 6 6 6 6 6 6 9 > : : # # # # # # # : # # # : : : # # : : : : # # : : : : # # # # # # # # # # # # # # # # # # # # # # # # # # # # # # # # : : : : > > : : : : : : : : : : : : : : : : : : : : : : : : > > > 5 6 9 6 6 6 6 6 6 6 6 6 6 6 6 6 6 6 6 6 5 6 6 6 6 6 6 6 6 9 : # # # @ @ * @ @ @ @ # # @ @ # # @ @ @ @ # # @ # # # # # # # # # # : : : : : : : : : : : : : : : : : : : : : : : : # # # : : 5 9 6 6 6 6 6 6 6 6 6 6 6 6 6 6 6 6 6 6 6 6 6 6 6 6 6 6 6 6 6 6 6 6 6 6 6 6 6 6 6 6 6 6 6 6 6 6 6 6 6 6 6 6 6 6 6 6 6 6 6 9 > > > > : : : : : : : : : : : : : : : : : : : : : : : : : : : : # # # # # # # # # # # # # # # # # # # # # # # # # # # # # : > 0 @.o.O.O.O.O.O.O.O.o.O.O.O.O.O.O.O.O.O.O.O.O.O.O.O.O.O.O.o.o.6 6 6 5 6 6 6 6 5 5 6 6 6 6 6 6 6 6 6 6 6 6 6 6 6 6 6 6 6 6 ",
"Y.z * > > > # # : : > : : : : > > : : : : : : : : : : : : : : : # # # # # # # # # # # # # # # # # # # # # # # # # # # # # : : > 5 5 5 5 5 5 5 5 5 5 5 5 5 5 5 5 5 5 5 5 5 5 5 5 5 5 5 5 5 5 5 6 6 6 6 6 6 6 6 6 6 6 6 6 6 6 6 6 6 6 6 6 5 5 6 6 6 6 6 5 9 > : : # # # # # # : : # # # # : : : # : : : : # # : : : : # # # # # # # # # # # # # # # # # # # # # # # # # # # # # # # # : : : : > > : : : : : : : : : : : : : : : : : : : : : : : : > > > 5 6 9 6 6 6 6 6 6 6 6 6 6 6 6 6 6 6 6 6 5 5 5 6 6 6 6 6 6 9 : # # * # # * @ @ @ @ # @ @ @ # # @ # @ @ # # @ # # # # # # # # # # # : : : : : : : : : : : : : : : : : : : : : : : # # # : : 5 9 6 6 6 6 6 6 6 6 6 6 6 6 6 6 6 6 6 6 6 6 6 6 6 6 6 6 6 6 6 6 6 6 6 6 6 6 6 6 6 6 6 6 6 6 6 6 6 6 6 6 6 6 6 6 6 6 6 6 6 9 > > > > : : : : : : : : : : : : : : : : : : : : : : : : : : : : # # # # # # # # # # # # # # # # # # # # # # # # # # # # # : > 0 @.o.O.O.O.O.O.O.O.O.O.O.O.O.O.O.O.O.O.O.O.O.O.O.O.O.O.O.o.o.6 6 6 9 6 6 6 6 5 5 6 6 6 6 6 6 6 6 6 6 6 6 6 6 6 6 6 6 6 6 ",
"Y.z * > > > # # : : > : : : : : > : : : : : : : : : : : : : : : # # # # # # # # # # # # # # # # # # # # # # # # # # # # # : : > 5 5 5 5 5 5 5 5 5 5 5 5 5 5 5 5 5 5 5 5 5 5 5 5 5 5 5 5 5 5 5 6 6 6 6 6 6 6 6 6 6 6 6 6 6 6 6 6 6 6 6 5 5 5 6 6 6 6 6 6 9 > : : : : : : : : : : # # : : : : # # : : : : # # # : : : # # # # # # # # # # # # # # # # # # # # # # # # # # # # # # # # : : : : : : : : : : : : : : : : : : : : : : : : : : : : : : > > > 5 6 9 6 6 6 6 6 6 6 6 6 6 6 6 6 6 6 6 6 5 5 5 6 6 6 6 6 6 6 : # # * @ @ * # # # # # # @ @ # # # # @ # # # @ @ # # # # # # # # # # : : : : : : : : : : : : : : : : : : : : : : : # # # : : 5 9 6 6 6 6 5 5 6 6 6 6 6 6 6 6 6 6 6 6 6 6 6 6 6 6 6 6 6 6 6 6 6 6 6 6 6 6 6 6 6 6 6 6 6 6 6 6 6 6 6 6 6 6 6 6 6 6 6 6 6 6 > > > > : : : : : : : : : : : : : : : : : : : : : : : : : : : : # # # # # # # # # # # # # # # # # # # # # # # # # # # # : : > 0 @.o.O.O.O.O.O.O.O.O.O.O.O.O.O.O.O.O.O.O.O.O.O.O.O.O.O.O.o.o.6 6 6 6 6 6 6 6 6 6 6 6 6 6 6 6 6 6 6 6 6 6 6 6 6 6 6 6 6 6 ",
"Y.z * > > > # # : : > : : : : : > : : : : : : : : : : : : : : : # # # # # # # # # # # # # # # # # # # # # # # # # # # # : : : > 5 5 5 5 5 5 5 5 5 5 5 5 5 5 5 5 5 5 5 5 5 5 5 5 5 5 5 5 5 5 5 6 6 6 6 6 6 6 6 6 6 6 6 6 6 6 6 6 6 6 6 5 5 5 6 6 6 6 6 6 9 > : : : : : : : : : : : : : : : : # # : : : : # # # : : : # # # # # # # # # # # # # # # # # # # # # # # # # # # # # # # # : : : : : : : : : : : : : : : : : : : : : : : : : : : : : : > > > 5 6 9 6 6 6 6 6 6 6 6 6 6 6 6 6 6 6 6 6 5 5 5 6 6 6 6 6 6 9 : # # * @ # * # # # # # # @ # # # # # # # # # @ @ # # # # # # # # # # : : : : : : : : : : : : : : : : : : : : : : : # # # : : 5 9 6 6 6 6 5 5 6 6 6 6 6 6 6 6 6 6 6 6 6 6 6 6 6 6 6 6 6 6 6 6 6 6 6 6 6 6 6 6 6 6 6 6 6 6 6 6 6 6 6 6 6 6 6 6 6 6 6 6 0 6 > > > > : : : : : : : : : : : : : : : : : : : : : : : : : : : : # # # # # # # # # # # # # # # # # # # # # # # # # # # # : : > 0 @.o.O.O.O.O.O.O.O.O.O.O.O.O.O.O.O.O.O.O.O.O.O.O.O.O.O.O.o.o.6 6 6 5 6 6 6 6 6 6 6 6 6 6 6 6 6 6 6 6 6 6 6 6 6 6 6 6 6 6 ",
"Y.z # > > > # # : : > : : : : : > : : : : : : : : : : : : : : : # # # # # # # # # # # # # # # # # # # # # # # # # # # # # : : > 5 5 5 5 5 5 5 5 5 5 5 5 5 5 5 5 5 5 5 5 5 5 5 5 5 5 5 5 5 5 5 6 6 6 6 6 6 6 6 6 6 6 6 6 6 6 6 6 6 6 6 5 5 5 6 6 6 6 6 5 9 > : : : : : : # # # # # : : : : : : # : : : : # # # # : : # # # # # # # # # # # # # # # # # # # # # # # # # # # # # # # # : : : : : : : : : : : : : : : : : : : : : : : : : : : : : : > > > 5 6 9 6 6 6 6 6 6 6 6 6 6 6 6 6 6 6 6 6 5 6 6 6 6 6 6 6 6 9 : # # # @ @ # @ @ @ @ @ @ # # @ @ @ @ # # # @ @ @ # # # # # # # # # # : : 1 : : : : : : : : : : : : : : : : : : : : # # # : : 5 9 6 6 6 6 5 5 6 6 6 6 6 6 6 6 6 6 6 6 6 6 6 6 6 6 6 6 6 6 6 6 6 6 6 6 6 6 6 6 6 6 6 6 6 6 6 6 6 6 6 6 6 6 6 6 6 6 6 6 0 6 > > > : : : : : : : : : : : : : : : : : : : : : : : > : : : : : # # # # # # # # # # # # # # # # # # # # # # # # # # # # # : > 0 @.o.O.O.O.O.O.O.O.o.O.O.O.O.O.O.O.O.O.O.O.O.O.O.O.O.O.O.o.o.6 6 6 5 6 6 6 6 6 6 6 6 6 6 6 6 6 6 6 6 6 6 6 6 6 6 6 6 6 6 ",
"Y.z # > > > # # : : > : : : : : : : : : : : : : : : : : : : : : # # # # # # # # # # # # # # # # # # # # # # # # # # # # # : : > 5 5 5 5 5 5 5 5 5 5 5 5 5 5 5 5 5 5 5 5 5 5 5 5 5 5 5 5 5 5 5 6 6 6 6 6 6 6 6 6 6 6 6 6 6 6 6 6 6 6 6 5 5 5 6 6 6 6 6 5 9 > : : : : : : # : # # # : : : : : : : : : : : # # # # : : # # # # # # # # # # # # # # # # # # # # # # # # # # # # # # # # : : : : : : : : : : : : : : : : : : : : : : : : : : : : : : > > > 5 5 5 6 6 6 6 6 6 6 6 6 6 6 6 6 6 6 6 6 5 6 6 6 6 6 6 6 6 9 : # # # @ @ # # # @ @ # # # # @ @ @ # # # # @ @ @ # # # # # # # # # # : : 1 : : : : : : : : : : : : : : : : : : 1 : # # # : : 5 9 6 6 6 6 5 6 6 6 6 6 6 6 6 6 6 6 6 6 6 6 6 6 6 6 6 6 6 6 6 6 6 6 6 6 6 6 6 6 6 6 6 6 6 6 6 6 6 6 6 6 6 6 6 6 6 6 6 6 0 6 > > > : : : : : : : : : : : : : : : : : : : : : : : > : : : : : # # # # # # # # # # # # # # # # # # # # # # # # # # # # # : > 0 @.o.O.O.O.O.O.O.O.o.O.O.O.O.O.O.O.O.O.O.O.O.O.O.O.O.O.O.o.o.6 6 6 9 6 6 6 6 6 6 6 6 6 6 6 6 6 6 6 6 6 6 6 6 6 6 6 6 6 6 ",
"Y.z 1 > > > # # : : > : : : : : : : : : : : : : : : : : : : : : # # # # # # # # # # # # # # # # # # # # # # # # # # # # # # : > 5 5 5 5 5 5 5 5 5 5 5 5 5 5 5 5 5 5 5 5 5 5 5 5 5 5 5 5 5 5 5 6 6 6 6 6 6 6 6 6 6 6 6 6 6 6 6 6 6 6 6 5 5 5 6 6 6 6 6 5 9 > : : # # : : : : : : : : : : : : : : : : : : # # : : : : # # # # # # # # # # # # # # # # # # # # # # # # # # # # # # # # : : : : > > : : : : : : : : : : : : : : : : : : : : : : : : > > > 5 5 9 6 6 6 6 6 6 6 6 6 6 6 6 6 6 6 6 6 5 6 5 6 6 6 6 6 6 9 : # # * # @ # # # # # # # # # @ # # # # # @ @ # # # # # # # # # # # # : : : : : : : : : : : : : : : : : : : : : : : # # # : : 5 9 6 6 6 6 5 5 6 6 6 6 6 6 6 6 6 6 6 6 6 6 6 6 6 6 6 6 6 6 6 6 6 6 6 6 6 6 6 6 6 6 6 6 6 6 6 6 6 6 6 6 6 6 6 6 6 6 6 6 0 6 > > > : : : : : : : : : : : : : : : : : : : : : : : > : : : : : # # # # # # # # # # # # # # # # # # # # # # # # # # # # # : > 0 @.o.O.O.O.O.O.O.O.o.O.O.O.O.O.O.O.O.O.O.O.O.O.O.O.O.O.O.o.o.6 6 6 9 6 6 5 6 6 6 6 6 6 6 6 6 6 6 6 6 6 6 6 6 6 6 6 6 6 6 ",
"Y.z 1 > > > # # : : > : : : > > : : : : : : : : : : : : : : : : # # # # # # # # # # # # # # # # # # # # # # # # # # # # # # : > 5 5 5 5 5 5 5 5 5 5 5 5 5 5 5 5 5 5 5 5 5 5 5 5 5 5 5 5 5 5 5 5 6 6 6 6 6 6 6 6 6 6 6 6 6 6 6 6 6 6 6 5 5 5 6 6 6 6 6 5 9 > : : # # # : : : : : : : : : : : : : : : : : : : : : : : # # # # # # # # # # # # # # # # # # # # # # # # # # # # # # # # : : : : > > : : : : : : : : : : : : : : : : : : : : : : : : > > > 5 5 9 6 6 6 6 6 6 6 6 6 6 6 6 6 6 6 6 6 5 5 5 6 6 6 6 6 6 9 : # # * @ @ # # # # # # # # # # # # # # # @ @ # # # # # # # # # # # # : : : : : : : : : : : : : : : : : : : : : : : # # # : : 5 9 6 6 6 6 5 5 6 6 6 6 6 6 6 6 6 6 6 6 6 6 6 6 6 6 6 6 6 6 6 6 6 6 6 6 6 6 6 6 6 6 6 6 6 6 6 6 6 6 6 6 6 6 6 6 6 6 6 6 0 6 > > > : : : : : : : : : : : : : : : : : : : : : : : > : : : : : # # # # # # # # # # # # # # # # # # # # # # # # # # # # # : > 0 @.o.O.O.O.O.O.O.O.o.O.O.O.O.O.O.O.O.O.O.O.O.O.O.O.O.O.O.o.o.6 6 6 9 6 6 5 5 6 6 6 6 6 6 6 6 6 6 6 6 6 6 6 6 6 6 6 6 6 6 ",
"R. .1 > > > # # : : > : : : > > > : : : : : : : : : : : : : : : # # # # # # # # # # # # # # # # # # # # # # # # # # # # # # : > 5 5 5 5 5 5 5 5 5 5 5 5 5 5 5 5 5 5 5 5 5 5 5 5 5 5 5 5 5 5 5 9 6 6 6 6 6 6 6 6 6 6 6 6 6 6 6 6 6 6 6 6 5 5 6 6 6 6 6 6 9 > : : # # : : : : : : : # : : : : # # : : : : : : : : : : # # # # # # # # # # # # # # # # # # # # # # # # # # # # # # # # : : : : : > : : : : : : : : : : : : : : : : : : : : : : : : > > > 5 6 9 6 6 6 6 6 6 6 6 6 6 6 6 6 6 6 6 6 5 5 5 6 6 6 6 6 5 9 : # # # @ @ * @ # # # # # # # # # # # # # # @ # # # # # # # # # # : : : : : : : : : : : : : : : : : : : : : : : : : : # : : : 5 9 6 6 6 6 5 5 6 6 6 6 6 6 6 6 6 6 6 6 6 6 6 6 6 6 6 6 6 6 6 6 6 6 6 6 6 6 6 6 6 6 6 6 6 6 6 6 6 6 6 6 6 6 6 6 6 6 6 6 6 9 > > > : : : : : : : : : : : : : : : : : : : : : : : : : : : : : # # # # # # # # # # # # # # # # # # # # # # # # # # # # # : > 0 @.o.O.O.O.O.O.O.O.o.O.O.O.O.O.O.O.O.O.O.O.O.O.O.O.O.O.O.o.o.6 6 9 6 6 6 6 6 6 6 6 6 6 6 6 6 6 6 6 6 6 6 6 6 6 6 6 6 6 6 ",
"R. .1 > > > # : : : > : : : : > > : : : : : : : : : : : : : : : # # # # # # # # # # # # # # # # # # # # # # # # # # # # # # : > 5 5 5 5 5 5 5 5 5 5 5 5 5 5 5 5 5 5 5 5 5 5 5 5 5 5 5 5 5 5 5 9 6 6 6 6 6 6 6 6 6 6 6 6 6 6 6 6 6 6 6 6 5 5 6 6 6 6 6 5 9 > : : : # : : # # : : # # : : : : # # : : : : : : : : : : # # # # # # # # # # # # # # # # # # # # # # # # # # # # # # # # : : : : : : : : : : : : : : : : : : : : : : : : : : : : : : > > > 5 6 9 6 6 6 6 6 6 6 6 6 6 6 6 6 6 6 6 6 5 5 5 6 6 6 6 6 6 6 : # # # # @ * @ @ # # # # # # # # # # # # # @ @ # # # # # # # # # : : : : : : : : : : : : : : : : : : : : : : : : : : # : : : 5 9 6 6 6 6 5 5 6 6 6 6 6 6 6 6 6 6 6 6 6 6 6 6 6 6 6 6 6 6 6 6 6 6 6 6 6 6 6 6 6 6 6 6 6 6 6 6 6 6 6 6 6 6 6 6 6 6 6 6 6 9 > > > > : : : : : : : : : : : : : : : : : : : : : : : : : : : : # # # # # # # # # # # # # # # # # # # # # # # # # # # # # : > 0 @.o.O.O.O.O.O.O.O.o.O.O.O.O.O.O.O.O.O.O.O.O.O.O.O.O.O.O.o.o.6 6 9 6 6 6 6 6 6 6 6 6 6 6 6 6 6 6 6 6 6 6 6 6 6 6 6 6 6 6 ",
"E. .1 > > > # : : : > : : : : : > : : : : : : : : : : : : : : : # # # # # # # # # # # # # # # # # # # # # # # # # # # # # : : > 5 5 5 5 5 5 5 5 5 5 5 5 5 5 5 5 5 5 5 5 5 5 5 5 5 5 5 5 5 5 5 9 6 6 6 6 6 6 6 6 6 6 6 6 6 6 6 6 6 6 6 5 5 5 6 6 6 6 6 5 9 > : # : : : : # # # : # # # : : : # # : : : : : : : : : : # # # # # # # # # # # # # # # # # # # # # # # # # # # # # # # # : : : : : : : : : : : : : : : : : : : : : : : : : : : : : : > > > 5 5 9 6 6 6 6 6 6 6 6 6 6 6 6 6 6 6 6 6 5 6 6 6 6 6 6 6 5 9 : # # # @ @ * @ @ # # * # @ @ @ @ # # # # # # @ @ @ # # # # # # # : : : : : : : : : : : : : : : : : : : : : : : 1 : # # : : : 5 9 6 0 6 6 5 5 6 6 6 6 6 6 6 6 6 6 6 6 6 6 6 6 6 6 6 6 6 6 6 6 6 6 6 6 6 6 6 6 6 6 6 6 6 6 6 6 6 6 6 6 6 6 6 6 6 6 6 6 6 9 > > > : : : : : : : : : : : : : : : : : : : : : : : : : : : : : # # # # # # # # # # # # # # # # # # # # # # # # # # # # : : > 0 @.o.O.O.O.O.O.O.O.O.O.O.O.O.O.O.O.O.O.O.O.O.O.O.O.O.O.O.o.o.6 6 9 6 6 6 6 6 6 6 6 6 6 6 6 6 6 6 6 6 6 6 6 6 6 6 6 6 6 6 ",
"E. .1 > > > : : : : > : : : : > > : > : > : > : > : > : > : : : : # # # # # # # # # # # # # # # # # # # # # # # # # # # # : : > 5 5 5 5 5 5 5 5 5 5 5 5 5 5 5 5 5 5 5 5 5 5 5 5 5 5 5 5 5 5 5 9 6 6 6 6 6 6 6 6 6 6 6 6 6 6 6 6 6 6 5 5 5 5 6 6 6 6 6 5 5 > : # : : : : # # # : # # : : : : # # # # # # : # # # # # # # # # # # # # # # # # # # # # # # # # # # # # # # # # # # # # : : : : : : > : > : > : > : > : > : > : > : > : : : : : : > > > > 5 6 9 6 6 6 6 6 6 6 6 6 6 6 6 6 6 6 6 6 5 6 6 6 6 6 6 6 5 6 : # # # # @ # @ @ @ # # # @ @ @ @ # # # # # # @ @ @ # # # # # # # : : : : : : : : : : : : : : : : : : : : : : : : : # : : : > 9 9 0 6 6 6 5 6 6 6 6 6 6 6 6 6 6 6 6 6 6 6 6 6 6 6 6 6 6 6 6 6 6 6 6 6 6 6 6 6 6 6 6 6 6 6 6 6 6 6 6 6 6 6 6 6 6 6 6 9 6 9 > > > : : : : : : : : : : : : : : : : : : : : : : : : : : : : : # # # # # # # # # # # # # # # # # # # # # # # # # # # # : : > 0 @.o.O.O.O.O.O.O.O.O.O.O.O.O.O.O.O.O.O.O.O.O.O.O.O.O.O.O.o.o.6 6 5 5 6 6 6 6 6 6 6 6 6 6 6 6 6 6 6 6 6 6 6 6 6 6 6 6 6 6 ",
"E. .1 > > > : : : > > : : : > > > : > : > : > > > : > : > : > : : # # # # # # # # # # # # # # # # # # # # # # # # # # # # : : > 5 5 5 5 5 5 5 5 5 5 5 5 5 5 6 5 5 5 5 5 5 5 5 5 5 5 5 5 5 6 6 6 6 9 9 9 9 9 9 9 5 5 9 9 9 9 6 6 5 5 5 5 5 6 6 6 6 6 6 6 5 > : : : # # # # # # # # # # # # # # # # # # # # # # # # # # # # # # # # # # # # # # # # # # # # # # # # # # # # # # # # # : : : : > : > > > > > : > : > : > > > : > > > : > : > > : : > > 5 9 6 6 9 9 6 6 6 6 6 6 6 6 6 6 6 6 6 6 6 6 6 6 9 6 6 6 6 9 9 > : # # # # # @ @ @ # * # @ @ @ @ @ @ @ @ @ # # # # # # # # # # # : : : : : : : : : : : : : : : : : : : : : : : : : : : : : > 9 9 6 6 6 5 6 6 6 6 6 6 6 6 6 6 6 6 6 6 6 6 6 6 5 5 5 5 6 6 6 6 6 6 6 6 6 6 6 6 6 6 6 6 6 6 6 6 6 6 6 6 6 6 6 6 6 5 5 6 6 9 > > : : : : : : : : : : : : : : : : : : : : : : : : : : : : : : # # # # # # # # $ # # # # # # # # # # # # # # # # # # # : : > 6 +.o.O.O.O.O.O.O.O.O.O.O.O.O.O.O.O.O.O.O.O.O.O.O.O.O.O.O.O.o.o.6 6 6 6 6 6 6 6 5 5 6 6 6 6 6 6 6 6 6 6 6 6 6 6 6 6 6 6 6 ",
"E. .1 > > > : : : : > > : : > > > > > > > > > > > > > > > > > : : # # # # # # # # # # # # # # # # # # # # # # # # # # # # : : > 5 5 5 5 5 5 6 5 5 5 5 5 5 5 6 5 5 5 5 5 5 5 5 5 5 5 5 5 6 6 6 6 6 9 9 9 5 9 5 9 5 5 9 9 9 9 6 5 5 5 5 5 6 6 6 6 6 6 6 9 5 > : : # # : # : # # # # # : # : # : # # # # # # # # # # # # # # # # # # # # # # # # # # # # # # # # # # # # # # # # # # # : : : : > : > > > > > > > : > : > : > > > > : : > : > : : : : > 5 9 6 6 9 9 6 6 6 6 6 6 6 6 6 6 6 6 6 6 6 5 6 6 9 9 6 6 6 9 9 > : : # # @ @ @ @ @ # # # @ @ $ @ @ @ @ @ @ * @ # # # # # # # # # : : : : : : : : : : : : : : : : : : : : : : : : : : : : : > 9 9 6 6 6 6 6 6 6 6 6 6 6 6 6 6 6 6 6 6 6 6 6 5 5 5 5 5 5 6 6 6 6 6 6 6 6 6 6 6 6 6 6 6 6 6 6 6 6 6 6 6 6 6 6 6 6 5 5 6 6 9 > > : : : : : : : : : : : : : : : : : : : : : : : : : : : : : : : # # # # # # # # # # # # # # # # # # # # # # # # # # # : : > 8 +.o.o.O.O.O.O.O.O.O.O.O.O.O.O.O.O.O.O.O.O.O.O.O.O.O.O.O.O.o.o.6 6 6 6 6 6 6 5 5 5 5 6 6 6 6 6 6 6 6 6 6 6 6 6 6 6 6 6 6 ",
"E. .1 > > > : : : > > > : : > > > : : : : : : : > > > > : : : : : # # # # # # # # # # # # # # # # # # # # # # # # # # # # # : > 5 5 5 5 5 5 5 5 5 5 5 5 5 5 5 5 5 5 5 5 5 5 5 5 5 5 5 5 6 6 6 6 6 6 6 6 6 6 6 6 6 6 6 6 6 6 6 6 5 5 5 5 6 6 6 6 6 6 0 6 5 > : : : # : : : : : # : # : : : : : : : : : # : # # # # # # # # # # # # # # # # # # # # # # # # # # # # # # # # # # # # # : : : : : : : : > : > : > : : : : : : : : : : : : : : : : : : > 5 5 6 6 5 5 5 5 5 5 6 6 5 5 5 5 5 5 6 6 5 5 5 5 5 9 0 6 6 6 q > : # # @ @ @ @ @ @ @ # # # @ # # @ # @ @ @ @ @ @ # # # # # # # # : : : : : : : : : : : : : : : : : : : : : : : : : : : : : > > 9 6 6 6 6 6 6 6 5 5 5 6 6 5 5 5 5 5 5 6 6 5 5 5 5 5 5 5 5 5 5 6 6 6 6 6 6 6 6 6 5 5 5 5 5 5 5 5 5 6 5 5 5 5 6 6 6 5 6 6 5 > > : : : : : : : : : : : : : : : : : : : : : : : : : : > : : : : # # # # # # # # # # # # # # # # # # # # # # # # # # # : : > 8 +.o.o.O.O.O.O.O.o.o.O.O.O.O.O.O.O.O.O.O.O.O.O.O.O.O.O.O.O.o.o.6 6 6 6 6 6 5 5 5 5 5 5 5 5 5 5 5 5 5 5 5 5 5 6 5 5 5 6 6 ",
"E. .1 > > > : : : : > : : : : > : : : : : : : : > > > > : : : : # # # # # # # # # # # # # # # # # # # # # # # # # # # # # : : > 5 5 5 5 5 5 5 5 5 5 5 5 5 5 5 5 5 5 5 5 5 5 5 5 5 5 5 5 5 5 5 6 6 6 6 6 6 6 6 6 6 6 6 6 6 6 6 6 5 5 5 6 6 6 6 6 6 6 0 6 5 > : : : : : : : : : : : : : : : : : : : : : : : : : : : # # # # # # # # # # # # # # # # # # # # # # # # # # # # # # # # # : : : : : : : : : : : : : : : : : : : : : : : : : : : : : : : > > 5 6 6 5 5 5 5 6 6 6 6 5 5 5 5 6 6 6 6 5 5 5 5 5 5 6 6 6 6 q : : # # @ @ @ @ @ @ @ # # # @ # # # # @ @ @ @ @ @ # # # # # # # # : : : : : : : : : : : : : : : : : : : : : # # # : : : : : > > 5 6 6 6 6 6 6 6 5 6 6 6 6 5 5 5 5 6 6 6 6 5 5 5 5 5 5 5 5 5 6 6 5 6 6 6 6 6 6 6 5 5 5 5 5 5 5 5 5 5 5 5 5 5 6 6 6 6 6 6 5 > > > : : : : : : : : : : : : : : : : : : : : : : : > > > > : : : : : # # # # # # # # # # # # # # # # # # # # # # # # # : : > 6 +.o.O.O.O.O.o.o.@.@.o.O.O.O.O.O.O.O.O.O.O.O.O.O.O.O.O.O.O.o.o.6 6 6 6 6 5 5 5 5 5 5 5 5 5 5 5 5 5 5 5 5 5 5 5 5 5 5 6 6 ",
"R. .1 > > > # % : : > : : : : > > : : : : : : : : : : : : : : : # # # # # # # # # # # # # # # # # # # # # # # # # # # # # : : > 5 5 5 5 5 5 5 5 5 5 5 5 5 5 5 5 5 > 5 5 5 5 5 5 5 5 5 5 5 5 5 5 6 6 6 6 6 6 6 6 6 6 6 6 6 6 6 6 6 6 6 6 6 6 6 6 6 6 6 9 9 > : : : : : : : : : : : : : : : : : : : : : : : : : : : : : : # # # # : : # : # # # # # # : : : : # # # # # * # # # # # # : : : : : : : : : : : : : : : : : : : : : : : : : : : : : : : > > 5 5 5 5 6 5 5 5 5 5 5 5 5 5 5 5 5 5 5 5 5 5 6 6 6 5 5 5 9 q : # # $ @ @ @ @ # # # @ # # # # # @ @ # # # @ @ @ @ @ # # # # # # # # : : : : : # # # : : # # # : : : # # # # # # # : : : : > 5 9 6 6 6 6 6 6 6 5 5 5 5 5 5 5 5 5 5 5 5 5 5 5 5 5 5 5 5 5 5 5 5 5 5 5 5 6 6 6 6 6 6 6 6 6 6 6 6 6 6 6 6 6 6 6 6 6 6 6 6 5 5 > > : : : : : : : : : : : : : : : : : : : : : : : : > > : : : : : : # # # # # # # # : # : # # # # : : # # # # # # # # : : > 6 o.O.O.O.O.O.o.o.o.o.O.O.O.O.O.O.O.O.O.O.O.O.O.O.O.O.O.O.O.o.o.6 6 6 6 6 5 5 5 5 5 5 6 6 6 6 6 6 6 6 6 6 6 6 6 6 6 6 6 6 ",
"R. .1 > > > # % : : : : : : : : : : : : : : : : : : : : : : : : # # # # # # # # # # # # # # # # # # # # # # # # # # # : # : : > 5 5 5 5 5 5 5 5 5 5 5 5 5 5 5 5 5 5 > > 5 5 5 5 5 5 5 5 5 5 5 6 6 6 6 6 6 6 6 6 6 6 6 6 6 6 6 6 6 6 6 6 6 6 6 6 6 6 6 9 9 > : : : : : : : : : : : : : : : : : : : : : : : : : : : : : # # # # # # # # # # # # # # # : # : # # # # # * * # # # # # # : : : : : : : : : : : : : : : : : : : : : : : : : : : : : : : > > 5 5 5 6 6 6 5 6 5 6 5 6 5 6 5 6 5 6 5 6 6 6 6 6 6 6 5 5 5 7 : # # $ @ . @ @ # # # @ @ @ # # # @ @ # # # # @ @ @ @ # # # # # # : : : : : : # # # # : : # # # : : : # # # # # # # : : : : > 5 9 6 6 6 6 o.6 6 5 6 5 6 5 6 5 6 5 6 5 6 5 6 5 5 5 5 5 5 5 6 6 5 5 5 5 5 5 6 6 6 6 6 6 6 6 6 6 6 6 6 6 6 6 6 6 6 6 6 6 6 5 5 > > > : : : : : : : : : : : : : : : : : : : : : : : : : : : : : : : # # # # # # # # # # # # # : # : # # # # # # # # # : : > 6 o.O.O.O.O.O.o.o.o.o.O.O.O.O.O.O.O.O.O.O.O.O.O.O.O.O.O.O.O.o.o.6 6 6 6 6 6 5 6 6 6 6 6 6 6 6 6 6 6 6 6 6 6 6 6 6 6 6 6 6 ",
"R. .1 > > > # % : : > : : : : : : : : : : : : : : : : : : : : : # # # # # # # # # # # # # # # # # : # # # # # # # # # # # : : > 5 5 5 5 5 5 5 5 5 5 5 5 5 5 5 5 5 5 5 5 5 5 5 5 5 5 5 5 5 5 5 5 6 6 6 6 6 6 6 6 6 6 6 6 6 6 6 6 6 6 6 6 6 6 6 6 6 9 6 9 > > : : : : : : : : : : : : : : : : : : : : : # # : : # # # # # # # # # # # # # # # # # # # # # # # # # * * * * * # # # # # : : : : : : : : : : : : : : : : : : : : : : : : : : : : : : > > 5 5 6 6 6 6 6 6 6 6 6 6 6 6 6 6 6 6 6 6 6 6 6 6 6 6 6 5 5 5 7 : # # # @ @ @ # # # @ @ @ # # # # @ @ # # # # # # @ # # # # # # # # # # # : : # # # # : : : # # # : : # # # # # # # # : : : > 9 9 6 6 6 6 o.6 6 6 6 6 6 6 6 6 6 6 6 6 6 6 6 6 6 6 6 6 6 5 6 6 6 6 6 6 6 6 6 6 6 6 6 6 6 6 6 6 6 6 6 6 6 6 6 6 6 6 6 6 6 5 5 > > > : : : : : : : : : : : : : : : : : : : : : : : : : : : : : : # # # # # # # # # # # # # # # # # # # # # # # * # # # : 5 6 @.O.O.%.O.O.O.o.o.o.O.O.O.O.O.O.O.O.O.O.O.O.O.O.O.O.O.O.O.o.o.6 6 6 6 6 6 6 6 6 6 6 6 6 6 6 6 6 6 6 6 6 6 6 6 6 6 6 6 6 ",
"R. .1 > > > # % : : > : : : : : : : : : : : : : : : : : : : : : # # # # # # # # # # # # # # # # # : # # # # # # # # # # # # : > 5 5 5 5 5 5 5 5 5 5 5 5 5 5 5 5 5 5 5 5 5 5 5 5 5 5 5 5 5 5 5 6 6 6 6 6 6 6 6 6 6 6 6 6 6 6 6 6 6 6 6 6 6 6 6 6 6 9 6 9 > > : : : # : # : # : # : # : # : # : : : : : # # # # # # # # # # # # # # # # # # * # * # # # # # * # * * * # # * # # # # # : : : : : : : : > : > : : : > : : : : : > : : : : : : : : > > > 5 5 6 6 6 6 6 6 6 6 6 6 6 6 6 6 6 6 6 6 6 6 6 6 6 6 6 5 5 5 9 : # # # @ @ $ @ # # @ @ @ # # # # @ @ # # # # # # # # # # # # # # # # # # : : # # # # : : : : # # : : : # # # # # # # : : : > 5 9 6 6 6 6 o.6 6 6 6 6 6 6 6 6 6 6 6 6 6 6 6 6 6 6 6 6 6 6 6 6 6 6 6 6 6 6 6 6 6 6 6 6 6 6 6 6 6 6 6 6 6 6 6 6 6 6 6 6 6 6 5 > > > > : : : : : : : : : : : : : : : : : : : : : : : : : : : : # # # # # # * * * # # # # # # # # # # # * # * # # # # # : > 0 @.O.%.%.%.%.O.O.O.O.O.O.O.O.O.O.O.O.O.O.O.O.O.O.O.O.O.O.O.o.o.6 6 6 6 6 6 6 6 6 6 6 6 6 6 6 6 6 6 6 6 6 6 6 6 6 6 6 6 6 ",
"Y.z * > > > # % : : : : : : : : : : : : : : : : : : : : : : : : # # # # # # # # # # # # # # # # # : : # # # # # # # # # # : : > 5 5 5 5 5 5 5 5 5 5 5 5 5 5 5 5 5 5 5 5 5 5 5 5 5 5 5 5 5 5 5 6 6 6 6 6 6 6 6 6 6 6 6 6 6 6 6 6 6 6 6 6 6 6 6 5 9 9 6 9 > > : : : # # # # # # # # # # # : # # # : : : # # # # # # # # # # # # # # # # # # # # # # # # # # # # # # # # # # # # # # : : : : : : : : : > : > : > : > : > : > : > : : : : : : : : > > > 5 5 6 6 0 6 6 6 6 6 6 6 6 6 6 6 6 6 6 6 6 6 6 6 6 6 6 5 5 5 9 > : # # # * * # # # # # # # # # # # # # # # # # # @ @ @ # # # # # # # : : : : # # # # : : # # # # : # # # # # # # # # : : : > 5 9 6 0 0 0 6 6 6 6 6 6 6 6 6 6 6 6 6 6 6 6 6 6 6 6 6 6 6 6 6 6 6 6 6 6 6 6 6 6 6 6 6 6 6 6 6 6 6 6 6 6 6 6 6 6 6 6 6 6 0 0 5 > > > > : : : , , : > > > : : : : : : : > : : : : , : : : 1 : : # # # # * * * * * * # # # # # # # # # # # # # # # % % # : > 0 @.O.O.%.%.%.%.O.O.O.O.O.O.O.O.O.O.O.O.O.O.O.O.O.O.O.O.O.O.o.o.6 6 6 6 6 6 6 6 6 0 6 6 6 6 6 6 6 6 6 6 6 6 6 6 6 6 6 6 6 ",
"Y.z 1 > > > # , : : > : , : > > > > > > : : : : : : : : : : : : # # # # # # # # # # # # # # # # : : : : # # # # # # # # : : : > 9 5 9 5 9 5 9 9 9 9 9 5 9 5 9 9 9 5 9 5 9 5 5 9 9 5 9 5 9 5 9 9 6 6 6 6 6 6 6 6 6 6 6 6 6 6 6 6 6 6 6 6 6 6 9 9 9 6 6 9 > > > : : # # # # # # # # # # # # # # # # # # # # # # # # # # # # # # # # # # # # # # # # # # # # # # # # # # # # # : : : : # : : : : : : : > : > : > : > > > : > : > : : : : : : : > > > > > 5 9 6 6 6 6 6 6 6 6 6 6 6 6 6 6 6 6 6 6 6 6 6 6 6 5 5 5 9 9 > : # # # * # # # # # # # # # # # # # # # # # # # @ @ # # # # # # : 1 1 1 : : : # : # : : : # : # : : : # : # : : # : : : : > 5 5 5 9 9 6 6 6 6 6 6 6 6 6 6 6 6 6 6 6 6 6 6 6 5 6 6 6 6 6 6 6 6 6 6 6 6 5 5 5 6 6 6 6 6 6 6 6 6 6 6 6 6 6 6 6 6 5 9 5 9 9 5 > > > > : : : : : : : > : : : : : : : > : : : : : : : : : : # # # # # # # * # # # # # # # # # # # # # # # # # # # # # # : > 0 @.o.O.O.O.%.%.O.O.O.O.O.O.O.O.O.O.O.O.O.O.O.O.O.O.O.o.o.o.o.6 6 6 6 6 6 6 6 6 6 6 6 6 6 6 6 6 6 6 6 6 6 6 6 6 6 6 6 6 6 ",
"Y.z 1 > > > # : : > > > , : > > > > > > > > > > > > > > : > : : : # # # # # # # # # # # # # # # : : : : # # # # # # # # : : : > 9 6 9 9 9 9 6 6 9 9 9 9 6 6 6 6 9 9 9 9 9 9 9 6 9 5 5 9 9 9 9 6 5 5 5 5 6 6 5 5 5 5 5 5 5 5 5 5 9 9 9 9 5 5 9 6 9 9 9 9 > > > : : # # # : # : # # # # # : # : : : # : : # # # # # # # # # # # # # # # # # # # # # # # # # # # # # # : : : : : : : : : : : : : : : : > : > : > : > : > : > : > : : : : : > > > > > > > 6 9 0 6 9 0 9 9 9 9 9 9 9 9 9 9 9 9 9 9 9 6 6 5 5 6 6 9 9 > > : # # # # # # # # # # # # # # # # # # # * # # # @ # # # # # # # : 1 : : : : : : : : : : : : : : : : : : : : : : : : : : : > 9 9 q 9 9 9 6 9 0 0 0 0 0 0 0 0 0 0 0 0 6 6 6 0 6 6 0 0 9 6 9 6 0 0 6 6 9 6 9 6 0 0 0 0 6 0 0 0 0 0 0 0 0 0 0 0 6 6 6 6 9 9 q 5 > > > > : : : : : : > : : : : : > : > : > : > : : : : : : : : # # # # # # # # # # # # # # # # # # # # # # # # # # # # : > 6 $.@.#.O.O.O.O.O.O.O.o.@.@.@.@.@.@.@.@.@.@.@.@.@.@.@.@.@.@.@.0 6 0 0 9 6 9 9 9 9 9 9 6 6 6 6 6 6 6 6 6 6 6 6 6 6 6 6 6 6 ",
"Y.z 1 > > > : : : > > > : : > > > > > > > > > > > > > > > > > : : # : # : # : # : # : # : # : : : : : : # # # # # # : : : : : : > > > > > > > > > > > > > > > > > > > > > > > > > > > > > 5 q 9 5 5 5 5 5 5 5 5 5 5 5 5 5 5 5 5 5 5 5 5 5 5 5 5 5 9 5 5 > > > : : : : : : : : : : : : : : : : : : : : : : : : : : : : : : : : : : : : : : : : : : : : : : : : : : : : : : : : : : : : : : # # # : : : : : : : : : : : : : : : : : : : : : : : : , : < > 2 9 > > 2 2 2 2 2 2 2 2 2 2 2 2 2 2 2 2 > > > > > > > < < : : : # # # # # * * * * * * * * * * # # # * * * * * * # # # # # : : : : : : : : : : 1 : : : : : : : : : : : : : : : : : : : > > > > > 2 > > > 9 9 9 9 9 9 9 9 9 9 9 9 5 5 9 9 9 9 9 9 9 9 9 9 9 9 9 9 9 9 9 > 9 9 9 9 > 9 9 9 q 9 > > > 9 9 9 > > < > > > > 5 > > > > > > > > > > > > > > > > > > > > > > > > > > > > : : : : : : : : : : : : : : : : : : : # : : : : : # : # # : : : > 9 9 0 0 @.@.o.@.@.o.@.0 0 0 0 0 0 0 0 0 0 0 0 0 0 0 0 0 0 0 0 6 9 9 9 > 2 2 2 2 2 2 2 > > > > > > > > > > > > > > > > > > ",
"T.z 1 > 5 > : : > > > > : : > > > > > > > > > > > > > > > > > > : : : : : : : : : : : : : : : : : : # # # # # # # # : : : : : : : : : : : : : : : : : : : : : : : : : : : : : : : : : : : : > > > > > > > > > > > > > > > > > > > > > > > > > > > > > > > > > > > > > > > > > > > > > > > > > > > > > > > > > > > > > > > > : : > > > > > > > > > > > > > > > > > > > > > > > > > > : : # # # # # # # # # # # # # # # # # # # # # # * # # # # # @ # # # # # : # : # : # : # : # : # : # # # : # # # # # # # # # # # # # # # # # # * * * * * * # * * * * * # # * * * # # # # # # : : : : : : : : : : : : : : : : : : : : : : : : : : : : : : : : : : : : : : : : : : : : : : : : : : : : : : : : : : : : : : : : : : : : : : : : : : : : : : : : : : : : : : : : # # # : : : : > > > > > > > > > > > > > > > > > > > > > > > > > > > 9 > > > > > > > > > > > : > > : > : > : > : > : > : > : > > < > > > > : : > > > > > > > > > > > > > > > > > > > > > > > > > > > : : : : # # # # : : # : : : : : : : : : # # : : : : : : # # : : ",
"T.z 1 5 5 5 : : > > 2 > > > > > > > > > > > > > > > > > > > > > : : : : : : : : : : : : : : : : : : : : : # # # : : : : : : : : # # # # # # # # # # # # # # # # # # # # # # # # # # # # # : : : : > > > > > > > > > > > > > > > > > > > > > > > : > > > > > > 9 5 5 5 5 5 5 5 5 5 5 5 5 5 5 5 5 5 5 5 5 5 5 5 5 9 9 5 9 9 > > > 9 5 9 9 9 9 5 > 9 9 9 9 > 5 5 5 5 > > 5 5 5 5 > > < < : # @ @ @ @ @ @ @ @ @ @ @ @ @ @ @ @ @ @ @ @ @ @ @ @ @ @ @ @ @ @ @ @ @ @ @ @ @ @ @ @ @ @ @ @ @ @ @ @ @ @ @ @ @ @ @ @ @ @ @ @ @ # # # # # # * # * * * * * # * * * * * # # # * * # # # # # # : : : : : : : : : : : : : : : : : : : : : : : : : : > : : : : : : # # # # # # # # # # # # # # # # # # # # # # # # # # # # # # # # # # # # # @ @ @ @ @ @ @ @ @ @ @ @ @ @ @ @ @ @ # # # # # # : > > 5 9 5 5 5 5 5 > 5 5 5 5 5 5 5 5 5 5 5 > > 5 5 5 5 5 6 6 5 5 5 5 5 5 5 5 5 5 > 9 9 5 5 9 5 > > > > 9 9 9 9 > > 9 9 9 > > : # # # # # # # # # # # # # # # # # # # # # # # # # # # # # # @ @ @ @ @ @ @ @ @ @ @ @ @ @ @ @ @ @ @ @ @ @ @ @ @ @ @ @ @ @ ",
"T.{ 2 5 5 5 : , > > 2 > > > > > > > > > > > > > > > > > 5 > > > : : : : : : : : : : : : : : : : : : : : : : # # : : : : : : : : # @ # @ # # # # # @ # # # @ # @ @ @ @ @ # # # @ @ # # # # # # 1 : : > : > : : : : : : : > > > : : : : : > > > : : > > > > > > 9 6 5 5 5 5 5 5 5 5 5 5 5 5 5 5 5 6 6 6 9 6 9 6 9 5 5 5 5 5 5 5 5 5 5 5 5 5 5 5 5 5 5 5 5 5 5 5 5 5 5 5 5 5 5 5 9 > > < : # @ @ @ @ . @ . . . . . . . . . . . . . . . . . . . . . . . . . . . @ @ @ . . . . . @ @ . . . . . . @ @ @ . . . . . @ @ @ $ * * # # # # # # # # # # # # # # # # # # # # # # : : : : : : : : : : > > > > > : < , > > : : : : > > > : : : > > > > > : : : : : # # # # * * # # # # # # # # # # # # # # # # # # # # # $ # # @ @ @ @ @ @ @ @ @ @ @ @ @ @ @ @ @ @ @ @ @ @ @ @ @ @ * # # # : 2 > 9 9 5 5 5 5 5 5 5 5 5 5 5 5 5 5 5 5 5 5 5 5 5 5 6 6 6 6 6 6 5 6 9 6 9 6 9 9 9 9 5 5 6 6 6 6 6 6 5 6 6 6 6 6 5 6 6 9 q > # @ $ @ @ @ @ @ @ $ $ @ # # # # @ # @ # @ # # # @ # # @ # @ @ @ @ @ . . . . . @ @ @ @ @ @ @ @ @ @ @ @ @ @ @ @ @ @ @ @ @ @ ",
"T.E 2 5 5 5 : > > > 9 > > > > 5 > > > > > > > > > > > > 5 5 > > : : : : : : : : : : : : : : : : : : : : : : : : : : : : : : : : # @ @ @ # # # # @ # # # @ @ @ @ @ @ @ @ # @ @ @ * * * * * # # 1 : : : : : : : : : : : : : : : : : : : : : : : : : : > > > > > 5 6 5 6 5 6 5 6 5 6 5 6 5 6 5 6 6 6 6 6 6 6 6 6 6 6 5 5 5 5 5 5 5 5 5 5 5 5 5 5 5 5 5 5 5 5 5 5 5 5 5 5 5 5 5 5 5 > > < : # @ @ @ . . . . . . . . . . . . . . . . . . . . . . . .     . . . . . . . . . . . . . . . . . . . . . . . . . . . . . . @ $ % * # # # # # # # # # # # # # # # # # # # # # # # : : : : : : : : : > : > > > : : : > > : : : : > > > : : > > > > > > > : : : # # # # # @ @ @ @ # @ # @ # @ # @ # @ # @ # @ # @ @ @ @ $ $ $ @ @ . . . . . . . . . . . . . . . . . . . . . . @ @ @ @ @ # : < > 9 5 5 5 5 5 5 5 5 5 5 5 5 5 5 5 5 5 5 5 5 5 5 5 6 6 6 6 6 6 5 6 6 6 6 6 6 6 6 6 5 6 9 6 9 6 9 6 5 6 9 6 9 6 6 6 5 9 q < # @ $ . . . . . . @ @ @ @ @ @ @ @ @ @ @ @ @ @ @ @ @ @ @ @ @ @ . . . . . . . . . . . . . . . . . . . . . . . . . . . . . . ",
"^...2 5 5 5 : > > > 5 > > > > 5 5 > > > > > > > > > > > > > > > : : : : : : : : : : : : : : : : : : : : : : : : : : : : : : : # # # # # @ @ # # @ @ # # # @ @ @ * * * * # @ @ @ # # # # # # # : : : : : : : : : : : : : : : : : : : : : : : : : : : > > > > 5 9 5 5 5 5 5 5 5 5 5 5 5 5 5 5 5 5 5 5 5 5 5 5 5 5 5 5 5 5 5 5 5 5 5 5 5 5 5 5 5 5 5 5 5 5 5 5 5 5 5 5 5 5 5 5 5 5 5 9 < : @ @ @ @ @ . @ . @ . @ . @ . @ . @ . @ @ . . . . . . . . . . . . . . . . . . . . . . . . . . . . . . . . . . . . . . . . . @ $ # # # # # # # # # # # # # # # # # # # # # # # # # # # # # : : : : > > : : : : : : : : : > > > : : : : : : > > > > > : : , : # # # # # # @ # # # # # @ # # # @ # @ # # # # # # # # # @ @ @ @ @ @ @ @ @ @ @ @ @ @ @ @ @ @ @ @ @ @ @ @ @ @ @ @ @ @ @ @ @ # < > 5 5 9 9 9 5 5 5 5 5 5 5 5 5 5 5 5 5 5 5 5 5 5 5 5 5 5 5 5 5 5 5 5 5 5 5 5 5 5 5 5 5 5 5 5 5 5 5 5 5 5 5 5 5 5 6 5 9 9 : # # @ @ @ @ @ @ @ @ @ @ @ @ @ @ @ @ @ @ @ @ @ @ @ @ @ @ @ @ @ @ . . . . . . . . . . . @ . . . @ . @ . . . @ . . . . . @ . ",
"^...2 5 5 5 : > > > 5 > > > 5 > 5 > > > > > > > > > > > > > > > : : : : : : : : : : : : : : : : : : : : : : : : : : : : : : : # # # # # @ @ @ # @ # # # # @ @ @ * * * * # # @ @ # # # # # # : : : : : : : : : : : : : : : : : : : : : : : : : : : : > > > > 5 9 5 5 5 5 5 5 5 5 5 5 5 5 5 5 5 5 5 5 5 5 5 5 5 5 5 5 5 5 5 5 5 5 5 5 5 5 5 5 5 5 5 5 5 5 5 5 5 5 5 5 9 9 5 5 5 5 5 > < : @ @ @ . @ @ @ @ @ @ @ @ . . @ @ @ @ @ @ @ @ . . . . @ @ @ @ . . . . . . . . . . . . . . . . . . . . . . @ @ . . . . . . @ @ # * # # # # # # # # # # # # # # # # # # # # # # # # # # : # : : : : > > > > : : : : : : > > > > : : : : > : > > > > : : : , : # # # # # # @ # # # # # # # # # # # # # # # # # # # # # # @ @ @ @ @ @ @ @ @ @ @ @ @ @ @ @ @ @ @ @ @ @ @ @ @ @ @ @ @ @ @ @ # < > 5 9 6 9 9 9 5 5 5 5 5 5 5 5 5 5 5 5 5 5 5 5 5 5 5 5 5 5 5 5 5 5 5 5 5 5 5 5 5 5 5 5 5 5 5 5 5 5 5 5 5 5 5 5 5 6 5 5 > > # # @ @ @ @ @ @ @ @ @ @ @ @ @ @ @ @ @ @ @ @ @ @ @ @ @ @ @ @ @ @ @ @ . @ @ @ @ @ . . . @ @ @ . @ @ @ @ . @ @ @ @ . . . @ @ ",
"^...2 5 5 5 > > > > 5 > > > 5 5 5 > > > > > > > > > > > > > > > : : : : : : : : : : : : : : : : : : : : : : : : : : : : : : # # # # # # @ @ # # @ @ * # # # @ @ # # * * # # @ @ # # # # # # : : : : : : : : : : : : : : : : : : : : : : : : : : : : > > > > 5 9 5 5 5 5 5 5 5 5 5 5 5 5 5 5 5 5 5 5 5 5 5 5 5 5 5 5 5 5 5 5 5 5 5 5 5 5 5 5 5 5 5 5 5 5 5 5 5 5 5 5 9 9 6 6 5 5 5 > < # @ @ @ . . . @ @ @ @ @ . . . . @ . . . . @ @ @ @ . @ @ @ @ @ . . . . @ @ . . . . . . . . . . . . . . . . @ @ . . . . . . @ @ * * # # # # # # # # # # # # # # # # # # # # # # # # # # : : : : : : > > > > > > : > : : : > > > > > > > > > > > > : : : : , : # # # # # # @ # # # # # # # # # # # # # # # # # # # # # # @ # @ @ @ @ @ @ @ @ @ @ @ @ @ @ @ @ @ @ @ @ @ @ @ @ @ @ @ @ @ @ # < > 5 5 6 9 5 9 5 5 5 5 5 5 5 5 5 5 5 5 5 5 5 5 5 5 5 5 5 5 5 5 5 5 5 5 5 5 5 5 5 5 5 5 5 5 5 5 5 5 5 5 5 5 5 5 5 6 5 5 > > # # @ @ @ @ @ @ @ @ @ @ @ @ @ @ @ @ @ @ @ @ @ @ @ @ @ @ @ @ @ @ @ @ . @ @ @ @ @ @ . . @ @ . . @ . @ @ . . @ @ @ @ . . @ @ ",
"^...2 5 5 5 : > > > > > > > 5 5 5 > > > > > > > > > > > > > > > : : : : : : : : : : : : : : : : : : : : : : : : : : : : : : : # # @ # # # @ # # @ @ # # # # # # # # * * # # # @ @ # # # # # : : : : : : : : : : : : : : : : : : : : : : : : : : : : : : > > 5 9 5 5 5 5 5 5 5 5 5 5 5 5 5 5 5 5 5 5 5 5 5 5 5 5 5 5 5 5 5 5 5 5 5 5 5 5 5 5 5 5 5 5 5 5 5 5 5 5 5 5 9 9 6 5 5 5 5 > < # @ @ @ . . . @ @ @ @ @ . . . . @ . . . . @ @ @ @ . @ @ @ @ @ . . . . @ @ . . . . . . . . . . . . . . . . @ @ . . . . . . @ @ * * # # # # # # # # # # # # # # # # # # # # # # # # # # : : : : : > > > > > > > > > : : : > > > > > > > > > > > > : : : : , : # # # # # # @ # # # # # # # # # # # # # # # # # # # # # # @ # @ @ @ @ @ @ @ @ @ @ @ @ @ @ @ @ @ @ @ @ @ @ @ @ @ @ @ @ @ @ # < > 5 5 6 5 5 9 9 5 5 5 5 5 5 5 5 5 5 5 5 5 5 5 5 5 5 5 5 5 5 5 5 5 5 5 5 5 5 5 5 5 5 5 5 5 5 5 5 5 5 5 5 5 5 5 5 6 5 5 > > # # @ @ @ @ @ @ @ @ @ @ @ @ @ @ @ @ @ @ @ @ @ @ @ @ @ @ @ @ @ @ @ @ @ @ @ @ @ @ @ . . @ @ . . . . @ @ . . @ @ @ @ . . @ @ ",
"E...2 5 5 5 : > > > 5 > > > 5 > 5 > > > > > > > > > > > > > > > : : : : : : : : : : : : : : : : : : : : : : : : : : : : : : : # # @ @ @ # # # # @ # # # # # # # # # # # # # @ @ @ @ # # # # : : : : : : : : : : : : : : : : : : : : : : : : : : : : > > > > 5 9 5 5 5 5 5 5 5 5 5 5 5 5 5 5 5 5 5 5 5 5 5 5 5 5 5 5 5 5 5 5 5 5 5 5 5 5 5 5 5 5 5 5 5 5 5 5 5 5 5 5 9 9 6 6 6 5 5 9 < : @ @ @ @ . . @ @ @ @ . . . . . . . @ @ @ . . @ @ @ @ @ @ @ @ . . . . @ @ . . . . . . . . . . . . . . . . @ @ . . . . . . @ @ # * # # # # # # # # # # # # # # # # # # # # # # # # # # # # : : : > : : > > > > : : : : > > > > > > > > > > > > > : > > : , : # # # # # # @ # # # # # # # # # # # # # # # # # # # # @ @ @ # @ @ @ @ @ @ @ @ @ @ @ @ @ @ @ @ @ @ @ @ @ @ @ @ @ @ @ @ @ @ # < 9 9 5 6 5 5 5 9 5 5 5 5 5 5 5 5 5 5 5 5 5 5 5 5 5 5 5 5 5 5 5 5 5 5 5 5 5 5 5 5 5 5 5 5 5 5 5 5 5 5 5 5 5 5 5 5 6 5 5 > > # # @ @ @ @ @ @ @ @ @ @ @ @ @ @ @ @ @ @ @ @ @ @ @ @ @ @ @ @ @ @ @ @ @ @ @ . @ @ @ @ . @ @ @ . . . . @ . . @ @ @ @ @ . @ . ",
"E...2 5 5 5 : > > > 5 > > > > > 5 > > > > > > > > > > > > > > > : : : : : : : : : : : : : : : : : : : : : : : : : : : : : : : # # @ # # # # # # # # # # # # # # # # # # # # @ @ @ @ # # # # # : : : : : : : : : : : : : : : : : : : : : : : : : : : > > > > 5 9 5 5 5 5 5 5 5 5 5 5 5 5 5 5 5 5 5 5 5 5 5 5 5 5 5 5 5 5 5 5 5 5 5 5 5 5 5 5 5 5 5 5 5 5 5 5 5 5 5 5 9 9 6 6 6 5 5 9 < : @ @ @ . @ . @ @ @ @ . . . . . . . @ @ @ . . @ @ @ @ @ @ @ @ . . . . @ @ . . . . . . . . . . . . . . . . @ @ . . . . . . @ @ # * # # # # # # # # # # # # # # # # # # # # # # # # # # # # : : : > : : > > > > : : > : > > > > > > > > : : > > > : > > : , : # # # # # # @ # # # # # # # # # # # # # # # # # # # # @ @ @ @ @ @ @ @ @ @ @ @ @ @ @ @ @ @ @ @ @ @ @ @ @ @ @ @ @ @ @ @ @ @ # < 9 9 5 6 5 5 5 9 5 5 5 5 5 5 5 5 5 5 5 5 5 5 5 5 5 5 5 5 5 5 5 5 5 5 5 5 5 5 5 5 5 5 5 5 5 5 5 5 5 5 5 5 5 5 5 5 6 5 5 > > # # @ @ @ @ @ @ @ @ @ @ @ @ @ @ @ @ @ @ @ @ @ @ @ @ @ @ @ @ @ @ @ @ . @ @ . . @ @ . . @ @ . . . . . @ . . @ @ @ @ @ @ . . ",
"^...2 5 5 5 : > > > 5 > > > > 5 > > > > > > > > > > > > > > > > : : : : : : : : : : : : : : : : : : : : : : : : : : : : : : : # # # # # @ @ @ @ # # # # # # @ @ * * # # # # @ @ # # # # # # : : : : : : : : : : : : : : : : : : : : : : : : : : : : > > > > 5 9 5 5 5 5 5 5 5 5 5 5 5 5 5 5 5 5 5 5 5 5 5 5 5 5 5 5 5 5 5 5 5 5 5 5 5 5 5 5 5 5 5 5 5 5 5 5 5 5 5 5 9 9 5 5 5 5 5 9 < : @ @ @ . . . @ @ @ . . . @ @ . . @ @ @ @ . . . . @ @ @ @ @ @ @ . . @ @ @ . . . . . . . . . . . . . . . . @ @ . . . . . . @ @ # * # # # # # # # # # # # # # # # # # # # # # # # # # # # # : : : : : : > > > > : : > > > > > > > > : : : : > > > > > > : , : # # # # # # @ # # # # # # # # # # # # # # # # # # # # # # @ @ @ @ @ @ @ @ @ @ @ @ @ @ @ @ @ @ @ @ @ @ @ @ @ @ @ @ @ @ @ @ # < > 9 5 6 5 5 5 9 5 5 5 5 5 5 5 5 5 5 5 5 5 5 5 5 5 5 5 5 5 5 5 5 5 5 5 5 5 5 5 5 5 5 5 5 5 5 5 5 5 5 5 5 5 5 5 5 6 5 5 > > # # $ @ @ @ @ @ @ @ @ @ @ @ @ @ @ @ @ @ @ @ @ @ @ @ @ @ @ @ @ @ @ @ . @ @ @ @ @ @ @ @ . . . . . . . @ @ @ @ @ @ @ @ @ . . ",
"^...2 5 5 5 : > > > 5 > > > > 5 > > > > > > > > > > > > > > > > : : : : : : : : : : : : : : : : : : : : : : : : : : : : : : : # # # # # @ @ @ @ # # # # # # # @ * * * # @ @ @ # # # # # # # : : : : : : : : : : : : : : : : : : : : : : : : : : : : > > > > 5 9 5 5 5 5 5 5 5 5 5 5 5 5 5 5 5 5 5 5 5 5 5 5 5 5 5 5 5 5 5 5 5 5 5 5 5 5 5 5 5 5 5 5 5 5 5 5 5 5 5 5 9 9 5 5 5 5 5 9 < : @ @ @ . . . @ @ @ . . . @ @ . . @ @ @ @ . . . . @ @ . . @ @ @ . . @ @ @ . . . . . . . . . . . . . . . . @ @ . . . . . . . @ # * # # # # # # # # # # # # # # # # # # # # # # # # # # : # : : : : : : > > > > : : > > > > > > > : : : : : > > > > > > : , : # # # # # # @ # # # # # # # # # # # # # # # # # # # # # # @ @ @ @ @ @ @ @ @ @ @ @ @ @ @ @ @ @ @ @ @ @ @ @ @ @ @ @ @ @ @ @ # < > 5 5 6 5 5 5 9 5 5 5 5 5 5 5 5 5 5 5 5 5 5 5 5 5 5 5 5 5 5 5 5 5 5 5 5 5 5 5 5 5 5 5 5 5 5 5 5 5 5 5 5 5 5 5 5 6 5 5 > > # # $ @ @ @ @ @ @ @ @ @ @ @ @ @ @ @ @ @ @ @ @ @ @ @ @ @ @ @ @ @ @ @ . @ @ . . @ @ @ @ . . . . . . . @ @ @ @ @ @ @ @ . . . ",
"^...2 5 5 5 : > > > 5 > > > 5 5 > > > > > > > > > > > > > > > > : : : : : : : : : : : : : : : : : : : : : : : : : : : : : : # # # # # # # # # # @ @ # # # # @ @ * * # # # # @ @ @ # # # # # : : : : : : : : : : : : : : : : : : : : : : : : : : : : > > > > 5 5 5 5 5 5 5 5 5 5 5 5 5 5 5 5 5 5 5 5 5 5 5 5 5 5 5 5 5 5 5 5 5 5 5 5 5 5 5 5 5 5 5 5 5 5 5 5 5 5 5 5 5 5 5 5 5 5 5 9 < : @ @ @ . @ @ @ @ . . . @ @ @ . . . . . @ @ @ @ @ @ @ . . . @ @ @ . . . . . . . . . . . . . . . . . . . . @ @ . . . . . . . @ # * # # # # # # # # # # # # # # # # # # # # # # # # # # # # : : : > > > > > : : > > > > : : : : > > > > > > > > > > > : : , : # # # # # # @ # # # # # # # # # # # # # # # # # # # # # # @ @ @ @ @ @ @ @ @ @ @ @ @ @ @ @ @ @ @ @ @ @ @ @ @ @ @ @ @ @ @ @ # < > 5 5 6 5 5 5 9 5 5 5 5 5 5 5 5 5 5 5 5 5 5 5 5 5 5 5 5 5 5 5 5 5 5 5 5 5 5 5 5 5 5 5 5 5 5 5 5 5 5 5 5 5 5 5 5 6 5 5 > > # # @ @ @ @ @ @ @ @ @ @ @ @ @ @ @ @ @ @ @ @ @ @ @ @ @ @ @ @ @ @ @ @ @ @ @ @ @ @ @ . @ @ @ . . . . . . @ @ @ @ @ @ . . . . ",
"^...2 5 5 5 : > > > 5 5 > > 5 > 5 > > > > > > > > > > > > > > > : : : : : : : : : : : : : : : : : : : : : : : : : : : : : : # # # # # # # # # # @ @ # # # # @ @ * * # # # # @ @ @ @ # # # # : : : : : : : : : : : : : : : : : : : : : : : : : : : : > > > > 5 5 5 5 5 5 5 5 5 5 5 5 5 5 5 5 5 5 5 5 5 5 5 5 5 5 5 5 5 5 5 5 5 5 5 5 5 5 5 5 5 5 5 5 5 5 5 5 5 5 5 5 9 9 5 6 5 5 5 9 < : @ @ @ . @ @ @ @ . . . @ @ @ . . . . @ @ @ . @ @ @ @ . . . @ @ @ . . . . . . . . . . . . . . . . . . . . @ @ . . . . . . . @ # * # # # # # # # # # # # # # # # # # # # # # # # # # # # # : : : > > : > > : : > > > : : : : : > > > > > > > > > : : : : , : # # # # # # @ # # # # # # # # # # # # # # # # # # # # # # @ @ @ @ @ @ @ @ @ @ @ @ @ @ @ @ @ @ @ @ @ @ @ @ @ @ & @ @ @ @ @ # < > 5 5 6 5 5 5 5 5 5 5 5 5 5 5 5 5 5 5 5 5 5 5 5 5 5 5 5 5 5 5 5 5 5 5 5 5 5 5 5 5 5 5 5 5 5 5 5 5 5 5 5 5 5 5 5 6 5 5 > > # # @ @ @ @ @ @ @ @ @ @ @ @ @ @ @ @ @ @ @ @ @ @ @ @ @ @ @ @ @ @ @ @ @ @ @ @ @ . @ . . @ @ @ @ . . . . @ @ @ @ @ @ . . . . ",
"E...2 5 5 5 : > > > 5 > > > 5 5 5 > > > > > > > > > > > > > > > : : : : : : : : : : : : : : : : : : : : : : : : : : : : : : # # # @ @ @ @ @ # # @ @ # # # # # @ * # # # # # @ @ @ @ # # # # : : : : : : : : : : : : : : : : : : : : : : : : : : : : > > > > 5 5 5 5 5 5 5 5 5 5 5 5 5 5 5 5 5 5 5 5 5 5 5 5 5 5 5 5 5 5 5 5 5 5 5 5 5 5 5 5 5 5 5 5 5 5 5 5 5 5 5 5 9 9 6 6 6 5 5 9 < : @ @ @ . @ @ @ @ . . @ @ @ @ @ . @ @ @ @ . . . . @ . . . . . @ @ @ @ . . . . . . . . . . . . . . . . . . @ @ . . . . . . . @ $ * # # # # # # # # # # # # # # # # # # # # # # # # # # # # : : : > : : : : : : > > > > : : : : : > : : > > > > > : : : : , : # # # # # # @ # # # # # # # # # # # # # # # # # # # # * # @ @ @ @ @ @ @ @ @ @ @ @ @ @ @ @ @ @ @ @ @ @ @ @ @ @ & @ @ @ @ @ # < > 5 5 6 5 5 9 9 5 5 5 5 5 5 5 5 5 5 5 5 5 5 5 5 5 5 5 5 5 5 5 5 5 5 5 5 5 5 5 5 5 5 5 5 5 5 5 5 5 5 5 5 5 5 5 5 6 5 5 > > # # @ @ @ @ @ @ @ @ @ @ @ @ @ @ @ @ @ @ @ @ @ @ @ @ @ @ @ @ @ @ @ @ @ @ @ . . . . . . @ @ @ @ @ @ . . . . . . @ . . . . @ ",
"T.{ 2 5 5 5 : > > > 5 > > > 5 5 5 > > > > > > > > > > > > > > > : : : : : : : : : : : : : : : : : : : : : : : : : : : : : : # # # @ @ @ @ @ @ # @ # # # # # # # * # # # # # @ @ @ @ # # # # : : : : : : : : : : : : : : : : : : : : : : : : : : : : > : > > 5 5 5 5 5 5 5 5 5 5 5 5 5 5 5 5 5 5 5 5 5 5 5 5 5 5 5 5 5 5 5 5 5 5 5 5 5 5 5 5 5 5 5 5 5 5 5 5 5 5 5 5 9 9 6 6 6 5 5 9 < : @ @ @ . @ @ . . . . @ @ @ @ @ . @ @ @ @ . . . . @ @ . . . . @ @ @ @ . . . . . . . . . . . . . . . . . . @ @ . . . . . . . @ $ * # # # # # # # # # # # # # # # # # # # # # # # # # # # : : : : > : : : : : : > > > > : : : : : : : : : : > > > : : : : , : # # # # # # @ # # # # # # # # # # # # # # # # # # # # # # @ @ @ @ @ @ @ @ @ @ @ @ @ @ @ @ @ @ @ @ @ @ @ @ @ @ & @ @ @ @ @ # < > 5 5 6 5 5 9 9 5 5 5 5 5 5 5 5 5 5 5 5 5 5 5 5 5 5 5 5 5 5 5 5 5 5 5 5 5 5 5 5 5 5 5 5 5 5 5 5 5 5 5 5 5 5 5 5 6 5 5 > > # # @ @ @ @ @ @ @ @ @ @ @ @ @ @ @ @ @ @ @ @ @ @ @ @ @ @ @ @ @ @ @ @ @ @ @ . . . . . . @ @ @ @ @ @ @ @ . . . . @ . . . @ @ ",
"T.E 2 5 5 5 : > > > 5 > > > 5 5 5 > > > > > > > > > > > > > > > : : : : : : : : : : : : : : : : : : : : : : : : : : : : : : : # # @ @ @ @ @ # # # # # # # # # # # # * * # # # # # # # # # # : : : : : : : : : : : : : : : : : : : : : : : : : : : : > : > > 5 9 5 5 5 5 5 5 5 5 5 5 5 5 5 5 5 5 5 5 5 5 5 5 5 5 5 5 5 5 5 5 5 5 5 5 5 5 5 5 5 5 5 5 5 5 5 5 5 5 5 5 9 9 5 5 6 5 5 > 2 : @ @ @ . . . . . @ @ @ @ @ @ @ @ @ . . . @ @ @ . . . . . . . . . @ @ @ @ . . . . . . . . . . . . . . . . @ @ . . . . . . @ @ # * # # # # # # # # # # # # # # # # # # # # # # # # # # : : : : : : > > : : : > > > > > > : : : : : : : : > > > > > > : : : : # # # # # # @ # # # # # # # # # # # # # # # # # # # # # # @ @ @ @ @ @ @ @ @ @ @ @ @ @ @ @ @ @ @ @ @ @ @ @ @ @ & @ @ @ @ @ # < > 5 9 6 9 9 9 9 5 5 5 5 5 5 5 5 5 5 5 5 5 5 5 5 5 5 5 5 5 5 5 5 5 5 5 5 5 5 5 5 5 5 5 5 5 5 5 5 5 5 5 5 5 5 5 5 6 5 5 > > # # # @ @ @ @ @ @ @ @ @ @ @ @ @ @ @ @ @ @ @ @ @ @ @ @ @ @ @ @ @ @ @ . @ @ . . . . . . @ @ @ @ @ @ @ @ @ @ . . . . . . @ @ ",
"U.E 2 5 5 5 : > > > 5 > > > 5 5 5 > > > > > > > > > > > > > > > : : : : : : : : : : : : : : : : : : : : : : : : : : : : : : : # # @ @ @ @ @ # # # # # # # # # # # # * * # # @ # # # # # # # : : : : : : : : : : : : : : : : : : : : : : : : : : : : > > > > 5 9 5 5 5 5 5 5 5 5 5 5 5 5 5 5 5 5 5 5 5 5 5 5 5 5 5 5 5 5 5 5 5 5 5 5 5 5 5 5 5 5 5 5 5 5 5 5 5 5 5 5 9 9 5 5 6 5 5 > < # @ @ @ . . . . . @ @ @ @ @ @ @ @ @ @ . . @ @ . . . . . . . . @ @ @ @ @ @ . . . . . . . . . . . . . . . . @ @ . . . . . . @ @ # * # # # # # # # # # # # # # # # # # # # # # # # # # # : : : : : : > > > > : : > > > > > : : : : : : : > > > > > > > : : : : # # # # # # @ # # # # # # # # # # # # # # # # # # # # # # @ @ @ @ @ @ @ @ @ @ @ @ @ @ @ @ @ @ @ @ @ @ @ @ @ @ & @ @ @ @ @ # < > 5 9 6 5 5 9 5 5 5 5 5 5 5 5 5 5 5 5 5 5 5 5 5 5 5 5 5 5 5 5 5 5 5 5 5 5 5 5 5 5 5 5 5 5 5 5 5 5 5 5 5 5 5 5 5 6 5 5 > > # # @ @ @ @ @ @ @ @ @ @ @ @ @ @ @ @ @ @ @ @ @ @ @ @ @ @ @ @ @ @ @ @ . @ @ . . . . . . @ @ @ @ @ @ @ @ @ @ . . . . . . @ @ ",
"U.E 2 5 5 5 : : > > > > > > 5 5 5 > > > > > > > > > > > > > > > : : : : : : : : : : : : : : : : : : : : : : : : : : : : : : # # # # # @ # # # # # # @ @ @ @ # # * # * * @ @ @ @ # # # # # # : : : : : : : : : : : : : : : : : : : : : : : : : : : : > > > > 5 9 5 5 5 5 5 5 5 5 5 5 5 5 5 5 5 5 5 5 5 5 5 5 5 5 5 5 5 5 5 5 5 5 5 5 5 5 5 5 5 5 5 5 5 5 5 5 5 5 5 5 5 9 5 5 5 5 5 9 < # @ @ @ . @ @ . . . . . . @ . @ @ . . . . @ @ @ @ . . @ @ @ @ @ @ @ @ @ . . . . . . . . . . . . . . . . . . . . . . . . . @ @ # * # # # # # # # # # # # # # # # # # # # # # # # # # # # : : : : : > > > > > > > > > > > > : : > > > > > > > > > > > : : : : # # # # # # @ # # # # # # # # # # # # # # # # # # # # # # @ @ @ @ @ @ @ @ @ @ @ @ @ @ @ @ @ @ @ @ @ @ @ @ @ @ & @ @ @ @ @ # < > 5 9 6 5 5 9 5 5 5 5 5 5 5 5 5 5 5 5 5 5 5 5 5 5 5 5 5 5 5 5 5 5 5 5 5 5 5 5 5 5 5 5 5 5 5 5 5 5 5 5 5 5 5 9 9 6 5 5 > : # # @ @ @ @ @ @ @ @ @ @ @ @ @ @ @ @ @ @ @ @ @ @ @ @ @ @ @ @ @ @ @ @ . @ @ @ @ . @ . . @ @ . @ . . . . @ @ @ @ . . @ . @ @ ",
"U.z 2 5 5 5 : : > > > > > > 5 5 5 > > > > > > > > > > > > > > > : : : : : : : : : : : : : : : : : : : : : : : : : : : : : : : # # # # # # # * # @ @ @ @ @ @ # # # # * * # @ @ @ # # # # # # : : : : : : : : : : : : : : : : : : > > > : : : : : : : > > > > 5 5 5 5 5 5 5 5 5 5 5 5 5 5 5 5 5 5 5 5 5 5 5 5 5 5 5 5 5 5 5 5 5 5 5 5 5 5 5 5 5 5 5 5 5 5 5 5 5 5 5 5 9 5 5 5 5 5 5 > < # @ @ @ . @ @ @ . . . . . . . @ @ @ . . . @ @ @ @ @ . @ @ @ @ @ @ @ @ @ . . . . . . . . . . . . . . . . . . . . . . . . . . @ * * # # # # # # # # # # # # # # # # # # # # # # # # # # : : : : : : > > > > > > > > > > > > > : > > > > > > > > > > : : : : : # # # # # # # # # # # # # # # # # # # # # # # # # # # # # @ @ @ @ @ @ @ @ @ @ @ @ @ @ @ @ @ @ @ @ @ @ @ @ @ @ @ @ @ @ @ @ # < > 5 9 9 5 5 5 5 5 5 5 5 5 5 5 5 5 5 5 5 5 5 5 5 5 5 5 5 5 5 5 5 5 5 5 5 5 5 5 5 5 5 5 5 5 5 5 5 5 5 5 5 5 5 5 9 5 5 5 > : # # @ @ @ @ @ @ @ @ @ @ @ @ @ @ @ @ @ @ @ @ @ @ @ @ @ @ @ @ @ @ @ @ . @ @ @ @ @ @ . @ @ @ . . . . . . @ @ @ @ @ @ @ @ @ @ ",
"U.z 1 5 5 5 : : > > > > > > > > > > > > > > > > > > > > > > > > : : : : : : : : : : : : : : : : : : : : : : : : : : : : : : : # # # # # @ @ @ @ @ # # # @ @ @ @ # # # # # # # # @ @ $ @ # # : : : > > > > > > > > > : : : > > > > > > : : : : : : : > > > > 5 5 5 5 5 5 5 5 5 5 5 5 5 5 5 5 5 5 5 5 5 5 5 5 5 5 5 5 5 5 5 5 5 5 5 5 5 5 5 5 5 5 5 5 5 5 5 5 5 5 5 5 5 5 6 5 5 5 5 9 < : @ @ . . . @ @ @ @ @ @ @ @ @ @ @ @ @ . . . . @ @ @ @ @ @ @ @ @ @ @ @ . . . . . . . . . . . . . . . . . @ @ @ @ @ @ @ @ @ . @ # * # # # # # # # # # # # # # # # # # # # # # # # # # # # # : : : : : : : : : : : > > > > : : : : : : > : : > : > : : : : : : # # # # # # # # # # # # # # # # # # # # # # # # # # # # # * @ @ @ @ @ @ @ @ @ @ @ @ @ @ @ @ @ @ @ @ @ @ @ @ @ @ . @ @ @ # : > 9 9 5 5 5 5 5 5 9 9 9 9 5 5 5 9 5 5 5 5 5 5 5 5 5 5 5 5 5 5 5 5 5 5 5 5 5 5 5 5 5 5 5 5 5 5 5 5 5 5 5 5 5 5 5 5 5 5 5 5 : # # $ @ @ @ @ @ @ @ # @ @ @ @ @ @ @ @ @ @ @ @ @ @ @ @ @ @ @ @ @ @ @ @ @ @ @ @ @ @ @ @ @ . . . @ @ @ @ @ @ . . . @ @ @ @ @ ",
"Y.z 1 5 5 5 : : > > > > > > > 5 > > > > > > > > > > > > > > > > : : : : : : : : : : : : : : : : : : : : : : : : : : : : : : : # # # # # @ # @ @ # # # # @ @ @ @ @ # # # # # # # @ @ $ $ # # : : : > > > > > > > : > : : : > > > > > > : : : : : : : > > > > 5 5 5 5 5 5 5 5 5 5 5 5 5 5 5 5 5 5 5 5 5 5 5 5 5 5 5 5 5 5 5 5 5 5 5 5 5 5 5 5 5 5 5 5 5 5 5 5 5 5 5 5 5 5 6 5 5 5 5 9 < # @ @ . . . @ . . @ @ @ @ @ @ @ @ @ @ . . @ @ @ @ @ @ @ @ @ @ @ @ @ @ . . . . . . . . . . . . . . . . . . @ @ @ @ @ @ @ @ @ @ # * # # # # # # # # # # # # # # # # # # # # # # # # # # # : : : : : : : : : : : : : > > > > : : : : : > : : > : > > : : : : : # # # # # # # # # # # # # # # # # # # # # # # # # # # # # * @ @ @ @ @ @ @ @ @ @ @ @ @ @ @ @ @ @ @ @ @ @ @ @ @ @ . @ @ @ # : > 9 5 5 5 5 5 5 5 9 9 9 9 5 5 5 5 5 5 5 5 5 5 5 5 5 5 5 5 5 5 5 5 5 5 5 5 5 5 5 5 5 5 5 5 5 5 5 5 5 5 5 5 5 5 5 5 6 5 5 > : # # $ @ @ @ @ @ @ # # @ @ @ @ @ @ @ @ @ @ @ @ @ @ @ @ @ @ @ @ @ @ @ @ @ @ @ @ . @ @ @ . . . . @ @ @ @ @ @ . . . @ @ @ @ @ ",
"T.E 2 5 5 5 : : > > > > > > > > > > > > > 5 5 5 5 5 > > > > > > : : : : : : : : : : : : : : : : : : : : : : : : : : : : : : : # # @ # # # # # # # # # # # # # # * * * # # # # # @ $ $ @ # # : : : : : : : : : : : : : : : : : > > > > : : : : : : : > > > > 5 5 5 5 5 5 5 5 5 5 5 5 5 5 5 5 5 5 5 5 5 5 5 5 5 5 5 5 5 5 5 5 5 5 5 5 5 5 5 5 5 5 5 5 5 5 5 5 5 5 5 5 5 6 6 6 5 5 5 > < : @ @ . . . . . . . . . . . . . . . . . . . . . . . . . . . . . . . . . . . . . . . . . . . . . . . . . . @ @ @ @ @ @ @ @ . @ $ * # # # # # # # # # # # # # # # # # # # # # # # # # # : : : : : > > > > : : : : > : > > > : : : : > > > > > > > : : : : : : # # # # # # # # # # # # # # # # # # # # # # # # # # # # # # # @ @ @ @ @ @ @ @ @ @ @ @ @ @ @ @ @ @ @ @ @ @ @ @ . . @ @ @ # : > 9 9 5 5 5 5 5 5 9 9 9 9 9 9 9 9 9 9 9 9 9 9 9 9 5 5 5 5 5 5 5 5 5 5 5 5 5 5 5 5 5 5 5 5 5 5 5 5 5 5 5 5 5 5 5 5 6 5 5 > : # # @ @ @ @ @ @ @ @ @ @ @ @ @ @ @ @ @ @ @ @ @ @ @ @ @ @ @ @ @ @ @ @ @ @ @ . . @ @ . . . . . . . . . . . . . . . . . . . . ",
"T.E 2 5 5 5 : > > > 5 > > > > 5 5 > > > > 5 5 5 5 5 > > > > > > : : : : : : : : : : : : : : : : : : : : : : : : : : : : : : : # # @ @ @ # # # # # # # # # # # # * * * * # # # @ # $ $ @ # # : : : : : : : : : : : : : : : : : : : : : : : : : : : : > > > > 5 5 5 5 5 5 5 5 5 5 5 5 5 5 5 5 5 5 5 5 5 5 5 5 5 5 5 5 5 5 5 5 5 5 5 5 5 5 5 5 5 5 5 5 5 5 5 5 5 5 5 5 5 6 6 6 6 5 5 9 < : @ @ @ . . . . . . . . . . . . . . . . . . . . . . . . . . . . . . . . . . . . . . . . . . . . . . . . . . @ @ . @ @ @ @ . @ $ * # # # # # # # # # # # # # # # # # # # # # # # # # # : : : : : : > > > > > : : : : > > > : > > > > > > > > > > > > : : : : # # # # # # # # # # # # # # # # # # # # # # # # # # # # # # # @ @ @ @ @ @ @ @ @ @ @ @ @ @ @ @ @ @ @ @ @ @ @ @ . . . @ @ # : > 9 9 5 5 5 5 5 5 5 9 9 9 9 9 9 9 9 9 9 9 9 9 9 5 5 5 5 5 5 5 5 5 5 5 5 5 5 5 5 5 5 5 5 5 5 5 5 5 5 5 5 5 5 5 5 5 6 5 5 > > # # @ @ @ @ @ @ @ @ @ @ @ @ @ @ @ @ @ @ @ @ @ @ @ @ @ @ @ @ @ @ @ @ @ @ @ . . @ @ . . . . . . . . . . . . . . . . . . . . ",
"T.{ 2 5 5 5 : > > > > > > > > 5 5 5 5 5 5 5 5 5 5 5 5 5 5 5 > > : : : : : : : : : : : : : : : : : : : : : : : : : : : : : : # # # # @ # # # # # # # # # * # # # @ * * * # # # # # $ $ @ # # : : : : : : : : : : : : : : : : : : : : : : : : : : : : > > > > 5 5 5 5 5 5 5 5 5 5 5 5 5 5 5 5 5 5 5 5 6 5 6 5 6 5 6 5 6 5 5 5 5 5 6 5 6 5 5 5 5 5 5 5 6 5 6 5 5 5 5 5 5 6 6 5 5 5 5 9 < # @ @ @ . . . . . . . . . . . . . . . . . . . . . . . . . . . . . . . . . . . . . . . . . . . . . . . . . . . . . . . . . . @ $ * # # # # # # # # # # * * # # # # # # # # * # # # # # : : : : : > > > > > > > > > > > > > > > > > > > > > > > > > > : , , : # # # # # # # # # # # # # # # # # # # # # # # # # # @ @ @ # # @ @ @ @ @ @ @ @ @ @ @ @ @ @ @ @ @ @ @ @ @ @ @ @ .   . @ @ # : > 9 9 5 6 6 6 6 6 6 5 6 5 6 5 6 5 6 5 6 5 6 5 6 5 6 5 6 5 6 5 6 5 6 5 6 5 6 5 6 5 5 5 5 5 5 5 5 5 5 5 5 5 5 5 5 5 6 5 5 > > # # @ @ @ @ @ @ @ @ @ @ @ @ @ @ @ @ @ @ @ @ @ @ @ @ @ @ @ @ @ @ @ @ @ . . . @ @ @ . . . . . . . . . . . . . . . . . . . . ",
"E...2 5 5 5 : > > > 5 > > > 5 5 5 5 5 5 5 5 5 5 5 5 > > 5 5 5 > : : : : : : : : : : : : : : : : : : : : : : : : : : : : : : # # # @ # # @ # # # # # # # # # @ # @ @ * * # # # # # $ $ @ # # : : : : : : : : : : : : : : : : : : : : : : : : : : : : > > > > 5 5 5 5 5 5 5 5 5 5 5 5 5 5 5 5 5 5 6 6 6 6 6 6 6 6 6 6 6 6 5 5 5 5 6 6 6 5 5 5 5 5 5 5 6 5 6 6 5 5 5 5 6 6 6 6 6 5 5 9 < # @ @ @ . . . . . . . . . . . . . . . . . . . . . . . . . . . . . . . . . . . . . . . . . . . . . . . . . . . . . . . . . . @ $ * # # # # # # # # # # # * # # # # # # # # * # # # # # : : : : : > > > > > > > > > > > > > > > > > > > > > > > > > > > < , : # # # # # # # # # # # # # # # # # # # # # # # # # # # @ @ @ @ @ @ @ @ @ @ @ @ @ @ @ @ @ @ @ @ @ @ @ @ @ @ @ @ . . . @ @ # : 2 9 5 5 6 6 6 6 6 6 6 6 6 6 6 6 6 6 6 6 6 6 6 6 6 6 6 6 6 6 6 6 6 6 6 6 6 6 6 6 6 5 5 5 5 5 5 5 5 5 5 5 5 5 5 5 5 6 5 5 5 > # # @ @ @ @ @ @ @ @ @ @ @ @ @ @ @ @ @ @ @ @ @ @ @ @ @ @ @ @ @ @ @ @ @ @ . . . . . . . . . . . . . . . . . . . . . . . . . ",
"^...2 5 5 5 : > > > 5 > > > 5 5 5 > > > > > > 5 > > > > 5 5 > > : : : : : : : : : : : : : : : : : : : : : : : : : : : : : : # # # # # # @ @ @ # # # # # @ @ @ @ @ @ @ * # # # # # @ @ @ # # : : : : : : : : : : : : : : : : : : : : : : : : : : : : > > > > > 5 5 5 5 5 5 5 5 5 5 5 5 5 5 5 5 5 6 6 6 6 6 6 6 6 6 6 6 6 6 6 5 5 5 5 5 5 5 5 5 5 5 5 5 5 5 5 5 5 6 6 5 5 6 6 6 5 5 9 < # @ @ @ . . . . . . . . . . . . . . . . . . . . . . . . . . . . . . . . . . . . . . . . . . . . . . . . . . . . .     . . . @ $ * # # # # # * # # # # * * # # # * * * * * * * # # # # # : : : : > > > > > > > > > > > > > > > > > > > > > > > > > > : < , : # # # # # # # # # # # # # # # # # # # # # # # # # @ @ @ @ @ @ @ @ @ @ @ @ @ @ @ @ @ @ @ @ @ @ @ @ @ @ @ @ @ @ . . . @ @ # : < > 5 5 5 6 6 6 6 6 6 6 6 6 6 6 6 6 6 6 6 6 6 6 6 5 5 6 6 6 6 6 6 6 6 6 6 6 6 6 6 5 5 5 5 5 5 5 5 5 5 5 5 5 5 5 5 5 5 5 > > # # @ @ @ @ @ @ @ @ @ @ @ @ @ @ @ @ @ @ @ @ @ @ @ @ @ @ @ @ @ @ @ @ @ @ @ @ @ . . . @ . . . . . . . . . . . . . . . . . . ",
"^...2 5 5 5 : > > > > > > > > 5 > > > > > > > > > > > > > > > > : : : : : : : : : : : : : : : : : : : : : : : : : : : : : # # # # # # # @ @ @ # @ @ # # # @ @ @ @ @ @ * # # # # # @ @ @ # # : > : : : : : : : : : : : : : : : : : : : : : : : : : : > > > > > 5 5 5 5 5 5 5 5 5 5 5 5 5 5 5 5 5 6 6 6 6 6 6 6 5 5 5 5 5 5 5 5 5 5 5 5 5 5 5 5 5 5 5 5 5 5 5 5 5 5 5 5 5 5 5 5 5 5 9 < : @ @ @ @ @ . . . . . . . . . . . . . . . . . . . . . . . . . . . . . . . . . . . . . . . . . . . . . . . . . . .     . . . @ $ * # # # # # # # # # # * * # # # * * * * * * * # # # # # # : : : : > > > > > : > : > : > : > : > : > > > > > : > > > : : , : # # # # # # # # # # # # # # # # # # # # # # # @ # @ @ @ @ # @ @ @ @ @ @ @ @ @ @ @ @ @ @ @ @ @ @ @ @ @ @ @ @ @ . . @ @ @ @ : < > 5 5 5 5 5 5 6 5 5 5 5 5 5 5 5 5 5 5 5 5 5 5 5 5 5 5 5 5 5 5 5 5 6 6 6 6 6 6 6 5 5 5 5 5 5 5 5 5 5 5 5 5 5 5 5 5 5 5 > : # # # @ @ @ @ @ @ @ @ @ @ @ @ @ @ @ @ @ @ @ @ @ @ @ @ @ @ @ @ @ @ @ . @ @ @ @ @ . @ @ @ . @ . @ . @ . @ . @ . @ . @ . @ . ",
"E...1 > 5 5 : , > > > > > > > > > > > > > > > > > > > > > > > > : : : : : : : : : : : : : : : : : # : # : # : # : : : : : # # # # # # # @ @ # # @ @ # # # # # @ @ @ * * # # # # @ @ # # # # : : : : : : > : > : > > > : : : > : : : : : : > > > > > > > > > > 9 5 5 5 5 5 5 5 5 5 5 5 5 5 5 5 5 5 5 5 5 5 5 5 5 5 5 5 5 5 5 5 5 5 5 5 5 5 5 5 5 5 5 5 5 5 5 5 5 5 5 5 5 5 5 5 5 5 > < : # @ @ $ @ @ @ @ @ @ @ @ @ . . . @ @ @ @ @ @ @ @ @ @ @ @ @ . . . @ . . @ @ . @ . @ . @ . @ . @ . @ . @ . . . . . . . . . @ @ @ * # # # # * * * # # # * * # # # # * * * * # # # # # # # : 1 : : : : : : : : : : : : : : : : : : : : : : : : : : : : : : 1 : # # # # # # # # # # # # # # # # # # # # # # # # # # # # @ @ @ @ @ @ @ @ @ @ @ @ @ @ @ @ @ @ @ @ @ @ @ @ @ @ @ . . @ @ @ # 1 < > > 9 5 5 5 5 5 5 5 5 5 5 5 5 5 5 5 5 5 5 5 5 5 5 5 5 5 5 5 5 5 5 5 5 5 5 5 5 5 5 5 5 5 5 5 5 5 5 5 5 5 5 5 5 5 5 5 9 > : # # @ @ @ @ @ @ @ @ @ @ @ @ @ @ @ @ @ @ @ @ @ @ @ @ @ @ @ @ @ @ @ @ @ @ @ @ @ @ @ @ @ @ @ @ @ @ @ @ @ @ @ @ . @ @ @ @ @ @ ",
"`...3 9 5 5 : , < < 2 2 2 < > > > > > > < < < < < > < > > > < < : : : : : # : : : : : : : : : : # # # # : : : # 1 , 1 , # # # # # # # # @ # # # @ @ # # # # @ @ @ @ @ * * # # # @ @ @ # # # : : : : : : > > > > > > > > : : > > : : : : > > > > > > > > > > 9 9 9 9 9 9 9 9 9 9 9 9 9 9 9 9 9 5 6 6 9 6 6 6 6 9 9 5 9 9 9 9 9 > > > > > > > > > > > > > > > > > > 9 > 9 9 5 9 > 9 > , # @ @ @ @ @ @ @ @ @ @ @ @ . . . . @ @ @ @ @ @ @ @ @ @ @ @ . . . . . . . . . . @ . @ . @ . @ . @ . @ . @ . . . . . . . . . @ @ @ * # # # # * * * # # # * # # # # # * * * * # # # # # # # # 1 1 1 1 , , , : , : , : : : , : , : < > : : , , , , , , , 1 1 1 # # # # # # # # # # # # # # # # # # # # # # # # # # # # # # # @ @ @ @ @ @ @ @ @ @ @ @ @ @ @ @ @ @ @ @ @ @ @ @ @ @ @ @ @ @ # : , 2 > > 9 9 9 9 9 9 9 9 > 9 9 9 9 9 9 9 9 9 > q > 9 9 9 9 9 9 9 9 9 6 9 6 9 9 9 6 9 9 9 5 9 9 9 9 9 5 9 9 9 9 9 9 9 9 > 2 , # # @ @ @ @ @ @ @ @ @ @ @ @ @ @ @ @ @ @ @ @ @ @ @ @ @ @ @ @ @ @ @ @ @ @ @ @ @ @ @ @ @ @ @ @ @ @ @ @ @ @ @ @ @ @ @ @ @ @ @ ",
"`. .e 2 > > # , , 2 2 2 1 , < < > , , , , , , , , : , : , : , , : # # # # # # # # # # # # # # # # # # # # # # # # # # # # # # # # # # # @ @ # # @ # # # # # @ @ @ @ @ * # # # # @ $ # # # : : > > > > > > > > > > > > > > > > > > > > > > > > > > > > > > > > > > > > > < > < < < < < < < > < > 5 9 5 9 5 > > > > > < < < > < < < < < < < < 2 < 2 < 2 < < < < < < < < < < < < < < < 1 # @ @ @ @ @ @ @ @ @ @ @ @ @ @ @ @ @ @ @ @ @ @ @ @ @ @ @ @ @ @ . . @ @ @ @ @ @ @ @ @ . @ @ @ @ @ @ @ @ @ @ @ @ . . . . . . @ @ @ # # # # # * * * * # # # # # * # # * * * # * # # # # # # # # # # # 1 # # 1 1 : 1 : : : : : 1 : 1 : : : : : 1 * * * # # # # # # # # # # # # # # # # # # # # # # # # # # # # # # # # # # # # @ @ @ @ @ @ @ @ @ @ @ @ @ @ @ @ @ @ @ @ @ @ @ @ @ @ @ @ # # # : , < < < < < < < < < < < < < < < < < < < 2 < 2 < < < < > < < < > > > > > 5 5 5 9 > > > > > > > > > > > > > > > > > < < < 1 # # @ @ @ @ @ @ @ @ @ @ @ @ @ @ @ @ @ @ @ @ @ @ @ @ @ @ @ @ @ @ @ @ @ @ @ @ @ @ @ @ @ @ @ @ @ @ @ @ @ @ @ @ @ @ @ @ @ @ @ ",
"R.| * : : : @ # # : : : # # : : : # # # # # # # # # # # # # # # # # @ @ @ @ @ @ @ @ @ @ @ @ @ @ @ @ @ @ @ @ @ @ $ $ # @ @ @ @ @ # # # @ @ @ # # @ # # # # @ @ @ @ @ @ * # # # # @ $ # # # : : > 9 5 5 5 5 5 5 5 5 5 5 5 5 5 5 5 5 5 5 5 5 5 5 5 5 5 > > > > : : : : : : : : : : : : : : : : : : : > > : : : : : : : : : : # # # # # # # # # # # # # # # # # # # # # # # # # : # # # # # @ @ @ @ @ @ @ @ @ @ @ @ @ @ @ @ @ @ @ @ @ @ @ @ @ @ @ @ @ @ @ @ @ $ @ @ @ @ @ @ @ @ @ @ @ @ @ @ @ @ @ @ @ @ @ @ @ @ @ $ @ @ @ @ # # # # # # # # # # # # @ # # # # @ # # # # # # # # # # # @ # # # # # # # # # # # # # # # # # # # # # # * * * * # # # # # # # # # # # # # # # # # # # # # # # # # # # # # # # # # # # # # # # * # # # # # * # * # * # * # * # # # * * * * * * * # * # # # # # : : : : : : : : # : : : : : : : : : : : # : : : : # : : : : : : : : > > : : : : : : : : : : : : : : : : : : : : : # # # @ @ @ @ @ @ @ @ @ @ @ @ @ @ @ @ @ @ @ @ @ @ @ @ @ @ @ @ @ @ @ @ @ # # # # # # # # # @ # @ # @ # # # @ # @ # @ # @ # # ",
"L.| & # # # @ @ @ # # # @ @ # # # @ @ @ @ @ @ @ # # # # # # # @ @ @ @ @ @ @ @ @ @ @ @ @ @ @ @ @ @ @ @ @ @ @ @ @ @ @ @ @ @ @ @ @ @ @ @ @ # # # # # * # # # # # # $ $ @ * # # # # @ $ @ @ # : > 5 6 6 0 6 6 5 6 5 6 5 6 5 6 5 6 5 5 5 5 5 6 6 6 6 0 6 9 > > : : # # # # # # # # # # # # # # # # # : : : # # # # # # # # # # @ @ @ @ @ @ @ @ @ @ @ @ @ @ @ @ @ @ @ @ @ @ @ @ @ @ @ @ @ @ @ @ @ $ $ @ @ @ @ @ @ @ @ @ @ @ @ @ @ @ @ @ @ @ @ @ @ @ @ # $ # $ # $ # # # # # # # # # # # # # # * * * * # * * * * * * $ $ @ @ @ # # # # # # # # # # # # @ # # # # # # # # # # # # # # * @ @ @ @ @ @ @ @ @ @ @ @ @ @ @ @ @ @ @ @ @ @ @ @ @ @ @ @ @ @ @ @ # # # # # # # # # # # # # # # # # # # # # # # # # # # # # # # # # # # # # # # # # # # # # # # # # # # # # # # # : # # # # # # # @ @ @ @ @ @ @ @ @ @ # @ # @ @ @ @ @ # @ # @ # @ @ @ @ @ @ # # # # # # # # : : : # # # # # # # # # # # # # # # # # # # # # # @ @ @ @ @ @ @ # # @ # # # # @ @ @ @ @ @ @ @ # # # # # $ # # # # # # # # # # # # # # # # # # # # # # # # # # # # # # # # ",
"K.g & * # # . @ @ @ * @ @ @ @ @ @ @ @ @ @ @ @ @ @ @ @ @ @ @ @ @ @ @ . . @ @ @ @ @ @ @ @ . @ @ @ @ @ @ @ @ @ @ @ @ @ @ @ @ @ @ @ @ @ # @ @ @ # # # # # # # # # # $ $ @ @ # # # # @ $ # # # : > 9 6 6 6 6 6 6 6 6 6 6 6 6 6 6 6 6 6 6 6 6 6 6 6 9 9 5 9 > > : : # # # # # # # # # # # # # # # # # # # # # # # # # # @ @ @ @ @ @ @ @ @ @ @ @ @ @ @ @ @ @ @ @ @ @ @ @ @ @ @ @ @ @ @ @ @ @ @ @ @ & @ @ @ @ @ @ @ # @ @ @ @ @ @ @ # @ @ @ @ @ @ @ # @ # # # # # # # # # # # # # # # # # # # # # # # # # # # * * * * * * # @ @ # # # # # # # # # # # # # # # # # # # # # # # # # # # # @ @ @ @ @ @ . @ @ @ @ @ @ . @ @ @ @ @ @ . . @ @ . . . . . @ @ @ @ # # # # # # # # # # # # # # # # # # # # # # # # # # # # # # # # # # # : # : # : # : # : # : # : # : # : # : : : : # # # # # @ @ @ @ @ @ @ @ @ @ @ @ @ @ @ @ @ @ @ @ @ @ @ @ @ @ @ @ @ @ @ @ # # # # # # # # # # # # # # # # # # # # # # # # # # # # # # # * * @ @ @ @ # # # # # # # # # # @ @ # # # @ # # # # # # # # # # # # # # # # : : : # # # # # # # # # # # # # # # # # # # ",
"K.g O @ # # . . @ @ @ @ @ @ @ @ @ @ @ @ @ @ @ @ @ @ @ @ @ @ @ @ @ . . . . . . . . . . . . . . . . . @ @ @ @ . . @ @ @ @ @ @ @ @ @ # # # @ @ @ # # # @ # @ @ # @ $ $ @ @ # # # # # $ # # # : > 9 5 6 6 6 6 6 6 6 6 6 6 6 6 6 6 6 6 6 6 6 6 6 6 6 5 5 9 9 > > : # # # # # # # # # # # # # # # # # # # # # # # @ @ $ $ $ $ @ @ @ @ . . . . . . . . . . . . . . . . . . . . @ @ @ @ @ @ @ @ @ & & @ @ * * * # # # * * * * * # # # # # # # # # # # # # # # # # @ # # # # # # # # # # # # # # # # # # # # # # * # * * * * # @ # # # # @ @ @ @ # # @ @ @ @ @ @ @ @ @ @ # # # # # * # @ @ @ . . . . . . . @ @ @ @ . . @ @ @ @ @ . . @ . . . . . . @ @ @ @ @ # # # # # # # # # # # # # # # # # # # # # # # : # # : : : : # # : # : : : # : # : # : # : # : : : # : # : : : : : # # # # @ @ @ @ @ @ . . @ @ @ @ @ @ @ @ @ @ @ @ @ @ @ @ @ @ @ @ @ @ $ $ * @ # # # # # # # # # # # # # # # # # # # # # # # # # # # # # * * * * * * # # # # # # # # # @ # # # # @ @ # # # # # # # # # # # # # # # : : : : # # # # # # # # # # # # # # # # # # # ",
"K.d O @ # @ . . @ @ @ @ @ @ @ @ @ @ @ @ @ @ @ @ @ @ @ @ @ @ @ @ . . . . . . . . . . . . . . . . . . . @ @ @ . . . @ @ @ @ @ @ @ @ # # # @ @ @ # # # @ @ @ @ # @ @ @ @ * # # # @ # $ # # # : > q 6 6 6 6 6 6 6 6 6 6 6 6 6 6 6 6 6 6 6 6 6 6 6 6 6 9 9 9 > : : # # @ @ @ @ @ @ @ @ @ @ @ @ @ @ # # # @ @ # @ @ @ $ $ $ @ @ . . . . . . . . . . . . . . . . . . . . . . . . . @ @ @ @ @ @ & & & @ @ * * * # # # * * * * * # # # # # # # # # # # # # # # # # # # # # # # # # # # # # # # # # # # # : # * # # # # * * * # @ # # # # @ @ @ @ @ # @ @ @ @ @ @ @ @ @ @ # # # # # * @ @ @ @ . . .     . . . . . . . . . . . . . . . . . . . . . . . @ @ @ @ # # # # # # # # # # # # # # # # # # # # # # # # : # : : : : : : : : : : : : : : : : : : : : : : : : : : : : : : : : # # # @ @ @ @ @ . . . . @ @ @ @ @ @ @ @ @ @ @ @ @ @ @ @ @ . . @ $ $ $ $ @ @ @ # # # # # # # # # # # # # # # # # # # # # # # # # # @ # * * * * * # # # # # # # # # # # # # # @ @ # # # # # # # # # # # # # # # # : # # # # # # # # # # # # # # # # # # # # # ",
"D.p + @ @ * . . . @ @ @ @ @ . . @ @ @ @ @ @ @ @ @ @ @ @ @ @ @ @ @ . @ . @ . @ . @ . @ . @ . @ . . . @ @ @ @ @ @ @ @ . . . @ @ @ # # # # # # # # # # # @ @ @ # # # @ # # * * * * * @ @ # # : > 5 9 6 6 6 6 6 6 6 6 6 6 6 6 6 6 6 6 6 6 6 5 5 6 6 0 9 9 9 > : # # # # # # # # # # # # # # # # # # * @ @ @ @ # * * # @ @ @ @ . . . . . . . . . . . . . . . . . . . . . . . . . . @ @ @ @ @ @ * * # @ @ @ @ # # # @ # # @ @ # # # # # # # # @ @ # # * * # # # # # # # # # # # # # # # # # # # # # # # # # # # # * # # * # # # # @ @ # # # # # # # # # # # # @ @ @ @ # # # # # # @ @ @ @ @ . . . . . . . . . . . . . . . . . . . . . . . . . . . @ @ @ # # # # # # # # # # # # # # # # # # # # # # # # # # # # # # # # # : : : : : # # # # # : : : : : : : : : : : : : : : : # # # @ @ @ @ @ @ . @ @ @ @ @ @ @ @ @ @ @ @ @ @ @ @ @ @ . . . @ @ @ # * # # # # # # # # # # # # # # # # # # # # # # # # # @ # # # @ @ @ # # # # # # @ @ @ @ # # # # # # @ @ @ # # # @ @ @ @ @ # # # # # : : # # # # # # # # # # # # # # # # : # # # # # # # ",
"D.u + @ @ * @ . . . @ # * @ . . @ @ @ @ @ @ @ @ @ @ @ @ @ @ @ @ @ @ @ @ @ @ . . @ @ @ @ @ @ . . . . @ @ @ @ . . @ @ . . . @ @ @ @ # # # # # # # # # # # @ @ # # # # # # # # # @ * @ @ # # : > 9 5 6 6 6 6 6 6 6 6 6 6 6 6 6 6 6 6 6 6 5 5 5 6 6 0 6 9 9 9 : # # # # # # # # # # @ @ # # # # # # @ @ @ @ # # * * # @ # @ @ . . . . . . . . . . . . . . . . . . . @ . . . . . . . @ @ @ @ @ * # # @ @ @ # # # # @ # # @ @ # # # # @ # # # @ @ # # * * # # # # # # # # # # # # # # # # # # # # # # # # # # # # * # * * # # # # @ @ # # * # # # # # # # # # @ # @ @ # # # # # @ @ @ @ @ @ @ . . . . . . . . . . . . . . . . . . . . . . . . @ . @ @ @ # # # # # # # # # # # # # # # # # # # # # # # # # # # # # # # # # : : : : : : # # : # : : : : : : : # : : : : : : : # # # # @ @ @ @ @ @ @ @ @ @ @ @ @ @ @ @ @ @ @ @ @ @ @ @ @ . . @ @ @ @ # * # # # # # # # # # # # # # # # # # # # # # # # # # @ # # # @ @ @ @ @ # # # # @ @ @ @ # # # # @ # @ @ @ # # # @ # @ @ # # # # # # : : # # # # # # # # # # : # # # # # # # # : # # # # ",
"D.p + @ @ * . . . . @ # * @ . . @ @ @ @ @ @ @ @ @ @ @ @ @ @ @ @ @ @ . . @ . . @ . . @ @ @ @ @ @ . . @ @ . . . . . . . . . @ @ @ @ @ @ # @ @ # @ # # # # @ # # # @ @ # # # # # @ * @ @ # # : > 5 5 6 6 6 6 6 6 6 6 6 6 6 6 6 6 6 6 6 6 5 5 5 6 6 0 6 6 6 5 : # # # # # # # # @ @ @ @ @ # @ @ @ @ * @ * # # * * * * @ # @ @ . . . . . . . . . . . . . . . . . . . . . . . . . . . . . @ @ @ @ * # @ # # # # # @ @ # # @ @ # # # # @ @ # # # # # # * * # # # # # # # # # # # # # # # # # # # # # # # # # # # # * * * * # # # @ @ @ # # @ @ @ @ @ @ @ @ # # # # # # # # # # # @ @ @ @ @ . . . . . . . . . . . . . . . . . . . . . . . . . . @ @ @ @ @ # # # # # # # # # # # # # # # # # # # # # # # # # # # # # # # # # : : : : : : : : : : : : # # # # # # # # : : : : : # # # # @ @ @ @ @ @ @ @ @ @ @ @ @ @ @ @ @ @ @ @ @ @ @ @ @ . . @ @ @ @ # # # # # # # # @ @ # # # # # # # # # # # # # # # # # # # # # # @ @ @ @ @ # # # # @ @ @ # # @ @ @ @ @ @ # # # # # # @ # # # # # # # : : # # # # # # # # : : # # # # # # # # # # # # # # ",
"D.p + @ @ * . . . . @ # * @ . . @ @ @ @ @ @ @ @ @ @ @ @ @ @ @ @ . . . . . . . . . @ . @ @ @ @ @ . . @ @ . . . . . . . . . @ @ @ @ # @ # @ @ @ @ # # # # @ @ # # @ @ # # # # * @ * @ @ # # : > 5 5 6 6 6 6 6 6 6 6 6 6 6 6 6 6 6 6 6 6 5 5 5 6 6 6 6 6 6 5 : # # # # # # # # # @ @ @ # # @ @ @ @ * * * # * * * * * @ * @ @ . . . . . . . . . . . . . . . . . . . . . . . . . . . . @ @ @ @ * * * # # # # # * @ @ # # @ @ # # # @ @ @ # # # # # # # # # # # # # # # # # # # # # # # # # # # # # # # # # # # # * * * * # # # @ @ @ # @ @ @ @ @ @ @ @ @ @ # # # # # # # # # # @ @ @ @ @ . . . . . . . . . . . . . . . . . . . . . . . . . . . . @ @ @ # # # # # # # # # # # # # # # # # # # # # # # # # # # # # # # # # : : : : : : : : : : : # # # # # # # # # : : : : : # # # # @ @ @ @ @ @ @ @ @ @ @ @ @ @ @ @ @ @ @ @ @ @ @ @ @ . . @ @ @ @ # # # # # # # # @ @ # # # # # # # # # # # # # # # # # # # # # # @ @ @ @ @ # # # @ @ @ @ # # # @ @ @ # # # # # # # # @ # # # # # # # : : # # # # # # # # # # # # # # # # # # # # # # # # ",
"D.u + @ @ * @ . . . @ # * @ . . @ @ @ @ @ @ @ @ @ @ @ @ @ @ @ @ @ . . . . . . . . . @ @ @ @ . @ . . . . . @ @ @ @ @ . . . @ @ @ @ # @ @ @ # # # @ @ @ @ # # @ @ @ @ # # # * * @ * @ @ # # : > 5 9 6 6 6 6 6 6 6 6 6 6 6 6 6 6 6 6 6 6 5 5 5 6 6 0 6 6 6 9 : # # # @ # # # # @ @ # # @ @ # # # # @ @ # # # # # # * @ * @ @ . . . . . . . . . . . . . . . . . . . @ @ . . . . . . . . @ @ @ * * * # # # # # # # @ # # # # @ @ @ @ @ @ @ # # # # # # # # # # # # # # # # # # # # # # # # # # # # # # # # # # # # * * # # # # # # # # # # @ @ @ @ # @ @ # # # # # # # # # # # @ # @ @ @ @ . . . . . . . . . . . . . . . . . . . . . . . . . @ @ @ @ @ @ # # # # # # # # # # # # # # # # # # # # # # # # # # # # # # # # : : : : # # : : : : : : # # # # # # # # : : : : : # # # # @ @ @ @ @ @ @ @ @ @ @ @ @ @ @ @ @ @ @ @ @ @ @ @ @ . . @ @ @ @ # * # # # # # # # # # # # # # # # # # # # # # # # # # # # # # # # # # # # # # # # # # # # @ # # # # # # # # # # # # @ @ # # # # # # : : # # # # # # # # # # # # # # # # # # # # # # : : ",
"D.u + @ @ * @ . . . @ # * @ . . @ @ @ @ @ @ @ @ @ @ @ @ @ @ @ @ @ @ . . . . . . @ . @ @ . @ . . @ . . . @ @ @ @ @ @ . . . . @ @ @ # @ @ @ # # # @ @ @ @ # @ @ @ @ @ # # # * * @ * @ # # # : > 9 9 6 6 6 6 6 6 6 6 6 6 6 6 6 6 6 6 6 6 5 5 5 6 6 0 6 6 6 q : # # # @ # # # # @ @ # # # @ # # # # @ @ # # # # # # * @ * $ @ . . . . . . . . . . . . . . . . . . . @ @ . . . . . . . . @ @ @ * # # # # # # # # # @ # # @ # @ # @ @ @ @ # # # # # # # # # # # # # # # # # # # # # # # # # # # # # # # # # # # # # # * # # # # # # # # # @ @ @ @ @ # # @ # # @ @ # # # # # # # # # @ @ @ . . . . . . . . . . . . . . . . . . . . . . . . . . @ @ @ @ @ @ # # # # # # # # # # # # # # # # # # # # # # # # # # # # # # # # : : : : # # : : # # : : # : : # # # # # : : : : : # # # # @ @ @ @ @ @ @ @ @ @ @ @ @ @ @ @ @ @ @ @ @ @ @ @ @ . . @ @ @ @ # * # # # # # # # # # # # # # # # # # # # # # # # # # # # # # # # # # # # # @ # # * # # # @ # # # # # # # # # # # # @ @ # # # # # # : : # # # # # # # # # # # # # # # # # # # # # # # # ",
"D.u + . @ * @ . . . @ # * @ . . @ @ @ @ @ @ @ @ @ @ @ @ @ @ @ @ @ @ @ @ . @ . . . . @ @ @ . . . @ @ . . @ @ @ @ @ @ . . . . @ @ @ # @ @ # # # * # # # # # # @ @ @ @ # # # * * @ * $ @ # # : > 9 9 6 6 6 6 6 6 6 6 6 6 6 6 6 6 6 6 6 6 5 5 5 6 6 0 6 6 6 9 : # # # @ @ # # # # @ # # @ @ # # * # @ @ * * # * # # * @ * $ @ . . . . . . . . . . . . . . . . . . . @ @ . . . . . . . . @ @ @ * # # @ @ # # # # # # @ @ @ @ # # * # # # # # # # # # # # # # # # # # # # # # # # # # # # # # # # # # # # # # # # # # * * # # @ # @ @ # # # # @ @ # # # # # # @ @ @ # # # # # @ @ # @ @ @ @ @ . . . . . . . . . . . . . . . . . . . . . . . . @ @ @ @ @ @ # # # # # # # # # # # # # # # # # # # # # # # # # # # # # # # # : : : # # # : # # # : : : : : : : # : : : : : : : # # # # @ @ @ @ @ @ @ @ @ @ @ @ @ @ @ @ @ @ @ @ @ @ @ @ @ . . @ @ @ @ # * # # # # # # # # # # # # # # # # # # # # # # # # # # # # @ @ # # # # @ @ @ @ # # # # @ @ @ # # # @ # @ @ # # # # @ @ # # # # # # : : # # # # # # # # # # # # # # # # # # # : # # # # ",
"D.p + @ @ * @ . . . @ # * @ . . @ @ @ @ @ @ @ @ @ @ @ @ @ @ @ @ @ @ @ @ @ @ . @ @ . @ @ . . . . @ @ . . . @ @ @ @ @ . . . . @ @ @ # @ # # # # # # # # # # # @ # @ @ # # # * * @ * $ # # # : > 9 9 6 6 6 6 6 6 6 6 6 6 6 6 6 6 6 6 6 6 6 5 5 6 6 0 6 6 6 q : # # # @ @ @ # # # @ # # @ @ @ # # # @ @ * * * * # # * @ * $ @ . . . . . . . . . . . . . . . . . . . @ @ . . . . . . . . @ @ @ * # # @ @ # # # # # # # @ @ @ # # # # # # * # # # # # # # # # # # # # # # # # # # # # # # # # # # # # # # # # # # # # * * @ @ @ # @ @ # # # # # # # # # # # # @ @ @ # # # # # # @ @ @ @ @ @ @ . . . . . . . . . . . . . . . . . . . . . . . . @ @ @ @ @ @ # # # # # # # # # # # # # # # # # # # # # # # # # # # # # # # # : : : : # # : # # # : : : : : : : : : : : : : : : # # # # @ @ @ @ @ @ @ @ @ @ @ @ @ @ @ @ @ @ @ @ @ @ @ @ @ . . @ @ @ @ # * # # # # # # # # # # # # # # # # # # # # # # # # # # @ @ @ @ @ # # # # @ @ @ # # # # @ @ @ # # # @ @ @ @ @ # # # @ @ # # # # # # : : # # # # # # # # # : # # # # : : # # # # # # # # ",
"Y.) + @ @ * @ . . . @ # * @ . . @ @ @ @ @ @ @ @ @ @ @ @ @ @ @ @ . . . . . . @ @ @ @ @ @ . . . . @ @ @ @ @ @ @ . . . . . . @ @ @ # # # # # # @ @ @ @ # # * # # # @ @ # # * * * @ * $ @ # # : > 5 9 6 6 6 6 6 6 6 6 6 6 6 6 6 6 6 6 6 6 5 5 5 6 6 6 6 6 6 q : # # # @ @ @ # # # # # # # # # # # # @ @ @ # # # # # @ @ * $ @ . . . . . . . . . . . . . . . . . . . @ @ . . . . . . @ @ @ @ @ @ # # @ @ # # # @ @ @ # # # # # # # # # # # # # # # # # # # # # # # # # # # # # # # # # # # # # # # # # # # # # # * * * * # # # @ @ @ # # # @ @ @ # # @ # # # @ @ @ @ # # # # # # # @ @ @ @ . . . . . . . . . . . . . . . . . . . . . . . . . @ @ @ @ @ @ # # # # # # # # # # # # # # # # # # # # # # # # # # # # # # # # : : # # # # # # : : : : # # : : # # # : : : : : : # # # # @ @ @ @ @ @ @ @ @ @ @ @ @ @ @ @ @ @ @ @ @ @ @ @ @ . @ @ @ @ @ # * # # # # # # @ @ # # # # # # # # # # # # # # # # # @ @ @ # # # # # # # # @ @ # # # # # @ @ # # # # # # # @ @ @ @ @ @ * * # # # # : : # # # # # # # # # # # # # : # # # # # # # # # # ",
"Y.l + @ @ * @ . . . @ # * @ . . @ @ @ @ @ @ @ @ @ @ @ @ @ @ @ @ . . . . @ . @ @ @ @ @ @ . . . . @ @ @ @ @ @ @ . . . . . . @ @ @ # # # # # # @ @ @ @ # # # # # # @ @ # # * * # @ * $ @ # # : > 9 5 6 6 6 6 6 6 6 6 6 6 6 6 6 6 6 6 6 6 5 5 5 6 6 6 6 6 6 q : # # # @ @ @ # # # # # # @ @ # # # # @ @ @ @ * # * * @ @ * $ @ . . . . . . . . . . . . . . . . . . . @ . . . . . . . @ @ @ @ @ @ # # @ @ # # # # @ @ # # # # @ @ # # # # # # # # # # # # # # # # # # # # # # # # # # # # # # # # # # # # # # # # * * * * # # # # @ @ # # # # @ @ # # @ # # # # @ @ @ # # # # # # # @ @ @ . . . . . . . . . . . . . . . . . . . . . . . . . . @ @ @ @ @ @ # # # # # # # # # # # # # # # # # # # # # # # # # # # # # # # # : : # # # # # # # : : : # # : : # # # : : : : : : # # # # @ @ @ @ @ @ @ @ @ @ @ @ @ @ @ @ @ @ @ @ @ @ @ @ @ . @ @ @ @ @ # * # # # # # # # @ # # # # # # # # # # # # # # # # @ @ @ @ # # # # # # @ @ @ @ # # # # @ @ @ @ # # # # # # @ @ @ @ @ * * * # # # # : : # # # # # # # # : : # # # # # : # # # # # # # # ",
"Y.) + @ @ * @ . . . @ # * @ . . @ @ @ @ @ @ @ @ @ @ @ @ @ @ @ @ @ . @ @ @ @ @ @ . . @ @ . . . @ . . @ . @ @ @ @ @ @ . . . . @ @ @ @ # # # # # # # # # # # # # @ @ @ # # # * # @ * $ @ # # : > 5 5 6 6 6 6 6 6 6 6 6 6 6 6 6 6 6 6 6 6 5 5 5 6 6 0 6 6 6 q : # # # # @ @ # # @ # # @ @ @ @ @ # # * @ * * * * * * # @ * $ @ . . . . . . . . . . . . . . . . . . . . . . . . . . . @ . @ @ @ * # # # # # # # # @ @ # # @ @ @ @ @ # @ @ @ # @ @ # # # # # # # # # # # # # # # # # # # # # # # # # # # # # # # # # * * # # # # # @ @ # # # # @ # # # @ @ # # # # # @ # # # # # # @ @ @ @ . . . . . . . . . . . . . . . . . . . . . . . . . . . . @ @ @ @ # # # # # # # # # # # # # # # # # # # # # # # # # # # # # # # # : : # : : : # # : : : : # # : : : # : : : : : : : # # # # @ @ @ @ @ @ @ @ @ @ @ @ @ @ @ @ @ @ @ @ @ @ @ @ @ . . @ @ @ @ # # # # # # # # # # # # # # # # # # # # # # # # # # # # @ # @ # @ @ # @ @ @ @ @ # # # # @ @ @ @ # # @ @ # # # # # * @ @ * * # # # # : : # # # # # # # # # # # # # # # # # # # # # # # # ",
"Y.) + @ @ * @ . . . @ # * @ . . @ @ @ @ @ @ @ @ @ @ @ @ @ @ @ @ @ @ @ @ @ @ @ @ . . @ @ @ @ . @ . . . . @ @ @ @ @ @ . . . @ @ @ @ # # # # # # # # # # # # # # @ @ @ # # # * # @ * $ @ # # : > 5 5 6 6 6 6 6 6 6 6 6 6 6 6 6 6 6 6 6 6 5 5 5 6 6 0 6 6 6 q : # # # # # # # # @ @ # @ @ @ @ # # # @ @ * * * * * * # @ * $ @ . . . . . . . . . . . . . . . . . . . . @ . . . . . . . . @ @ @ * # # # # # # # # # @ # # # @ @ @ @ # @ @ @ @ @ @ # # # # # # # # # # # # # # # # # # # # # # # # # # # # # # # # # # * # # # # @ @ @ # # # # @ @ # # @ @ # # # # # # # # # # # @ @ @ @ @ @ . . . . . . . . . . . . . . . . . . . . . . . . . . . @ @ @ @ # # # # # # # # # # # # # # # # # # # # # # # # # # # # # # # # : : : : : : : # : : : : # # : : : # : : : : : : : # # # # @ @ @ @ @ @ @ @ @ @ @ @ @ @ @ @ @ @ @ @ @ @ @ @ @ . . @ @ @ @ # * # # # # # # # # # # # # # # # # # # # # # # # # # # # # @ @ @ @ # @ @ @ @ @ # # # @ @ @ @ @ @ # @ @ @ @ # # # # @ @ * * # # # # : : # # # # # # # # # # # # # # # # # # # # # # # # ",
"Y.s + @ @ * @ . . . @ # * @ . . @ @ @ @ @ @ @ @ @ @ @ @ @ @ @ @ @ @ @ @ @ @ @ @ . . . . @ @ @ @ . . @ @ @ @ . . @ @ . . . . @ @ @ @ # # # # # # # # # # # # @ @ @ @ # # # # * @ * @ @ # # : > 5 9 6 6 6 6 6 6 6 6 6 6 6 6 6 6 6 6 6 6 5 5 5 6 6 0 6 6 6 5 : # # # # # # # @ @ @ @ @ @ @ @ @ @ # @ @ * * # * # * # @ * @ @ . . . . . . . . . . . . . . . . . . . @ @ . . . . . . . . . @ * * * # # # # # # * # # @ @ @ @ # @ @ @ # # # # @ # # # # # # # # # # # # # # # # # # # # # # # # # # # # # # # # # # # * # # # # # # # @ @ @ @ # # @ @ @ # # # # # # # # # # # @ @ @ @ @ @ . . . . . . . . . . . . . . . . . . . . . . . . . . . . @ @ @ # # # # # # # # # # # # # # # # # # # # # # # # # # # # # # # # # : : : : : : : : : : : : : : # # : : : # # # : : : # # # @ @ @ @ @ @ @ @ @ @ @ @ @ @ @ @ @ @ @ @ @ @ @ @ @ @ . . @ @ @ @ # # # # # # # # # # # # # # # # # # # # # # # # # # # # @ @ # # # @ # # @ @ @ @ # # # # @ @ @ @ # # @ @ # # # @ # # @ @ # # # # # # : : # # # # # # # # : # # # # # # # # # # # # # # # ",
"Y.s + @ @ * @ . . . @ # * @ . . @ @ @ @ @ @ @ @ @ @ @ @ @ @ @ @ . @ @ @ @ . @ @ . . . . @ @ @ @ . . @ @ @ @ . . @ @ . . . . @ @ @ @ * # # # # @ @ # # # # # @ @ @ @ # # # * * @ * @ @ # # : > 9 9 6 6 6 6 6 6 6 6 6 6 6 6 6 6 6 6 6 6 5 5 5 6 6 0 6 6 6 9 : # # # # # # # # @ @ @ @ @ @ @ @ # # @ @ * * # # # # # @ * $ @ . . . . . . . . . . . . . . . . . . . @ @ . . . . . . . . . @ * * * # # # # # # # # # # # # @ # @ @ @ # # # # # # # # # # # # # # # # # # # # # # # # # # # # # # # # # # # # # # # # * # # # # # @ # @ @ @ @ # @ @ @ @ # # # # # # # # # # # # @ @ @ @ @ . . . . . . . . . . . . . . . . . . . . . . . . . . . . @ @ @ # # # # # # # # # # # # # # # # # # # # # # # # # # # # # # # # # : : : : : : : : : : : : : : # : : : # # # # : : : # # # @ @ @ @ @ @ @ @ @ @ @ @ @ @ @ @ @ @ @ @ @ @ @ @ @ @ . . @ @ @ @ # # # # # # # # @ @ # # # # # # # # # # # # # # # # # # @ @ # # # # # # @ # @ @ # # # # @ @ @ @ # # # # # # @ @ # # @ @ # # # # # # : : # # # # # # # # # # : # # # # # # # # # # # : # ",
"Y.) + @ @ * @ . . . @ # * @ . . @ @ @ @ @ @ @ @ @ @ @ @ @ @ @ @ . . . . @ . @ @ @ @ @ @ @ @ @ @ @ @ @ @ . . . . @ @ . . . @ @ @ @ # # # # @ @ @ @ @ @ # # # # @ # # # # # * * @ * $ @ # # : > 9 9 6 6 6 6 6 6 6 6 6 6 6 6 6 6 6 6 6 6 5 5 5 6 6 0 6 9 6 9 : # # # @ # # # # # # # # # # # # # # @ @ # # # # * * * @ * $ @ . . . . . . . . . . . . . . . . . . . @ @ . . . . . . @ @ @ @ * * * * # # # # @ @ # # # # # # # @ # @ @ # @ @ # # # # * * * # # # # # # # # # # # # # # # # # # # # # # # # # # # * * * * # # @ @ @ @ # # # * # # @ @ # # # # # # @ @ # # # # # @ @ @ @ @ @ . . . . . . . . . . . . . . . . . . . . . . . . . @ @ @ @ @ # # # # # # # # # # # # # # # # # # # # # # # # # # # # # # # # # : : : : # # # : : : : : : : # # : : : : # # : : : # # # @ @ @ @ @ @ @ @ @ @ @ @ @ @ @ @ @ @ @ @ @ @ @ @ @ @ . . @ @ @ @ # # # # # # # # @ @ # # # # # # # # # # # # # # # # # # @ @ # # * # # # # # @ # # # # # # # # # # # # # # # @ @ @ # @ # # # # # # # : : # # # # # # # # # # # # # # # # # : # # # # # # ",
"L.s + @ @ * . . . . @ @ @ @ . . . @ @ @ @ @ @ @ @ @ @ @ @ @ @ @ . . . . . . . . . . . . . . . . . . . . . . . . . . . . . . . @ @ # # # @ @ @ @ @ @ @ @ # # # @ # # # # # # * @ $ $ # # : : > 9 9 6 6 6 6 6 6 6 6 6 6 6 6 6 6 6 6 6 6 5 5 5 6 6 0 6 5 6 > : # # # @ @ @ # * # # # # # # # # # # * @ # # # # * * * @ * $ @ . . . . . @ . @ . @ . @ . @ . @ . @ . . . . . . . . . @ @ @ @ @ * * * * # @ @ @ @ @ @ # # # # # # # # # # @ # # # # # * * * # # # # # # # # # # # # # # # # # # # # # # # # # # # * * * * # # @ # @ @ # # # # # # @ # # # # # # # @ @ # # # # # # @ @ @ @ @ . . . . . . . . . . . . . . . . . . . . . . . . . @ @ @ @ @ # # # # # # # # # # # # # # # # # # # # # # # # # # # # # # # # # : : : # # # # : : : : : : # # # : : : : : : : : : # # # @ @ @ @ @ @ @ @ @ @ . . . . . . . . . . . . . . . . . . . @ @ @ @ $ @ @ # # # # # @ # # # @ @ @ # # # # @ @ # # # # # # @ @ # # # # # # # # # # # # * # # # # # # # # # # # @ @ # # @ # # # # # # # : : : # # # # # # # # # # # # # # # # : # # # # # # ",
"K.g + @ @ @ . . . . @ . .   . .   . . . . . . . . . . . . . . . . . . . . . . . . . . . . . . .         . .         . . . . . . @ # @ @ # # # # # # @ @ # # # # # @ # # # # # @ $ $ # # # : > 9 9 6 6 6 6 6 6 6 6 6 6 6 6 6 6 6 6 6 9 5 5 6 6 6 0 6 6 6 > : # # # # # # # # # # # # # # # # # # # # # # # # # # # @ * @ @ . . . @ @ @ . @ . @ . @ @ @ . @ . @ @ . . . . . . . . . . . @ @ * @ * * * * * * * # # # # * * * * * * # # # # # # # # # # # # # # # # # # # # # # # # # # # # # # # # # # # # # # # # # # # # # # # # # # # @ @ @ # # # # # # @ @ @ @ # # # # * # @ @ @ @ @ @ . . . .                               . . . . . @ . @ @ @ # # # # # : # # # # # # # # # # # # # # # # # # # # # : : # # : : # : : : # # # # : : : : : : : : : : : # : : : : : # # # @ @ @ @ @ @ @ @ @ @ . . . . . . . . . . . . . . . .       . . @ @ $ $ @ @ @ @ @ @ @ @ $ $ $ $ $ $ $ $ $ $ $ $ $ $ @ @ @ # # # # # # # # * * @ @ @ # # # # # # # # # # # # # # # # # @ @ @ @ # # # : : : : # # # # # # : : : : : : : : : : : : : : : # # ",
"K.g O @ # # . o . @ @ @ .   . @ . . . . . . . . . . . . . . . . . . . . . . . . . . . . . . . . . . . . . . . . . . . . . . . @ @ # @ @ # # # # # @ @ @ # # # # # @ # # # # # $ $ $ @ # # : > 9 9 6 6 6 6 6 6 6 6 6 6 6 6 6 6 6 6 6 9 9 6 6 6 6 0 6 6 6 > : # # # # # # # # # # # # # # # # # # # # # # # # # # # @ * @ @ . . . @ @ @ @ @ @ @ @ @ @ @ @ @ @ @ @ . . . . . . . . . . . @ @ @ @ @ * * * * * * # # # # * * * * # # # # # # # # # # # # # # # # # # # # # # # # # # # # # # # # # # # # # # # # # # # # # # # # # # # # # * @ @ # # # # @ @ # # @ # # # # # * # * @ @ @ @ . . . . . .           . . . .         . . . . . . . . @ @ @ # # # # # : # # # # # # # # # # # # # # # # # # # # : : : # # : : # # : : : : # # : : : : # # : : : : # # : : : : # # # # @ @ @ @ @ @ @ @ @ @ . . . . . . . . . . . . . . . . . .   . . @ @ $ @ @ # # # # # # @ @ @ @ @ @ $ @ @ $ @ @ @ @ @ # @ # # # # # # # # # * * @ @ @ @ # # # # # # # # # # # # # # # # @ @ # @ # # : : : : : : # # # # # : : : : : : : : : : : : : : : # # ",
"L.] & # # # @ @ @ @ * @ @ @ @ @ @ @ @ @ @ @ @ @ @ @ @ @ @ @ @ @ @ @ @ @ @ @ @ @ @ @ @ @ @ @ @ @ @ @ @ @ @ @ @ @ @ @ @ @ @ @ @ @ # # @ @ # # # # # # @ @ # # # # @ @ # # # # # @ $ $ @ # # : > 5 9 6 6 6 6 6 6 6 6 6 6 6 6 6 6 6 6 6 5 9 5 6 6 6 0 6 6 6 > : # # # # # # # # @ @ # # # # @ @ # # # @ @ @ # # # # # @ $ $ @ . . . @ @ @ @ @ . . . @ @ @ @ . . . . . . . . . . . . . . @ @ @ @ @ @ # # * * * * * * # # # * # # # # # # @ @ # @ @ @ # # # * * * # # # # # # # # # # # # # # # # # # # # # # # # # # # # # # * * @ @ # # # # @ # # # # @ @ @ # # # # # # # # * @ @ @ @ . @ . . . . . @ @ @ @ @ @ @ @ @ @ @ @ @ @ @ @ . . . . . . @ @ @ # # # # # : : # # # # # # # # # # # # # # # # # # # # # # # # # # : : : : # : # : : : : # # # : : : # # # # : : : # # # # @ @ @ @ . . . . @ @ @ @ @ @ @ @ @ @ @ @ @ @ @ @ @ @ @ @ @ @ @ @ * * # # # # : # : # # # # # # # # # # # # # # # # # @ @ # # # # # # # # * * @ @ @ @ # # @ # # # # # # # @ @ # # # # @ # # # # # : : : : : : # # # # # # # # # # # # # # # # # # # # # # ",
"L.] & : : # @ @ @ * * * @ @ # # # * * @ * * * * * * * * * * * * @ @ @ @ @ @ @ @ @ @ @ @ @ @ @ @ @ @ @ # # @ @ @ @ @ @ @ @ @ # @ # # @ @ @ # # # # # @ @ # # # @ @ @ @ # # # # @ $ $ @ # # : > 5 9 6 6 6 6 6 6 6 6 6 6 6 6 6 6 6 6 6 5 5 5 6 6 6 0 6 6 6 > : # # # # # # # # @ @ # # # # @ @ # # # # @ @ # # # # # @ # $ @ . . . . @ @ @ @ . . . @ @ @ @ . . . . . . . . . . . . . @ @ @ @ @ @ @ @ # # * * * * * # # # # # # # @ @ @ @ # # @ @ @ # # # * * * # # # # # # # # # # # # # # # # # # # # # # # # # # # # # # * * @ @ # # # # @ @ # # # @ @ @ # # # # # # # # @ @ @ $ @ . . . . . . . @ @ @ @ @ @ @ @ @ @ @ @ @ @ @ @ . . . . . . @ @ @ @ # # # # : # # # # # # # # # # # # # # # # # # # # # # # # # # # : : : : : : # # : : : # # # : : : # # # : : : : : # # # @ @ @ @ . . . . . @ @ @ * * * * * * * @ * * * * * @ @ @ @ @ # # * # # # # : : : : : : # # : # : : # # # # : # # # # # @ # @ # # # # @ # * * * @ @ @ # # @ @ # # # # # # @ @ # # # # @ @ # # # # # : : : : # # # # # # # # # # # # # # # # # # # # # # # ",
"J.d & # : # @ @ @ * * * @ @ # # # @ @ @ @ @ @ @ @ @ @ @ @ @ @ @ @ @ @ @ @ @ @ @ @ @ @ @ @ @ @ @ @ @ @ @ @ @ @ @ @ @ @ @ @ @ @ @ # # # @ @ @ @ @ # # # @ @ @ @ @ @ @ * * * # # @ @ $ @ @ # : > 9 6 6 6 6 6 6 6 6 6 6 6 6 6 6 6 6 6 6 6 6 5 6 6 6 0 6 6 6 > : # # # # @ @ # # # # @ @ # # # # # # @ @ @ @ # # # # @ @ # $ @ . . . . . . . . . . . . . . . . . . . . . . . . . @ @ @ @ @ @ @ $ @ @ @ @ # # # # # # # # # # # # # # @ @ @ # @ @ # # # # # # # # # # # # # # # # # # # # # # # # # # # # # # # # # # * * * * * * @ @ @ @ @ @ @ @ @ @ @ @ @ @ * @ @ * # # # # @ @ @ $ . . . . . . . . @ @ @ @ @ @ @ @ @ @ @ @ @ @ @ @ .   . . . . @ @ @ @ * # # # # # # # # # # # # # # # # # # # # # # # # # # # # # # # : : # # : : : : : : : : : : # # # # : : # # : : : # # # # @ @ @ . . . . O @ @ @ @ @ @ @ @ @ @ @ @ @ @ @ @ @ @ @ @ @ @ # * # # # # # : : : : : # # # # # # # # # # # # # # # # @ @ @ @ @ @ @ @ @ @ # * * * # @ @ @ @ @ @ @ @ # @ @ @ @ @ @ @ # # # # # # # # # # # # # # # # # # # # # # # # # # # # # # # # # # ",
"K.p & * # # . . @ @ @ @ @ @ @ @ @ @ @ @ @ @ @ @ @ @ @ @ @ @ @ @ @ @ @ @ @ @ @ @ @ @ @ @ @ @ @ @ @ @ @ @ @ @ @ @ @ @ @ @ @ @ @ @ # # # @ # @ # @ # # # @ # @ # @ @ @ * * * * @ @ $ $ $ @ # : > 9 6 6 6 6 6 6 6 6 6 6 6 6 6 6 6 6 6 6 9 9 5 5 6 6 0 6 6 6 > : # # # # @ @ # # # # @ @ # # # # # # @ @ # # # # # # # # # $ @ . @ . . . . . . . . . . . . . . . . . . . . . . . @ @ @ @ @ @ @ $ @ @ @ @ # # # # # @ # # # @ # # # # # # @ @ @ @ # # # # # # # # # # # # # # # # # # # # # # # # # # # # # # # # # # * * * * * * @ @ @ @ * @ * @ * @ * @ * @ * @ * * # # # # * @ @ $ @ . . . . . . . . @ . @ . . @ @ . . . . @ @ . . . . . . . . @ @ @ @ * # # # # # # # # # # # # # # # # # # # # # # # # # # # # # # # : : # # # : : : : # : : : : # # # # : # # # : : : : # # # @ @ @ @ . @ . & . @ @ @ @ @ @ @ @ @ @ @ @ @ @ @ @ @ @ @ @ @ @ @ * # # # # # # # # # # # # # # # # # # # # # # # # @ @ # @ @ @ # @ @ @ * # * * * # # @ @ @ @ @ @ @ @ @ @ @ @ @ @ @ @ # # # # # # # # # # # # # # # # # # # # # # # # # # # # # # # # # ",
"S.a + @ @ $     . . @ . . . . @ . . . . . . . . . . . . . . . . . . . . . . . . . . . . . . . . . . . . . . . . . . . . . . . @ @ @ # # # # # # # @ # @ # # # # @ @ * * # # # @ @ $ @ # # : > q 6 5 5 5 5 5 6 5 5 5 5 5 6 6 5 5 6 6 9 9 5 5 6 6 6 6 6 0 9 : # # # # # # # # # # # # # # # # # # @ @ # @ # # # # # # # $ @ . @ @ . . . . . . . . . . . . . . . . . . . . @ @ @ @ @ @ @ @ @ * @ @ @ # # # @ @ @ @ # # @ @ @ @ # # @ @ @ @ # # # # # # # # # # # # # # # # # # # # # # # # # # # # # : : # # # # # # # # # @ @ @ @ # # # # # # # @ # # # # # # # # # # # # # @ @ @ @ @ @ . . . . . . . . . . . . . . . . . . . . . . . . . . @ @ @ @ @ * * # # # # # # # # # # # # # # # # # # # # # # # # # # # # # # : : # # : : : : # # # # : : : : : : : : : : : : : : # # # @ @ @ @ @ @ . @ . . . . . . . . . . . . . . . . . . .   . . . @ @ @ @ $ $ @ @ @ @ @ @ $ @ @ $ @ @ @ $ @ @ $ @ $ # # # # # @ @ @ @ @ @ * * * * * * # # @ @ # # # # # # # # # # # # # # # # # # # # # # # # # # # # # # # # # # # # # # # # # # # # # # ",
"S.a + @ @ @   X   . . .   . . @ . . . . . . . . . . . . . . . . . . .   .   .   .   . . .   .   . . . . .   . . . . . . . . . @ @ # # # # # # # # # # # # # # # * @ * * # # # # * # # # # : > q 6 5 5 5 5 5 6 6 5 5 5 5 6 6 5 5 6 6 9 6 5 5 5 6 6 6 6 0 9 : # # # # # # # # # # # # # # # # # # # # # # # # # # # # # @ @ @ @ @ @ . @ . @ . @ . @ . @ . @ . @ @ @ @ @ @ @ @ @ @ @ @ @ @ @ * # # # # # # @ @ @ @ # # @ @ @ @ @ # # # # @ @ # # # # # # # # # # # # # # # # # # # # # # # # # # # : : # # # # # # # # # # # # # # # # # # # # # # # # # # # # # # # # # # # # # # @ @ @ @ @ @ @ @ . . . . .   .   .   . . . . . . . @ @ @ @ @ @ @ @ # * # # # # # # # : # : # : # : # : # : # # # # # # # # # # # # # : : # # : : : : # # # : : : : : : : : : : : : : : : : # # # # @ @ @ @ @ @ @ . . . . . . . . . . . . .   . . . .   . . . @ @ @ @ @ $ $ $ @ @ @ $ $ $ $ $ $ $ @ $ @ $ $ $ $ # # # # # # # # # # # # * * # # # # # # # # # # # # # # # # # # # # # # # # # # # # # # # # # # # # # : # : # : # : # : # : # : # : # ",
"G.i . @ @ @ . o . @ @ @ . . @ @ @ . @ . @ @ @ @ @ @ @ @ @ @ @ @ @ @ @ @ @ . @ . @ . @ . @ @ @ @ @ @ @ @ @ @ @ @ @ . @ . @ . @ @ # # # # # # # # # # # # # # # # # # # # : : # # # # # # # : > 9 5 5 5 5 5 5 6 6 6 6 6 6 5 5 5 5 6 6 9 9 5 5 6 6 6 6 6 5 > : : # # # # # # # # # # # # # # # # # # # # # # # # # # # # # @ @ @ @ @ . @ . @ . @ . @ . @ . @ . @ @ @ @ @ @ @ @ @ @ @ @ @ @ @ # # # # # # # # # # # # # # # # # # # # # # # # # # # # # # # # # # # # # # # # # # # : # # # # # # # # # # # # # : # # # # # # # # # # # # # # # # # # # # # # # # # # # # # # # # # @ @ @ @ @ @ @ @ @ . @ . . . . . . . . . . . . @ @ @ @ @ @ @ @ # # # # # # # # # # # : # # # # # # # # # # # # # # # # # # # # # # # # # : : : : # # # # # # # # : : : : : : # # : : : : : # # # # # # # # @ @ @ @ @ @ @ @ @ @ @ @ @ @ @ @ . @ . . . . @ @ @ $ @ @ $ # # # # # # # # # # # # # # # # # # # # # # # # : # # # # # # # # # # # # # # # # # # # # # # # # # # # # # # # # # # # # # # # # # # # : : : : : : : : : : : : : : : : : : : : ",
"F.u @ # : : @ $ # # # # # # # # # # # # # # # # # # # # # # # # # # # # # # # # # # # # # # # # # # # # # # # # # # # # # # # # # # # # # # # # # # # # # # # # # # # : : : : # # # # # : : > 5 5 5 5 5 5 5 5 5 5 5 5 5 5 5 5 5 6 6 9 9 5 5 5 5 6 6 6 5 5 > : : # # # # # # # # # # # # # # # # # # # # # # # # # # # # # # @ @ @ @ @ @ @ @ @ @ @ @ @ @ @ @ @ @ @ @ @ @ @ @ # # # # # # # # # # # # # # # # # # # # # # # # # # # # # # # # # # # # # # : # # # : : : : : : : : : : : : : : : : : : : : : : : : # : : : : : # # # # # # # # # # # # # # # # # # # # # # # # # # # # # # # # # # # # # # @ @ @ @ @ @ @ @ # # @ # # # # # # # # # # # # # : : : # : : : : : : : : : : : : : : : : : : : : : : : : : : : : : : : : : : # # : # : : : : : : : : : : : : : : : : : : # # # # # # # # # # # # # # # # # # # # # # # # @ @ # # # # # # # # # : : : : : : : : : : : : : : : : : : : : : : : : : : # # # # # # # # # : # # # # # # # # # # # # # # # # # : : : : : : : # : : : : : : : : : : : : : : : : : : : : : : : : : : ",
"U.E 2 5 5 5 > > > 5 9 9 > > 5 5 5 5 5 5 5 5 5 5 5 5 5 5 5 5 5 5 5 5 5 5 5 5 5 5 5 5 5 5 5 5 5 5 5 5 5 5 5 5 5 5 5 5 5 5 5 5 5 5 > > > > > > > > > > > > > > > : : : : > > > > > : : : : : > > 5 5 5 5 5 5 5 5 5 5 5 5 5 5 5 5 5 9 9 5 5 5 5 5 5 6 6 6 5 5 > : : : # # # : # : # : # : # : # : # # # # # : : : : : : : # # # # # # # # # # @ # # # # # # # # # # # # # # # # # # # # # # # # # # # # # # # # # # # # # # # # # # # # # # # # # # # : : : : : : : : : : : : : : : : : : : : : : : : : : : : : : : : : : : : : : : > > > > > > > > : : > > > > > > : : : : > > > > > > > > > > > > > > > > > > > > > > > > > > > > > > > > > > > > : : : : : : : : : : : : : : : : : : : : : : : : : : : : : : : : : : : : # # # # : : # # # # # # # # : : : : # : : : : : : : > > > > > > > > > > 5 5 5 5 5 5 5 5 5 5 5 5 5 5 5 5 > > 5 5 5 5 5 5 9 5 5 5 5 5 5 5 5 5 5 5 5 5 5 5 6 5 5 5 5 5 5 5 5 5 9 5 > > : : : : : : : : : : : : : : : : : : : : : : : : : : : : : : : : : : : : : : : : : : : : : : : : : : : : : : : : : : : : ",
"/.M.r #.#.o.6 8 @.@.#.@.@.@.@.o.@.@.@.@.@.@.@.@.@.@.@.@.@.@.@.@.@.@.@.@.@.@.@.@.@.@.@.@.@.@.@.@.@.@.@.@.@.@.@.@.@.@.@.@.@.@.@.0 6 9 q 9 9 9 9 9 q 9 q 9 q 9 9 9 4 4 q q 9 9 9 9 > > > > > 5 9 5 5 5 5 5 5 5 5 5 5 5 5 5 5 5 5 5 5 5 5 5 5 5 5 5 6 6 6 5 5 > : : : : : : : : : : : : : : : : : 1 : : : : : : : : : : : : : : # # # # # # # # # # # # # # # # # # # : : : : : : : : : : : : : : : : # : # : # : # : # : # : # : # : : : : : : : : : : : : : : : : : : : : : : : : : : : : : : : : : : : : : : : : > > > > > > > > 9 9 9 9 9 9 9 9 9 9 9 9 9 9 9 9 < 7 7 7 9 6 6 6 0 0 0 8 8 8 0 @.@.@.@.@.@.@.@.@.@.@.@.@.@.@.@.@.$.$.$.8 8 8 0 w 9 > > > < < > : > > > > > < < < > > > > < < < > > > > > < < < < : : : : # # # # : : : # # # # : : : : : : # # # : : : : : > > 6 0 8 8 8 +.+.8 $.@.@.@.@.@.@.@.@.@.@.@.@.@.@.@.@.@.@.@.@.@.@.@.@.@.@.@.@.@.@.@.@.@.@.@.@.@.@.@.@.o.o.@.@.@.@.@.@.@.$.8 0 6 5 > < > > > > < > > > < > < > < > > > > > > > < > > > > > < > > : : : : : : : : : : : : : > : > : : : > : > : > : > : > > ",
"Q.u.@.#.%.O.o.@.#.#.#.#.O.O.O.O.O.O.O.O.O.O.O.O.O.O.O.O.O.O.O.O.O.O.O.O.O.O.O.O.O.O.O.O.O.O.O.O.O.O.O.#.O.O.O.O.O.O.O.#.O.O.O.o.6 5 9 5 5 5 5 5 5 5 5 5 5 5 5 9 > > 9 5 9 9 9 5 9 7 9 5 6 5 5 5 5 5 5 5 5 5 5 5 5 5 5 5 5 5 5 5 5 5 5 5 5 5 5 5 5 5 5 5 5 > : : : : : : : : : : : : : : : : : : : : : : : : : : : : : : : : : : : : : : : : : : : : : : : : : : : : : : : : : : : : , : : : : : : 1 : 1 : 1 : 1 : 1 : 1 : 1 : 1 : : : : : : : : : : : : : : : : : : : : > : > : : : : : > : > : : : : : : : : > > > 5 9 6 5 6 6 5 5 5 5 5 5 5 5 5 5 5 5 5 5 5 5 5 5 5 5 5 5 5 6 0 6 o.@.@.@.o.@.O.O.O.O.O.O.O.O.O.O.O.O.O.O.O.O.@.@.@.@.@.@.@.8 0 6 5 5 > > > > > > > > > > > > > > > > > > > > 5 5 5 > > > < < : : : : # # # # : : # # # # : : # # : : : # # # # # : : : > 5 0 0 @.@.@.o.o.o.o.O.O.O.O.O.O.O.O.O.O.O.O.O.O.O.O.O.O.O.O.O.O.O.O.O.O.O.O.O.O.O.O.O.O.O.O.O.O.O.O.O.O.O.O.O.O.O.O.o.@.@.0 6 5 5 > > < < < > > > > 9 5 9 5 9 5 9 5 9 5 9 5 9 5 9 9 9 9 > > > > : : : : : > > > > > > > > > > > > > > > > > > > > > > > ",
"Q.u.@.O.%.O.o.o.O.O.O.O.O.O.O.O.O.O.O.O.O.O.O.O.O.O.O.O.O.O.O.O.O.O.O.O.O.O.O.O.O.O.O.O.O.O.O.O.O.O.O.O.O.O.O.O.O.O.O.O.O.O.O.o.6 5 5 5 5 5 5 5 5 5 5 5 5 5 5 5 5 5 5 5 5 5 5 5 5 5 5 5 5 5 5 5 5 5 5 5 5 5 5 5 5 5 5 5 5 5 5 5 5 5 5 5 5 5 5 5 5 5 6 5 5 > : : : : : : : : : : : : : : : : : : : : : : : > : > > > > : : : : : : : : : : : : : : : : : : : : : : : : : : : : : : : : : : : : : : : : : : : : : : : : : : : : : : : : : : : : : : : : > > : : : > > > : > > > > > : > > > > > : : : : : : : > > > > 5 5 5 5 6 5 5 5 5 5 5 5 5 5 5 5 5 5 5 5 5 5 5 5 5 5 5 5 5 6 o.o.o.o.O.O.O.O.O.O.O.O.O.O.O.O.O.O.O.O.O.O.O.O.O.O.O.O.o.o.o.0 6 5 5 5 > > > > > > 5 > 5 > 5 > 5 > 5 > 5 > 5 9 5 5 5 5 9 > > < : : : : # # # # : : : : : : : : : : : : : : : # # # : : : > 5 0 @.o.o.O.O.O.O.O.O.O.O.O.O.O.O.O.O.O.O.O.O.O.O.O.O.O.O.O.O.O.O.O.O.O.O.O.O.O.O.O.O.O.O.O.O.O.O.O.O.O.O.O.O.O.O.O.O.O.o.o.6 5 5 > 5 > > > > 5 5 5 5 5 5 5 5 5 5 5 5 5 5 5 5 5 5 5 5 5 5 > > > > > > : > > > > > > > > > > > > > > > > > > > > > > > > ",
"~.m.$.O.O.O.o.+.@.O.O.O.o.O.O.O.O.O.O.O.O.O.O.O.O.O.O.O.O.O.O.O.O.O.O.O.O.O.O.O.O.O.O.O.O.O.O.O.O.O.O.O.O.O.O.O.O.O.O.O.O.O.O.o.6 6 6 6 6 6 5 5 6 6 6 6 6 6 6 5 5 5 5 6 6 6 6 6 6 5 5 5 5 5 6 6 5 5 5 5 5 5 5 5 5 5 5 5 5 5 5 5 5 5 5 5 5 5 5 5 5 6 6 5 5 > > : : > : : > > > > : : : : > > > : : : : : > > > > > > > > : : : : : : : : > > > > : : : : > > : > : : : : : : > : > : : : : : : : : : : : : : : : : : : : : : : : : : : : : : : : : : : > > > > > > > > > > > > > > > > > > > > > : : : : : : > > > 5 5 5 6 6 6 6 6 6 6 6 6 6 6 6 6 6 6 6 6 6 6 6 5 5 5 6 6 6 6 6 o.o.O.O.O.O.%.O.O.O.O.O.O.O.O.O.O.O.O.O.O.O.O.O.O.%.%.%.O.O.o.@.6 6 5 5 > > > > > > 5 > 5 > 5 > 5 > 5 > 5 > 5 5 5 5 5 5 5 5 > > : : : : # # # # : : : : : : : : : : : : : : : # # # : : : > 5 @.@.O.O.O.%.%.%.%.O.O.O.O.O.O.O.O.O.O.O.O.O.O.O.O.O.O.O.O.O.O.O.O.O.O.O.O.O.O.O.O.O.O.O.O.O.O.O.O.O.O.O.O.O.O.O.O.O.O.O.o.o.6 5 5 5 > > > > 5 5 5 5 5 5 5 5 5 5 5 5 5 5 5 5 5 5 5 5 5 5 > > > : : > > > > > > > > > > > > > > > > > > > > > > > > > > ",
"~.m.8 O.O.O.o.+.o.O.O.O.o.o.O.O.O.O.O.O.O.O.O.O.O.O.O.O.O.O.O.O.O.O.O.O.O.O.O.O.O.O.O.O.O.O.O.O.O.O.O.O.O.O.O.O.O.O.O.O.O.o.o.o.6 5 6 5 6 5 5 5 6 5 6 5 6 5 6 5 5 5 5 6 6 6 6 6 6 6 5 5 5 6 6 6 5 5 5 5 5 5 5 5 5 5 5 5 5 5 5 5 5 9 5 5 5 5 5 5 5 5 5 5 5 > : : : > : : : : > > : : : : > > > : : : : : > > > > > > > > : : : : : : > : > : > : > : > : > : > > > > > : : : : : : : : : : : : : : : : : : : : : : : : : : : : : : : : : : : : : : : : : > > > > > > > > > > > > > > > > > > > > : : : : : > > > 5 5 5 5 6 6 6 6 6 5 6 5 6 5 6 5 6 5 6 5 6 5 6 5 6 5 5 5 5 5 6 6 o.o.O.O.O.O.%.O.O.O.O.O.O.O.O.O.O.O.O.O.O.O.O.O.O.%.%.%.%.O.o.@.6 6 5 5 5 5 5 9 5 5 5 5 5 5 5 5 5 5 5 5 5 5 5 5 5 5 5 5 5 > > > : : : : # # # # : : : : : : : : : : : : : : : # # # 1 : : > 5 6 o.O.O.O.O.%.%.O.O.O.O.O.O.O.O.O.O.O.O.O.O.O.O.O.O.O.O.O.O.O.O.O.O.O.O.O.O.O.O.O.o.o.o.o.o.o.o.o.o.o.o.o.O.o.o.O.O.O.O.O.o.6 5 5 5 5 5 5 5 5 5 5 5 5 5 5 5 5 5 5 5 5 5 5 5 5 5 5 5 5 > > > > > : : : : : > > > > > > > > > > > > > > > > > > > > > > ",
"~.m.@.#.%.O.o.o.O.O.O.O.o.o.O.O.O.O.O.O.O.O.O.O.O.O.O.O.O.O.O.O.O.O.O.O.O.O.O.O.O.O.O.O.O.O.O.O.O.O.O.O.O.O.O.O.O.O.O.O.O.O.o.o.6 5 6 5 6 5 6 5 6 5 6 5 6 5 6 5 5 5 5 6 6 6 6 6 5 5 5 5 5 5 6 6 5 5 5 5 5 5 5 5 5 5 5 5 5 5 5 5 5 5 5 5 5 5 5 5 5 5 5 5 5 > > : : : : : : : : : : : : : : : : : : : : : : > > > > > > > : : : : : : > : > : > : > : > : > : > > > > > : : : : : : : : : : : : : : : : : : : : : : : : : : : : : : : : : : : : : : : : : : > : > : > > : > : > : > > > > > > > : : : : : > > > > > 5 5 5 5 6 6 6 6 5 6 5 6 5 6 5 6 5 6 5 6 5 6 6 6 5 5 5 5 5 6 6 o.O.O.O.O.O.O.O.O.O.O.O.O.O.O.O.O.O.O.O.O.O.O.O.O.O.O.O.O.O.O.@.o.5 5 5 > > > 9 > > > > > > > > > > > > 5 5 > 5 5 5 5 5 > > > > : : : : : # # # # : : : : : : : : : : : : : : : # # : : : > 5 0 @.O.O.O.O.O.O.O.O.O.O.O.O.O.O.O.O.O.O.O.O.O.O.O.O.O.O.O.O.O.O.O.O.O.O.O.O.O.O.O.O.O.O.O.O.O.O.O.O.O.O.O.O.O.O.O.O.O.O.o.o.6 5 5 5 5 5 5 5 5 5 5 5 5 5 5 5 5 5 5 5 5 5 5 5 5 5 5 5 5 5 > > > > > : > > > > > > > > > > > > > > > > > > > > > > > > > ",
"~.m.@.#.%.O.o.o.O.O.O.O.o.o.O.O.O.O.O.O.O.O.O.O.O.O.O.O.O.O.O.O.O.O.O.O.O.O.O.O.O.O.O.O.O.O.O.O.O.O.O.O.O.O.O.O.O.O.O.O.O.O.o.6 6 5 5 5 5 5 5 5 5 5 5 5 5 5 5 5 5 5 5 5 5 5 5 5 5 5 5 5 5 5 5 5 5 5 5 5 5 5 5 5 5 5 5 5 5 5 5 5 5 5 5 5 5 5 5 5 5 5 5 5 5 > > : : : : : : : : : : : : : : : : : : : : : : : : : : : : : : : : : : : : : : : : : : : : : : : : : > > : : : : : : : : : : : : : : : : : : : : : : : : : : : : : : : : : : : : : : : : : : : , : > > > : > : : : : : : > > > > : : > > > > > > > > > > 5 9 5 5 6 6 5 5 5 5 5 5 5 5 5 5 5 5 5 5 5 5 6 5 5 5 5 5 5 6 o.O.O.O.O.O.O.o.O.O.O.O.O.O.O.O.O.O.O.O.O.O.O.O.O.O.O.O.O.O.O.@.o.5 > > > > > 5 > > > 5 > > > > > > > > 5 5 5 > 5 5 > > > > > > : : : : : : : # : : : : : : : : : : : : : : : : # # : : : : 5 0 @.O.O.O.O.O.o.o.O.O.O.O.O.O.O.O.O.O.O.O.O.O.O.O.O.O.O.O.O.O.O.O.O.O.O.O.O.O.O.O.O.O.O.O.O.O.O.O.O.O.O.O.O.O.O.O.O.O.O.o.o.6 5 5 5 5 5 5 5 5 5 5 5 5 5 5 5 5 5 5 5 5 5 5 5 5 5 5 5 5 5 > > > > > : : > > > > > > > > > > > > > > > > > > > > > > > > ",
"~.m.@.#.%.O.o.o.O.O.O.O.O.o.O.O.O.O.O.O.O.O.O.O.O.O.O.O.O.O.O.O.O.O.O.O.O.O.O.O.O.O.O.O.O.O.O.O.O.O.O.O.O.O.O.O.O.O.O.O.O.o.o.6 6 5 5 5 5 5 5 5 5 5 5 5 5 5 5 5 5 5 5 5 5 5 5 5 5 5 5 5 5 5 5 5 5 5 5 5 5 5 5 5 5 5 5 5 5 5 5 5 5 5 5 5 5 5 5 5 5 5 5 5 5 > > : : : : : : : : : : : : : : : : : : : : : : : : : : : : : : : : : : : : : : : : : : : : : : : : : > > : : : : : : : : : : : : : : : : : : : : : : : : : : : : : : : : : : : : : : : : : : : , > > > > > > > > : : : : : : > > > : > > > > : > : : > > 5 9 5 5 6 6 5 5 5 5 5 5 5 5 5 5 5 5 5 5 5 5 6 5 5 5 5 5 5 6 o.O.O.O.O.o.O.o.O.O.O.O.O.O.O.O.O.O.O.O.O.O.O.O.O.O.O.O.O.O.O.@.0 5 > > > > > 5 > > 5 5 5 5 > > > 5 > > 5 5 > > 5 5 > > > > > > : : : : : : # # : : : : : : : : : : : : : : : : # # : : : : 5 6 @.O.O.O.O.O.O.o.O.O.O.O.O.O.O.O.O.O.O.O.O.O.O.O.O.O.O.O.O.O.O.O.O.O.O.O.O.O.O.O.O.O.O.O.O.O.O.O.O.O.O.O.O.O.O.O.O.O.O.o.o.6 5 5 5 5 5 5 5 5 5 5 5 5 5 5 5 5 5 5 5 5 5 5 5 5 5 5 5 5 5 > > > > > : : > > > > > > > > > > > > > > > > > > > > > > > > ",
"~.m.@.#.%.O.o.o.O.O.O.O.O.o.O.O.O.O.O.O.O.O.O.O.O.O.O.O.O.O.O.O.O.O.O.O.O.O.O.O.O.O.O.O.O.O.O.O.O.O.O.O.O.O.O.O.O.O.O.O.O.o.o.6 6 5 5 5 5 5 5 5 5 5 5 5 5 5 5 5 5 5 5 5 5 5 5 5 5 5 5 5 5 5 5 5 5 5 5 5 5 5 5 5 5 5 5 5 5 5 5 5 5 5 5 5 5 5 5 5 5 5 5 5 5 > > : : : : : : : : : : : : : : : : : : : : : : : : : : : : : : : : : : : : : : : : : : : : : : : : : > > : : : : : : : : : : : : : : : : : : : : : : : : : : : : : : : : : : : : : : : : : : : < > > > > > > > > > > : : : : > > : : > > > > : : : : > > 5 9 5 5 6 6 5 5 5 5 5 5 5 5 5 5 5 5 5 5 5 5 6 5 5 5 5 5 5 6 o.o.O.O.O.o.O.o.O.O.O.O.O.O.O.O.O.O.O.O.O.O.O.O.O.O.O.O.O.O.O.@.0 5 > > > > > 5 > > 5 5 5 5 > > 5 5 > > > > > > 5 5 > > > > > > : : : : : : # # : : : : : : : : : : : : : : : : # # : : : > 5 6 @.O.O.O.O.O.O.O.O.O.O.O.O.O.O.O.O.O.O.O.O.O.O.O.O.O.O.O.O.O.O.O.O.O.O.O.O.O.O.O.O.O.O.O.O.O.O.O.O.O.O.O.O.O.O.O.O.O.O.o.o.6 5 5 5 5 5 5 5 5 5 5 5 5 5 5 5 5 5 5 5 5 5 5 5 5 5 5 5 5 5 > > > > > > > > > > > > > > > > > > > > > > > > > > > > > > > ",
"~.m.@.O.%.O.o.o.O.O.O.O.O.o.O.O.O.O.O.O.O.O.O.O.O.O.O.O.O.O.O.O.O.O.O.O.O.O.O.O.O.O.O.O.O.O.O.O.O.O.O.O.O.O.O.O.O.O.O.O.O.o.o.6 6 5 5 5 5 5 5 5 5 5 5 5 5 5 5 5 5 5 5 5 5 5 5 5 5 5 5 5 5 5 5 5 5 5 5 5 5 5 5 5 5 5 5 5 5 5 5 5 5 5 5 5 5 5 5 5 5 5 5 5 5 > > : : : : : : : : : : : : : : : : : : : : : : : : : : : : : : : : : : : : : : : : : : : : : : : : : > : : : : : : : : : : : : : : : : : : : : : : : : : : : : : : : : : : : : : : : : : : > > < > : > > > > > > > > > > > : : : : : > > : > > > : : > > 5 9 5 5 5 6 5 5 5 5 5 5 5 5 5 5 5 5 5 5 5 5 6 5 5 5 5 5 5 6 o.O.O.O.O.O.o.o.O.O.O.O.O.O.O.O.O.O.O.O.O.O.O.O.O.O.O.O.O.O.O.@.0 5 5 > > > > 5 > > 5 5 5 5 5 > 5 5 5 5 > > > > 5 5 > > > > > > : : : : # # # # : : : : : : : : : : : : : : : : # # : : : > 5 6 @.O.O.O.O.O.o.o.O.O.O.O.O.O.O.O.O.O.O.O.O.O.O.O.O.O.O.O.O.O.O.O.O.O.O.O.O.O.O.O.O.O.O.O.O.O.O.O.O.O.O.O.O.O.O.O.O.O.O.o.o.6 5 5 5 5 5 5 5 5 5 5 5 5 5 5 5 5 5 5 5 5 5 5 5 5 5 5 5 5 5 > > > > : > : > > > > > > > > > > > > > > > > > > > > > > > > ",
"~.m.@.O.%.O.o.o.O.O.O.O.O.o.O.O.O.O.O.O.O.O.O.O.O.O.O.O.O.O.O.O.O.O.O.O.O.O.O.O.O.O.O.O.O.O.O.O.O.O.O.O.O.O.O.O.O.O.O.O.O.o.o.o.6 5 5 5 5 5 5 5 5 5 5 5 5 5 5 5 5 5 5 5 5 5 5 5 5 5 5 5 5 5 5 5 5 5 5 5 5 5 5 5 5 5 5 5 5 5 5 5 5 5 5 5 5 5 5 5 5 5 5 5 5 > > : : : : : : : : : : : : : : : : : : : : : : : : : : : : : : : : : : : : : : : : : : : : : : : : : > : : : : : : : : : : : : : : : : : : : : : : : : : : : : : : : : : : : : : : : : : : > : < > > > > > > > > > > > > > > : : : > > > : : > > : > > > 5 6 5 5 6 6 5 5 5 5 5 5 5 5 5 5 5 5 5 5 5 5 6 5 5 5 5 5 5 6 o.o.O.O.O.O.o.o.O.O.O.O.O.O.O.O.O.O.O.O.O.O.O.O.O.O.O.O.O.O.O.@.o.5 5 > > > > 5 > > 5 5 5 5 > > 5 5 > > > > > > 5 5 > > > > > > : : : : # : # # : : : : : : : : : : : : : : : : # # : : : > 5 6 @.O.O.O.O.O.o.o.O.O.O.O.O.O.O.O.O.O.O.O.O.O.O.O.O.O.O.O.O.O.O.O.O.O.O.O.O.O.O.O.O.O.O.O.O.O.O.O.O.O.O.O.O.O.O.O.O.O.O.o.o.6 5 5 5 5 5 5 5 5 5 5 5 5 5 5 5 5 5 5 5 5 5 5 5 5 5 5 5 5 5 > > > > : > > > > > > > > > > > > > > > > > > > > > > > > > > ",
"~.m.@.O.%.O.o.o.O.O.O.O.o.o.O.O.O.O.O.O.O.O.O.O.O.O.O.O.O.O.O.O.O.O.O.O.O.O.O.O.O.O.O.O.O.O.O.O.O.O.O.O.O.O.O.O.O.O.O.O.O.o.o.o.6 5 5 5 5 5 5 5 5 5 5 5 5 5 5 5 5 5 5 5 5 5 5 5 5 5 5 5 5 5 5 5 5 5 5 5 5 5 5 5 5 5 5 5 5 5 5 5 5 5 5 5 5 5 5 5 5 5 5 5 5 > > : : : : : : : : : : : : : : : : : : : : : : : : : : : : : : : : : : : : : : : : : : : : : : : : : : : : : : : : : : : : : : : : : : : : : : : : : : : : : : : : : : : : : : : : : : : : > : < > > > > : : : : > : > > > > : : > > > > : : > > > > > > 5 6 5 5 6 6 5 5 5 5 5 5 5 5 5 5 5 5 5 5 5 5 6 5 5 5 5 5 5 6 o.O.O.O.O.O.O.o.O.O.O.O.O.O.O.O.O.O.O.O.O.O.O.O.O.O.O.O.O.O.O.@.0 5 5 5 > > > 5 > > 5 5 5 5 > > > > > > 5 5 5 5 > > > > > > > : : : : : : : : : : : : : : : : : : : : : : : : : : # : : : > 5 0 @.O.O.O.O.O.o.o.O.O.O.O.O.O.O.O.O.O.O.O.O.O.O.O.O.O.O.O.O.O.O.O.O.O.O.O.O.O.O.O.O.O.O.O.O.O.O.O.O.O.O.O.O.O.O.O.O.O.O.o.o.6 5 5 5 5 5 5 5 5 5 5 5 5 5 5 5 5 5 5 5 5 5 5 5 5 5 5 5 5 5 > > > > : : > > > > > > > > > > > > > > > > > > > > > > > > > ",
"~.m.@.O.%.O.o.o.O.O.O.O.o.o.O.O.O.O.O.O.O.O.O.O.O.O.O.O.O.O.O.O.O.O.O.O.O.O.O.O.O.O.O.O.O.O.O.O.O.O.O.O.O.O.O.O.O.O.O.O.O.o.o.6 6 5 5 5 5 5 5 5 5 5 5 5 5 5 5 5 5 5 5 5 5 5 5 5 5 5 5 5 5 5 5 5 5 5 5 5 5 5 5 5 5 5 5 5 5 5 5 5 5 5 5 5 5 5 5 5 5 5 5 5 > > > : : : : : : : : : : : : : : : : : : : : : : : : : : : : : : : : : : : : : : : : : : : : : : : : : : : : : : : : : : : : : : : : : : : : : : : : : : : : : : : : : : : : : : : : : : : : > : < > : > > : : : : : : > > > > : : > > > > : : > > > > > > 5 6 5 5 6 6 5 5 5 5 5 5 5 5 5 5 5 5 5 5 5 5 6 5 5 5 5 5 5 6 o.O.O.O.O.O.O.o.O.O.O.O.O.O.O.O.O.O.O.O.O.O.O.O.O.O.O.O.O.O.O.@.o.5 5 5 > > > 5 > > 5 5 5 > > > > > > > 5 5 5 5 5 > > > > > > : : : : : : : : : : : : : : : : : : : : : : : : : : # : : : > 5 0 o.O.O.O.O.O.o.o.O.O.O.O.O.O.O.O.O.O.O.O.O.O.O.O.O.O.O.O.O.O.O.O.O.O.O.O.O.O.O.O.O.O.O.O.O.O.O.O.O.O.O.O.O.O.O.O.O.O.O.o.o.6 5 5 5 5 5 5 5 5 5 5 5 5 5 5 5 5 5 5 5 5 5 5 5 5 5 5 5 5 5 > > > > : : : > > > > > > > > > > > > > > > > > > > > > > > > ",
"Q.0.@.O.%.O.o.o.O.O.#.O.o.o.O.O.O.O.O.O.O.O.O.O.O.O.O.O.O.O.O.O.O.O.O.O.O.O.O.O.O.O.O.O.O.O.O.O.O.O.O.O.O.O.O.O.O.O.O.O.O.o.o.6 6 5 5 5 5 5 5 5 5 5 5 5 5 5 5 5 5 5 5 5 5 5 5 5 5 5 5 5 5 5 5 5 5 5 5 5 5 5 5 5 5 5 5 5 5 5 5 5 5 5 5 5 5 5 5 5 5 5 5 > 5 > > : : : : : : : : : : : : : : : : : : : : : : : : : : : : : : : : : : : : : : : : : : : : : : : : : : > : : : : : : : : : : : : : : : : : : : : : : : : : : : : : : : : : : : : : : : : : : : < > > > : : : : : : : : > > > > > > > > > > > > > : : > > 5 6 5 5 5 5 5 5 5 5 5 5 5 5 5 5 5 5 5 5 5 5 6 5 5 5 5 5 5 6 o.O.O.O.O.O.O.o.O.O.O.O.O.O.O.O.O.O.O.O.O.O.O.O.O.O.O.O.O.O.O.@.o.5 5 > > > > 5 > > 5 5 5 5 > > 5 5 5 5 > > > 5 5 5 > > > > > > : : : : # # : : : : : : : : : : : : : : : : : : : # : : : > 5 0 @.O.O.O.O.O.O.O.O.O.O.O.O.O.O.O.O.O.O.O.O.O.O.O.O.O.O.O.O.O.O.O.O.O.O.O.O.O.O.O.O.O.O.O.O.O.O.O.O.O.O.O.O.O.O.O.O.O.O.o.o.6 5 5 5 5 5 5 5 5 5 5 5 5 5 5 5 5 5 5 5 5 5 5 5 5 5 5 5 5 5 > > > > > > : > > > > > > > > > > > > > > > > > > > > > > > > ",
"Q.0.@.O.%.O.o.o.O.O.#.O.O.o.O.O.O.O.O.O.O.O.O.O.O.O.O.O.O.O.O.O.O.O.O.O.O.O.O.O.O.O.O.O.O.O.O.O.O.O.O.O.O.O.O.O.O.O.O.O.O.o.o.6 6 5 5 5 5 5 5 5 5 5 5 5 5 5 5 5 5 5 5 5 5 5 5 5 5 5 5 5 5 5 5 5 5 5 5 5 5 5 5 5 5 5 5 5 5 5 5 5 5 5 5 5 5 5 5 5 5 5 5 5 5 > > : : : : : : : : : : : : : : : : : : : : : : : : : : : : : : : : : : : : : : : : : : : : : : : : : > > : : : : : : : : : : : : : : : : : : : : : : : : : : : : : : : : : : : : : : : : : : : < > > > > : : : : : : : > > > > > > > > > > > > : : : > > 5 6 5 5 5 5 5 5 5 5 5 5 5 5 5 5 5 5 5 5 5 5 6 5 5 5 5 5 5 6 o.O.O.O.O.O.O.o.O.O.O.O.O.O.O.O.O.O.O.O.O.O.O.O.O.O.O.O.O.O.O.@.o.5 > > > > > 5 > > 5 5 5 5 > > 5 5 5 5 > > > > 5 5 > > > > > > : : : : # # # # : : : : : : : : : : : : : : : : # # : : : > 5 0 @.O.O.O.O.O.O.O.O.O.O.O.O.O.O.O.O.O.O.O.O.O.O.O.O.O.O.O.O.O.O.O.O.O.O.O.O.O.O.O.O.O.O.O.O.O.O.O.O.O.O.O.O.O.O.O.O.O.O.o.o.6 5 5 5 5 5 5 5 5 5 5 5 5 5 5 5 5 5 5 5 5 5 5 5 5 5 5 5 5 5 > > > > : > : > > > > > > > > > > > > > > > > > > > > > > > > ",
"Q.0.@.O.%.O.o.o.O.O.#.O.O.o.O.O.O.O.O.O.O.O.O.O.O.O.O.O.O.O.O.O.O.O.O.O.O.O.O.O.O.O.O.O.O.O.O.O.O.O.O.O.O.O.O.O.O.O.O.O.O.o.o.6 6 5 5 5 5 5 5 5 5 5 5 5 5 5 5 5 5 5 5 5 5 5 5 5 5 5 5 5 5 5 5 5 5 5 5 5 5 5 5 5 5 5 5 5 5 5 5 5 5 5 5 5 5 5 5 5 5 5 5 5 5 > > : : : : : : : : : : : : : : : : : : : : : : : : : : : : : : : : : : : : : : : : : : : : : : : : : > > : : : : : : : : : : : : : : : : : : : : : : : : : : : : : : : : : : : : : : : : : : : , > > > : : : > : > > > > > > > > : : > > > > > > : : > > 5 6 5 5 5 5 5 5 5 5 5 5 5 5 5 5 5 5 5 5 5 5 6 5 5 5 5 5 5 6 o.O.O.O.O.O.O.o.O.O.O.O.O.O.O.O.O.O.O.O.O.O.O.O.O.O.O.O.O.O.O.@.0 5 > > > > > 5 > > > 5 > > > > > > > > > > > > 5 5 > > > > > > : : : : # # # # : : : : : : : : : : : : : : : : # # : : : : 5 0 @.O.O.O.O.O.O.O.O.O.O.O.O.O.O.O.O.O.O.O.O.O.O.O.O.O.O.O.O.O.O.O.O.O.O.O.O.O.O.O.O.O.O.O.O.O.O.O.O.O.O.O.O.O.O.O.O.O.O.o.o.6 6 5 5 5 5 5 5 5 5 5 5 5 5 5 5 5 5 5 5 5 5 5 5 5 5 5 5 5 5 > > > > : > > > > > > > > > > > > > > > > > > > > > > > > > > ",
"Q.u.@.O.%.O.o.o.O.O.#.O.O.o.O.O.O.O.O.O.O.O.O.O.O.O.O.O.O.O.O.O.O.O.O.O.O.O.O.O.O.O.O.O.O.O.O.O.O.O.O.O.O.O.O.O.O.O.O.O.O.o.o.6 6 5 5 5 5 5 5 5 5 5 5 5 5 5 5 5 5 5 5 5 5 5 5 5 5 5 5 5 5 5 5 5 5 5 5 5 5 5 5 5 5 5 5 5 5 5 5 5 5 5 5 5 5 5 5 5 5 5 5 5 5 > > : : : : : : : : : : : : : : : : : : : : : : : : : : : : : : : : : : : : : : : : : : : : : : : : : > > : : : : : : : : : : : : : : : : : : : : : : : : : : : : : : : : : : : : : : : : : : : , > > > : : : > > > > > > > > : : : : > > > > > > : : > > 5 6 5 5 5 9 5 5 5 5 5 5 5 5 5 5 5 5 5 5 5 5 6 5 5 5 5 5 5 6 o.O.O.O.O.o.o.o.O.O.O.O.O.O.O.O.O.O.O.O.O.O.O.O.O.O.O.O.O.O.O.@.o.5 > > > > > 5 > > > > > > > > > > > > > > > > 5 5 > > > > > > : : : : # # # # : : : : : : : : : : : : : : : : # # : : : : 5 0 @.O.O.O.O.O.O.O.O.O.O.O.O.O.O.O.O.O.O.O.O.O.O.O.O.O.O.O.O.O.O.O.O.O.O.O.O.O.O.O.O.O.O.O.O.O.O.O.O.O.O.O.O.O.O.O.O.O.O.o.o.6 6 5 5 5 5 5 5 5 5 5 5 5 5 5 5 5 5 5 5 5 5 5 5 5 5 5 5 5 5 > > > > : : : > > > > > > > > > > > > > > > > > > > > > > > > ",
"Q.u.@.#.%.O.o.o.O.O.O.O.o.o.O.O.O.O.O.O.O.O.O.O.O.O.O.O.O.O.O.O.O.O.O.O.O.O.O.O.O.O.O.O.O.O.O.O.O.O.O.O.O.O.O.O.O.O.O.O.O.O.o.o.6 5 5 5 5 5 5 5 5 5 5 5 5 5 5 5 5 5 5 5 5 5 5 5 5 5 5 5 5 5 5 5 5 5 5 5 5 5 5 5 5 5 5 5 5 5 5 5 5 5 5 5 5 5 5 5 5 5 5 5 5 > > : : : : : : : : : : : : : : : : : : : : : : : : : : : : : : : : : : : : : : : : : : : : : : : : : > > : : : : : : : : : : : : : : : : : : : : : : : : : : : : : : : : : : : : : : : : : > : < > > > > : : : : > > > : > > > > : : > > : : > > > : > > 5 9 5 5 6 6 5 5 5 5 5 5 5 5 5 5 5 5 5 5 5 5 6 5 5 5 5 5 5 6 o.O.O.O.O.o.O.o.O.O.O.O.O.O.O.O.O.O.O.O.O.O.O.O.O.O.O.O.O.O.O.@.o.5 > > > > > 5 5 > > > > 5 5 5 > > > > > > > > 5 5 > > > > > : : : : : # # # # : : : : : : : : : : : : : : : : # # : : : : 5 6 @.O.O.O.O.O.o.o.O.O.O.O.O.O.O.O.O.O.O.O.O.O.O.O.O.O.O.O.O.O.O.O.O.O.O.O.O.O.O.O.O.O.O.O.O.O.O.O.O.O.O.O.O.O.O.O.O.O.O.o.o.6 5 5 5 5 5 5 5 5 5 5 5 5 5 5 5 5 5 5 5 5 5 5 5 5 5 5 5 5 5 > > > > > : > > > > > > > > > > > > > > > > > > > > > > > > > ",
"Q.u.@.#.%.O.o.o.O.O.O.O.o.o.O.O.O.O.O.O.O.O.O.O.O.O.O.O.O.O.O.O.O.O.O.O.O.O.O.O.O.O.O.O.O.O.O.O.O.O.O.O.O.O.O.O.O.O.O.O.O.O.o.o.6 5 5 5 5 5 5 5 5 5 5 5 5 5 5 5 5 5 5 5 5 5 5 5 5 5 5 5 5 5 5 5 5 5 5 5 5 5 5 5 5 5 5 5 5 5 5 5 5 5 5 5 5 5 5 5 5 5 5 > 5 > > : : : : : : : : : : : : : : : : : : : : : : : : : : : : : : : : : : : : : : : : : : : : : : : : : > > : : : : : : : : : : : : : : : : : : : : : : : : : : : : : : : : : : : : : : : : : > : , > > > > : > : : > > : : > > > > : : > > : : > > > : > > 5 9 5 5 6 6 5 5 5 5 5 5 5 5 5 5 5 5 5 5 5 5 6 5 5 5 5 5 5 6 o.O.O.O.O.o.O.o.O.O.O.O.O.O.O.O.O.O.O.O.O.O.O.O.O.O.O.O.O.O.O.@.o.5 > > > > > 5 5 > > > > > 5 5 > 5 > > > > > > 5 5 > > > > > > : : : : # # # # : : : : : : : : : : : : : : : : # # : : : : 5 6 @.O.O.O.O.O.o.o.O.O.O.O.O.O.O.O.O.O.O.O.O.O.O.O.O.O.O.O.O.O.O.O.O.O.O.O.O.O.O.O.O.O.O.O.O.O.O.O.O.O.O.O.O.O.O.O.O.O.O.o.6 6 5 5 5 5 5 5 5 5 5 5 5 5 5 5 5 5 5 5 5 5 5 5 5 5 5 5 5 5 5 > > > > > > > > > > > > > > > > > > > > > > > > > > > > > > > ",
"Q.0.@.#.%.O.o.o.O.O.O.O.o.o.O.O.O.O.O.O.O.O.O.O.O.O.O.O.O.O.O.O.O.O.O.O.O.O.O.O.O.O.O.O.O.O.O.O.O.O.O.O.O.O.O.O.O.O.O.O.O.o.o.6 6 5 5 5 5 5 5 5 5 5 5 5 5 5 5 5 5 5 5 5 5 5 5 5 5 5 5 5 5 5 5 5 5 5 5 5 5 5 5 5 5 5 5 5 5 5 5 5 5 5 5 5 5 5 5 5 5 5 5 5 5 > > : : : : : : : : : : : : : : : : : : : : : : : : : : : : : : : : : : : : : : : : : : : : : : : : : > > : : : : : : : : : : : : : : : : : : : : : : : : : : : : : : : : : : : : : : : : : > : : : : > > > > : : > > : : : : > > > : > > : : > > > > > > 5 6 5 5 6 6 5 5 5 5 5 5 5 5 5 5 5 5 5 5 5 5 6 5 5 5 5 5 5 6 o.O.O.O.O.O.O.o.O.O.O.O.O.O.O.O.O.O.O.O.O.O.O.O.O.O.O.O.O.O.O.o.0 5 > > > > > 5 5 5 > > > > 5 5 5 5 5 5 > > > > 5 5 > > > > > > : : : : # # # # : : : : : : : : : : : : : : : : # # : : : > 5 6 @.O.O.O.O.O.o.o.O.O.O.O.O.O.O.O.O.O.O.O.O.O.O.O.O.O.O.O.O.O.O.O.O.O.O.O.O.O.O.O.O.O.O.O.O.O.O.O.O.O.O.O.O.O.O.O.O.O.O.o.6 6 5 5 5 5 5 5 5 5 5 5 5 5 5 5 5 5 5 5 5 5 5 5 5 5 5 5 5 5 5 > > > > > : : > > > > > > > > > > > > > > > > > > > > > > > > ",
"Q.0.@.O.O.O.o.o.O.O.O.O.O.o.O.O.O.O.O.O.O.O.O.O.O.O.O.O.O.O.O.O.O.O.O.O.O.O.O.O.O.O.O.O.O.O.O.O.O.O.O.O.O.O.O.O.O.O.O.O.o.o.o.6 6 5 5 5 5 5 5 5 5 5 5 5 5 5 5 5 5 5 5 5 5 5 5 5 5 5 5 5 5 5 5 5 5 5 5 5 5 5 5 5 5 5 5 5 5 5 5 5 5 5 5 5 5 5 5 5 5 5 5 5 > > : : : : : : : : : : : : : : : : : : : : : : : : : : : : : : : : : : : : : : : : : : : : : : : : : : > > : : : : : : : : : : : : : : : : : : : : : : : : : : : : : : : : : : : : : : : : : > : , : : > > > > : : > > : : : : > > > > > > > : > > : > > > 5 6 5 6 6 6 5 5 5 5 5 5 5 5 5 5 5 5 5 5 5 5 5 5 5 5 5 5 6 6 o.o.O.O.O.O.O.O.O.O.O.O.O.O.O.O.O.O.O.O.O.O.O.O.O.O.O.O.O.O.o.o.0 5 > > 5 > > 9 5 5 > > > > > 5 5 5 5 5 > > > 5 5 5 > > > > > > : : : : : # 1 : : : : : : : : : : : : : : : : : # # : : : > 5 6 @.O.O.O.O.O.o.o.O.O.O.O.O.O.O.O.O.O.O.O.O.O.O.O.O.O.O.O.O.O.O.O.O.O.O.O.O.O.O.O.O.O.O.O.O.O.O.O.O.O.O.O.O.O.O.O.O.O.O.o.6 6 5 5 5 5 5 5 5 5 5 5 5 5 5 5 5 5 5 5 5 5 5 5 5 5 5 5 5 5 5 > > > > > : : > > > > > > > > > > > > > > > > > > > > > > > > ",
"~.n.8 O.O.O.o.o.O.O.O.O.O.O.O.O.O.O.O.O.O.O.O.O.O.O.O.O.O.O.O.O.O.O.O.O.O.O.O.O.O.O.O.O.O.O.O.O.O.O.O.O.O.O.O.O.O.O.O.O.O.@.o.6 6 5 5 5 5 5 5 5 5 5 5 5 5 5 5 5 5 5 5 5 5 5 5 5 5 5 5 5 5 5 5 5 5 5 5 5 5 5 5 5 5 5 5 5 5 5 5 5 5 5 5 5 5 5 5 5 5 5 5 9 > > : : : : : : : : : : : : : : : : : : : : : : : : : : : : : : : : : : : : : : : : : : : : : : : : : : > > > > : : : : : : : : : : # : : : : : : : : : : : : : : : : : : : : : : : : : : : : : > > > : > > : : > > > > > > : : > > > > > > > > > > > > > > 5 6 5 6 6 6 5 5 5 5 5 5 5 5 5 5 5 5 5 5 5 5 5 5 5 5 5 6 6 6 o.o.@.o.o.O.O.O.O.O.O.O.O.O.O.O.O.O.O.O.O.O.O.O.O.O.O.o.o.o.@.@.6 5 > 5 5 > > > 5 > > > > > > > > > > > > > > > 5 5 > 5 > > > > : : : : 1 1 : 1 : : : : : : : : : : : : : : : : # # : : > > 5 o.o.o.O.O.O.O.o.o.O.O.O.O.O.O.O.O.O.O.O.O.O.O.O.O.O.O.O.O.O.O.O.O.O.O.O.O.O.O.O.O.O.O.O.O.O.O.O.O.O.O.O.O.O.O.O.O.O.O.O.o.o.6 5 5 5 5 5 5 5 5 9 5 5 5 5 5 5 5 5 5 5 5 5 5 5 5 5 5 5 5 5 > > > > > > > > > > > > > > > > > > > > > > > > > > > > > > > ",
"~.n.8 O.O.O.o.o.O.O.O.O.O.O.O.O.O.O.O.O.O.O.O.O.O.O.O.O.O.O.O.O.O.O.O.O.O.O.O.O.O.O.O.O.O.O.O.O.O.O.O.O.O.O.O.O.O.O.O.O.O.@.o.6 6 5 5 5 5 5 5 5 5 5 5 5 5 5 5 5 5 5 5 5 5 5 5 5 5 5 5 5 5 5 5 5 5 5 5 5 5 5 5 5 5 5 5 5 5 5 5 5 5 5 5 5 5 5 5 5 5 5 5 > > > : : : : : : : : : : : : : : : : : : : : : : : : : : : : : : : : : : : : : : : : : : : : : : : : : : > > > > : : : : : : : : : : # # : : : : : : : : : : : : : : : : : : : : : : : : : : : : > > 2 > > > : : > > > > > > > : > > > > > > > > > > > > > > 5 6 5 6 6 6 5 5 5 5 5 5 5 5 5 5 5 5 5 5 5 5 5 5 5 5 6 6 6 6 o.o.@.o.o.O.O.O.O.O.O.O.O.O.O.O.O.O.O.O.O.O.O.O.O.O.O.o.o.o.@.@.0 5 5 5 5 > > > 5 5 > > > > > > 5 > > > > > > > 5 5 > > > > > > : : : : : : : 1 1 : : : : : : : : : : : : : : : # # : : > > 5 o.o.o.O.O.O.O.O.O.O.O.O.O.O.O.O.O.O.O.O.O.O.O.O.O.O.O.O.O.O.O.O.O.O.O.O.O.O.O.O.O.O.O.O.O.O.O.O.O.O.O.O.O.O.O.O.O.O.O.O.o.o.6 5 5 5 5 5 5 5 5 9 5 5 5 5 5 5 5 5 5 5 5 5 5 5 5 5 5 5 5 5 > > > > > > > > > > > > > > > > > > > > > > > > > > > > > > > ",
"~.n.8 O.O.O.o.o.O.O.O.O.O.O.O.O.O.O.O.O.O.O.O.O.O.O.O.O.O.O.O.O.O.O.O.O.O.O.O.O.O.O.O.O.O.O.O.O.O.O.O.O.O.O.O.O.O.O.O.O.o.o.o.6 6 5 5 5 5 5 5 5 5 5 5 5 5 5 5 5 5 5 5 5 5 5 5 5 5 5 5 5 5 5 5 5 5 5 5 5 5 5 5 5 5 5 5 5 5 5 5 5 5 5 5 5 5 5 9 5 5 5 5 > > > : : : : : : : : : : : : : : : : : : : : : : : : : : : : : : : : : : : : : : : : : : : : : : : : : : : : : : : : : : : : : : : : : : : : : : : : : : : : : : : : : : : : : : : : : : : : : > > < > > : > : : > > : : > > : : > : : > > > > > > > > > > > 5 6 5 6 6 6 6 6 6 6 6 6 6 6 6 6 6 6 6 6 6 5 5 5 5 5 6 6 6 6 o.o.@.o.O.O.O.O.O.O.O.O.O.O.O.O.O.O.O.O.O.O.O.O.O.O.O.O.o.o.o.@.0 5 5 5 5 > > > > > > > > > 5 5 5 5 5 > 5 5 > > > > > > > > > > : : : : : # 1 1 # # # # # : : : # # # # # # # # # # : : > > 5 6 @.@.O.O.O.O.O.O.O.O.O.O.O.O.O.O.O.O.O.O.O.O.O.O.O.O.O.O.O.O.O.O.O.O.O.O.O.O.O.O.O.O.O.O.O.O.O.O.O.O.O.O.O.O.O.O.O.O.O.o.o.6 5 5 5 5 5 5 5 5 5 5 5 5 5 5 5 5 5 5 5 5 5 5 5 5 5 5 5 5 5 > > > > > : : > > > > > > > > > > > > > > > > > > > > > > > > ",
"~.n.$.O.O.O.o.o.O.O.%.O.O.O.O.O.O.O.O.O.O.O.O.O.O.O.O.O.O.O.O.O.O.O.O.O.O.O.O.O.O.O.O.O.O.O.O.O.O.O.O.O.O.O.O.O.O.O.O.O.O.o.o.6 6 5 5 9 5 5 5 5 5 5 5 5 9 9 5 5 5 5 5 5 5 5 5 9 5 5 5 5 5 5 5 5 5 5 5 5 5 5 5 5 5 5 5 5 5 5 5 5 5 5 5 5 5 5 5 5 5 5 5 > > > : : : : : : : : : : : : : : : : : : : : : : : : : : : : : : : : : : : : : : : : : : : : : : : : : : : : : : : : : : : : : : : : : # : : : : : : : : : : : : : : : : : : : : : : : : : : : > : > > > > > : : : : : : > > : : : : : : > > > > > > > > > > 5 6 5 5 6 6 6 6 6 6 6 6 6 6 6 6 6 6 6 6 6 5 5 5 5 5 6 6 6 6 o.o.o.O.O.O.O.O.O.O.O.O.O.O.O.O.O.O.O.O.O.O.O.O.O.O.O.O.O.o.@.o.6 5 5 5 5 > > > > > > > > > 5 5 5 5 5 5 5 5 5 5 > > > > > > > > : : : : # 1 1 1 # # # # # # : # # # # # # # # # # # : : > > 5 0 @.@.O.O.O.O.O.O.O.O.O.O.O.O.O.O.O.O.O.O.O.O.O.O.O.O.O.O.O.O.O.O.O.O.O.O.O.O.O.O.O.O.O.O.O.O.O.O.O.O.O.O.O.O.O.O.O.O.O.o.o.6 5 5 5 5 5 5 5 5 5 5 5 5 5 5 5 5 5 5 5 5 5 5 5 5 5 5 5 5 5 > > > > > : : > > > > > > > > > > > > > > > > > > > > > > > > ",
"~.m.@.O.%.O.o.o.O.O.%.O.O.O.O.O.O.O.O.O.O.O.O.O.O.O.O.O.O.O.O.O.O.O.O.O.O.O.O.O.O.O.O.O.O.O.O.O.O.O.O.O.O.O.O.O.O.O.O.O.O.O.o.o.6 9 9 9 9 9 9 9 9 9 9 9 9 9 9 9 9 9 9 9 9 9 9 9 9 9 9 9 9 9 9 9 5 5 5 5 5 5 5 5 5 5 5 5 5 5 5 5 5 5 5 5 5 9 9 9 5 5 5 > > > : : : : : : : : : : : : : : : : : : : : : : : : : : : : : : : : : : : : : : : : : : : : : : : : : : : : : : : : : : : : : : : : : : : : : : : : : : : : : : : : : : : : : : : : : : : : : > : < > > > : : : : : : : > : : : : : : : > > > > > > > > > > 5 9 5 6 6 6 6 6 6 6 6 6 6 6 6 6 6 6 6 6 6 5 5 5 5 5 6 6 6 6 o.o.O.O.O.O.O.O.O.O.O.O.O.O.O.O.O.O.O.O.O.O.O.O.O.O.O.O.O.O.o.o.6 5 5 5 5 > > > > 5 5 5 > > 5 5 5 5 5 5 5 5 5 5 5 5 5 > > > > > : : : : # # # 1 # # : : : # # # # # # # # # # # # # # : : > 5 0 @.@.O.O.O.O.O.O.O.O.O.O.O.O.O.O.O.O.O.O.O.O.O.O.O.O.O.O.O.O.O.O.O.O.O.O.O.O.O.O.O.O.O.O.O.O.O.O.O.O.O.O.O.O.O.O.O.O.O.o.o.6 5 5 5 5 5 5 5 5 5 5 5 5 5 5 5 5 5 5 5 5 5 5 5 5 5 5 5 5 5 > > > > : : > > > > > > > > > > > > > > > > > > > > > > > > > ",
"~.m.@.O.%.O.o.o.O.O.%.O.O.O.O.O.O.O.O.O.O.O.O.O.O.O.O.O.O.O.O.O.O.O.O.O.O.O.O.O.O.O.O.O.O.O.O.O.O.O.O.O.O.O.O.O.O.O.O.O.O.O.o.o.6 9 9 9 9 9 9 9 9 9 9 9 9 9 9 9 9 9 9 9 9 9 9 9 9 9 9 9 9 9 9 9 5 5 5 5 5 5 5 5 5 5 5 5 5 5 5 5 5 5 5 5 9 9 9 9 9 5 5 > > > > : : : : : : : : : : : : : : : : : : : : : : : : : : : : : : : : : : : : : : : : : : : : : : : : : : : : : : : : : : : : : : : : : : : : : : : : : : : : : : : : : : : : : : : : : : : : : : < > > > > : : : : : : : : : : : : : : > > > > > > > > > > 5 9 5 5 6 6 6 6 6 6 6 6 6 6 6 6 6 6 6 6 6 5 5 5 5 5 6 6 6 6 o.o.O.O.O.O.O.O.O.O.O.O.O.O.O.O.O.O.O.O.O.O.O.O.O.O.O.O.O.O.o.o.6 5 5 5 5 > > > 5 5 5 5 > > 5 5 5 5 5 5 5 5 5 5 5 5 5 5 > > > > : : : : # # # # # # : : # # # # # # # # # # 1 # * # # : : > 5 0 @.@.O.O.O.O.O.O.O.O.O.O.O.O.O.O.O.O.O.O.O.O.O.O.O.O.O.O.O.O.O.O.O.O.O.O.O.O.O.O.O.O.O.O.O.O.O.O.O.O.O.O.O.O.O.O.O.O.o.@.o.6 5 5 5 5 5 5 5 5 5 5 5 5 5 5 5 5 5 5 5 5 5 5 5 5 5 5 5 5 5 > > > > : : : > > > > > > > > > > > > > > > > > > > > > > > > ",
"~.n.@.O.O.O.o.o.O.O.O.O.o.o.O.O.O.O.O.O.O.O.O.O.O.O.O.O.O.O.O.O.O.O.O.O.O.O.O.O.O.O.O.O.O.O.O.O.O.O.O.O.O.O.O.O.O.O.O.O.O.O.o.o.6 6 6 6 6 6 6 6 6 6 6 6 6 6 6 6 6 6 6 6 6 6 6 6 6 6 6 6 6 9 6 9 9 5 5 5 5 5 5 5 5 5 5 5 5 5 5 5 5 5 5 5 5 5 9 9 9 5 5 5 > > > : : : : : : : : : : : : : : : : : : : : : : : : : : : : : : : : : : : : : : : : : : : : : : : : : : : : : : : : : : : : : : : : : : : : : : : : : : : : : : : : : : : : : : : : : : : : : > > > > : : : : > > > > > > : : > > > > > > > > > > > > > > 5 9 5 9 9 5 5 5 5 5 5 5 5 5 5 5 5 5 5 5 5 5 5 5 5 5 6 6 6 6 o.o.o.O.O.O.O.O.O.O.O.O.O.O.O.O.O.O.O.O.O.O.O.O.O.O.O.O.O.o.o.o.6 5 5 5 5 > > > 5 5 5 5 > > > 5 5 5 > 5 > > 5 > 5 5 5 5 > > > > : : : : # # # # # 1 1 1 # # # # # # : : 1 1 1 # # # # : : > 5 0 @.o.o.O.O.O.O.O.O.O.O.O.O.O.O.O.O.O.O.O.O.O.O.O.O.O.O.O.O.O.O.O.O.O.O.O.O.O.O.O.O.O.O.O.O.O.O.O.O.O.O.O.O.O.O.O.O.O.o.@.o.6 6 5 5 5 5 5 5 5 5 5 5 5 5 5 5 5 5 5 5 5 5 5 5 5 5 5 5 5 5 > > > > > > > > > > > > > > > > > > > > > > > > > > > > > > > ",
"~.N.$.O.O.O.o.+.o.O.O.O.@.o.O.O.O.o.o.o.o.o.o.o.o.o.o.o.o.O.o.o.o.o.o.o.o.o.o.o.o.o.o.o.O.o.o.o.o.o.o.o.o.o.O.O.o.o.o.o.o.o.o.o.6 6 6 6 6 6 6 6 6 6 6 6 6 6 6 6 6 6 6 6 6 6 6 6 6 6 6 6 6 9 6 6 9 9 9 9 9 9 9 9 9 9 9 9 9 9 9 5 5 5 5 5 5 5 5 9 9 9 5 5 5 > > > > : : : : : : : : : : : : : : : : : : : : : : : : : : : : : : : : : : : : : : : : : : : : : : : : : : : : : : : : : : : : : : : : : : : : : : : : : : : : : : : : : : : : : : : : : : : > > > > > > > : > > > > > > > : > > > > > > > > > > > > > > 9 9 9 9 5 5 5 5 5 5 5 5 5 5 5 5 5 5 5 5 5 5 5 5 5 5 5 5 6 6 6 o.o.o.o.O.O.O.O.o.o.o.o.o.o.O.O.O.o.o.o.o.o.O.O.O.O.O.o.o.o.o.6 5 5 5 5 > > 9 5 5 5 5 > > > 5 5 5 > > > > > > 5 5 5 5 > > > > : : : : : # : : 1 1 1 1 : : : : : : : : 1 1 1 1 # # # : : > 5 0 @.@.o.O.O.O.O.O.O.O.O.O.O.O.O.O.O.O.O.O.O.O.O.O.O.O.O.O.O.O.O.O.O.O.O.O.O.O.O.O.O.O.O.O.O.O.O.O.O.O.O.O.O.O.O.O.o.O.o.@.6 6 6 5 5 5 5 5 5 5 5 5 5 5 5 5 5 5 5 5 5 5 5 5 5 5 5 5 5 5 5 > > > > > > > > > > > > > > > > > > > > > > > > > > > > > > > ",
"].N.y #.O.o.6 +.@.o.#.#.@.@.o.o.@.o.@.o.@.o.@.o.@.o.@.o.@.@.@.o.@.o.@.o.@.o.@.o.@.o.@.o.@.o.@.o.@.o.@.o.@.o.@.o.@.@.@.o.@.o.o.6 6 5 6 5 6 5 6 5 6 5 6 5 6 6 6 5 6 6 6 5 6 5 5 5 6 5 6 5 6 5 6 5 5 5 5 5 5 5 5 5 5 5 5 5 5 5 5 5 5 5 5 5 5 5 5 5 5 5 9 9 5 > > > > : : : : : : : > > : : : : : : : : : : : : : > : : : : : : : : : : : : : : : : : : : : : : : : : : : : : : : : : : : : : : : : : : : : : : : : : : : : : : : : : : : : : : > > > > > > > > > > > > > > > > > > > > > > > > > > > > > > > > > > > 9 9 9 9 9 9 9 5 5 5 5 5 5 5 5 5 5 5 5 5 5 5 5 5 5 5 5 5 5 5 6 0 0 @.@.o.o.o.o.@.o.@.o.@.o.@.o.@.o.@.o.@.@.@.o.o.O.o.o.o.o.o.0 6 5 5 5 5 9 5 > > 5 5 5 5 5 5 5 5 5 5 5 5 5 5 5 5 5 5 5 > > > > : : : : : # : # : : : : : : : : : : : : : : : # # # : : : > 5 0 0 @.o.o.o.O.O.O.o.o.o.o.o.o.o.o.o.o.o.o.o.o.o.o.o.o.o.o.o.o.o.o.o.o.o.o.o.o.o.o.o.o.o.o.o.o.o.o.o.o.o.o.o.o.o.o.@.@.@.@.0 6 5 5 5 5 5 5 5 5 5 5 5 5 5 5 5 5 5 5 5 5 5 5 5 5 5 5 5 5 5 5 > > > > > > > > > > > > > > > > > > > > > > > > > > > > > > ",
"/.X.t @.o.@.6 8 @.@.@.@.0 8 @.o.@.0 0 0 0 0 0 0 0 0 @.0 0 0 0 0 0 0 0 0 @.@.0 0 0 0 0 0 @.0 @.0 0 0 @.@.0 0 0 0 0 6 0 6 0 0 0 6 6 6 6 6 6 6 6 6 6 6 6 6 6 6 6 6 6 6 6 6 6 6 6 6 6 6 6 6 6 6 6 6 6 6 6 6 6 6 6 6 6 6 6 6 6 6 6 6 6 6 6 6 6 6 6 6 6 6 6 9 5 5 > > > > > > > > > > > > > > > : > > > > > > > > > > > > > : > : > : : : > : : : : : > : > : : : : : : : : : : : > > : : : : : > > > : : : : > > > > > > > > > > > > > > > > > > > > > > > > > > > > > > > > > > > > > > > > > > > > > > > > > > > > > > > > > > > > > > > > > > > > > > > > > > > > > > > > > > 5 5 0 0 0 0 0 0 0 0 0 0 0 0 0 0 0 0 0 0 0 0 0 0 0 6 6 6 o.6 6 6 6 0 5 5 5 5 5 9 5 > 5 5 5 5 5 5 5 5 5 5 5 5 5 5 5 5 5 5 5 5 > > > > > > : : : : : : : : : : : : : : : : : : : : : : : : : : : > 5 0 0 0 @.o.o.o.o.o.o.o.o.o.o.o.o.o.o.o.o.o.o.o.o.o.o.o.o.o.o.o.o.o.o.o.o.o.o.o.o.o.o.o.o.o.o.o.o.o.o.o.o.o.o.o.o.o.o.@.@.0 0 6 5 5 5 5 5 5 5 5 5 5 5 5 5 5 5 5 5 5 5 5 5 5 5 5 5 5 9 9 5 5 5 > > > > > > > > > > > > > > > > > > > > > > > > > > > > > ",
"T.` 4 6 6 6 > > 5 9 9 9 5 > 5 5 5 5 5 5 5 5 5 5 5 5 5 5 5 5 5 5 5 5 5 5 5 5 5 5 5 5 5 5 5 5 5 5 5 5 5 5 5 5 5 5 5 5 5 5 5 5 0 6 6 o.o.o.o.o.o.o.0 o.o.o.o.o.o.o.o.o.o.o.o.o.o.o.o.o.o.o.o.o.o.o.6 6 0 6 6 6 o.o.0 6 0 6 6 o.o.6 6 o.6 6 o.o.o.o.6 0 0 0 6 5 5 5 > > > > > > > > > > > > > > > > > > > > > > > > > > > > > > > > > > > > > > > > > > > > > > > > > > > > > > > > > > > > > > > > > > > > > > > > > > > > > > > > > > > > > > > > > > 5 5 5 5 5 5 5 5 5 5 5 5 5 5 5 5 5 5 5 5 5 5 5 5 5 5 5 5 5 > > > > : : : : : : : : : : : : : : : : : : : : : : : : : : > > > > 5 5 5 5 5 5 5 5 5 5 5 5 5 5 5 5 5 5 5 5 5 5 5 5 5 5 5 5 5 5 5 5 5 5 5 5 5 5 5 5 5 5 5 5 5 5 5 5 5 5 5 5 5 5 5 5 5 > > 5 > > > > > > > > > > > > > > > > > > > > > > > > > > > > > > > > > 5 9 0 0 0 6 6 6 o.o.6 6 6 6 6 6 o.6 o.6 6 6 6 6 o.6 6 6 6 6 6 6 o.6 o.6 6 6 6 6 o.6 6 6 6 6 6 6 o.o.6 6 6 6 o.6 6 6 6 6 6 6 6 5 5 5 5 5 5 5 5 5 5 5 5 5 5 5 5 5 5 5 5 5 5 5 5 5 5 5 6 6 6 5 5 5 5 > 5 5 5 5 5 5 5 5 5 5 5 > 5 5 5 5 5 5 5 5 5 5 5 5 5 > ",
"I.z : > > > : : : > > > : : : > : : : : : : : : : : : : : : : : : : : : : : : : : : : : : : : : : : : : : : : : : > > > > > 5 5 o.o.o.o.o.o.o.o.o.o.o.o.o.o.o.o.o.o.o.o.o.o.o.o.o.o.o.o.o.o.o.o.o.o.o.o.o.o.o.o.o.o.o.o.o.o.o.o.o.o.o.o.o.o.o.o.o.o.@.@.0 6 6 5 5 5 > > > > > > 5 5 5 5 5 > > > > > > > > > > 5 5 5 > > > > > > > > > > > > > < > > > > > > > > > > > > > > > > > > > > 9 9 9 9 6 5 9 5 5 5 5 5 9 5 9 5 5 5 5 9 5 5 9 9 9 9 9 6 5 5 5 5 5 5 5 5 5 5 5 5 5 5 5 5 5 5 5 9 5 5 5 5 5 5 5 5 9 5 5 9 9 > : : : # # # # : : : : : : : : : : : : : : : : : : : : : : : : : : : : : : : : : : : : : : : : : : : : : : : : : : : : : : > > 5 5 5 5 5 5 5 5 5 5 5 5 5 5 5 5 5 5 5 5 5 5 5 > > > > > > > 5 5 5 9 9 9 9 9 9 9 5 9 5 9 5 9 5 9 5 9 5 9 5 9 5 5 5 9 5 5 5 5 5 5 5 5 5 5 5 5 5 5 5 5 5 5 5 5 5 6 5 5 5 5 5 5 5 5 5 5 5 5 5 5 5 6 5 5 5 5 5 5 5 5 5 5 5 5 5 5 6 5 5 5 5 6 6 5 5 5 5 5 5 5 5 5 5 5 5 5 6 6 6 6 6 6 5 6 5 6 5 6 5 6 5 6 5 6 5 6 6 6 6 6 6 5 5 5 5 5 5 5 5 5 5 5 5 5 5 5 5 5 5 9 5 5 5 5 5 5 5 9 5 5 5 ",
"D.l * : > : # # : : : : # # : : : : : : : : : : : : : : : : : : : : : : : : : : : : : : : : : : : : : : : : # # # # # : : : > 5 @.o.o.o.o.o.o.o.o.o.o.o.o.o.o.o.o.o.o.o.o.o.o.o.o.o.o.o.o.o.o.o.o.o.O.o.O.o.o.o.o.o.O.o.O.O.o.o.o.o.o.o.o.o.o.o.o.@.@.@.@.6 6 5 5 5 5 5 5 5 5 5 5 5 5 5 5 5 5 5 5 5 5 5 5 5 5 5 5 5 5 5 > > > > > > 5 > > > > > > > > > 5 > > > > > > > > > > > > 5 5 5 5 9 6 6 6 6 6 5 6 6 6 6 6 5 6 6 6 6 6 5 5 5 5 5 5 5 5 5 5 5 5 5 6 5 5 5 9 9 9 9 9 9 9 9 9 9 9 9 9 9 9 9 5 5 9 9 5 5 9 9 9 > : # # # # # # # # # # # # # # # # # # # # # # # # # # # # # # # # # # # # # # : : : : : # : : : : : : : # # # # # # # : : : > > 5 5 5 5 5 5 5 5 5 5 5 5 5 5 5 5 5 5 5 5 5 5 5 5 5 5 5 5 5 5 5 6 5 5 6 6 6 6 9 5 9 5 6 5 6 5 5 5 9 6 9 5 9 5 5 5 5 5 9 5 5 5 5 5 5 5 5 5 5 5 5 5 5 5 5 5 5 5 5 5 5 5 5 5 5 5 5 5 5 5 5 5 5 5 5 5 5 5 5 5 5 5 5 5 5 5 5 5 5 5 5 5 5 5 5 5 5 5 5 > 5 5 5 5 5 5 6 6 6 6 6 6 6 6 6 6 6 6 6 6 6 6 6 6 6 6 6 6 6 6 6 6 6 6 6 5 5 5 5 5 5 5 5 6 6 6 9 6 9 6 9 6 9 6 9 6 9 6 9 6 9 6 9 6 ",
"J.) * : : : # # # : : : # # # : : : : : : : # # : : : : : # : : : : : : : : : : # : # : : # : : : # # # # # # # # # # # # : < 6 @.O.O.O.O.O.O.O.O.O.O.O.O.O.O.O.O.O.O.O.O.O.O.O.O.O.O.O.O.O.O.O.O.O.O.O.O.O.O.O.O.O.O.O.O.O.O.O.O.O.O.O.O.O.O.O.O.O.o.@.o.6 6 5 5 5 5 5 5 5 5 5 5 5 5 5 5 5 5 5 5 5 5 5 5 5 5 5 5 5 5 5 5 5 5 5 5 > > > > > > > > > > > 5 > > > 5 > > > > > 5 5 > 5 5 5 5 9 6 0 6 6 6 6 6 6 6 6 6 6 6 6 6 6 6 6 5 5 6 6 6 6 6 6 5 5 6 6 6 6 6 6 6 6 6 6 6 6 6 6 6 6 6 6 6 6 6 6 6 6 6 6 6 5 9 9 9 > : # # # @ @ @ @ # # # # # # @ @ @ @ @ @ @ @ # # # # # # @ @ # # # @ # @ @ # # # # # # # # # # # # # # # # # # * * * * # # : : > 9 5 5 5 5 5 5 5 5 5 5 5 5 5 5 5 5 5 5 5 5 5 5 5 5 5 5 5 5 5 6 0 0 6 6 6 6 6 6 6 6 6 6 6 6 6 6 6 6 6 6 6 6 6 6 6 6 6 5 5 5 5 5 5 5 5 > 5 > > 5 5 5 5 > > 5 5 5 5 5 5 > > 5 > 5 5 5 5 > > 5 5 5 5 5 5 > > 5 > 5 5 5 5 5 5 5 5 5 5 5 5 5 5 5 5 > > > > 5 5 5 5 6 6 6 6 6 6 6 6 6 6 6 6 6 6 6 6 6 6 6 6 6 6 6 6 6 6 6 6 6 6 6 5 5 5 5 5 6 6 6 6 6 9 6 9 6 9 6 9 6 9 6 9 6 9 6 9 6 9 ",
"K.g ; 1 : : @ * # * # * @ @ # # # # # # # # # # # # # # # # # # # # # # # # # # # # # # # # # # # # # # # @ @ $ @ # # # # : , 9 @.O.O.O.O.O.O.O.O.O.O.O.O.O.O.O.O.O.O.O.O.O.O.O.O.O.O.O.O.O.O.O.O.O.O.O.O.O.O.O.O.O.O.O.O.O.O.O.O.O.O.O.O.O.O.O.O.O.o.o.o.6 6 5 5 5 5 5 5 5 5 5 5 5 5 5 5 5 5 5 5 5 5 5 5 5 5 5 5 5 5 5 5 5 5 5 5 5 5 5 5 5 5 5 > > 5 5 5 5 5 > 5 > > 5 > > 5 5 5 5 5 9 9 9 6 0 6 6 6 6 6 6 6 6 6 6 6 6 6 6 6 6 5 5 5 5 6 6 6 6 6 6 6 6 6 6 6 6 6 6 6 6 6 6 6 6 6 6 6 6 6 6 6 6 6 6 6 6 6 6 9 9 9 > : # # # $ @ @ @ @ @ @ @ @ @ @ @ @ @ @ @ @ @ # # @ @ @ @ @ @ $ $ $ $ $ $ $ $ # # # # * # * # # # # # * # * # $ @ $ $ * * # : : > 9 9 5 5 5 6 5 5 5 5 5 5 5 5 5 5 5 5 5 5 5 5 5 > 5 5 5 5 5 5 9 6 6 6 6 6 6 6 6 6 6 6 6 6 6 6 6 6 6 6 6 6 6 6 6 6 6 6 6 5 5 5 5 5 5 > > > 9 5 5 5 5 5 > > > > 5 5 5 > > > > > 5 5 5 5 > > > > 5 5 5 > > > > > > > > > > > > > > > > > > > > > > > > > 5 5 6 6 6 6 6 6 6 6 6 6 6 6 6 6 6 6 6 6 6 6 6 6 6 6 6 6 6 6 6 6 6 6 6 6 6 6 6 6 6 6 6 6 6 6 6 6 6 6 6 6 6 6 6 6 6 6 6 6 6 6 ",
"K.d & # : : @ $ * # # * @ $ # # # # # # * * * * # # # * * * # # # # * * * * * # * * # * * * # # # # # # # # # # @ @ # # # # , 9 o.O.O.O.O.O.O.O.O.O.O.O.O.O.O.O.O.O.O.O.O.O.O.O.O.O.O.O.O.O.O.O.O.O.O.O.O.O.O.O.O.O.O.O.O.O.O.O.O.O.O.O.O.O.O.O.O.O.O.o.o.6 6 5 5 5 5 5 5 5 5 5 5 5 5 5 5 5 5 5 5 5 5 5 5 5 5 5 5 5 5 5 5 5 5 5 5 5 5 5 5 5 5 5 5 > 5 5 5 5 5 5 5 > 5 > > > 5 5 5 5 9 9 9 5 9 6 6 6 6 6 6 6 6 6 6 6 6 6 6 6 6 6 6 5 5 5 6 6 6 6 6 6 6 6 6 6 6 6 6 6 6 6 6 6 6 6 6 6 6 6 6 6 6 6 6 6 6 6 6 6 6 6 9 > : # # # $ @ @ @ @ @ @ @ * @ @ @ @ @ @ @ @ * * * @ @ @ @ @ @ $ $ $ $ $ $ $ $ @ @ # @ # @ # @ # @ # @ # @ # @ $ @ @ @ @ @ # # : > 9 6 5 5 5 5 5 5 5 5 5 5 5 5 5 5 5 5 5 5 5 5 5 5 5 5 5 5 5 5 9 6 6 6 6 6 6 6 6 6 6 6 6 6 6 6 6 6 6 6 6 6 6 6 6 6 6 6 6 5 5 5 5 > > > > > > > > > > > > > > > > > > > > > > > > > > > > > > > > > > > > > > > > > > > > > > > > > > > > > > > > > > > 5 5 6 6 6 6 6 6 6 6 6 6 6 6 6 6 6 6 6 6 6 6 6 6 6 6 6 6 6 6 6 6 6 6 6 6 6 6 6 6 6 6 6 6 6 6 6 6 6 6 6 6 6 6 6 6 6 6 6 6 6 6 ",
"D.p = # : : @ $ # # # # * # # # # # # # # # # # # # # # # # # # # # # # # # # # # # # # # # # # # # # # # # # # # * # # # : > 6 @.O.O.O.O.O.O.O.O.O.O.O.O.O.O.O.O.O.O.O.O.O.O.O.O.O.O.O.O.O.O.O.O.O.O.O.O.O.O.O.O.O.O.O.O.O.O.O.O.O.O.O.O.O.O.O.O.O.O.O.o.6 6 5 5 5 5 5 5 5 5 5 5 5 5 5 5 5 5 5 5 5 5 5 5 5 5 5 5 5 5 5 > > > > > > > > > 5 > > > > > > 5 5 5 5 5 5 > > > > > > > > > 5 5 5 6 6 6 6 6 6 6 6 6 6 6 6 6 6 6 6 6 6 6 6 6 6 6 6 6 6 6 6 6 6 6 6 6 6 6 6 6 6 6 6 6 6 6 6 6 6 6 6 6 6 5 6 6 6 6 6 6 6 9 > # # # @ @ @ @ @ @ @ @ @ # @ # @ @ @ # @ # # # # @ # # @ @ @ @ @ # # # @ @ @ @ # # # # @ # @ # # # # # @ # @ # # @ @ $ @ # # : > 9 9 5 6 6 5 5 5 5 5 5 5 5 5 5 5 5 5 5 5 5 5 5 5 5 5 5 5 5 5 6 6 6 6 6 6 6 6 6 6 6 6 6 6 6 6 6 6 6 6 6 6 6 6 6 6 6 6 6 0 5 5 5 > > > > > 5 5 5 > > > 5 5 5 5 5 5 5 5 > > > > > > > > 5 > > > > > > > > > > > > > > > > > > > > > > > > > > > > > > > 5 5 9 6 6 6 6 6 6 6 6 6 6 6 6 6 6 6 6 6 6 6 6 6 6 6 6 6 6 6 6 6 6 6 6 6 6 6 6 6 6 6 6 6 6 6 6 6 6 6 6 6 6 6 6 6 6 6 6 6 6 6 ",
"F.p & : : : @ $ # # : # # # # # # # # # # # # # # # # # # # # # # # # # # # # # # # # # # # # # # # # # : # : # # * # # : : > 0 o.O.O.O.O.O.O.O.O.O.O.O.O.O.O.O.O.O.O.O.O.O.O.O.O.O.O.O.O.O.O.O.O.O.O.O.O.O.O.O.O.O.O.O.O.O.O.O.O.O.O.O.o.o.O.O.O.O.O.O.o.6 5 5 5 5 5 5 5 5 5 5 5 5 5 5 5 5 5 5 5 5 5 5 5 5 5 5 5 5 5 5 > > > > > > > > 5 5 > > > > > > 5 5 5 5 5 5 > > > > > > > > 5 5 5 5 6 6 6 6 6 6 6 6 6 6 6 6 6 6 6 6 6 6 6 6 6 6 6 6 6 6 6 6 6 6 6 6 6 6 6 6 6 6 6 6 6 6 6 6 6 6 6 6 6 5 5 5 6 6 6 6 6 5 6 : # # * @ @ # @ # @ @ # # # # @ @ @ @ # # # * # # @ @ # # # # # # * # # # @ @ # # # # # # # # # # # # # # # # # # # # @ @ # # : > 9 9 5 6 5 5 5 5 5 5 5 5 5 5 5 5 5 5 5 5 5 5 9 9 5 5 5 5 5 5 6 6 6 6 6 6 6 6 6 6 6 6 6 6 6 6 6 6 6 6 6 6 6 6 6 6 5 5 0 0 5 5 5 5 > > > > 5 5 5 > > > > 5 5 5 5 5 5 5 > > > 5 > > > > 5 > > > > > > > > > > > > > > > > > > > > > > > > > > > > > > 5 5 5 6 6 6 6 6 6 6 6 6 6 6 6 6 6 6 6 6 6 6 6 6 6 6 6 6 6 6 6 6 6 6 6 6 6 6 6 6 6 6 6 6 6 6 6 6 6 6 6 6 6 6 6 6 6 6 6 6 6 6 6 ",
"D.l & : : : @ $ # # : # # # # # # # # # # # # # # # # # # # # # # # # # # # # # # # # # # # # # # # # # : : # # # * # # : : > 0 o.O.O.O.O.O.O.O.O.O.O.O.O.O.O.O.O.O.O.O.O.O.O.O.O.O.O.O.O.O.O.O.O.O.O.O.O.O.O.O.O.O.O.O.O.O.O.O.O.O.O.O.o.o.O.O.O.O.O.O.o.6 5 5 5 5 5 5 5 5 5 5 5 5 5 5 5 5 5 5 5 5 5 5 5 5 5 5 5 5 5 5 > > > > > > > 5 5 5 5 > 5 5 5 5 > 5 > > 5 > > > > > > > > > 5 5 5 6 6 6 6 6 6 6 6 6 6 6 6 6 6 6 6 6 6 6 6 6 6 6 6 6 6 6 6 6 6 6 6 6 6 6 6 6 6 6 6 6 6 6 6 6 6 6 6 6 6 5 5 5 6 6 6 6 6 6 6 : # # * @ @ # # # # # # # # # # # # # # # @ @ # @ @ # # # # # # # @ @ # # # # # # # # # # # # # # # # # # # # # # # # @ @ # # : > 9 9 5 6 5 5 5 5 5 5 5 5 5 5 5 5 5 5 5 5 5 5 9 9 5 5 5 5 5 5 5 5 6 6 6 6 6 6 6 6 6 6 6 6 6 6 6 6 6 6 6 6 6 6 6 6 5 5 0 0 5 5 5 5 > 5 > > > 5 5 5 > > > > > 5 > > > > > > 5 5 > > 5 > 5 > > > > > > > > > > > > > > > > > > > > > > > > > > > > > > 5 5 5 6 6 6 6 6 6 6 6 6 6 6 6 6 6 6 6 6 6 6 6 6 6 6 6 6 6 6 6 6 6 6 6 6 6 6 6 6 6 6 6 6 6 6 6 6 6 6 6 6 6 6 6 6 6 6 6 6 6 6 6 ",
"H.l & : : : @ # # # : # # # : : # # # # # # # # # # # # # # # # # # # # # # # # # # # # # # # # # # # # : # # # # * # # : : > 0 o.O.O.O.O.O.O.O.O.O.O.O.O.O.O.O.O.O.O.O.O.O.O.O.O.O.O.O.O.O.O.O.O.O.O.O.O.O.O.O.O.O.O.O.O.O.O.O.O.O.O.O.o.o.O.O.O.O.O.O.o.6 5 5 5 5 5 5 5 5 5 5 5 5 5 5 5 5 5 5 5 5 5 5 5 5 5 5 5 5 5 5 5 > > > > > > 5 5 5 > > 5 5 5 5 > > > > 5 > > > > > > > > > 5 5 5 6 6 6 6 6 6 6 6 6 6 6 6 6 6 6 6 6 6 6 6 6 6 6 6 6 6 6 6 6 6 6 6 6 6 6 6 6 6 6 6 6 6 6 6 6 6 6 6 6 6 5 5 5 6 6 6 6 6 6 6 : # # * @ @ # # # # # # # * # # # # # @ @ @ @ # @ @ # @ # # # # @ @ @ @ @ # # # # # # # # # # # # # # # # # # # # # @ @ # # # : > 9 9 5 6 5 5 5 5 5 5 5 5 5 5 5 5 5 5 5 5 5 5 9 9 5 5 5 5 5 5 5 5 6 6 6 6 6 6 6 6 6 6 6 6 6 6 6 6 6 6 6 6 6 6 6 6 5 5 0 0 5 5 5 5 > 5 > > > 5 5 5 > > > > > > > > > > > > 5 5 > > 5 5 5 > > > > > > > > > > > > > > > > > > > > > > > > > > > > > > 5 5 5 6 6 6 6 6 6 6 6 6 6 6 6 6 6 6 6 6 6 6 6 6 6 6 6 6 6 6 6 6 6 6 6 6 6 6 6 6 6 6 6 6 6 6 6 6 6 6 6 6 6 6 6 6 6 6 6 6 6 6 6 ",
"L.l & : : : @ $ # # : # # # : : # # # # # # # # # # # # # # # # # # # # # # # # # # # # # # # # # # # # : # # # # # # # : : > 6 @.O.O.O.O.O.O.O.O.O.O.O.O.O.O.O.O.O.O.O.O.O.O.O.O.O.O.O.O.O.O.O.O.O.O.O.O.O.O.O.O.O.O.O.O.O.O.O.O.O.O.O.O.O.O.O.O.O.O.O.o.6 5 5 5 5 5 5 5 5 5 5 5 5 5 5 5 5 5 5 5 5 5 5 5 5 5 5 5 5 5 5 5 5 5 5 5 5 5 5 > 5 5 5 5 > > > 5 5 > > 5 5 > > > > > > 5 > 5 5 5 5 6 6 6 6 6 6 6 6 6 6 6 6 6 6 6 6 6 6 6 6 6 6 6 6 6 6 6 6 6 6 6 6 6 6 6 6 6 6 6 6 6 6 6 6 6 6 6 6 6 5 6 5 6 6 6 6 6 6 9 : # # * # # * # # # # # # # # # # @ # # # @ @ # # # # # # # # # # # @ @ @ @ # # # # # # # # # # # # # # # # # # # # # # # # # : > 9 5 5 6 5 5 5 5 5 5 5 5 5 5 5 5 5 5 5 5 5 5 9 5 5 5 5 5 5 5 5 5 6 6 6 6 6 6 6 6 6 6 6 6 6 6 6 6 6 6 6 6 6 6 6 6 5 5 0 0 5 5 5 5 5 5 > > 5 5 5 > > > > > > > > > > > > > 5 5 > 5 5 5 5 > > > > > > > > > > > > > > > > > > > > > > > > > > > > > > > 5 5 6 6 6 6 6 6 6 6 6 6 6 6 6 6 6 6 6 6 6 6 6 6 6 6 6 6 6 6 6 6 6 6 6 6 6 6 6 6 6 6 6 6 6 6 6 6 6 6 6 6 6 6 6 6 6 6 6 6 6 6 ",
"L.| & : : : @ $ # # : # # # : : # # # # # # # # # # # # # # # # # # # # # # # # # # # # # # # # # # # # : # # # # # # # # : > 6 @.O.O.O.O.O.O.O.O.O.O.O.O.O.O.O.O.O.O.O.O.O.O.O.O.O.O.O.O.O.O.O.O.O.O.O.O.O.O.O.O.O.O.O.O.O.O.O.O.O.O.O.O.O.O.O.O.O.O.O.o.6 5 5 5 5 5 5 5 5 5 5 5 5 5 5 5 5 5 5 5 5 5 5 5 5 5 5 5 5 5 5 5 5 5 5 5 > 5 5 > 5 5 5 > > > > 5 5 > > 5 5 > > > > > > 5 > 5 5 5 6 6 6 6 6 6 6 6 6 6 6 6 6 6 6 6 6 6 6 6 6 6 6 6 6 6 6 6 6 6 6 6 6 6 6 6 6 6 6 6 6 6 6 6 6 6 6 6 6 6 5 5 5 6 6 6 6 6 6 9 : # # # # @ * @ @ # # # # # # # # @ @ # # # # # # # # # # @ @ # # @ @ @ @ @ # # # # # # # # # # # # # # # # # # # # @ # # # # : > 9 9 5 6 5 5 5 5 5 5 5 5 5 5 5 5 5 5 5 5 5 5 9 9 5 5 5 5 5 5 5 5 6 6 6 6 6 6 6 6 6 6 6 6 6 6 6 6 6 6 6 6 6 6 6 6 5 5 0 0 5 5 5 5 5 5 > > > 5 5 5 > > > > > > > > > > > > 5 5 > 5 5 5 5 > > > > > > > > > > > > > > > > > > > > > > > > > > > > > > > 5 5 6 6 6 6 6 6 6 6 6 6 6 6 6 6 6 6 6 6 6 6 6 6 6 6 6 6 6 6 6 6 6 6 6 6 6 6 6 6 6 6 6 6 6 6 6 6 6 6 6 6 6 6 6 6 6 6 6 6 6 6 ",
"Y.| & : : : @ $ # # : # # # # # # # # # # # # # # # # # # # # # # # # # # # # # # # # # # # # # # # # # : # : # # # # # # : > 6 @.O.O.O.O.O.O.O.O.O.O.O.O.O.O.O.O.O.O.O.O.O.O.O.O.O.O.O.O.O.O.O.O.O.O.O.O.O.O.O.O.O.O.O.O.O.O.O.O.O.O.O.O.O.O.O.O.O.O.O.o.6 5 5 5 5 5 5 5 5 5 5 5 5 5 5 5 5 5 5 5 5 5 5 5 5 5 5 5 5 5 5 > > > > > > > > > > 5 5 > > > > 5 5 > > 5 5 5 5 > > > > > > 5 5 5 5 6 6 6 6 6 6 6 6 6 6 6 6 6 6 6 6 6 6 6 6 6 6 6 6 6 6 6 6 6 6 6 6 6 6 6 6 6 6 6 6 6 6 6 6 6 6 6 6 6 5 5 5 6 6 6 6 6 6 9 : # # # @ @ * @ @ @ # # # @ # # @ @ @ # # # # @ @ # # # # @ @ # # # # @ @ # # # # # # # # # # # # # # # # # # # # # @ # # # # : > 9 9 5 6 5 5 5 5 5 5 5 5 5 5 5 5 5 5 5 5 5 5 9 5 5 5 5 5 5 5 5 5 6 6 6 6 6 6 6 6 6 6 6 6 6 6 6 6 6 6 6 6 6 6 6 6 5 5 6 6 5 5 5 5 5 > > > 5 5 > > > > > > 5 5 5 5 > > > > > > > > 5 5 5 > > > > > > > > > > > > > > > > > > > > > > > > > > > > > > > 5 5 6 6 6 6 6 6 6 6 6 6 6 6 6 6 6 6 6 6 6 6 6 6 6 6 6 6 6 6 6 6 6 6 6 6 6 6 6 6 6 6 6 6 6 6 6 6 6 6 6 6 6 6 6 6 6 6 6 6 6 6 ",
"_.| & : : : @ $ # # : # # # # # # # # # # # # # # # # # # # # # # # # # # # # # # # # # # # # # # # # # : # # # # # # # # : > 6 @.O.O.O.O.O.O.O.O.O.O.O.O.O.O.O.O.O.O.O.O.O.O.O.O.O.O.O.O.O.O.O.O.O.O.O.O.O.O.O.O.O.O.O.O.O.O.O.O.O.O.O.O.O.O.O.O.O.O.O.o.6 5 5 5 5 5 5 5 5 5 5 5 5 5 5 5 5 5 5 5 5 5 5 5 5 5 5 5 5 5 5 > > > > > > > > > > > > > > > > 5 5 > > 5 5 5 5 > > > > > > 5 5 5 5 6 6 6 6 6 6 6 6 6 6 6 6 6 6 6 6 6 6 6 6 6 6 6 6 6 6 6 6 6 6 6 6 6 6 6 6 6 6 6 6 6 6 6 6 6 6 6 6 6 5 5 5 6 6 6 6 6 6 9 : # # # @ # * @ @ @ # # # @ @ # # @ @ # # # # @ @ # # # @ @ @ # # # # # # # # # # # # # # # # # # # # # # # # # # # @ # # # # : > 9 9 5 6 5 5 5 5 5 5 5 5 5 5 5 5 5 5 5 5 5 5 9 5 5 5 5 5 5 5 5 5 6 6 6 6 6 6 6 6 6 6 6 6 6 6 6 6 6 6 6 6 6 6 6 6 5 5 6 6 5 5 5 5 5 > > > 5 5 > > > > > > 5 5 5 5 5 > > > > > > > 5 5 5 > > > > > > > > > > > > > > > > > > > > > > > > > > > > > > > 5 5 6 6 6 6 6 6 6 6 6 6 6 6 6 6 6 6 6 6 6 6 6 6 6 6 6 6 6 6 6 6 6 6 6 6 6 6 6 6 6 6 6 6 6 6 6 6 6 6 6 6 6 6 6 6 6 6 6 6 6 6 ",
"L.| & : : : @ $ # # : # * # # # # # # # # # # # # # # # # # # # # # # # # # # # # # # # # # # # # # # # : # # # # # # # : : > 0 @.O.O.O.O.O.O.O.O.O.O.O.O.O.O.O.O.O.O.O.O.O.O.O.O.O.O.O.O.O.O.O.O.O.O.O.O.O.O.O.O.O.O.O.O.O.O.O.O.O.O.O.o.o.O.O.O.O.O.O.o.6 5 5 5 5 5 5 5 5 5 5 5 5 5 5 5 5 5 5 5 5 5 5 5 5 5 5 5 5 5 5 > > > > 5 5 5 5 5 5 > > 5 5 5 5 > > > > > 5 > > > > > > > > 5 5 5 5 6 6 6 6 6 6 6 6 6 6 6 6 6 6 6 6 6 6 6 6 6 6 6 6 6 6 6 6 6 6 6 6 6 6 6 6 6 6 6 6 6 6 6 6 6 6 6 6 6 5 6 6 6 6 6 6 6 6 9 : # # # @ @ # @ @ # # # # @ @ # # @ @ # # # # @ @ # # # # # # # @ @ @ # # # # # # # # # # # # # # # # # # # # # # # @ @ @ # # : > 9 9 5 6 5 5 5 5 5 5 5 5 5 5 5 5 5 5 5 5 5 5 9 9 5 5 5 5 5 5 5 5 6 6 6 6 6 6 6 6 6 6 6 6 6 6 6 6 6 6 6 6 6 6 6 6 5 5 0 0 5 5 5 5 > > > > > 5 > > > > > > > > > > > > > > > > > > 5 5 5 > > > > > > > > > > > > > > > > > > > > > > > > > > > > > > > 5 5 6 6 6 6 6 6 6 6 6 6 6 6 6 6 6 6 6 6 6 6 6 6 6 6 6 6 6 6 6 6 6 6 6 6 6 6 6 6 6 6 6 6 6 6 6 6 6 6 6 6 6 6 6 6 6 6 6 6 6 6 ",
"L.| & : : : @ $ # # : # * # # # # # # # # # # # # # # # # # # # # # # # # # # # # # # # # # # # # # # # : # : # # # # # : : > 0 o.O.O.O.O.O.O.O.O.O.O.O.O.O.O.O.O.O.O.O.O.O.O.O.O.O.O.O.O.O.O.O.O.O.O.O.O.O.O.O.O.O.O.O.O.O.O.O.O.O.O.O.o.o.O.O.O.O.O.O.o.6 5 5 5 5 5 5 5 5 5 5 5 5 5 5 5 5 5 5 5 5 5 5 5 5 5 5 5 5 5 5 > > > > > > 5 5 > 5 > > 5 5 5 5 > > > 5 5 5 > > > > > > 5 > 5 5 5 5 6 6 6 6 6 6 6 6 6 6 6 6 6 6 6 6 6 6 6 6 6 6 6 6 6 6 6 6 6 6 6 6 6 6 6 6 6 6 6 6 6 6 6 6 6 6 6 6 6 5 6 6 6 6 6 6 6 6 9 : # # # @ # # @ @ # # # # @ @ # # @ @ # # # # @ @ # # # # # # @ @ @ @ # # # # # # # # # # # # # # # # # # # # # # # @ @ @ # # : > 9 9 5 6 5 5 5 5 5 5 5 5 5 5 5 5 5 5 5 5 5 5 9 9 5 5 5 5 5 5 5 5 6 6 6 6 6 6 6 6 6 6 6 6 6 6 6 6 6 6 6 6 6 6 6 6 5 5 0 0 5 5 5 5 > > > > > > 5 5 > > > > > > > > > > > > > 5 > > 5 5 5 > > > > > > > > > > > > > > > > > > > > > > > > > > > > > > > 5 5 6 6 6 6 6 6 6 6 6 6 6 6 6 6 6 6 6 6 6 6 6 6 6 6 6 6 6 6 6 6 6 6 6 6 6 6 6 6 6 6 6 6 6 6 6 6 6 6 6 6 6 6 6 6 6 6 6 6 6 6 ",
"L.| & : : : @ $ # # : # * # # # # # # # # # # # # # # # # # # # # # # # # # # # # # # # # # # # # # # # : # : # # # # # : : > 0 o.O.O.O.O.O.O.O.O.O.O.O.O.O.O.O.O.O.O.O.O.O.O.O.O.O.O.O.O.O.O.O.O.O.O.O.O.O.O.O.O.O.O.O.O.O.O.O.O.O.O.O.o.o.O.O.O.O.O.O.o.6 5 5 5 5 5 5 5 5 5 5 5 5 5 5 5 5 5 5 5 5 5 5 5 5 5 5 5 5 5 5 > > > > > > > > > > > > > > > > > > 5 5 5 5 > > > > > > > > 5 5 5 5 6 6 6 6 6 6 6 6 6 6 6 6 6 6 6 6 6 6 6 6 6 6 6 6 6 6 6 6 6 6 6 6 6 6 6 6 6 6 6 6 6 6 6 6 6 6 6 6 6 5 6 5 6 6 6 6 6 6 9 : # # * @ @ # @ @ # # * # # @ # # @ @ # # # # # # # # # # # @ # # @ # @ # @ @ # # # # # # # # # # # # # # # # # # # @ # # # # : > 9 5 5 6 5 5 5 5 5 5 5 5 5 5 5 5 5 5 5 5 5 5 9 9 5 5 5 5 5 5 5 6 6 6 6 6 6 6 6 6 6 6 6 6 6 6 6 6 6 6 6 6 6 6 6 6 5 5 0 0 5 5 5 5 5 5 > > > > 5 5 5 > 5 5 > 5 > > 5 5 > 5 5 5 > > > 5 > > > > > > > > > > > > > > > > > > > > > > > > > > > > > > > > 5 5 6 6 6 6 6 6 6 6 6 6 6 6 6 6 6 6 6 6 6 6 6 6 6 6 6 6 6 6 6 6 6 6 6 6 6 6 6 6 6 6 6 6 6 6 6 6 6 6 6 6 6 6 6 6 6 6 6 6 6 6 ",
"L.| & : : : @ $ # # : # * # # # # # # # # # # # # # # # # # # # # # # # # # # # # # # # # # # # # # # # : # : # # # # # : : > 0 o.O.O.O.O.O.O.O.O.O.O.O.O.O.O.O.O.O.O.O.O.O.O.O.O.O.O.O.O.O.O.O.O.O.O.O.O.O.O.O.O.O.O.O.O.O.O.O.O.O.O.O.o.o.O.O.O.O.O.O.o.6 5 5 5 5 5 5 5 5 5 5 5 5 5 5 5 5 5 5 5 5 5 5 5 5 5 5 5 5 5 5 > > > > > > > > > > > > > > > > > > 5 5 5 > > > > > > > > > 5 5 5 5 6 6 6 6 6 6 6 6 6 6 6 6 6 6 6 6 6 6 6 6 6 6 6 6 6 6 6 6 6 6 6 6 6 6 6 6 6 6 6 6 6 6 6 6 6 6 6 6 6 5 5 5 6 6 6 6 6 6 9 : # # * @ @ # @ @ # # # # # # # # @ @ @ # # # # * # # # # # @ # # # # @ @ @ @ # # # # # # # # # # # # # # # # # # # @ # # # # : > 9 5 5 6 5 5 5 5 5 5 5 5 5 5 5 5 5 5 5 5 5 5 9 9 5 5 5 5 5 5 5 6 6 6 6 6 6 6 6 6 6 6 6 6 6 6 6 6 6 6 6 6 6 6 6 6 5 5 0 0 5 5 5 5 5 5 > > > > 5 5 5 > 5 5 5 5 5 5 5 5 5 5 5 5 > > > > > > > > > > > > > > > > > > > > > > > > > > > > > > > > > > > > 5 5 6 6 6 6 6 6 6 6 6 6 6 6 6 6 6 6 6 6 6 6 6 6 6 6 6 6 6 6 6 6 6 6 6 6 6 6 6 6 6 6 6 6 6 6 6 6 6 6 6 6 6 6 6 6 6 6 6 6 6 6 ",
"L.) & : : : @ # # # : # # # # # # # # # # # # # # # # # # # # # # # # # # # # # # # # # # # # # # # # # : # # # # # # # # : > 6 @.O.O.O.O.O.O.O.O.O.O.O.O.O.O.O.O.O.O.O.O.O.O.O.O.O.O.O.O.O.O.O.O.O.O.O.O.O.O.O.O.O.O.O.O.O.O.O.O.O.O.O.o.o.O.O.O.O.O.O.o.6 5 5 5 5 5 5 5 5 5 5 5 5 5 5 5 5 5 5 5 5 5 5 5 5 5 5 5 5 5 5 5 5 5 5 5 > > > > > > > > > > > > > 5 5 5 5 > > > > > > > > 5 5 5 5 6 6 6 6 6 6 6 6 6 6 6 6 6 6 6 6 6 6 6 6 6 6 6 6 6 6 6 6 6 6 6 6 6 6 6 6 6 6 6 6 6 6 6 6 6 6 6 6 6 5 5 5 6 6 6 6 6 6 6 : # # * @ @ * # # # # # # # # # # # # # @ @ @ # # # # # # @ @ # # @ @ # # # @ # # # # # # # # # # # # # # # # # # # # # @ # # : > 9 5 5 6 5 5 5 5 5 5 5 5 5 5 5 5 5 5 5 5 5 5 9 5 5 5 5 5 5 5 6 5 6 6 6 6 6 6 6 6 6 6 6 6 6 6 6 6 6 6 6 6 6 6 6 6 5 5 0 0 5 5 5 5 > > > > 5 5 > > 5 5 5 > > > > > > 5 5 5 5 > > > 5 5 > > > > > > > > > > > > > > > > > > > > > > > > > > > > > > > > 5 5 6 6 6 6 6 6 6 6 6 6 6 6 6 6 6 6 6 6 6 6 6 6 6 6 6 6 6 6 6 6 6 6 6 6 6 6 6 6 6 6 6 6 6 6 6 6 6 6 6 6 6 6 6 6 6 6 6 6 6 6 ",
"L.) & : : : @ # # # : # # # # # # # # # # # # # # # # # # # # # # # # # # # # # # # # # # # # # # # # # : # # # # # # # : : > 6 @.O.O.O.O.O.O.O.O.O.O.O.O.O.O.O.O.O.O.O.O.O.O.O.O.O.O.O.O.O.O.O.O.O.O.O.O.O.O.O.O.O.O.O.O.O.O.O.O.O.O.O.o.o.O.O.O.O.O.O.o.6 5 5 5 5 5 5 5 5 5 5 5 5 5 5 5 5 5 5 5 5 5 5 5 5 5 5 5 5 5 5 5 5 5 5 5 5 > > > > > > > > > > > > 5 5 5 5 > > > > > > > > 5 5 5 5 6 6 6 6 6 6 6 6 6 6 6 6 6 6 6 6 6 6 6 6 6 6 6 6 6 6 6 6 6 6 6 6 6 6 6 6 6 6 6 6 6 6 6 6 6 6 6 6 6 5 5 5 6 6 6 6 6 6 9 : # # * # @ * # # # # # # # # # # @ # # # @ @ @ # # # # # @ @ # # @ @ # # # # # # # # # # # # # # # # # # # # # # # @ # # # # : > 9 9 5 6 5 5 5 5 5 5 5 5 5 5 5 5 5 5 5 5 5 5 9 5 5 5 5 5 5 5 5 5 6 6 6 6 6 6 6 6 6 6 6 6 6 6 6 6 6 6 6 6 6 6 6 6 5 5 0 0 5 5 5 5 > > > > 5 5 > 5 5 5 5 > > > > > 5 5 5 5 5 > > > > 5 > > > > > > > > > > > > > > > > > > > > > > > > > > > > > > > > 5 5 6 6 6 6 6 6 6 6 6 6 6 6 6 6 6 6 6 6 6 6 6 6 6 6 6 6 6 6 6 6 6 6 6 6 6 6 6 6 6 6 6 6 6 6 6 6 6 6 6 6 6 6 6 6 6 6 6 6 6 6 ",
"L.| & : : : @ $ # # : # # # : : # # # # # # # # # # # # # # # # # # # # # # # # # # # # # # # # # # # # : # # # # # # # # : > 6 @.O.O.O.O.O.O.O.O.O.O.O.O.O.O.O.O.O.O.O.O.O.O.O.O.O.O.O.O.O.O.O.O.O.O.O.O.O.O.O.O.O.O.O.O.O.O.O.O.O.O.O.O.O.O.O.O.O.O.O.o.6 5 5 5 5 5 5 5 5 5 5 5 5 5 5 5 5 5 5 5 5 5 5 5 5 5 5 5 5 5 5 > > > > 5 5 > > > > 5 5 5 5 > > > > > > 5 5 > > > > > > > > 5 5 5 5 6 6 6 6 6 6 6 6 6 6 6 6 6 6 6 6 6 6 6 6 6 6 6 6 6 6 6 6 6 6 6 6 6 6 6 6 6 6 6 6 6 6 6 6 6 6 6 6 6 5 6 6 6 6 6 6 6 5 9 : # # # @ @ * # # @ @ # @ # # # @ @ @ # # # # @ @ @ # # # # @ # # @ @ # # * # # # # # # # # # # # # # # # # # # # # # @ @ # # : > 9 9 5 6 5 5 5 5 5 5 5 5 5 5 5 5 5 5 5 5 5 5 5 5 5 5 5 5 5 5 5 5 6 6 6 6 6 6 6 6 6 6 6 6 6 6 6 6 6 6 6 6 6 6 6 6 5 5 0 0 5 5 5 5 > > > 5 5 5 > > 5 5 > > > > > > > > 5 5 > > > > 5 5 5 > > > > > > > > > > > > > > > > > > > > > > > > > > > > > > > 5 5 6 6 6 6 6 6 6 6 6 6 6 6 6 6 6 6 6 6 6 6 6 6 6 6 6 6 6 6 6 6 6 6 6 6 6 6 6 6 6 6 6 6 6 6 6 6 6 6 6 6 6 6 6 6 6 6 6 6 6 6 ",
"L.| & : : : @ $ # # : # # # : : # # # # # # # # # # # # # # # # # # # # # # # # # # # # # # # # # # # # # # # # # # # # : : > 0 @.O.O.O.O.O.O.O.O.O.O.O.O.O.O.O.O.O.O.O.O.O.O.O.O.O.O.O.O.O.O.O.O.O.O.O.O.O.O.O.O.O.O.O.O.O.O.O.O.O.O.o.O.O.O.O.O.O.O.o.o.6 5 5 5 5 5 5 5 5 5 5 5 5 5 5 5 5 5 5 5 5 5 5 5 5 5 5 5 5 5 5 > > > > 5 5 5 > > > 5 5 5 5 5 > > > > > 5 5 5 > > > > > > > > 5 5 5 6 6 6 5 6 5 6 5 6 5 6 5 6 5 6 5 6 5 5 5 5 5 5 5 5 5 5 5 5 5 5 5 5 5 6 6 6 6 6 6 6 6 6 6 6 6 6 6 6 5 6 6 6 6 6 6 6 5 9 : # # # # @ @ # @ @ @ @ @ # # # @ @ @ @ @ # # @ @ @ @ # # # @ # # @ @ # # # # # # # # # # # # # # # # # # # # # # # # # @ # # : > 9 5 5 5 5 5 5 5 5 5 5 5 5 5 5 5 5 5 5 5 5 5 5 5 5 5 5 5 5 5 5 5 5 5 5 5 5 5 6 5 6 5 6 5 6 5 6 5 6 5 6 5 6 6 6 6 6 5 6 6 5 5 5 5 > > > > 5 5 > > 5 > > > > > > > > > > > > > > > 5 5 5 > > > > > > > > > > > > > > > > > > > > > > > > > > > > > > > 5 5 9 6 6 6 6 6 6 6 6 6 6 6 6 6 6 6 6 6 6 6 6 6 6 6 6 6 6 5 5 5 5 5 5 5 5 5 5 5 5 5 5 5 5 5 5 5 5 5 5 5 5 5 5 5 5 5 5 5 5 5 ",
"J.l & : : : @ # # # : # * # # # # # # # # # # # # # # # # # # # # # # # # # # # # # # # # # # # # * # # # # # # # # # : : : > 6 @.O.O.o.O.o.O.o.O.o.O.o.O.O.O.O.o.o.o.o.O.O.O.O.o.o.o.o.O.O.O.O.o.o.O.o.O.O.O.O.O.O.O.o.O.o.O.O.@.@.@.o.o.O.O.O.O.O.o.@.0 6 5 5 5 5 5 5 5 5 5 5 5 5 5 5 5 5 5 5 5 5 5 5 5 5 5 5 5 5 5 5 > > > > > > > 5 5 5 > > > > > > 5 5 5 > 5 5 5 > > > > > > > 5 5 5 5 6 6 5 5 5 5 6 5 6 5 5 5 6 5 6 5 5 5 5 5 5 5 5 5 5 5 5 5 5 5 5 5 5 5 5 5 5 5 6 6 6 6 5 5 5 5 6 6 6 6 6 5 6 6 6 6 6 6 6 > : # # @ @ @ @ @ @ @ # # * @ @ @ @ @ @ @ * * @ @ @ @ # @ # @ # # # # # # # # # # # # # # # # # # # # # # # # # # # # # # # : : > 9 5 5 5 5 5 5 5 5 5 5 5 5 5 5 5 5 5 5 5 5 5 5 5 5 5 5 5 5 5 9 9 5 5 5 5 5 5 6 9 6 9 9 9 6 5 6 9 9 9 6 9 6 6 6 6 6 5 5 5 5 5 5 > > > 5 5 5 5 > > > > 5 5 5 5 5 5 > > > 5 5 5 5 5 5 5 5 > > > > > > > > > > > > > > > > > > > > > > > > > > > > > > > 5 5 5 5 6 6 6 6 6 6 6 6 6 6 6 6 5 5 5 6 6 6 5 5 6 6 6 5 6 6 6 6 6 6 6 6 6 6 6 6 6 6 6 6 6 6 6 6 6 6 9 6 6 6 6 6 6 6 6 6 6 6 ",
"J.] & : : : @ # * # : # * # # # # # # # # # # # # # # # # # # # # # # # # # # # # # # # # # # # # # * * # # # # # # # : : : > 6 o.O.O.O.O.O.O.O.O.O.O.O.O.O.O.O.o.o.o.o.O.O.O.O.o.o.o.o.O.O.O.O.O.O.O.O.O.O.O.O.O.O.O.O.O.O.O.o.@.@.@.O.O.O.O.O.O.O.o.@.0 6 9 5 5 5 5 5 5 5 5 5 5 5 5 5 5 5 5 5 5 5 5 5 5 5 5 5 5 5 5 5 > > > > > > > 5 5 5 > > > > 5 5 5 5 > > 5 5 5 5 5 > > > > > 5 5 5 5 6 6 5 5 5 5 5 5 6 6 5 5 5 5 6 6 5 5 5 5 5 5 5 5 5 5 5 5 5 5 5 5 5 5 5 6 6 6 6 6 6 6 6 6 6 6 6 6 6 6 6 5 6 6 6 6 6 6 9 > : # # @ @ @ @ * @ @ # # * * @ @ @ @ @ * * * @ @ @ @ # @ # @ # # # # # # # # # # # # # # # # # # # # # # # # # # # # # # : : : > 5 5 5 5 5 5 5 5 5 5 5 5 5 5 5 5 5 5 5 5 5 5 5 5 5 5 5 5 5 5 5 9 5 5 5 5 5 5 6 6 9 9 9 9 6 6 6 6 9 9 6 6 6 6 6 6 6 6 5 5 5 5 > > > > 5 5 5 5 > > > > > > 5 5 5 5 > > > > 5 5 5 5 5 5 5 > > > > > > > > > > > > > > > > > > > > > > > > > > > > > > > 5 5 5 6 6 6 6 6 6 6 6 6 6 6 6 6 5 5 5 5 6 6 5 5 6 6 6 6 6 6 6 6 6 6 6 6 6 6 6 6 6 6 6 6 6 6 6 6 6 6 6 6 6 6 6 6 6 6 6 6 6 6 ",
"J.] & : : : @ * * # : # * # # # # # # # # # # # # # # # # # # # # # # # # # # # # # # # # # # # # # # # # # # # # # # : : : > 6 o.O.O.O.O.O.O.O.O.O.O.O.O.O.O.O.O.O.O.O.O.O.O.O.O.O.O.O.O.O.O.O.O.O.O.O.O.O.O.O.O.O.O.O.O.O.O.O.O.O.O.O.O.O.O.O.O.O.o.@.o.0 6 5 5 5 5 5 5 5 5 5 5 5 5 5 5 5 5 5 5 5 5 5 5 5 5 5 5 5 5 5 > > > > > > > > 5 > > > > 5 5 5 5 5 > > 5 5 5 5 5 > > > > > 5 5 5 5 6 6 6 6 6 6 6 6 6 6 6 6 6 6 6 6 6 6 6 6 6 6 5 5 5 5 5 5 6 5 6 6 6 6 6 6 6 6 6 6 6 6 6 6 6 6 6 6 6 6 6 6 6 6 6 6 6 6 9 > : # # @ @ @ @ * * * * * * * * * # # * * @ @ @ @ # @ * # @ @ # @ # # # # # # # # # # # # # # # # # # # # # # # # # # # # : : : > 5 5 5 5 5 5 5 5 5 5 5 5 5 5 5 5 5 5 5 5 5 5 5 5 5 5 9 9 5 5 5 5 6 6 6 6 6 6 6 6 6 6 6 6 6 6 6 6 6 6 6 6 6 6 6 6 6 6 5 5 5 5 > > > > 5 5 5 5 5 5 5 5 > > > > > > > > > > 5 5 > 5 > > 5 > > > > > > > > > > > > > > > > > > > > > > > > > > > > > > 5 5 5 6 6 6 6 6 6 6 6 6 6 6 6 6 6 6 6 6 6 6 6 6 6 6 6 6 6 6 6 6 6 6 6 6 6 6 6 6 6 6 6 6 6 6 6 6 6 6 6 6 6 6 6 6 6 9 9 6 6 6 6 ",
"J.l & : : : @ # * # : # # # # # # # # # # # # # # # # # # # # # # # # # # # # # # # # # # # # # # # # # # # # # # # # : # : : 6 o.O.O.O.O.O.O.O.O.O.O.O.O.O.O.O.O.O.O.O.O.O.O.O.O.O.O.O.O.O.O.O.O.O.O.O.O.O.O.O.O.O.O.O.O.O.O.O.O.O.O.O.O.O.O.O.O.O.o.o.o.6 6 5 5 5 5 5 5 5 5 5 5 5 5 5 5 5 5 5 5 5 5 5 5 5 5 5 5 5 5 5 > > > > > > > > 5 5 > > > 5 5 5 5 > > > > 5 5 5 > > > > > > 5 5 5 5 6 6 6 6 6 6 6 6 6 6 6 6 6 6 6 6 6 6 6 6 6 6 6 6 6 6 6 6 6 6 6 6 6 6 6 6 6 6 6 6 6 6 6 6 6 6 6 6 6 6 6 6 6 6 6 6 6 9 9 > : # # @ @ $ @ * * * * * * * * # # # * * @ * @ @ # # # # @ @ @ @ # # # # # # # # # # # # # # # # # # # # # # # # # # # # # : : > 9 5 5 5 5 5 5 5 5 5 5 5 5 5 5 5 5 5 5 5 5 5 9 9 9 9 9 5 5 5 6 6 6 6 6 6 6 6 6 6 0 6 0 6 0 6 0 6 0 6 0 6 0 6 6 6 6 6 5 5 5 5 5 > > > > 5 5 5 5 5 5 5 > > > > > > > > > > > 5 > 5 > > 5 > > > > > > > > > > > > > > > > > > > > > > > > > > > > > 5 5 5 5 6 6 6 6 6 6 6 6 6 6 6 6 6 6 6 6 6 6 6 6 6 6 6 6 6 6 6 6 6 6 6 6 6 6 6 6 6 6 6 6 6 6 6 6 6 6 6 6 6 6 6 6 6 6 6 6 6 6 6 6 ",
"D.p & : : : @ # * # : # # # : : # # # # # # # # # # # # # # # # # # # # # # # # # # # # # # # # # # # # # # # # # # # : # : : 7 @.O.O.O.O.O.O.O.O.O.O.O.O.O.O.O.O.O.O.O.O.O.O.O.O.O.O.O.O.O.O.O.O.O.O.O.O.O.O.O.O.O.O.O.O.O.O.O.O.O.O.O.O.%.%.O.%.O.O.O.o.o.6 5 5 5 5 5 5 5 5 5 5 5 5 5 5 5 5 5 5 5 5 5 5 5 5 5 5 5 5 5 5 > > > 5 5 5 > > > 5 5 > > 5 5 5 5 > > > > > 5 > > > > > 5 5 5 5 5 6 6 6 6 6 6 6 6 6 6 6 6 6 6 6 6 6 6 6 6 6 6 6 6 6 6 6 6 6 6 6 6 6 6 6 0 0 0 0 0 0 6 0 0 0 0 0 0 0 6 6 6 6 6 6 6 6 9 9 > : # # @ @ @ @ # # # # # # # # # @ @ @ # # # @ # # # # # @ @ # # # # * * # # # # # # # # # # # # # # # # # # # @ # # # # : : : > 9 5 5 5 5 5 9 9 6 9 6 9 6 9 6 9 6 9 6 9 6 9 5 5 5 6 6 6 6 6 6 6 6 6 6 6 6 6 6 6 6 6 6 6 6 6 6 6 6 6 6 6 6 6 6 6 6 6 0 6 5 5 5 5 5 > > > > > 5 > > > > > > > > > > > > > > > > 5 5 5 5 > > > 5 5 > > > > > > > > > > > > > > > > > > > > > > 5 5 5 5 5 6 6 0 0 6 6 6 6 6 6 6 6 6 6 6 6 6 6 6 6 6 6 6 6 6 6 6 6 6 6 6 6 6 6 6 6 6 6 6 6 6 6 6 6 6 6 6 6 6 6 6 6 6 6 6 6 6 6 6 6 6 ",
"D.l & : : : @ $ # # : # # # : : # # # # # # # # # # # # # # # # # # # # # # # # # # # # # # # # # # # # # # # # # # # : # # : q @.O.O.O.O.O.O.O.O.O.O.O.O.O.O.O.O.O.O.O.O.O.O.O.O.O.O.O.O.O.O.O.O.O.O.O.O.O.O.O.O.O.O.O.O.O.O.O.O.O.O.O.O.O.O.O.O.O.O.O.o.o.6 6 5 5 5 5 5 5 5 5 5 5 5 5 5 5 5 5 5 5 5 5 5 5 5 5 5 5 5 5 5 > > > 5 5 5 5 > > 5 5 > > 5 > 5 5 > > > > > > > > > > > 5 5 5 5 9 6 6 6 6 6 6 6 6 6 6 6 6 6 6 6 6 6 6 6 6 6 6 6 6 6 6 6 6 6 6 6 6 6 6 0 0 0 0 0 0 0 0 0 0 0 0 0 0 0 6 6 6 6 6 6 6 9 6 9 > : # # @ @ @ @ @ # # # # # # # # @ @ # # # # # # # # # # @ @ # # # # * * # # # # # # # # # # # # # # # # # # # @ # # # # # : : < 9 9 5 5 5 5 9 9 9 9 9 9 5 9 9 9 9 9 9 9 9 9 5 5 6 6 6 6 6 6 6 6 6 6 6 6 6 6 6 6 6 6 6 6 6 6 6 6 6 6 6 6 6 6 6 6 6 9 6 6 9 5 5 5 > > > > > > > > > > > > > > > > > > > > > > 5 5 5 5 5 > > > > > > > > > > > > > > > > > > > > > > > > > > > 5 5 5 5 5 6 6 6 6 6 0 6 6 6 6 6 6 6 6 6 6 6 6 6 6 6 6 6 6 6 6 6 6 6 6 6 6 6 6 6 6 6 6 6 6 6 6 6 6 6 6 6 6 6 6 6 6 6 6 6 6 6 6 6 6 6 ",
"H.l * : : : @ $ # # # # # # : : # # : # # # # # : # # # # # : # # # : # # # # # # # : # # # # # # # # # # # # # # # # : : : : q @.O.O.O.O.O.O.O.O.O.O.O.O.O.O.O.O.O.O.O.O.O.O.O.O.O.O.O.O.O.O.O.O.O.O.O.O.O.O.O.O.O.O.O.O.O.O.O.O.O.O.O.O.O.O.O.O.o.o.@.o.6 6 5 5 5 5 5 5 5 5 5 5 5 5 5 5 5 5 5 5 5 5 5 5 5 5 5 5 5 5 5 5 > > > > 5 > > > > 5 5 > > > > 5 > > > 5 5 > 5 5 5 > 5 5 5 5 9 9 9 6 6 6 6 6 6 6 6 6 6 6 6 6 6 6 6 6 6 6 6 6 6 6 6 6 6 6 6 6 6 6 6 6 6 6 6 6 6 6 6 6 6 6 6 6 6 6 6 6 6 6 6 6 6 6 9 9 9 6 : : # # @ @ @ @ # # # # # # # # # # # # # # # # # # # # # # # # # # # # # # # # # # # # # # # # # # # # # # # # @ # # # # # : : < 9 9 5 5 5 5 9 9 9 9 9 9 9 9 9 9 9 9 9 9 9 9 5 5 5 5 5 5 5 5 6 6 6 6 6 6 6 6 6 6 6 6 6 6 6 6 6 6 6 6 6 6 6 6 6 9 9 9 0 9 9 5 > > > > > > > > > > > > > > > > > > > > > > > > 5 5 5 5 5 > > > > > > > > > > > > > > > > > > > > > > > > > > > 5 5 5 5 5 9 9 9 6 6 6 6 6 6 6 6 6 6 6 6 6 6 6 6 6 6 6 6 6 6 6 6 6 6 6 6 6 6 6 6 6 6 6 6 6 6 6 6 6 6 6 6 6 6 6 6 6 6 6 6 6 6 6 6 6 6 ",
"H.l * : : : # # # : : : # # : : : # : : : # : # : : : # : # : : : : : : : # : # : # : : : # : # # # # # : : : : : # : : : : : q @.o.@.o.@.@.@.@.@.@.@.@.@.@.o.@.o.@.@.@.@.o.o.o.o.@.@.@.o.o.o.@.@.@.@.@.@.@.o.o.o.o.@.@.@.@.@.@.O.O.O.O.o.@.@.o.@.@.@.@.6 6 6 5 5 5 5 5 5 5 5 5 5 5 5 5 5 5 5 5 5 5 5 5 5 5 5 5 5 5 5 5 5 5 > > > > > > > > 5 5 > > > > 5 > > > 5 5 5 5 5 5 5 5 5 5 5 9 9 9 9 6 6 5 5 5 6 6 6 6 5 5 6 6 6 6 6 5 5 5 5 6 6 5 5 5 5 5 6 6 6 5 5 9 6 9 9 9 9 9 9 9 9 9 9 9 9 9 9 9 5 5 5 5 9 6 6 9 7 : # # # @ @ @ @ # # # # # # # # # # # # # # # # # # # # # # # # # # # # # # # # # # # # # # # # # # # # # # # # @ # # # # # : : < > > > 9 9 5 5 5 5 5 5 5 5 5 5 5 5 5 5 5 5 5 5 5 5 5 5 5 5 5 6 6 5 5 5 5 5 5 6 6 6 6 6 6 6 6 5 9 9 9 6 9 9 9 6 6 5 6 9 6 9 5 > > > > > > > > > > > > > > > > > > > > > > > > 5 5 5 5 5 5 > > > > > > > > > > > > > > > > > > > > > > > > > > > > > > 5 5 9 9 9 9 6 6 6 6 6 5 5 5 5 5 5 5 5 5 5 5 5 5 5 5 5 5 6 6 6 9 9 6 6 6 6 6 6 9 6 5 6 6 9 9 6 6 6 9 9 6 9 9 6 6 6 6 6 6 9 9 ",
"Y.z * : > : # # : : : : # # : : : : : : : : : : : : : : : # : : : : : : : : : : : : : : : : : : : : : : : : : : : : : : : : : < 0 8 8 0 0 8 8 8 8 8 8 8 8 8 8 8 0 0 0 8 0 0 0 0 0 0 0 0 0 0 0 +.0 0 0 @.0 0 0 0 @.@.0 0 0 0 0 0 @.@.@.@.@.@.0 8 0 6 8 6 6 6 5 5 5 5 5 5 5 5 5 5 5 5 5 5 5 5 5 5 5 5 5 5 9 9 9 9 5 9 6 5 5 > > 5 5 5 5 5 > > > 5 > 5 5 5 > > > > 5 5 > > 5 5 5 5 > > 5 5 5 5 5 6 9 9 5 5 5 5 9 9 9 9 5 5 5 5 5 5 5 9 5 5 5 5 9 9 5 5 5 5 9 9 5 9 9 5 9 9 9 9 9 9 9 9 9 9 9 9 9 9 6 6 6 6 6 9 9 9 < : : # # @ @ @ # # # # # # # # # # # # # # # # * * # # # # # # # # # # # # # # # # # # # # # # # # # # # # # # # # # # # # : : < < < > > > > > > > > > > > > > > > > > > > > > > > > > > > > > 9 9 > > > > > > > > > > > > < < > < < < > > > > q q q 9 5 5 9 9 > > > > > > > > > > > > > > > > > > > > > > > > > > > > > > > > > > > > > > > > > > > > > > > > > > > > > > > > > > > > > > > > > > > < > > > > 9 9 9 5 5 5 7 7 5 5 5 5 9 9 9 9 > > > < < > > > > > > > > > < < > > < < > > > > > > > > > > > > > > ",
"E._ 1 > > > : : : > > : : : : > : : : : : : : : : : : : : : : : : : : : : > : : : : : : : : : : : : : : : : : : : : : : : : : > > > > > > > > > > > > > > > > > > > > > > > > > > > > > > > 5 5 5 5 5 5 5 5 5 5 5 5 5 5 5 5 5 5 5 5 5 5 5 5 5 5 > > > 5 5 5 5 5 5 5 5 5 5 5 5 5 5 5 5 5 5 5 5 5 5 5 5 5 9 9 9 9 5 9 6 5 5 5 > 5 5 5 5 5 > > > > > 5 5 5 > > > > > > > > 5 5 5 5 > > > > > > > > > : : : : : : : : : : : : : : : : : : : : > > : : : : : > > > > > > > > > > > > > > > > > > > > > > > > > > > > : : : # # # # # # # # # # # # # # # # # # # # # * * # # # # # # # # # # # # # # # # # # # # # # # # # # # # # # # # # # # # : # : : : : : : > : : : : : : : : : : : : : : : : : : : : : : : : : : : : : : : : : : : : : : : : : : : : : : : : : : : : : : : > > > > > > > > > > > > > > > > > > > > > > > > > > > > > > > > > > > > > : > : : : > > > : > : > : > : > : > : > : : : > : : : : : : : : : : : : : : : : : : : : : : : : : : : : : : : : : : : : : : : : : : : : : : : : : : : : : : : : : : : : : : : ",
"E...3 5 5 5 : , > > 2 2 < > > > > > > > > > > > > < > > > > > > > > > < < < < < > > > > > > > > > > > > > > > > > > < < > : : : # # # # # # # # : # : # # # # # : : : : : : : # : # : # : : : : : : > > : : : : > > > : > : : : : : : : : : : : : : : : > > 5 5 5 5 5 5 5 5 5 5 5 5 5 5 5 5 5 5 5 5 5 5 5 5 6 6 5 9 6 5 5 > > 5 > > > > > > > > > > 5 5 > > > > > > 5 > 5 5 5 5 > > > > : : : : # # # # # # # # # # # # # # # # # # # # # : : # : : # # : : : : : : : : : # : : : : : : : # : : : : : : : : : : : : # # # # # # # # # # # # # # # # # # # # # # * * * * * * # # # # # # # # # # # # # # # # # # # # # # # # # # # # # # # # # # # : : : : : : : # # # # # # # # # # # # # # # # # # : # # # # # # # # # # # # # # # @ @ # # # # # # # # # # @ @ # # # # # : : : > > > > > > > > > > : > > > > > > > > > > > > > > > > > > > > : : : : : : : : : : : : : : : : : : : : : : : : : : : : : : # # # # # # # # # # # # # # # # # # # # # # # # # # # # # # # # # # # # # # # # # # # # # # # # # # # # # # # # # # # # # ",
"E...4 9 9 6 > , > 5 9 q > > 5 5 5 > > > > > > > > 9 > > > > > > > > > > > > > > > > > > > > > > > > > > > > > > 5 > > > > < : : # @ @ @ @ @ @ @ @ @ @ @ @ @ @ @ # # # # # # # @ # # # # # # # # # : : : : : : : : : : : : : : : : # # # # # # # # # : : > > 5 6 5 5 5 6 6 6 6 6 5 5 5 5 6 6 6 6 5 5 9 9 9 9 6 6 5 9 6 5 5 > 5 5 > > > > > > > > > > 5 > > > 5 5 > > > > > 5 5 > > > > : : : # # # # # # # # # # # # # # # # # # # # # # # # # # # # # # # # # # # # # # # # # # # # # # # # # # : : : : : : # : # # # # # # # # # # # # # # # # # # # # # # # # * * * * * * * # # # # # # # # # # # # # # # # # # # # # # # # # # # # # # # # # # # # # # # # # # # # # # # # # # # # # # # # # # # # # # @ # # @ @ @ @ @ @ @ @ @ @ @ @ @ @ @ @ @ @ @ @ @ @ @ @ @ @ # # # # : : : : > > > > > : : > : : : : : > : : : : : : : : : : : : : : : : : : : : : : : : : : : : : : : : : : : : : : : : : : : # # # # @ @ @ @ @ @ @ @ @ @ @ @ @ @ @ @ @ @ @ @ @ @ @ @ @ @ @ @ @ @ @ @ @ @ @ @ @ @ @ @ @ @ @ @ @ @ @ @ @ @ @ @ @ @ @ @ @ @ @ ",
"^...2 9 6 5 > > 9 5 9 5 > > 5 5 5 5 5 5 5 5 5 5 5 5 5 5 5 5 5 5 > > > > > > > > > > > > > > > > > > > > > > > > > > > > > > > : @ @ @ @ @ @ @ @ @ @ @ @ @ @ @ @ @ @ @ @ @ @ @ @ @ @ @ @ # @ * # # # # # # : : : : : : : # : # # # # # # # # # # # # # : : > 6 0 5 5 5 5 6 6 6 6 5 5 5 5 5 5 5 5 5 6 6 6 6 6 6 6 6 9 6 5 5 > 5 5 > > > > > > > > > > > > 5 5 5 5 5 5 5 5 > > > > > > < : : # # # # # * # * # * # # # * # # # * # * # * # # # * # # # # # # # # # # # # # # # # # # # # # # # # # # # # # # # # # # # # # # # # # # # # # # # # # # # # # # # # # * * * * * * # # # # # # # # # # # # # # # : # # # # # # # # # : : : : : : : : : # # # # # # # # # # # # # # # # # # # # # # # # # # # # # @ @ @ @ @ @ @ @ @ @ @ @ @ @ @ @ @ @ @ @ @ @ @ @ @ @ @ . @ @ @ @ # # : : : : : : : : : : : : : : : : : : : : : : : : : : : : : : : : : : : : : : : : : : : : : : : : : : : : : : : : : : : : # # # @ @ @ @ @ @ @ @ @ @ @ @ @ @ @ @ @ @ @ @ @ @ @ @ @ @ @ @ @ @ @ @ @ @ @ @ @ @ @ @ @ @ @ @ @ @ @ @ @ @ @ @ @ @ @ @ @ @ @ @ ",
"^...4 0 6 6 > > 5 5 9 9 5 5 5 5 5 5 5 5 5 5 5 5 5 5 5 5 5 5 5 5 5 5 5 5 5 5 5 5 5 5 5 5 5 5 5 5 > > > 5 5 5 5 5 5 > > > 5 > > : @ . @ . @ . @ . @ . @ @ @ . @ @ @ @ @ @ @ @ @ @ @ @ @ @ @ @ @ * # # # # # # # # # # # # # # # # # # # $ * * * * * # # : : > 9 9 5 5 5 5 6 6 5 6 5 5 5 5 5 5 5 5 6 6 9 6 6 6 6 6 6 6 9 5 5 5 5 5 > 5 > > > > > > > > > > > > 5 5 > 5 5 5 > > > > > > , : # # # # # # # # # # # # # # # # # # # # # # # # # # # # # # # # # # # # # # # # # # # # # # # # # # # # # # # # # # # # # # # # # # # # # # # # # # # # # # # # # # # # * * * * * * # # # # # # # # # # # # # # # # # # # # # # # # # : : : : : : : : : # # # # # # # # # # # # # # # # # # # # # # # # # # @ # @ @ @ @ @ @ @ @ @ @ @ @ @ @ @ @ @ @ @ @ @ @ @ @ @ @ @ . . . . @ @ @ # : : : : > : > > > : : : : : : : : : : : : : : : : : : : : : : : : : : : : : : : : : : : : : : : : : : : : : : : : : : : : # # # @ @ @ @ @ @ @ @ @ @ @ @ @ @ @ @ @ @ @ @ @ @ @ @ @ @ @ @ @ @ @ @ @ @ @ @ @ @ @ @ @ @ @ @ @ @ @ @ @ @ @ @ @ @ @ @ @ @ @ ",
"^...4 6 6 6 > > 5 9 9 9 5 5 5 5 5 5 5 5 5 5 5 5 5 5 5 5 5 5 5 5 5 5 5 5 5 5 5 5 5 5 5 5 5 5 5 5 5 > 5 5 5 5 5 5 9 5 > > 5 > > : @ . . . . . . . . . . . . . . . . . @ @ @ @ @ @ @ @ @ @ @ @ @ @ # # # # # # # # # # # # # # # # # # # # $ $ $ * * # # : > > 9 5 6 6 5 6 6 6 6 6 6 6 6 6 0 0 5 5 6 6 0 0 6 6 6 6 6 6 5 5 5 > 5 5 5 5 5 5 > > > > 5 5 > 5 > > > > > > 5 5 5 5 > > < < , : # # @ $ @ @ @ @ @ @ @ @ # # @ @ @ @ # @ # # # # # # # # # # # # * * # # # # # # # # # # # # # # # # # # # # @ @ # # # # # # # # # # # # # # # # # # # # # # # # # # # # # # * * # # # # # # # # # # : : # # # # # # # # # # # # # # # : : : : : : : : : # # # # # # # # # # # # # # # # # # # # # # # # # # # * @ @ @ @ @ @ @ @ @ @ @ @ . . @ @ . @ . . @ . @ @ @ @ @ . .   . . @ @ # # : : : : : : > > : : : : : : : : : : : : : : : : : : : : : : : : : # : # # # # # : : # # # # # # # # # # # # # : : : : : # # # @ @ @ @ @ @ @ # @ @ @ @ @ @ @ @ @ @ @ @ @ @ @ @ @ @ @ @ @ @ @ @ @ @ @ @ @ @ @ @ @ @ @ @ @ @ @ @ @ @ @ @ @ @ @ @ @ @ @ ",
"!.E 2 6 6 6 > > 5 5 9 9 9 5 5 5 5 5 5 5 5 5 5 5 5 5 5 5 5 5 5 5 5 5 5 5 5 5 5 5 5 5 5 5 5 5 5 5 > > > 5 5 5 5 5 9 5 > > 5 > > : @ . . . . . . . . . . . . . . . @ @ @ @ @ @ @ @ @ @ @ @ @ @ @ @ # # # # # # # # # # # # # # # # # # # * * * * * * # # : > 5 9 0 6 6 5 5 5 6 6 6 6 6 6 6 6 6 5 6 6 6 0 6 6 6 6 6 6 6 5 5 5 > 5 5 5 5 5 5 > > > 5 5 5 5 5 > > > > > > 5 5 5 5 > > > < , # # @ @ @ @ @ @ @ @ @ @ @ # # @ @ @ @ @ @ # # # # # # # # * # * * # # # # # # # # # # # # # # # # # # # # # # # # # # # # # # # # # # # # # # # # # # # # # # # # # # # # # # # # # # # # # # # # # # : : # # # # # # # # # # # # # # # : : : : : : : : # # # # # # @ @ # # # # # # # # # # # # # # # # # # # # # * @ @ @ @ @ @ @ @ @ & @ @ @ @ @ @ @ @ @ @ @ @ @ @ @ @ .   . . @ @ @ * # , , : : : : > > > : : : > > > : : : > > > : : > : : : : : : : : : # : # # # # # # # # # # # # # # # # # # # # : : : : : # # # @ @ @ @ @ @ @ @ @ @ @ @ @ @ @ @ @ @ @ @ @ @ @ @ @ @ @ @ @ @ @ @ @ @ @ @ @ @ @ @ @ @ @ @ @ @ @ @ @ @ @ @ @ @ @ @ @ @ @ ",
"^...2 6 6 6 > 5 5 5 6 9 5 5 5 5 5 5 5 5 5 5 5 5 5 5 5 5 5 5 5 5 5 > 5 > 5 > 5 5 5 > 5 > 5 5 5 > > > 5 5 5 5 5 5 5 5 5 > > > > : @ @ @ @ @ @ @ @ @ @ @ @ @ @ @ @ @ @ @ @ @ @ @ @ @ @ @ @ @ @ @ * # # # # # # # # # # # # # # # # # # # # # # # * * # # : : > 9 6 6 6 6 6 6 6 6 6 6 6 6 6 6 6 6 6 6 6 6 6 6 6 6 6 6 6 5 5 5 > > > > > > 5 5 5 5 > > > 5 5 5 5 5 5 > > 5 > 5 5 5 > > < , : # # @ @ # # # @ @ @ @ @ # # # # # # # # * * * * # # # # # # # # # # # # # # # # # # # # # # # # # # # # # # # # # # # # # # # # # # # # # # # # # # # # # # # # # # # # # # # # # # # # # # : : : : : : : : : : # # : : : : : : # # # : : : : : : # # # # # # # # # @ @ # # # # # # # # # # # # # # # # # # # # # # @ @ @ @ @ @ @ . @ . @ @ @ @ @ @ @ @ @ @ @ @ @ @ @ . . . . @ @ @ # # 1 : : : : : : : : : : : : : : : : : : : : : : : : : : : : : : : : : : : : : : : : : : : : : : : : : : : : : : : : : : : # # # @ @ @ @ @ @ @ @ @ @ @ @ @ @ @ @ @ @ @ @ @ @ @ @ @ @ @ @ @ @ @ @ @ @ @ @ @ @ @ @ @ @ @ @ @ @ @ @ @ @ @ @ @ @ @ @ @ @ @ ",
"^...2 6 6 6 > 5 5 5 6 5 5 > 5 5 5 5 5 5 5 5 5 5 5 5 5 5 5 5 5 5 > > > > > > 5 5 5 5 > > 5 5 > > > > 5 5 5 5 5 5 > 5 5 > > > > : @ @ @ @ @ @ @ @ @ @ @ @ @ @ @ @ @ @ @ @ @ @ @ @ @ @ @ @ @ @ @ # # # # # # # # # # # # # # # # # # # # # : # # * # # # # : > 5 6 6 6 6 6 6 6 6 6 6 6 6 6 6 6 6 6 6 6 6 6 6 6 6 6 6 5 9 5 5 > > 5 > > 5 5 5 5 5 > > > 5 > 5 5 > > > > 5 > 5 5 5 > > > < : # # # @ # # # # @ @ @ @ # # # # # # # @ * * * * @ @ # # # # # # # # # # # # # # # # # # # # # # # # # # # # # # # # # # # # # # # # # # # # # # # # # # # # # # # # # # # # # # # # # # # # : : : : : : : : : : # # : : : : # : # # # : : : : : # # # # # # # # # # @ @ # # # # # # # # # # # # # # # # # # # # # # # @ @ @ @ @ . . @ @ @ @ @ @ @ @ @ @ @ @ @ @ @ @ @ . . . @ @ @ @ # # : : : : : : : : : : : : : : : : : : : : : : : : : : : : : : : : : : : : : : : : : : : : : : : : : : : : : : : : : : : # # # @ @ @ @ @ @ @ @ @ @ @ @ @ @ @ @ @ @ @ @ @ @ @ @ @ @ @ @ @ @ @ @ @ @ @ @ @ @ @ @ @ @ @ @ @ @ @ @ @ @ @ @ @ @ @ @ @ @ @ @ ",
"T.` 2 6 6 6 > > 5 5 9 5 5 > 5 5 5 5 5 5 5 5 5 5 5 5 5 5 5 5 5 5 5 5 5 5 5 5 5 5 5 5 > > > > 5 > > > > > > > 5 5 > 5 9 > > > > : @ @ @ @ @ @ @ @ @ @ @ @ @ @ @ @ @ @ @ @ @ @ @ @ @ @ @ @ @ @ * * # # # # # # # # # # # # # # # # # # # # : # # # # # # # : > 5 6 6 6 6 6 6 6 6 6 6 6 6 6 6 6 6 6 6 6 6 6 6 6 6 6 6 6 9 5 5 > > > 5 5 5 5 5 5 > > > > > > > > > > > > 5 5 5 5 5 5 > > < : # # * @ # # # # # # # # # # @ @ # @ @ @ @ @ * * # # # # # # # # # # # # # # # # # # # # # # # # # # # # # # # # # # # # # # # # # # # # # # # # # # # # # # # # # # # # # # # # # # # # # # : : # # # # : : : : # # : : # # # # # # : : : : : : : : # # # # # # # # # # # # # # # # # # # # # # # # # # # # # # # # # @ @ @ @ @ . . . . @ @ @ @ @ @ @ @ @ @ @ @ @ @ @ . . . @ @ @ @ # # : : : : : : : : : : : : : : : : : : : : : : : : : : : : : : : : : : : : : : : : : : : : : : : : : : : : : : : : : : : # # # @ @ @ @ @ @ @ @ @ @ @ @ @ @ @ @ @ @ @ @ @ @ @ @ @ @ @ @ @ @ @ @ @ @ @ @ @ @ @ @ @ @ @ @ @ @ @ @ @ @ @ @ @ @ @ @ @ @ @ @ ",
"T.E 2 9 6 6 > > 5 5 9 9 5 > 5 5 5 5 5 5 5 5 5 5 5 5 5 5 5 5 5 5 5 5 5 5 5 5 5 5 5 > > > 5 5 5 5 > > > > > > 5 5 > 5 9 > > > > # @ @ @ @ @ @ @ @ @ @ @ @ @ @ @ @ @ @ @ @ @ @ @ @ @ @ @ @ @ @ # * # # # # # # # # # # # # # # # # # # # # : # # # # # # # : > 5 6 6 6 6 6 6 6 6 6 6 6 6 6 6 6 6 6 6 6 6 6 6 6 6 6 6 9 9 5 5 > > > > > 5 5 > > > > > > > > > > > > 5 5 5 5 5 5 5 5 > > < : # # * @ # # # # # # # # @ @ @ @ @ @ @ @ @ @ * * # # # # # # # # # # # # # # # # # # # # # # # # # # # # # # # # # # # # # # # # # # # # # # # # # # # # # # # # # # # # # # # # # # # # # # : : # # # # : : : # # # : : # # # # : : : : : : : : : : # # # # # # # # # # # # # # # # # # # # # # # # # # # # # # # # # @ @ @ @ @ . . . . @ @ @ @ @ @ @ @ @ @ @ @ @ @ @ . . . @ @ @ @ # # : : : : : : : : : : : : : : : : : : : : : : : : : : : : : : : : : : : : : : : : : : : : : : : : : : : : : : : : : : : # # # @ @ @ @ @ @ @ @ @ @ @ @ @ @ @ @ @ @ @ @ @ @ @ @ @ @ @ @ @ @ @ @ @ @ @ @ @ @ @ @ @ @ @ @ @ @ @ @ @ @ @ @ @ @ @ @ @ @ @ @ ",
"T.E 2 9 6 6 > > 5 9 9 9 5 > 5 5 5 5 5 5 5 5 5 5 5 5 5 5 5 5 5 5 5 5 5 5 5 5 5 5 5 5 > > > > 5 5 > > > > > 5 5 5 > 5 9 > > > > : @ @ @ @ @ @ @ @ @ @ @ @ @ @ @ @ @ @ @ @ @ @ @ @ @ @ @ @ @ @ * * # # # # # # # # # # # # # # # # # # # # # # # # # # # # : > 5 6 6 6 6 6 6 6 6 6 6 6 6 6 6 6 6 6 6 6 6 6 6 6 6 6 6 9 9 5 5 > > > > > 5 5 5 5 > > > > > > > > > 5 > > > 5 5 5 5 > > > < : # # * @ # # # # # # # # # # # @ @ @ # # @ @ * * # # # # # # # # # # # # # # # # # # # # # # # # # # # # # # # # # # # # # # # # # # # # # # # # # # # # # # # # # # # # # # # # # # # # # # # # : : : : # # # # : # # # : : : # # # : : : : : : : : # # # # # # # # @ @ # # # # # # # # # # # # # # # # # # # # # # # @ @ @ @ @ . . . . @ @ @ @ @ @ @ @ @ @ @ @ @ @ @ . . . @ @ @ @ # # : : : : : : : : : : : : : : : : : : : : : : : : : : : : : : : : : : : : : : : : : : : : : : : : : : : : : : : : : : : : # # # @ @ @ @ @ @ @ @ @ @ @ @ @ @ @ @ @ @ @ @ @ @ @ @ @ @ @ @ @ @ @ @ @ @ @ @ @ @ @ @ @ @ @ @ @ @ @ @ @ @ @ @ @ @ @ @ @ @ @ ",
"U.E 2 9 6 6 > > 5 9 9 9 5 > 5 5 5 5 5 5 5 5 5 5 5 5 5 5 5 5 5 5 5 > 5 5 5 5 5 5 5 5 > > > > 5 5 > > > > > > 5 5 > 5 9 > > > > : @ @ @ @ @ @ @ @ @ @ @ @ @ @ @ @ @ @ @ @ @ @ @ @ @ @ @ @ @ @ * * # # # # # # # # # # # # # # # # # # # # # # # # # # # : : > 5 6 6 6 6 6 6 6 6 6 6 6 6 6 6 6 6 6 6 6 6 6 6 6 6 6 6 9 9 5 5 > > > > > > > 5 5 > > > > > > > > 5 5 > > > 5 5 5 5 > > > < : # # * @ # # # # # # @ # # # # @ @ @ @ # @ @ * * @ # # # # # # # # # # # # # # # # # # # # # # # # # # # # # # # # # # # # # # # # # # # # # # # # # # # # # # # # # # # # # # # # # # # # # : # : : : : # : # # : # # # : : : : # # : : : : : : : : # # # # # # # # @ @ # # # # # # # # # # # # # # # # # # # # # # # @ @ @ @ @ . . . . @ @ @ @ @ @ @ @ @ @ @ @ @ @ @ . . . @ @ @ @ # # : : : : : : : : : : : : : : : : : : : : : : : : : : : : : : : : : : : : : : : : : : : : : : : : : : : : : : : : : : : : # # # @ @ @ @ @ @ @ @ @ @ @ @ @ @ @ @ @ @ @ @ @ @ @ @ @ @ @ @ @ @ @ @ @ @ @ @ @ @ @ @ @ @ @ @ @ @ @ @ @ @ @ @ @ @ @ @ @ @ @ ",
"U.E 2 9 6 6 > > 5 9 9 5 5 > 5 5 5 5 5 5 5 5 5 5 5 5 5 5 5 5 5 5 > > > > 5 5 5 5 5 5 5 5 > 5 5 > > > > > 5 5 5 5 > 5 > > > > > : @ @ @ @ @ @ @ @ @ @ @ @ @ @ @ @ @ @ @ @ @ @ @ @ @ @ @ @ @ @ * * # # # # # # # # # # # # # # # # # # # # # # # # # # # : : > 5 6 6 6 6 6 6 6 6 6 6 6 6 6 6 6 6 6 6 6 6 6 6 6 6 6 6 9 6 5 5 > > > > > > > 5 > > > 5 5 > > > > 5 5 > > 5 5 5 5 5 > > > < : # # @ @ # @ # # # @ @ @ # # # # @ @ # # # # # * @ @ # # # # # # # # # # # # # # # # # # # # # # # # # # # # # # # # # # # # # # # # # # # # # # # # # # # # # # # # # # # # # # # # # # # # # # : : : : : : : : : : # # : : : : # : : : : : : : : : # # # # # # # # # # # # # # # # # # # # # # # # # # # # # # # # # @ @ @ @ @ . . . . @ @ @ @ @ @ @ @ @ @ @ @ @ @ @ . . . @ @ @ @ # # : : : : : : : : : : : : : : : : : : : : : : : : : : : : : : : : : : : : : : : : : : : : : : : : : : : : : : : : : : : # # # # @ @ @ @ @ @ @ @ @ @ @ @ @ @ @ @ @ @ @ @ @ @ @ @ @ @ @ @ @ @ @ @ @ @ @ @ @ @ @ @ @ @ @ @ @ @ @ @ @ @ @ @ @ @ @ @ @ @ @ ",
"U.E 2 6 6 6 > > 5 5 9 5 5 > 5 5 5 5 5 5 5 5 5 5 5 5 5 5 5 5 5 5 > > > > > 5 5 5 5 5 5 5 > 5 5 > > > > > 5 5 5 5 > 5 > > > > > # @ @ @ @ @ @ @ @ @ @ @ @ @ @ @ @ @ @ @ @ @ @ @ @ @ @ @ @ @ @ * * # # # # # # # # # # # # # # # # # # # # # # # # # # # : : > 5 6 6 6 6 6 6 6 6 6 6 6 6 6 6 6 6 6 6 6 6 6 6 6 6 6 6 6 6 5 5 > > > > > > > 5 5 > > 5 5 > > > 5 5 5 > > 5 5 5 5 5 > > > < : # # * @ @ @ # # # @ @ @ # # # # # @ # # # # # # @ @ # # # # # # # # # # # # # # # # # # # # # # # # # # # # # # # # # # # # # # # # # # # # # # # # # # # # # # # # # # # # # # # # # # # # # # # : : : : : : : : : : : : : : : # # : : : : : : : # # # # # # # # # # # # # # # # # # # # # # # # # # # # # # # # # @ @ @ @ @ @ . . . . @ @ @ @ @ @ @ @ @ @ @ @ @ @ @ . . . @ @ @ @ # # : : : : : : : : : : : : : : : : : : : : : : : : : : : : : : : : : : : : : : : : : : : : : : : : : : : : : : : : : : : # # # # @ @ @ @ @ @ @ @ @ @ @ @ @ @ @ @ @ @ @ @ @ @ @ @ @ @ @ @ @ @ @ @ @ @ @ @ @ @ @ @ @ @ @ @ @ @ @ @ @ @ @ @ @ @ @ @ @ @ @ ",
"U.E 2 6 6 6 > > 5 9 9 9 5 > 5 5 5 5 5 5 5 5 5 5 5 5 5 5 5 5 5 5 5 5 5 5 5 5 > > > 5 5 5 > > 5 > 5 > 5 5 > > 5 5 > 5 5 > > > > # @ @ @ @ @ @ @ @ @ @ @ @ @ @ @ @ @ @ @ @ @ @ @ @ @ @ @ @ @ @ * * # # # # # # # # # # # # # # # # # # # # : # # # # # # # : > 5 6 6 6 6 6 6 6 6 6 6 6 6 6 6 6 6 6 6 6 6 6 6 6 6 6 6 9 9 5 5 5 > 5 > > > > > > > > 5 5 > > > > 5 5 > > > 5 5 5 5 > > > > : # # * @ @ @ @ # # # # # # @ @ @ # # # # * * * * # # # # # # # # # # # # # # # # # # # # # # # # # # # # # # # # # # # # # # # # # # # # # # # # # # # # # # # # # # # # # # # # # # # # # # : : : : : : # # # # # # : : # # : : : # # # : : : : : : # # # # # # # # # # # # # # # # # # # # # # # # # # # # # # # # # @ @ @ @ @ . . . . @ @ @ @ @ @ @ @ @ @ @ @ @ @ @ . . . @ @ @ @ # # : : : : : : : : : : : : : : : : : : : : : : : : : : : : : : : : : : : : : : : : : : : : : : : : : : : : : : : : : : : : # # @ @ @ @ @ @ @ @ @ @ @ @ @ @ @ @ @ @ @ @ @ @ @ @ @ @ @ @ @ @ @ @ @ @ @ @ @ @ @ @ @ @ @ @ @ @ @ @ @ @ @ @ @ @ @ @ @ @ @ @ ",
"U.E 2 9 6 6 > > 5 5 9 9 5 > 5 5 5 5 5 5 5 5 5 5 5 5 5 5 5 5 5 5 5 5 5 5 5 5 > > > 5 5 5 5 > 5 > 5 > > 5 > > 5 5 > 5 5 > > > > # @ @ @ @ @ @ @ @ @ @ @ @ @ @ @ @ @ @ @ @ @ @ @ @ @ @ @ @ @ @ * * # # # # # # # # # # # # # # # # # # # # # # # # # # # # : > 5 6 6 6 6 6 6 6 6 6 6 6 6 6 6 6 6 6 6 6 6 6 6 6 6 6 6 9 9 5 5 5 > 5 > > > > 5 > > > 5 5 > > > > 5 5 > > > 5 5 5 5 5 > > > : # # * @ @ @ # # # # # # # @ @ @ # # # # * * * * # # # # # # # # # # # # # # # # # # # # # # # # # # # # # # # # # # # # # # # # # # # # # # # # # # # # # # # # # # # # # # # # # # # # # # : : : : : : : : # # : # : : # : : : : # # : : : : : : : # # # # # # # # # # # # # # # # # # # # # # # # # # # # # # # # # @ @ @ @ @ . . . . @ @ @ @ @ @ @ @ @ @ @ @ @ @ @ . . . @ @ @ @ # # : : : : : : : : : : : : : : : : : : : : : : : : : : : : : : : : : : : : : : : : : : : : : : : : : : : : : : : : : : : : # # @ @ @ @ @ @ @ @ @ @ @ @ @ @ @ @ @ @ @ @ @ @ @ @ @ @ @ @ @ @ @ @ @ @ @ @ @ @ @ @ @ @ @ @ @ @ @ @ @ @ @ @ @ @ @ @ @ @ @ @ ",
"U.E 2 9 6 6 > > 5 5 9 5 5 > 5 5 5 5 5 5 5 5 5 5 5 5 5 5 5 5 5 5 > 5 > > 5 > > > > > 5 5 5 5 5 > > > > > > > 5 5 > 5 5 > > > > : @ @ @ @ @ @ @ @ @ @ @ @ @ @ @ @ @ @ @ @ @ @ @ @ @ @ @ @ @ @ * * # # # # # # # # # # # # # # # # # # # # # # # # # # # # : > 5 6 6 6 6 6 6 6 6 6 6 6 6 6 6 6 6 6 6 6 6 6 6 6 6 6 6 9 9 5 5 5 > > > > 5 5 5 5 > > 5 > > > > > 5 5 > > 5 5 5 5 5 5 > > > : # # * @ # * # # # # @ @ # # @ @ @ @ @ @ * # * * @ @ # # # # # # # # # # # # # # # # # # # # # # # # # # # # # # # # # # # # # # # # # # # # # # # # # # # # # # # # # # # # # # # # # # # # : : # # # # : : : : : : : : # # : : : : # # : : : : : : # # # # # # # # @ @ # # # # # # # # # # # # # # # # # # # # # # # @ @ @ @ @ . . . . @ @ @ @ @ @ @ @ @ @ @ @ @ @ @ . . . @ @ @ @ # # : : : : : : : : : : : : : : : : : : : : : : : : : : : : : : : : : : : : : : : : : : : : : : : : : : : : : : : : : : : # # # @ @ @ @ @ @ @ @ @ @ @ @ @ @ @ @ @ @ @ @ @ @ @ @ @ @ @ @ @ @ @ @ @ @ @ @ @ @ @ @ @ @ @ @ @ @ @ @ @ @ @ @ @ @ @ @ @ @ @ @ ",
"T.E 2 9 6 6 > > 5 5 9 5 5 > 5 5 5 5 5 5 5 5 5 5 5 5 5 5 5 5 5 5 > > > > 5 > > > > > 5 5 5 5 5 5 > > > > > > 5 5 > 5 5 > > > > : @ @ @ @ @ @ @ @ @ @ @ @ @ @ @ @ @ @ @ @ @ @ @ @ @ @ @ @ @ @ # # # # # # # # # # # # # # # # # # # # # # # # # * # # # # : > 5 6 6 6 6 6 6 6 6 6 6 6 6 6 6 6 6 6 6 6 6 6 6 6 6 6 6 9 9 5 5 > > > > > 5 5 5 5 > > > > > > > > 5 5 > 5 5 5 5 5 5 5 > > < : # # # @ # # # # # # # @ # # # # @ @ @ @ # # * @ @ @ # # # # # # # # # # # # # # # # # # # # # # # # # # # # # # # # # # # # # # # # # # # # # # # # # # # # # # # # # # # # # # # # # # # # : : # # # # : : : : : : : : # # : : : : # # : : : : : : # # # # # # # # @ @ # # # # # # # # # # # # # # # # # # # # # # # @ @ @ @ @ @ . . . @ @ @ @ @ @ @ @ @ @ @ @ @ @ @ . . . @ @ @ @ # # : : : : : : : : : : : : : : : : : : : : : : : : : : : : : : : : : : : : : : : : : : : : : : : : : : : : : : : : : : : # # # @ @ @ @ @ @ @ @ @ @ @ @ @ @ @ @ @ @ @ @ @ @ @ @ @ @ @ @ @ @ @ @ @ @ @ @ @ @ @ @ @ @ @ @ @ @ @ @ @ @ @ @ @ @ @ @ @ @ @ @ ",
"T.` 2 9 6 6 > > 5 5 9 9 5 > 5 5 5 5 5 5 5 5 5 5 5 5 5 5 5 5 5 5 5 5 5 > > > > > > > > 5 5 5 5 > > > 5 > 5 5 5 5 > 5 5 > > > > : @ @ @ @ @ @ @ @ @ @ @ @ @ @ @ @ @ @ @ @ @ @ @ @ @ @ @ @ @ @ # # # # # # # # # # # # # # # # # # # # # # # # # * # # # : : > 5 6 6 6 6 6 6 6 6 6 6 6 6 6 6 6 6 6 6 6 6 6 6 6 6 6 6 5 9 5 5 > > > > 5 5 5 5 5 > > > > > > > > > > > > 5 5 5 5 5 5 > > < : # # * @ # # # # # # @ @ # # @ @ @ # # # @ @ @ @ @ @ # # # # # # # # # # # # # # # # # # # # # # # # # # # # # # # # # # # # # # # # # # # # # # # # # # # # # # # # # # # # # # # # # # # # : : : : : : # : : : : : : # # : : : : : : : : : : : # # # # # # # # # # # @ # # # # # # # # # # # # # # # # # # # # # # # @ @ @ @ @ . . . . @ @ @ @ @ @ @ @ @ @ @ @ @ @ @ . . . @ @ @ @ # # : : : : : : : : : : : : : : : : : : : : : : : : : : : : : : : : : : : : : : : : : : : : : : : : : : : : : : : : : : : # # # # @ @ @ @ @ @ @ @ @ @ @ @ @ @ @ @ @ @ @ @ @ @ @ @ @ @ @ @ @ @ @ @ @ @ @ @ @ @ @ @ @ @ @ @ @ @ @ @ @ @ @ @ @ @ @ @ @ @ @ ",
"T.` 2 9 6 6 > > 5 5 9 9 5 > 5 5 5 5 5 5 5 5 5 5 5 5 5 5 5 5 5 5 5 5 > > > > > > > > 5 5 5 5 5 > > > 5 5 5 5 5 5 > 5 9 > > > > : @ @ @ @ @ @ @ @ @ @ @ @ @ @ @ @ @ @ @ @ @ @ @ @ @ @ @ @ @ @ # # # # # # # # # # # # # # # # # # # # # # # # # * # # # : : > 5 6 6 6 6 6 6 6 6 6 6 6 6 6 6 6 6 6 6 6 6 6 6 6 6 6 6 6 9 5 5 > > > > > 5 5 5 5 > > > > > 5 > > > > > > 5 5 5 5 5 > > > < : # # * @ # # # # # # @ @ # # @ @ # # # # @ @ @ @ # # # # # # # # # # # # # # # # # # # # # # # # # # # # # # # # # # # # # # # # # # # # # # # # # # # # # # # # # # # # # # # # # # # # # # : # : : : : # # : : : : : # # : : : : : : : : : : : # # # # # # # # # # # # # # # # # # # # # # # # # # # # # # # # # # # @ @ @ @ @ . . . . @ @ @ @ @ @ @ @ @ @ @ @ @ @ @ . . . @ @ @ @ # # : : : : : : : : : : : : : : : : : : : : : : : : : : : : : : : : : : : : : : : : : : : : : : : : : : : : : : : : : : : # # # # @ @ @ @ @ @ @ @ @ @ @ @ @ @ @ @ @ @ @ @ @ @ @ @ @ @ @ @ @ @ @ @ @ @ @ @ @ @ @ @ @ @ @ @ @ @ @ @ @ @ @ @ @ @ @ @ @ @ @ ",
"^...2 9 6 6 > 5 5 9 6 9 5 > 5 5 5 5 5 5 5 5 5 5 5 5 5 5 5 5 5 5 5 5 5 5 > > 5 5 5 5 5 5 > > > > > > 5 5 5 > 5 5 > 5 9 > > > > : @ @ @ @ @ @ @ @ @ @ @ @ @ @ @ @ @ @ @ @ @ @ @ @ @ @ @ @ @ @ * * # # # # # # # # # # # # # # # # # # # # # # # # # # # : : > 5 6 6 6 6 6 6 6 6 6 6 6 6 6 6 6 6 6 6 6 6 6 6 6 6 6 6 6 5 5 5 > > > > > 5 5 5 5 > > > > 5 5 5 5 > > > > > > 5 5 5 5 > > < : # # * * @ @ @ @ # # # @ # # # @ # # # # * * @ # # # # # # # # # # # # # # # # # # # # # # # # # # # # # # # # # # # # # # # # # # # # # # # # # # # # # # # # # # # # # # # # # # # # # # # # # : : : : # # : : : : # # : : : : : : : : : : : : # # # # # # # # # # # # # # # # # # # # # # # # # # # # # # # # # # @ @ @ @ @ @ . . . . @ @ @ @ @ @ @ @ @ @ @ @ @ @ @ . . . @ @ @ @ # # : : : : : : : : : : : : : : : : : : : : : : : : : : : : : : : : : : : : : : : : : : : : : : : : : : : : : : : : : : : : # # @ @ @ @ @ @ @ @ @ @ @ @ @ @ @ @ @ @ @ @ @ @ @ @ @ @ @ @ @ @ @ @ @ @ @ @ @ @ @ @ @ @ @ @ @ @ @ @ @ @ @ @ @ @ @ @ @ @ @ @ ",
"^.` 2 9 6 6 > > 5 5 9 9 5 > 5 5 5 5 5 5 5 5 5 5 5 5 5 5 5 5 5 5 5 5 5 5 5 5 5 5 5 5 5 5 > > > > > 5 5 5 5 5 5 5 5 5 5 > > > > : @ @ @ @ @ @ @ @ @ @ @ @ @ @ @ @ @ @ @ @ @ @ @ . @ @ @ @ @ @ @ * # # # # # # # # # # # # # # # # # # # # # # * # # # # : : > 5 6 6 6 6 6 6 6 6 6 6 6 6 6 6 6 6 6 6 6 6 6 6 6 6 6 6 5 6 5 5 > > > > > 5 > 5 > > > > > 5 > 5 > 5 > > > > > 5 5 5 5 > > > : # # @ * @ @ @ @ # # # # # # @ @ # # * # * * # # # # # # # # # # # # # # # # # # # # # # # # # # # # # # # # # # # # # # # # # # # # # # # # # # # # # # # # # # # # # # # # # # # # # # # # # # # # : # # # : # : # : # : # : # : # : : : : : : : # # # # # # # # # # # # # # # # # # # # # # # # # # # # # # # # # # @ @ @ @ @ @ @ @ @ @ @ @ @ @ @ @ @ @ @ @ @ @ @ @ @ @ @ @ @ @ # # # 1 : : : : : : : : : : : : : : : : : : : : : : : > > : : : : : : : : : : : : : : : : : : : : : : : : : : : : : : : : : : # # @ @ @ @ @ @ @ @ @ @ @ @ @ @ @ @ @ @ @ @ @ @ @ @ @ @ @ @ @ @ @ @ @ @ @ @ @ @ @ @ @ @ @ @ @ @ @ @ @ @ @ @ @ @ @ @ @ @ @ @ ",
"!.` 2 9 6 6 > > 5 5 9 5 > > 5 5 5 5 5 5 5 5 5 5 5 5 5 5 5 5 5 5 5 5 5 5 5 5 5 5 5 5 5 5 5 5 5 5 5 5 5 5 5 5 5 5 5 5 5 > > > > # @ @ @ @ @ @ @ @ @ @ @ @ @ @ @ @ @ @ @ @ @ . . . . . . . @ @ $ * # # : # # # # # # # : # # # # # $ $ # # # # # * * @ # # : > 6 6 6 5 5 5 5 5 5 6 5 5 5 5 5 5 5 5 6 6 6 6 6 5 5 5 5 5 5 5 > > > > > > > > > > > > > > > > > > > > > 5 5 5 5 > 5 > > > : : # @ @ @ # # # # @ @ # # # # # # # @ # # * * * @ * @ @ @ # # # # # # # # * * * * * # # # * * * * * * # # * * * * # # # # # # # # # # # # # # # # # # # # # # # # # # # # # # # # # # # # # # # # # # # # # # # # # # # # # # # # # # # # : : : : : : : # # # # # # # # # # # # # # # # # # # # # # # # # # # # # # # # # @ @ @ @ @ @ @ @ @ @ @ @ @ @ @ @ @ @ @ @ @ @ @ @ @ @ @ @ # # # 1 : : : : : : : : : > > > > > : : : > > > > > > > > > : : : : : # # # # # : : : : # # # # # # # # # # # # # # : : : : : : # # # @ @ @ @ @ @ @ & @ @ @ # # @ @ @ @ @ @ # # @ @ @ @ # @ # # @ @ @ @ @ @ # @ # @ @ @ @ @ @ @ @ @ @ @ @ @ @ @ @ @ @ @ @ @ ",
"!.` 2 9 6 6 > > 5 5 9 5 5 5 5 5 5 5 5 5 5 5 5 5 5 5 5 5 5 5 5 5 5 5 5 5 5 5 5 5 5 5 5 5 5 5 5 5 5 5 5 5 5 5 9 5 5 5 5 > > > > # @ @ @ @ @ @ @ @ @ @ @ @ @ @ @ @ @ @ @ @ @ . . . . . . . . @ @ $ # # # # # # # # # # # # # # # * $ $ # # # # # * @ $ # # : 5 6 6 6 6 6 6 6 6 6 6 6 6 6 6 6 6 6 6 6 6 6 6 6 5 5 5 5 5 5 5 > > > > > > > > > > > > > > > > > > > > 5 5 5 5 5 > > > > > : : # @ # # # # # # @ @ # # # # # # @ @ # # * * * @ @ @ @ $ @ @ @ # # # # # # # * * * # # # * * * * # # * * * * * * # # # # # # # # # # # # # # # # # # # # # # # # # # # # # # # # # # # # # # # # # # # # # # # # # # # # # # # # # # # # : : : : : : : # # # # # # # # # # # # # # # # # # # # # # # # # # # # # # # # # @ @ @ @ @ @ @ @ @ @ @ @ @ @ @ @ @ @ @ @ @ @ @ @ @ @ @ @ # # # : : : : : : : : : : > > > > > : : : : > > > > > > > > : : : : : # # # # # : : : : 1 # # # # # # # # # # # # # : : : : : : # * @ @ @ @ @ @ @ @ & @ @ # # # @ @ @ @ @ # # # @ @ @ @ @ @ # @ @ @ @ @ @ @ @ @ @ @ @ @ @ @ @ @ @ @ @ @ @ @ @ @ @ @ @ @ @ @ ",
"!.E 2 6 6 6 > > 5 9 9 5 5 5 5 5 5 5 5 5 5 5 5 5 5 5 5 5 5 5 5 5 5 5 5 5 5 5 5 5 > > > > 5 5 5 5 5 5 5 5 5 5 5 5 5 5 5 > > > > : @ @ @ @ @ @ @ @ @ @ @ @ @ @ @ @ @ @ @ @ @ . . . . . . . @ @ $ $ * # # # # # # # # # # # # # * * $ $ # # # # # * * $ # # : > 6 6 6 6 6 6 6 6 6 6 6 6 6 6 6 6 6 6 6 6 6 6 6 6 6 9 5 6 5 5 5 > > 5 > > > > > > > > > > > > > > > 5 5 5 5 5 5 5 5 > > > > : # # # # # # # # @ @ # # # # @ # @ @ # # # @ @ @ @ @ @ @ @ @ # # # # # # # # * # # # # # # # * * # # * * # # # # # # # # # # # # # # # # # # # # # # # # # # # # # # # # # # # # # # # # # # # # # # # # # # # # # # # # # # # # # # # # : : : : # # # # # # # # # @ @ @ @ # # # # # # # # # # # # # # # # # # @ @ @ @ $ @ @ @ @ @ . . . . . . . . . . . . . . . . . . .   . . @ @ @ # # 1 : : : : : : : : : : : : : : : : : : : : : : > > > : : : : : # # # # # : : : : 1 : : : : : 1 : : : : : : : : : : : : # # # @ @ @ @ @ @ @ @ @ @ @ @ @ @ @ @ @ @ @ @ @ @ @ @ @ @ $ @ @ @ @ @ @ @ @ @ @ @ @ @ @ @ @ @ @ @ @ @ @ @ @ @ @ @ @ @ @ @ @ @ ",
"!.( 2 6 6 6 > > 5 9 6 9 5 5 5 6 5 5 5 5 5 5 5 5 5 5 5 5 5 5 5 5 5 5 5 5 5 5 5 5 > > > > 5 5 5 5 5 5 5 5 5 5 5 5 5 5 9 > > < > : @ @ @ @ @ @ @ @ @ @ @ @ @ @ @ @ @ @ @ @ @ @ @ . . . . @ @ @ $ $ * # * * * * # # * * # # # # * # # # # # # # # # * # # # : > 6 6 6 6 6 6 6 6 6 6 6 6 6 6 6 6 6 6 0 0 6 6 6 6 6 6 6 9 5 5 5 5 5 5 5 > 5 5 5 5 5 5 5 5 5 5 5 5 5 5 5 5 5 5 5 5 5 > > > > : : # # # # # @ @ @ @ # # # # @ @ @ @ # # # # @ @ @ @ @ @ @ # # # # # # # # * # # # # # # # # # # # # # # # # # # # # # # # # # # # # # # # # # # # # # # # # # # # # # # # # # # # # # # # # # # # # # # # # : # : # : # : # : # : # : # # # # # # # # # # # @ @ @ @ @ $ @ @ @ @ @ @ @ @ @ @ @ @ @ @ @ @ @ @ @ $ $ @ @ @ @ . . . O . . . O . . . . . . . . . . . . . . .       . . @ # # 1 1 : : : : : : : : : : : : : : : : : : : : : : > > : : : : : : : # # : : : : : : : : : : : : : : : : : : : : : : # # # * # @ @ @ @ @ @ @ @ @ @ @ @ @ @ @ @ @ @ @ @ @ @ @ @ @ @ @ . @ @ @ . . . . . @ . @ . . . . . . . . . @ . @ . @ . . . . . . . ",
"!.( 4 6 6 6 > > 5 9 6 9 5 5 5 6 5 9 6 6 9 9 9 9 9 9 9 9 9 9 9 5 5 5 5 5 5 5 5 5 > > 5 5 > > > > 5 5 5 5 5 5 5 5 5 5 9 > > < > : @ @ @ @ @ @ @ @ @ @ @ @ @ @ @ @ @ @ @ @ @ @ @ @ @ @ @ @ @ @ $ # # # # # # # # # # # # # # $ # # # # # # # # # # # # # # : > 5 6 6 6 6 6 6 6 6 6 6 6 6 6 6 6 6 6 0 0 6 6 6 6 6 6 6 6 6 9 5 5 5 5 5 5 5 5 5 5 5 5 5 5 5 5 5 5 5 5 5 5 5 5 5 5 5 5 > > > : : # # # # # # # # # # # # # # # # # # # # # # # @ @ @ @ @ @ # # # # # # # # # # # # # # # # # # # # # # # # # # # # # # # # # # # # # # # # # # # # # # # # # # # # # # # # # # # # # # # # : : : : : : : : : : : : : : : : : : : : : # # # # # # # # # # @ @ @ @ @ @ @ @ @ @ @ @ @ @ @ @ @ @ @ @ @ # $ $ @ @ @ @ @ = = . . O O O O O . . . . . . . . . . . . . . . . .         . @ $ # : : : : : : > : > : : : : : : : : : : : : : : : > : : : : : : : : : : : : : : : : : : : : : : : : : : : : : : : # # # # # # @ $ @ @ @ @ @ @ @ @ . . . . @ . @ . . . . . . . . . . . O . . . . . . . . . . . . . . . . . . . . . . . . . . . . . . . ",
"!.( 4 6 6 6 > > 5 9 9 9 5 5 5 5 9 9 9 9 9 9 9 5 9 9 9 9 9 9 9 9 9 > 5 > 5 > 5 > > > 5 > > > > > > > > 5 5 5 5 5 > 9 > > > < > # @ @ @ @ @ @ @ @ @ @ @ @ @ @ @ @ @ @ @ @ @ @ @ @ @ @ @ @ @ @ # # # # # # # # # # # # # # # # # # # # # # : : : : # # # : : > 9 6 6 6 6 6 6 6 6 6 6 6 6 6 6 6 6 6 6 6 6 6 6 6 6 9 9 6 9 9 5 > 5 5 > 5 5 > 5 5 5 5 > > 5 > 5 5 5 > 5 5 5 5 5 5 5 > > > > : : # # # # # # # # # # # # # # # # # # # # # # # # @ @ @ @ # # # # # # # # # # # # # # # # # # # # # # # # # # # # # # # # # # # # # # # # # # # # # # # # # # # # # # # # # # # # # # # # # : : : : : : : : : : : : : : : : : : : : : # # # # # # # # # # # # # # # # # # # # # # # # # # # # # # # # # @ @ @ @ $ $ @ @ . . . . . . . . . . . . . . . . . . . . . . .           . @ @ # : : : : > > > > > : : : : : : : : : : : : : : : > > : : : : : : : : : : : : : : : : : : : : : : : : : : : : : : # # # # # # @ @ @ @ @ @ @ @ @ @ @ @ @ @ @ @ @ @ @ @ @ @ @ @ @ @ @ @ . . . . . . . . . . . . . . . . . . . . . . . . . . . . . . . . ",
"^...2 9 6 5 > > > 5 9 5 > > 5 5 5 5 5 5 5 5 5 5 5 5 5 5 5 5 5 5 > > > > > > > > > > > > > > > > > > > > > > > > > > > > > < > # @ @ @ @ @ @ @ @ @ @ @ @ @ @ @ @ @ @ @ @ @ @ @ @ @ @ @ @ @ @ # # # # # # # # # # # # # # # # # # # # : : : : : : : # # : : > 9 6 9 6 9 6 9 5 9 5 9 5 9 5 9 6 9 9 9 9 9 9 9 6 6 6 5 9 9 9 > > > > > > > > > > > > > > > > > > > > > > > > > > > > > > < : : # # # # # # # # # # # # # # # # # # # # # # # # # # @ # # # # # : : : : # : # : # : # : # : # : # : : : # : # # # : # # # # # # # # # # # # # # # # # # # # # # # # # # # # # # # # # : : : : : : : : : : : : : : : : : : : : : : : : # # # # # # # # # # # # # # # # # # # # # # # # # # # # # # # # # # # # # # * * @ @ @ @ @ @ @ @ @ @ @ @ @ @ @ @ @ @ @ @ @ @ @ @ . @ @ @ @ @ # # : : : : > > > > > : : : : : : : : : : : : : : : : : : : : : : : : : : : : : : : : : : : : : : : : : : : : : : : : # # # # # # # # # # # # # # # # @ @ @ @ @ @ @ @ @ @ @ @ @ @ @ @ @ @ @ @ @ @ @ @ @ @ @ @ @ @ @ @ @ @ @ @ @ @ @ @ @ @ @ @ @ @ @ @ @ ",
"E...3 9 9 9 : , < > 9 2 < < 5 5 > > > > > > > > > > > > > > > > > < > < > < > > > > > > > > > > < > > > > > > > > > > > > < : # # @ @ @ @ @ @ @ @ @ @ @ @ @ @ @ @ @ @ @ @ @ @ @ @ @ @ @ # # # # # : : : : : # # : : : : : : : : : : : : : : : : : : : : : > 9 9 9 9 9 9 9 9 9 9 9 9 9 9 9 9 9 9 9 9 q 9 q 9 q 9 2 > 2 > < > > > < < < < < < < < < < < < < < < < < < < < < < 1 < 1 , , : : # # # # # # # # # # # # # # # # # # # # # # # # # # # # # # : : : : : : : : : : : : : : : : : : : : : : : : : : # : : : # # # # # # # # # # # # # # # # # # # # # # # # # # # # # # # # : : : : : : : : : : : : : : : : : : : : : : : : # : : : : : : : : : : : : : : : : : : : : : : : : : : : : : : : : : : : : : # # # # # # # # # # # # # # # # # # # # # # # # # # # # # # # # : : : : : : : : : : : : : : : : : : : : : : : : : : : : : : : : : : : : : : : : : : : : : : : : : : : : : : : : : : : : : : : # : # # # : : : : : # # # # # # # # # # # # # # # # # # # # # # # # # # # # # # # # # # # # # # # # # # # # # # # # # # ",
"Y._ 1 > > > # , : : : : : : : : : : : : : : : : : : : : : : : : : : : : : : > : : : > : : : : : : : : : > > > > > > : : : : : : # # # # # # # # # # # # # # # # * * # # * * * @ @ # # # # # : , : > > > > > > > > > > > > > > > > > > > > > > > > > > > > : : : : : : : : : : : : : : : : : : : : : : : : : : : : : : : # # : : # : : # : : : : # # : # : : : # # # # # # # # # # # # # # # # # # # # # # # # # # # # # # # # # # # # # # # # # # # : , : > : : : : : : : : : : : : : : : : : : : : : : : : : : , : # # # # # # # # # # # # # # # # # # # # # # # # # # # # # # : 1 , < : : > < > : > : > : > : > : : : > > > : : : : : > > > > > > 5 5 5 5 5 5 5 5 5 5 5 5 5 5 5 5 5 5 5 5 5 5 5 5 5 5 5 5 5 5 5 5 5 5 5 5 5 5 > > > > 5 5 > > > > > > > > 5 5 5 5 5 > 9 9 > : : : : : : : : : : : : : : : : : : : : : : : : : : : : : : : < < > > > > > > > > > > > > > > > > > > > > > > > > > > > > > > > 5 9 5 9 5 9 5 9 5 9 5 5 5 5 5 5 5 5 5 5 5 5 5 5 5 5 5 5 5 5 5 5 5 5 > 5 > 5 > 5 > 5 > 5 > 5 > 5 > 5 > 5 > 5 > 5 > 5 > ",
"H.l * : : : # $ # : : : # # : : : : : : : : : : : : : : : : : : : : : : : : : : : : : : : : : : : : : : : : : : > : : : : : : : # # # # # # # # # # @ # # # # # # * # # # # * # # # # # # : , < > > 5 > 5 > 5 > 5 > 5 > 5 > 5 5 5 5 > > > > > > 5 > 5 9 > : : # # # # # # # # # # # # # # # # # # # # # # # # # # # # @ # @ # @ # @ # @ # @ # @ # @ # @ # @ # @ @ @ @ @ @ @ @ @ @ @ @ # # # # # # # # # # # # # # # # # # # # # # # # # # # # # # : : : : > > > : : : : : : > : : : > : : : : : : > > : : : : : , : # # # # # # # # # # # # # # # # # # # # # @ # # # # # # # # : : < < > > > > > > > > > > > : > : > : > > > > > > > > > > > > 5 6 0 0 6 6 0 0 0 0 0 0 0 0 0 0 0 0 0 0 0 0 0 6 o.o.o.o.o.o.o.6 o.6 o.6 @.0 6 6 6 6 6 6 6 6 6 6 6 6 6 6 6 6 6 6 6 o.0 0 0 0 6 > > > : : : : : : : : : : : : : : : : : : : : : : : : : : : : < > > > > > > > > > > > > > > > > > > > > > > > > > 9 5 5 5 6 0 0 0 0 0 0 0 0 0 0 0 0 6 o.6 o.6 o.6 o.6 o.6 o.6 o.6 6 6 6 6 6 6 6 6 6 6 6 6 6 6 6 6 6 6 6 6 6 6 6 6 6 6 6 6 6 6 6 6 6 6 ",
"D.u & : : : $ $ # # # # # # # # # # # # # # # # # # # # # # # # : : : : : : : : : : : : : : : : : : : : : : : : : : : : : : : # # # # # # # # # # # # # # # # # # # # * # # # # # # # # : : , > 9 5 5 5 5 5 5 5 5 5 5 5 5 5 5 5 9 9 5 9 9 5 5 5 6 5 5 q > : # @ @ @ @ @ @ @ @ @ @ @ @ @ @ @ @ @ @ @ @ @ @ @ @ @ @ @ @ @ @ . @ @ @ @ @ @ @ @ @ @ @ @ @ . @ @ @ @ @ @ @ @ @ . . . @ @ @ # * # # # # # # # : : : : # # # # : : : : 1 1 1 # # # # # # : : : > > > > > > > > > > > > > : > > > > > > > > > > > > : : , : # # # # # # # # # # # # @ @ @ @ # # # # @ @ @ @ * * # # # # : : > > > > > > > > > > > > > > > > > > > > > > > > > > > 5 5 5 6 0 $.@.@.+.@.@.@.@.@.@.@.@.@.@.@.@.@.@.@.@.@.@.o.O.O.O.O.O.O.O.O.O.O.O.o.o.o.o.o.o.O.o.O.O.O.o.O.o.O.o.O.O.O.O.O.O.O.o.@.@.0 5 > > : : : # # : : : : : : : : : : : : : : : : : : : : : : : < > > > > > > > > > > > > > > > > > > > > > > > > > 5 5 5 5 0 0 @.@.@.@.@.@.@.@.@.o.O.O.O.O.O.O.O.O.O.O.O.O.O.O.O.O.O.o.O.o.O.o.O.o.O.o.O.o.O.o.O.o.O.o.O.o.O.o.O.o.O.o.O.o.O.o.O.o.O.o.",
"G.p = # : # @ $ @ # # # @ @ # # # # # # # # # # # # # # # # # # : : : : : : : : : : : : : : : : : : : : : : : : : : : : : : : # # # # # # # # # # # # # # # # # # # # # # # # # # # # : : : < > 9 6 6 6 6 6 6 6 6 6 6 6 6 6 6 6 6 6 6 6 9 9 5 5 0 5 9 6 < : # @ @ . @ . @ . @ . @ . . . @ . @ . . . . . . . @ . @ . @ . . . @ . @ . @ . @ . @ . @ . @ . @ . @ @ @ @ @ @ . . . . @ @ @ # * # # # # # # # : : : : # # # # : : : : # # 1 1 # # # # : : : : > > > > > > > > > > > > > > > > > > > > > > > > > > > : , : # # # # # # # # # # # # @ @ # # # # # # @ @ @ @ * * # # # # : : > > > > > > > > > > > > > > > > > > > > > > > > > > 5 5 5 5 6 @.@.o.@.o.o.o.o.o.O.o.O.o.O.o.O.o.O.o.O.o.O.O.O.O.O.O.O.O.O.O.O.O.O.O.O.O.O.O.O.O.O.O.O.O.O.O.O.O.O.O.O.O.O.O.O.%.O.O.o.@.6 5 > > : : : # # # : : : : : : : : : : : : : : : : : : : : : > > > > > > > > > > > > > > > > > > > > > > > > > > 5 5 5 5 6 6 @.@.@.@.o.O.o.o.o.o.O.O.O.O.O.O.O.O.O.O.O.O.O.O.O.O.O.O.O.O.O.O.O.O.O.O.O.O.O.O.O.O.O.O.O.O.O.O.O.O.O.O.O.O.O.O.O.O.O.O.O.",
"D.s & # : : @ $ # * # * # # # # # # # # # # # # # # # # # # # # : : : : : : : : : : : : : : : : # # # : : : : : : : : : : : : # # # # # # # # # # # # # # # # # # # : # # # # # # # : : : : < 9 5 6 6 6 6 6 6 6 6 6 6 6 6 6 6 6 6 6 5 5 5 5 5 5 6 6 9 9 < : @ @ . . . . . . . . . . . . . . . . . . . . . . . . . . . . . . . . . . . . . . . . . . . . . . . . @ @ @ @ . . . . @ @ @ @ # # 1 # : : : : : : : : : : : : : : : : : 1 1 : # # : : : : : > > > > > > > > > > > > > > > > > > > > > > > > > > > > : : : # # # # # # * * # # * * * * * * * * * * * * @ @ @ @ # # # # : : > > > > > > > > > > > > > > > > > > > > > > > > 5 5 5 5 5 5 6 o.@.o.O.O.O.O.O.O.O.O.O.O.O.O.O.O.O.O.O.O.O.O.O.O.O.O.O.O.O.O.O.O.O.O.O.O.O.O.O.O.O.O.O.O.O.O.O.O.O.O.O.O.O.O.O.%.O.O.o.@.6 5 > : : : : # # # : : : : : : : : : : : : : : : : : : : : : > > > > 5 > > > > 5 5 5 5 5 > > > 5 5 5 5 5 > > > 5 5 5 5 5 5 6 o.o.o.O.O.O.O.O.O.O.O.O.O.O.O.O.O.O.O.O.O.O.O.O.O.O.O.O.O.O.O.O.O.O.O.O.O.O.O.O.O.O.O.O.O.O.O.O.O.O.O.O.O.O.O.O.O.O.O.O.O.",
"D.) & : : : $ $ # # # # * # # # # # # # # # # # # # # # # # # # # : : : : : : : : : : : : : : : # # # # : : : : : : : : : # # # # # # # # # # # # # # # # # # # # # # # # # # # # : : : : : > 9 5 6 6 5 6 5 6 5 6 6 6 6 6 5 6 6 6 6 5 5 5 5 5 5 6 6 9 6 < : @ @ . . . . . . . . . . . . . . . .     . . . . . . . . . . . . . . . . . . . . . . . . . . . . . . @ @ @ . . . @ @ @ @ @ # # 1 : : 1 1 1 : : : : : : : : : : : : : 1 1 1 1 # : : : : : : > > > > > > > > > > > > > > > > > > > > > > > > > > > > > : : # # # # @ # * # # @ * * * * # # * * # * * * @ @ @ @ # # # # : : > > > > > > > > > > > > > > > > > > > 5 > > > > > 5 5 5 5 5 6 @.O.o.O.O.O.O.O.O.O.O.O.O.O.O.O.O.O.O.O.O.O.O.O.O.O.O.O.O.O.O.O.O.O.O.O.O.O.O.O.O.O.O.O.O.O.O.O.O.O.O.O.O.O.O.O.%.O.O.o.@.6 > > : : : : # # # : : : : : : : : : : : : : : : 1 : # : : : > > 9 5 5 5 5 > > > 5 5 5 5 5 > > 5 5 5 5 5 5 > > 5 5 5 5 5 6 6 o.@.O.O.O.O.O.O.O.O.O.O.O.O.O.O.O.O.O.O.O.O.O.O.O.O.O.O.O.O.O.O.O.O.O.O.O.O.O.O.O.O.O.O.O.O.O.O.O.O.O.O.O.O.O.O.O.O.O.O.O.",
"H.l * : : : $ # # # # # # # # : # # # # # # # # # # # # # # # # # # # # # # # # # # # # # # # # # # # # : : : : : : : : : # # # # # # # # # # # # # # # # # # # : : # # # # # # : : : : : : > 9 5 5 5 5 5 5 5 5 5 5 5 5 5 5 5 6 6 6 6 5 5 5 5 5 6 6 6 9 > # @ . . . . . . . . . . . . . . . . . . . . . . . . . . . . . . . . . . . . . . . . . . . . . . . . . @ . @ . . . . @ @ @ # # : : : : : : : : : : : : : : : : : : : : 1 1 1 1 : : : : : : : > > > > > > > > > > > > > > > > > > > > > > 5 5 > > > > > : : # # # # @ @ * * @ @ @ @ * * @ # @ @ * # * * @ @ @ @ * # # # : : > > > > > > 5 5 5 5 > > 5 5 5 5 5 5 5 5 5 > > > > 5 5 5 5 5 6 @.o.O.O.O.O.O.O.O.O.O.O.O.O.O.O.O.O.O.O.O.O.O.O.O.O.O.O.o.O.O.O.O.O.O.O.O.O.O.O.O.O.O.O.O.O.O.O.O.O.O.O.O.O.O.O.O.O.o.o.8 5 > > : : : : # : : : : : : : : : : : : : : : : : : : # : : : > > 9 5 5 5 5 5 5 5 5 5 5 5 5 5 5 5 5 5 5 5 5 5 5 5 5 5 5 5 5 6 o.@.O.O.O.O.O.O.O.O.O.O.O.O.O.O.o.o.o.O.O.O.O.O.O.O.o.o.o.o.o.o.o.o.o.O.O.O.O.O.O.O.O.O.O.O.O.O.O.O.O.O.O.O.O.O.O.o.O.O.O.",
"H.l & : : : @ # # # : # # # : : # # # # : # : # : # : # # # # # # # # # # # # # # # # # # # # # # # # # : : : : : : : : : # # # # # # # # # # # # # # # # # # # # # # # : : # # # : : : : : > 9 5 5 5 5 5 5 5 5 5 5 5 5 5 5 5 6 0 6 6 5 5 5 5 6 6 6 6 9 < # @ . . . . . . . . . . . . . . . . . . . . . . . . . . . . . . . . . . . . . . . . . . . . . . . . @ @ @ @ @ @ @ @ @ @ @ @ # : : : : : : : : : : : : : : : : : : : : 1 1 1 1 : : : : : : : > > > > > > > > > > > > > > > > > > > > > > 5 5 > > > > > : : # # # # # # * * @ @ @ @ @ * @ @ @ @ @ @ * * * @ * @ * # # # : > > > > > > > 5 5 5 5 5 5 5 5 5 5 5 5 5 5 5 > > > > > 5 5 5 5 6 o.o.o.O.O.O.O.O.O.O.O.O.O.O.O.O.O.O.O.O.O.O.O.O.o.O.o.O.O.O.O.O.O.O.O.O.O.O.O.O.o.O.o.O.o.O.o.O.o.O.o.O.o.O.O.O.O.O.o.o.0 5 > : : : : : : : : : : : : : : : : : : : : : : : : : # : : : > > 9 5 5 5 5 5 5 5 5 5 5 5 5 5 5 5 5 5 5 5 5 5 5 5 5 5 5 5 5 6 o.o.O.O.O.O.O.O.O.O.O.O.O.O.O.O.O.O.O.O.O.O.O.O.O.O.O.O.o.O.o.O.o.O.o.O.o.O.o.O.o.O.o.O.o.O.o.O.o.O.o.O.o.O.o.O.o.O.o.O.o.",
"L.| & : : : @ # # # : # * # # : # # # # # # # # # # # # # # # # : : : : : : : : : : : : : : : : # # # : : : : : : : : : : : : # # # # # : : # # # # : : # # # # # # # : : : : # # # # : : : > 9 5 5 5 5 5 5 5 5 5 5 5 5 5 5 5 6 6 6 5 5 5 5 5 6 6 5 5 9 > # @ @ . . . . . . . . . . . . . . . . . . . . . . . . . . . . . . . . . . . . @ @ @ @ @ @ @ @ . . . @ . . @ . @ @ @ @ @ @ @ # # 1 1 : : : : : : : : : : : : : : : : : : : : : : : : : : : : > > > 5 > > > > > > > > > > > > > > > > > > > > > > > > > : : # # # # # @ # # @ @ # # # # # # @ @ # # # # # # @ @ @ # # # : > > > > > > > > > > > > > > > > > > > > > > 5 > > > > > > 5 5 6 o.O.O.O.O.O.O.O.O.O.O.O.O.O.O.O.O.O.O.O.O.O.O.O.O.O.O.O.O.O.O.O.O.O.O.O.O.O.O.O.O.O.O.O.O.O.O.O.O.O.O.O.O.O.O.O.O.O.O.@.@.0 > : : : : : : : : : : : : : : : : : : : : : : : : : : : : : > > 9 5 > 5 5 > > 5 5 5 5 5 5 5 5 5 5 > > 5 5 5 > > > 5 5 5 5 6 o.@.O.O.O.O.O.O.O.O.O.O.O.O.O.O.O.O.O.O.O.O.O.O.O.O.O.O.O.O.O.O.O.O.O.O.O.O.O.O.O.O.O.O.O.O.O.O.O.O.O.O.O.O.O.O.O.O.O.O.O.",
"L.| & : : : @ # # # : # * # # # # # # # # # # # # # # # # # # # : : : : : : : : : : : : : : : : : : : : : : : : : : : : : : : : : # # # # # # # # # # # # # # # # # # : : : : # # # # # : : > 5 5 5 5 5 5 5 5 5 5 5 5 5 5 5 5 5 6 5 5 5 5 5 6 6 6 5 5 9 < # @ @ @ . . . . . . . . . . . . . . . . . . . . . . . . . . . . . . . . . . . @ @ @ . @ @ @ @ . . . @ . . . . @ @ @ . @ @ @ # # # 1 : : : : : : : : : : : : : : : : : : : : : : : : : : : : > > > 5 > > > > > > > > > > > > > > > > > > > > > > > > > > : # # # # # @ # # @ @ # @ # # # # @ @ # # # # # # # # $ @ # # : > > 5 > > > > > > > > > > > > > > > > > > > 5 5 5 > > > > 5 5 6 o.O.O.O.O.O.O.O.O.O.O.O.O.O.O.O.O.O.O.O.O.O.O.O.O.O.O.O.O.O.O.O.O.O.O.O.O.O.O.O.O.O.O.O.O.O.O.O.O.O.O.O.O.O.O.O.O.O.O.o.@.0 > : : # # : : : : : : : : : : : : : : : : : : : : : : : : : > > 9 5 5 5 5 > > 5 5 5 5 5 > > 5 5 5 > 5 5 5 5 > > > 5 5 5 5 6 o.@.O.O.O.O.O.O.O.O.O.O.O.O.O.O.O.O.O.O.O.O.O.O.O.O.O.O.O.O.O.O.O.O.O.O.O.O.O.O.O.O.O.O.O.O.O.O.O.O.O.O.O.O.O.O.O.O.O.O.O.",
"L.| & : : : @ $ # # : # * # # # # # # # # # # # # # # # # # # # : : : : : : : : : : : : : : : : : : : : : : : : : : : : : : : # # # # # # # # # # # # # # # # # # # # : : : : # # # # # : : > 5 5 5 5 5 5 5 5 5 5 5 5 5 5 5 5 5 6 5 5 5 5 5 6 6 6 5 5 9 < # @ @ @ . . . . . . . . . . . . . . . . . . . . . . . . . . . . . . . . . @ . @ @ . . @ @ @ @ . . @ @ . . @ . @ @ . . @ @ @ # # # : : : : : : : : : : : : : : : : : : : : : : : : : : : : : > > > > > > > > > > > > > > > > > > > > > > > > > > > > > > : # # # # # @ # # @ @ @ @ @ @ # # @ @ # # # # # # @ @ $ @ # # : > > 5 > > > > > > > > > > > > > > > > > > > 5 > 5 > > > > > 5 6 o.O.O.O.O.O.O.O.O.O.O.O.O.O.O.O.O.O.O.O.O.O.O.O.O.O.O.O.O.O.O.O.O.O.O.O.O.O.O.O.O.O.O.O.O.O.O.O.O.O.O.O.O.O.O.O.O.O.O.o.@.6 > : : # # : : : : : : : : : : : : : : : : : : : : : : : : : > > 9 5 5 5 5 > > 5 5 5 5 > > > > 5 5 > > 5 5 5 5 > > 5 5 5 5 6 o.o.O.O.O.O.O.O.O.O.O.O.O.O.O.O.O.O.O.O.O.O.O.O.O.O.O.O.O.O.O.O.O.O.O.O.O.O.O.O.O.O.O.O.O.O.O.O.O.O.O.O.O.O.O.O.O.O.O.O.O.",
"L.| & : : : @ $ # # : # # # # # # # # # # # # # # # # # # # # # : : : : : : : : : : : : : : : : : : : : : : : : : : : : : : : # # # # # # # # # # # # # # # # # # # # : : : 1 * # # # # : : > 5 5 5 5 5 5 5 5 5 5 5 5 5 5 5 5 5 6 5 5 5 5 5 6 6 6 5 5 9 < # @ @ @ . . . . . . . . . . . . . . . . . . . . . . . . . . . . . . . @ @ @ @ @ @ . . @ @ . . . . @ @ @ . @ @ @ @ . . @ @ @ # # # : : : : : : : : : : : : : : : : : : : : : : : : : : : : : > > > > > > > > > > > > > > > > > > > > > > > > > > > > > > : # # # # # @ # # # @ @ @ @ # # # @ @ @ # # # # # # @ $ @ # # : > 5 5 > > > > > > > > > > > > > > > > > > > 5 > > > > > > > 5 6 o.O.O.O.O.O.O.O.O.O.O.O.O.O.O.O.O.O.O.O.O.O.O.O.O.O.O.O.O.O.O.O.O.O.O.O.O.O.O.O.O.O.O.O.O.O.O.O.O.O.O.O.O.O.O.O.O.O.O.o.@.0 > : : # # : : : : : : : : : : : : : : : : : : : : : : : : : > > 5 5 5 5 5 > > 5 5 5 5 > > > > 5 5 > > 5 5 5 5 > > 5 5 5 5 6 o.@.O.O.O.O.O.O.O.O.O.O.O.O.O.O.O.O.O.O.O.O.O.O.O.O.O.O.O.O.O.O.O.O.O.O.O.O.O.O.O.O.O.O.O.O.O.O.O.O.O.O.O.O.O.O.O.O.O.O.O.",
"L.| & : : : @ $ # # : # # # : : # # # # # # # # # # # # # # # # : : : : : : : : : : : : : : : : : : : : : : : : : : : : : : # # # # # # # # # # # # # # # # # # # # # : : : : # # # # # : : > 5 5 5 5 5 5 5 5 5 5 5 5 5 5 5 5 5 6 5 5 5 5 5 6 6 6 5 5 9 < # @ @ @ . . . . . . . . . . . . . . . . . . . . . . . . . . . . . . . @ @ @ @ . . . . . . . . @ @ @ @ @ @ @ @ @ @ . . @ @ @ # # # : : : : : : : : : : : : : : : : : : : : : : : : : : : : : > > > > > > > > > > > > > > > > > > > > > > > > > > > > > > : # # # # # @ # # @ @ @ @ # # @ @ @ # @ @ @ @ # # # @ $ @ # # : > > 5 > > > > > > > > > > > > > > > > > > > > 5 5 > > > > > 5 6 o.o.O.O.O.O.O.O.O.O.O.O.O.O.O.O.O.O.O.O.O.O.O.O.O.O.O.O.O.O.O.O.O.O.O.O.O.O.O.O.O.O.O.O.O.O.O.O.O.O.O.O.O.O.O.O.O.O.O.O.@.6 > : : # # : : : : : : : : : : : : : : : : : : : : : : : : : > > 5 > > 5 5 5 5 5 5 5 5 > > > > 5 5 > 5 5 5 5 5 5 5 5 5 5 5 6 o.@.O.O.O.O.O.O.O.O.O.O.O.O.O.O.O.O.O.O.O.O.O.O.O.O.O.O.O.O.O.O.O.O.O.O.O.O.O.O.O.O.O.O.O.O.O.O.O.O.O.O.O.O.O.O.O.O.O.O.O.",
"L.| & : : : @ $ # # : # # # : : # # # # # # # # # # # # # # # # : : : : : : : : : : : : : : : : : : : : : : : : : : : : : : # # # # # # # : # # # # : # # # # # # # # : : : : # # # # # : : > 5 5 5 5 5 5 5 5 5 5 5 5 5 5 5 5 5 6 5 5 5 5 5 6 6 6 5 5 9 < # @ @ @ . . . . . . . . . . . . . . . . . . . . . . . . . . . . . . . @ @ @ @ . @ . . . . . . @ @ @ @ @ @ @ @ . @ . . @ @ @ # # # : : : : : : : : : : : : : : : : : : : : : : : : : : : : : > > > > > > > > > > > > > > > > > > > > > > > > > > > > > > : # # # # # @ # # @ @ # # # # @ @ @ # @ @ # @ # # # @ $ @ # # : > > 5 > > > > > > > > > > > > > > > > > > > > 5 5 > > > > > 5 6 o.o.O.O.O.O.O.O.O.O.O.O.O.O.O.O.O.O.O.O.O.O.O.O.O.O.O.O.O.O.O.O.O.O.O.O.O.O.O.O.O.O.O.O.O.O.O.O.O.O.O.O.O.O.O.O.O.O.O.O.@.6 > : : # # : : : : : : : : : : : : : : : : : : : : : : : : : > > 9 > > 5 5 5 5 5 5 5 5 > > > > 5 5 > > 5 5 5 5 5 5 5 5 5 5 6 o.@.O.O.O.O.O.O.O.O.O.O.O.O.O.O.O.O.O.O.O.O.O.O.O.O.O.O.O.O.O.O.O.O.O.O.O.O.O.O.O.O.O.O.O.O.O.O.O.O.O.O.O.O.O.O.O.O.O.O.O.",
"L.| & : : : @ $ # # # # # # : # # # # # # # # # # # # # # # # # : : : : : : : : : : : : : : : : : : : : : : : : : : : : : : # # # # # # # # # # # # # # # # # # # # # : : : : # # # # # : : > 5 5 5 5 5 5 5 5 5 5 5 5 5 5 5 5 5 6 5 5 5 5 5 6 6 6 5 5 9 < # @ @ @ . . . . . . . . . . . . . . . . . . . . . . . . . . . . . . . . . @ @ @ @ @ @ @ @ . . . . . . . . @ @ @ @ @ @ @ @ @ * # # 1 : : : : : : : : : : : : : : : : : : : : : : : : : : : : > > > > > > > > > > > > > > > > > > > > > > > > > > > > > > : # # # # # @ # # # @ # # # # @ @ # # # # # # # # # @ $ @ # # : > > 5 > > > > > > > > > > > > > > > > > > > > 5 5 > > > > > 5 6 o.o.O.O.O.O.O.O.O.O.O.O.O.O.O.O.O.O.O.O.O.O.O.O.O.O.O.O.O.O.O.O.O.O.O.O.O.O.O.O.O.O.O.O.O.O.O.O.O.O.O.O.O.O.O.O.O.O.O.O.@.6 > : : # # : : : : : : : : : : : : : : : : : : : : : : : : : > > 9 > > 5 5 5 5 > > 5 > > > > > > 5 5 5 5 5 5 5 5 5 5 5 5 5 6 o.@.O.O.O.O.O.O.O.O.O.O.O.O.O.O.O.O.O.O.O.O.O.O.O.O.O.O.O.O.O.O.O.O.O.O.O.O.O.O.O.O.O.O.O.O.O.O.O.O.O.O.O.O.O.O.O.O.O.O.O.",
"L.| & : : : @ $ # # : # * # # # # # # # # # # # # # # # # # # # : : : : : : : : : : : : : : : : : : : : : : : : : : : : : : # # # : # # # # # # # # # # # # # # # # # : : : : # # # # # : : > 5 5 5 5 5 5 5 5 5 5 5 5 5 5 5 5 5 6 5 5 5 5 5 6 6 6 5 9 9 < # @ @ @ . . . . . . . . . . . . . . . . . . . . . . . . . . . . . . . . . @ @ @ @ @ @ @ @ @ . . . . . . @ @ @ @ @ @ @ @ @ @ # # 1 : : : : : : : : : : : : : : : : : : : : : : : : : : : : : > > > > > > > > > > > > > > > > > > > > > > > > > > > > > > : # # # # # @ # # # @ # # # # # # # # * # # # # # # # $ # # # : > > 5 > > > > > > > > > > > > > > > > > > > 5 5 5 > > > > > 5 6 o.o.O.O.O.O.O.O.O.O.O.O.O.O.O.O.O.O.O.O.O.O.O.O.O.O.O.O.O.O.O.O.O.O.O.O.O.O.O.O.O.O.O.O.O.O.O.O.O.O.O.O.O.O.O.O.O.O.O.O.@.6 > : : # # : : : : : : : : : : : : : : : : : : : : : : : : : > > 9 > > 5 5 5 5 > > 5 > > > > > > 5 5 5 5 5 5 5 5 > 5 5 5 5 6 o.@.O.O.O.O.O.O.O.O.O.O.O.O.O.O.O.O.O.O.O.O.O.O.O.O.O.O.O.O.O.O.O.O.O.O.O.O.O.O.O.O.O.O.O.O.O.O.O.O.O.O.O.O.O.O.O.O.O.O.O.",
"_.| & : : : @ $ # # : # * # # # # # # # # # # # # # # # # # # # : : : : : : : : : : : : : : : : : : : : : : : : : : : : : : : : # # : # # # # # # # # # # # # # # # # : : : : # # # # # : : > 5 5 5 5 5 5 5 5 5 5 5 5 5 5 5 5 5 6 5 5 5 5 5 6 6 6 5 5 9 < # @ @ @ . . . . . . . . . . . . . . . . . . . . . . . . . . . . . . . . . @ @ @ @ @ @ . . . @ @ @ . . . . @ @ @ @ @ @ @ @ @ # # # 1 : : : : : : : : : : : : : : : : : : : : : : : : : : : : > > > > > > > > > > > > > > > > > > > > > > > > > > > > > > : # # # # # @ @ @ # # # @ @ @ # # @ @ @ @ @ # # # # # $ @ # # : > > 5 > > > > > > > > > > > > > > > > > > > 5 5 5 > > > > > 5 6 o.o.O.O.O.O.O.O.O.O.O.O.O.O.O.O.O.O.O.O.O.O.O.O.O.O.O.O.O.O.O.O.O.O.O.O.O.O.O.O.O.O.O.O.O.O.O.O.O.O.O.O.O.O.O.O.O.O.O.o.@.6 > : : : # : : : : : : : : : : : : : : : : : : : : : : : : : > > 5 5 5 5 5 > > > > 5 5 > > > > > > 5 5 5 5 5 5 > > 5 5 5 5 6 o.@.O.O.O.O.O.O.O.O.O.O.O.O.O.O.O.O.O.O.O.O.O.O.O.O.O.O.O.O.O.O.O.O.O.O.O.O.O.O.O.O.O.O.O.O.O.O.O.O.O.O.O.O.O.O.O.O.O.O.O.",
"Y.| & : : : @ $ # # : # * # # # # # # # # # # # # # # # # # # # : : : : : : : : : : : : : : : : : : : : : : : : : : : : : : : : # # : # # # # # # # # # # # # # # # # : : : : # # # # # : : > 5 5 5 5 5 5 5 5 5 5 5 5 5 5 5 5 5 6 5 5 5 5 5 6 6 6 5 5 9 < # @ @ @ . . . . . . . . . . . . . . . . . . . . . . . . . . . . . . . . . @ @ @ @ . . . . . . @ @ . @ . . @ @ @ @ . @ @ @ @ # # # 1 : : : : : : : : : : : : : : : : : : : : : : : : : : : : > > > > > > > > > > > > > > > > > > > > > > > > > > > > > > : # # # # # @ @ # # # # @ @ @ # # @ # @ @ # # # # # # $ @ # # : > > 5 > > > > > > > > > > > > > > > > > > > 5 5 5 > > > > > 5 6 o.o.O.O.O.O.O.O.O.O.O.O.O.O.O.O.O.O.O.O.O.O.O.O.O.O.O.O.O.O.O.O.O.O.O.O.O.O.O.O.O.O.O.O.O.O.O.O.O.O.O.O.O.O.O.O.O.O.O.o.@.6 > : : # # : : : : : : : : : : : : : : : : : : : : : : : : : > > 5 5 5 5 5 5 5 > > 5 5 > 5 > > 5 > 5 5 5 5 5 5 > > 5 5 5 5 6 o.o.O.O.O.O.O.O.O.O.O.O.O.O.O.O.O.O.O.O.O.O.O.O.O.O.O.O.O.O.O.O.O.O.O.O.O.O.O.O.O.O.O.O.O.O.O.O.O.O.O.O.O.O.O.O.O.O.O.O.O.",
"L.| & : : : @ $ # # : # * # # # # # # # # # # # # # # # # # # # : : : : : : : : : : : : : : : : : : : : : : : : : : : : : : # # # # # # # # # # # # # # : # # # # # # : : : : # # # # # : : > 5 5 5 5 5 5 5 5 5 5 5 5 5 5 5 5 5 6 5 5 5 5 5 6 6 6 5 5 9 < # @ @ @ . . . . . . . . . . . . . . . . . . . . . . . . . . . . . . . . . @ @ . . . . . . @ @ @ @ @ @ . . . @ . . . . @ @ @ # # # : : : : : : : : : : : : : : : : : : : : : : : : : : : : > > > > > > > > > > > > > > > > > > > > > > > > > > > > > > > : # # # # # @ @ @ # # # # @ @ # # # # # # # # # # @ @ $ @ # # : > > 5 > > > > > > > > > > > > > > > > > > > 5 > > > > > > > 5 6 o.o.O.O.O.O.O.O.O.O.O.O.O.O.O.O.O.O.O.O.O.O.O.O.O.O.O.O.O.O.O.O.O.O.O.O.O.O.O.O.O.O.O.O.O.O.O.O.O.O.O.O.O.O.O.O.O.O.O.o.@.0 > : : # # : : : : : : : : : : : : : : : : : : : : : : : : : > > 9 > > 5 5 5 5 5 5 5 5 5 5 5 5 5 5 > > > > 5 > > > 5 5 5 5 6 o.o.O.O.O.O.O.O.O.O.O.O.O.O.O.O.O.O.O.O.O.O.O.O.O.O.O.O.O.O.O.O.O.O.O.O.O.O.O.O.O.O.O.O.O.O.O.O.O.O.O.O.O.O.O.O.O.O.O.O.O.",
"L.) & : : : @ $ # # : # # # # # # # # # # # # # # # # # # # # # : : : : : : : : : : : : : : : : : : : : : : : : : : : : : : # # # # # # : # # # # # # # # : # # # # # : : : : # # # # # : : > 5 5 5 5 5 5 5 5 5 5 5 5 5 5 5 5 5 6 5 5 5 5 5 6 6 6 5 5 9 < # @ @ @ . . . . . . . . . . . . . . . . . . . . . . . . . . . . . . . . . @ @ . . . . . . . @ @ @ @ @ . . @ @ . . . . @ @ @ # # # 1 : : : : : : : : : : : : : : : : : : : : : : : : : : : > > > > > > > > > > > > > > > > > > > > > > > > > > > > > > > : # # # # # @ @ @ # # # # # # # # # # # # # # # # @ @ $ @ # # : > > 5 > > > > > > > > > > > > > > > > > > > 5 5 5 > > > > > 5 6 o.o.O.O.O.O.O.O.O.O.O.O.O.O.O.O.O.O.O.O.O.O.O.O.O.O.O.O.O.O.O.O.O.O.O.O.O.O.O.O.O.O.O.O.O.O.O.O.O.O.O.O.O.O.O.O.O.O.O.o.@.6 > : : # # : : : : : : : : : : : : : : : : : : : : : : : : : > > 9 > > 5 5 5 5 5 5 5 5 5 5 5 5 5 5 > > > > 5 5 > > 5 5 5 5 6 o.@.O.O.O.O.O.O.O.O.O.O.O.O.O.O.O.O.O.O.O.O.O.O.O.O.O.O.O.O.O.O.O.O.O.O.O.O.O.O.O.O.O.O.O.O.O.O.O.O.O.O.O.O.O.O.O.O.O.O.O.",
"L.l & : : : @ # # # : # # # : : # # # # # # # # # # # # # # # # : : : : : : : : : : : : : : : : : : : : : : : : : : : : : : : # # # # # # # # # # # # # # # # # # # # : : : 1 * # # # # : : > 5 5 5 5 5 5 5 5 5 5 5 5 5 5 5 5 5 6 5 5 5 5 5 6 6 6 5 5 9 < # @ @ @ . . . . . . . . . . . . . . . . . . . . . . . . . . . . . . . . . . . . @ @ @ @ @ @ @ . @ @ @ . . . . . @ @ @ @ @ @ # # # : : : : : : : : : : : : : : : : : : : : : : : : : : : : : > > > 5 > > > > > > > > > > > > > > > > > > > > > > > > > > : # # # # # @ @ # # # # * # # # # # # # # @ @ # # # @ @ @ # # : > > 5 > > > > > > > > > > > > > > > > > > > > 5 5 > > > > 5 5 6 o.o.O.O.O.O.O.O.O.O.O.O.O.O.O.O.O.O.O.O.O.O.O.O.O.O.O.O.O.O.O.O.O.O.O.O.O.O.O.O.O.O.O.O.O.O.O.O.O.O.O.O.O.O.O.O.O.O.O.O.@.6 > : : # # : : : : : : : : : : : : : : : : : : : : : : : : : > > 9 > > 5 5 5 5 5 5 5 5 5 5 5 5 5 5 5 5 5 > > > > 5 5 5 5 5 6 o.@.O.O.O.O.O.O.O.O.O.O.O.O.O.O.O.O.O.O.O.O.O.O.O.O.O.O.O.O.O.O.O.O.O.O.O.O.O.O.O.O.O.O.O.O.O.O.O.O.O.O.O.O.O.O.O.O.O.O.O.",
"D.l & : : : @ $ # # : # # # : : # # # # # # # # # # # # # # # # : : : : : : : : : : : : : : : : : : : : : : : : : : : : : : # # # # # # # # # # # # # # # # # # # # # : : : 1 * # # # # : : > 5 5 5 5 5 5 5 5 5 5 5 5 5 5 5 5 5 6 5 5 5 5 5 6 6 6 5 5 9 < # @ @ @ . . . . . . . . . . . . . . . . . . . . . . . . . . . . . . . @ . . . @ @ @ @ @ @ @ @ . @ @ @ . . . . . @ @ @ @ @ @ # # # : : : : : : : : : : : : : : : : : : : : : : : : : : : : : > > > 5 > > > > > > > > > > > > > > > > > > > > > > > > > > : # # # # # @ # # # # # # # # @ # # # # # @ @ # # # @ @ @ # # : > > 5 > > > > > > > > > > > > > > > > > > > > 5 5 > > > > 5 5 6 o.o.O.O.O.O.O.O.O.O.O.O.O.O.O.O.O.O.O.O.O.O.O.O.O.O.O.O.O.O.O.O.O.O.O.O.O.O.O.O.O.O.O.O.O.O.O.O.O.O.O.O.O.O.O.O.O.O.O.o.@.6 > : : # # : : : : : : : : : : : : : : : : : : : : : : : : : > > 9 > > 5 5 > 5 5 5 5 5 5 5 5 5 > > 5 5 5 > > > > 5 5 5 5 5 6 o.@.O.O.O.O.O.O.O.O.O.O.O.O.O.O.O.O.O.O.O.O.O.O.O.O.O.O.O.O.O.O.O.O.O.O.O.O.O.O.O.O.O.O.O.O.O.O.O.O.O.O.O.O.O.O.O.O.O.O.O.",
"F.p & : : : @ $ # # # # # # : # # # # # # # # # # # # # # # # # : : : : : : : : : : : : : : : : : : : : : : : : : : : : : : : : # # # # # # # # # # # # # # # # # # # : : : : # # # # # : : > 5 5 5 5 5 5 5 5 5 5 5 5 5 5 5 5 5 6 5 5 5 5 5 6 6 6 5 5 9 < # @ @ @ . . . . . . . . . . . . . . . . . . . . . . . . . . . . . . . @ @ . . @ @ @ @ @ @ . . . . @ @ @ @ . . @ @ @ @ @ @ @ # # # : : : : : : : : : : : : : : : : : : : : : : : : : : : : : > > > > > > > > > > > > > > > > > > > > > > > > > > > > > > : # # # # # @ # # # # # # @ @ @ @ # # # # @ @ # # # @ @ @ # # : > > 5 > > > > > > > > > > > > > > > > > > > > 5 5 > > > > 5 5 6 o.o.O.O.O.O.O.O.O.O.O.O.O.O.O.O.O.O.O.O.O.O.O.O.O.O.O.O.O.O.O.O.O.O.O.O.O.O.O.O.O.O.O.O.O.O.O.O.O.O.O.O.O.O.O.O.O.O.O.O.@.6 > : : # # : : : : : : : : : : : : : : : : : : : : : : : : : > > 9 5 5 5 5 > > > 5 5 5 5 5 > > > > 5 5 5 5 > > 5 5 5 5 5 5 6 o.@.O.O.O.O.O.O.O.O.O.O.O.O.O.O.O.O.O.O.O.O.O.O.O.O.O.O.O.O.O.O.O.O.O.O.O.O.O.O.O.O.O.O.O.O.O.O.O.O.O.O.O.O.O.O.O.O.O.O.O.",
"D.p & : : : @ $ # # : # * # # # # # # # # # # # # # # # # # # # 1 : : : : : : : : : : : : : : : : : : : : : : : : 1 : : : : : : : # : # : # : # : # : # : # : # # # : : : : : # # # # : : > > 5 5 5 5 5 5 5 5 5 5 5 5 5 5 5 5 5 6 6 5 5 5 5 5 6 6 5 9 9 < # @ @ . . . . . . . . . . . . . . . . . . @ . . . . . . . . @ @ @ @ @ @ @ . . . @ @ @ @ . . . . . @ @ @ @ . . @ @ @ @ @ @ @ # # 1 : : : : : : : : : : : : : : : : : : : : : : : : : : : : : > > > > > > > > > > > > > > > > > > > > > > > > > > > > > : : # # # # @ @ # # # # # # # @ @ @ # # # # @ @ # # # # # # # # : > > > > > > > > > > > > > > > > > > > > > > > > > > > > > 5 5 6 o.o.O.O.O.O.O.O.O.O.O.O.O.O.O.O.O.O.O.O.O.O.O.O.O.O.O.O.O.O.O.O.O.O.O.O.O.O.O.O.O.O.O.O.O.O.O.O.O.O.O.O.O.O.O.O.O.O.O.O.@.6 > : : : # : : : : : : : : : : : : : : : : : : : : : : : : : > > 9 5 5 5 5 5 > > > > > 5 5 5 > 5 > 5 5 5 5 5 > 5 5 5 5 5 5 6 o.@.O.O.O.O.O.O.O.O.O.O.O.O.O.O.O.O.O.O.O.O.O.O.O.O.O.O.O.O.O.O.O.O.O.O.O.O.O.O.O.O.O.O.O.O.O.O.O.O.O.O.O.O.O.O.O.O.O.O.O.",
"J.l & 1 : : # * # : 1 1 # # : : : # # # # # # # # # # # # # # # 1 : : : : : : : : : : : : : : : : : : : : : : : , , : : : : : : : : : : : : : : : : : : : : : : : : : : : : # # # : : : : > 5 9 5 5 5 5 5 5 5 5 5 5 5 5 5 5 5 5 6 6 9 5 5 5 5 6 0 6 6 9 < # @ . .   .   .   .   .   .   . . . . @ @ @ . @ @ @ @ @ @ @ @ @ @ @ @ @ @ @ @ @ @ @ @ @ @ @ @ @ @ @ @ . . . @ . . . @ @ @ @ # # 1 : : : : : : : : : : : : : : : : : : : : : : # # # # : : : > > > > > > > > > > > > > > > > > > > > > > > > > > > > > < : # # # $ $ @ @ * * * * * * * # # * * * * # # @ @ @ @ * # # : : > > 5 > 5 5 5 5 > > > > > > > > > > > > > > > > > > > > 5 5 5 6 o.o.O.O.O.O.O.O.O.O.O.O.O.O.O.O.O.O.O.O.O.O.O.O.O.O.O.O.O.O.O.O.O.O.O.O.O.O.O.O.O.O.O.O.O.O.O.O.O.O.O.O.O.O.O.O.%.O.O.@.@.6 > > : : : : : : : : : : : : : : : : : : : : : : : : : : : : > > 5 > 5 5 5 5 5 5 5 5 5 5 5 5 5 5 5 5 5 5 5 5 5 5 > > > > 5 6 o.o.O.O.%.%.%.O.O.O.O.O.o.O.o.O.o.O.o.O.o.O.o.O.o.O.o.O.O.O.O.O.O.O.O.O.O.O.O.O.O.O.O.O.O.O.O.O.O.O.O.O.O.O.O.O.O.O.O.O.O.",
"J.] & : : : @ $ # # 1 1 # # # : # # # # # # # # # # # # # # # # # # : : : : : : : : : : : # : : : : : # : : : : : : : : : # : # : : : : : : : : : : # # : : : : : : : : : # # # # : : : : > 9 9 5 5 5 5 5 5 5 5 5 5 5 5 5 5 5 5 6 6 9 9 5 5 5 6 6 6 6 6 < # . . . @ . . @ @ @ @ @ . @ @ @ @ . . @ @ @ @ @ @ . . @ @ @ @ @ @ @ @ @ @ @ @ @ @ @ @ @ @ @ @ @ @ @ @ @ @ @ @ @ @ @ @ @ @ @ # # 1 : : : : : : : : : : : : : : : : : : : : : : # # # # : : : : > > > > > > > > > > > > > > > > > > > > > > > > > > > > : : # # @ $ @ @ @ @ # @ # # # # # @ # @ # @ # @ @ @ @ @ # # # # : > > > > > 5 5 5 > > > > > > > > > > > > > > > > > > > > 5 5 5 6 o.o.o.o.O.O.O.O.O.O.O.O.O.O.O.O.O.O.O.O.O.O.O.O.O.O.O.O.O.O.O.O.O.O.O.O.O.O.O.O.O.O.O.O.O.O.O.O.O.O.O.O.O.O.O.%.%.O.O.@.+.0 > > : : : : : : : : : : : : : : : : : : : : : : : : : : : : > > 5 5 5 5 5 5 5 5 5 5 5 5 5 5 5 5 5 5 5 5 5 5 5 5 > > > > 5 6 o.o.O.O.O.%.O.O.O.O.O.O.O.O.O.O.O.O.O.O.O.O.O.O.O.O.O.O.O.O.O.O.O.O.O.O.O.O.O.O.O.O.O.O.O.O.O.O.O.O.O.O.O.O.O.O.O.O.O.O.O.",
"J.d & : : : @ $ * # # # * # # # # # # # # # # # # # # # # # # # # # # # : # : # : # : # # # : # : # : # : # : # : # : # : # : # # # # # # # # # # # # # # # # # : : : # # # # # # # : : : > 2 5 5 5 5 5 5 5 5 5 5 5 5 5 5 5 5 5 6 9 9 5 5 5 5 6 6 6 9 6 < # @ . @ @ @ @ @ @ @ @ @ @ @ @ @ @ @ @ . . . . . . . . . . . . . . . . . . @ . @ . @ . @ . @ . . . . . . . . . . . . @ @ @ @ @ # # : : : : : : : : : : : : : : : : : : : : : : # # # # : : : > > > > > > > > > > > > > > > > > > > > > > > > > > > > > : : # # # @ $ @ @ @ @ @ @ @ # @ @ @ # @ # @ @ @ @ @ @ @ @ # # # : , < > > > > 5 > > > > > > > > > > > > > > > > > > > > > 5 5 5 6 o.o.o.O.O.O.O.O.O.O.O.O.O.O.O.O.O.O.O.O.O.O.O.O.O.O.O.O.O.O.O.O.O.O.O.O.O.O.O.O.O.O.O.O.O.O.O.O.O.O.O.O.O.O.O.%.%.O.O.@.+.0 > > : : : : : : : : : : : : : : : : : : : : : : : : : : : : > > 9 5 5 5 5 5 5 5 5 5 5 5 5 5 5 5 5 5 5 5 5 5 5 5 > > > 5 5 6 o.o.O.O.O.O.O.O.O.O.O.O.O.O.O.O.O.O.O.O.O.O.O.O.O.O.O.O.O.O.O.O.O.O.O.O.O.O.O.O.O.O.O.O.O.O.O.O.O.O.O.O.O.O.O.O.O.O.O.O.O.",
"L.| & : : : @ $ * # 1 # * # # # # # # # # # # # # # # # # # # # # # # # # # # # : : : # # # # # : # # # # # # # : : : # # # # # # # # # # # # # # # # # # # # # : : # # # # # # # # # : : : 2 9 5 5 5 5 5 5 5 5 5 5 5 5 5 5 5 5 6 9 9 5 5 5 5 6 0 6 6 6 < # @ @ @ @ @ @ @ @ @ @ @ @ @ @ @ @ @ @ . .         . . . . . . . . . . . . . . . . . . . . . . . . . . . . . . . . . . @ @ @ # # # : # # # # # # # # # # # : # # # # # : : : : : # : : : : : > > > > > > > > > > > > > > > > > > > > > > > > > > > > > > : # # # # # @ @ @ @ @ @ @ @ @ @ @ @ # # @ @ @ @ $ @ # # # # # : : < < > > > > > > > > > > > > > > > > > > > > > > > > 5 5 5 5 6 @.@.@.o.O.O.O.O.O.O.O.O.O.O.O.O.O.O.O.O.O.O.O.O.O.O.O.O.O.O.O.O.O.O.O.O.O.O.O.O.O.O.O.O.O.O.O.O.O.O.O.O.O.O.O.O.O.O.o.@.0 5 > > : : : : : : : : : : : : : : : : : : : : : : : : : : : : > > 9 > 5 5 5 5 5 5 5 5 5 5 5 5 5 5 5 5 5 5 5 5 5 5 > > > > 5 6 o.o.O.O.O.O.O.O.O.O.O.O.O.O.O.O.O.O.O.O.O.O.O.O.O.O.O.O.o.o.o.o.O.O.O.O.O.O.O.O.O.O.O.O.O.O.O.O.O.O.O.O.O.O.O.O.O.O.O.O.O.",
"L.) & : : : $ $ * # # # * $ # # # # # # # # # # # # # # # # # # # # # # # # # # # # # # # # # # # # # # # # # # # # # # # # # # # # # # # # # # # # # # # # # # : : # # # # # # # # # : : : < > 5 5 5 5 5 5 5 5 5 5 5 5 5 5 5 5 9 9 9 5 5 5 5 6 0 6 6 6 > # @ @ @ @ . @ @ @ @ @ @ @ . . . @ = . . . . . . . @ . = . O O O O O . @ @ @ @ @ @ @ @ @ @ @ @ @ @ @ @ @ @ @ @ . @ @ @ @ @ @ @ # # # # # # # # # # # # # # # # # # # # : : : : : : : : : : : > > > > > > > > > > > > > > > > > > > > > > > > > > > > > > : : # # # # @ # # # # @ @ @ @ # # # # @ @ @ @ @ @ @ @ @ @ # # : : < > > > > > > > > > 5 5 5 5 > > > > > > 5 > > > > > 5 5 5 5 6 0 @.o.o.o.o.o.o.O.O.O.O.O.O.O.O.O.O.O.O.O.O.O.O.O.O.O.O.O.O.O.O.O.O.O.O.O.O.O.O.O.o.O.O.O.O.O.O.O.O.O.O.O.O.O.O.O.O.o.@.8 6 > > : : : : : : : : : : : : : : : : : : : : : : : : : : : : > > 9 > > 5 5 5 5 5 5 > > 5 5 5 5 5 5 5 5 5 5 5 5 5 5 5 > > 5 6 o.@.o.O.O.O.O.O.O.#.O.O.O.O.O.O.O.O.O.O.O.O.O.O.O.O.O.o.o.o.o.o.o.o.o.o.O.O.O.O.O.O.O.O.o.O.o.O.o.O.o.O.o.O.o.O.o.O.o.O.o.",
"H.l & : : : @ $ # # # # # # # # # # # # # # # # # # # # # # # # # # : : # # # # # : # # # # # # # # : : # # # # : : : # # # # # # # # # # # # # # # # # # # # # : : # # # # # # # # # : : : < > 5 5 5 5 5 5 5 5 5 5 5 5 5 5 5 5 9 9 9 5 5 5 5 5 0 6 9 6 > : # @ . . . . . . . . . . . . . . . . . @ @ . @ @ @ @ @ @ . . . . . . @ @ @ @ @ . @ @ @ @ @ @ @ @ @ @ @ @ @ @ . @ @ @ @ @ @ @ # # # # : # : : # # # # : : # : # # # : : : : : : : : : : : > > > > > > > > > > > > > > > > > > > > > > > > > > > > > > > : : # # # # # # # # # # # # # # # # # # # # # @ @ @ @ # # # # : : > > > > > > > > > > 5 5 5 5 > > > > > > 5 5 > > > > 5 5 5 5 6 0 $.@.@.@.@.@.o.@.@.o.@.@.@.@.@.@.@.@.o.o.o.o.@.@.o.o.o.o.o.o.o.o.o.o.o.o.o.o.O.o.O.o.O.o.O.o.O.o.O.o.O.o.O.O.O.o.@.@.$.8 6 > > : : : : : : : : : : : : : : : : : : : : : : : : : : : : > > > > > 5 5 5 > 5 5 > > 5 5 5 5 > > 5 5 5 5 5 5 5 5 9 9 5 9 0 0 @.@.@.o.#.#.@.#.@.#.O.O.O.O.O.O.O.O.O.O.O.O.O.O.O.o.@.@.@.@.@.@.@.@.o.o.o.o.o.O.O.o.o.@.o.@.o.@.o.@.o.@.o.@.o.@.o.@.o.@.",
"Y.) * : : : # # # : : : # # : : : : : : : : : : : : : : # : : : : : : : : : : : : : : : : : : : : : : : : : : : : : : : : : : : : : : : : : : : : : : : : : : : : : : : : # # # # : : : : : > 9 5 5 5 5 5 5 5 5 5 5 5 5 5 5 5 5 9 9 5 5 5 5 5 5 5 5 5 9 5 : : # @ . @ @ @ @ @ @ @ . @ . @ @ @ @ @ @ @ @ @ # # # # @ @ @ @ @ @ @ @ @ @ @ @ @ @ @ @ @ @ @ @ @ @ @ @ @ @ @ @ @ @ @ # # # # : : : : : : : : : : : : : : : : : : : : : : : : : : : : : : > > > > > > > > > > > > > > > > > > > > > > > > > > > > > > > : : : : : : # # # # # # # # # # # # # # # # # # # # # # # # : : : > > > > > > > 5 > > 5 5 5 5 5 5 5 > 5 5 5 5 > > > 5 5 5 5 5 5 0 $.8 0 $.$.@.+.@.@.@.@.@.@.@.@.@.@.@.@.@.@.@.@.@.@.@.@.@.@.@.@.@.@.@.@.@.@.@.@.@.@.@.@.@.@.@.@.@.@.@.@.@.@.@.o.@.@.0 0 8 6 > > : : : : : : : : : : : : : : : : : : : : : : : : : : : : > > > > > > > > > > > > > > > > > > > > > > > > > > > 9 9 > 5 5 0 0 0 @.@.@.@.0 0 0 0 0 6 o.o.@.@.@.@.o.+.o.o.@.@.@.@.0 0 @.0 @.@.@.@.@.@.@.@.@.@.@.@.@.@.@.@.@.@.@.@.@.@.@.@.@.@.@.@.@.@.",
"E. .1 > > > : # : > > > : : > > > : : : : : : : : : : : : : : : < > > > > > > > > > > > > > > > > > > > > > > > > > > > > > > > : : : : : : : : : : : : : : : : : : : : : : : : : : : : : > > 9 5 5 5 5 5 5 5 5 5 5 5 5 5 5 5 5 5 9 5 5 5 5 5 5 5 5 5 6 9 > : : : : : : : : : : : : : : : : : : : : : : > > > : : : : : : : : : : : : : # : # # : : # # # : : : : # : : # : : : : : : : : < > > : : : : : : : : : : : : : : : : : : : : : : : : > > > > > > > > > > > > > > > > > > > > > > > > > > > > > > > > > > > > : : : : : : : : : : : : : : : : : : : : : : : : : : : > > > > > > > > 5 5 5 > > > 5 5 5 5 5 5 > 5 5 5 5 5 5 5 > > 5 5 5 5 5 6 5 5 5 0 5 6 6 6 6 5 5 5 5 6 6 5 5 5 6 6 6 5 5 5 5 5 5 6 6 6 6 6 6 6 6 6 6 6 6 6 6 6 6 6 6 6 6 6 6 6 6 6 6 6 6 0 6 0 0 5 : > > : : : : : : : : : : : : : : : : : : : : : : : : : : : > > > > > > > > > > > > > > > > > > > > > > > > > > > > > > > > 5 5 5 5 5 5 5 > > 5 5 5 > 5 5 5 5 5 5 5 5 5 5 5 5 5 5 5 5 5 5 5 5 6 6 6 6 6 6 6 6 6 6 6 6 6 6 6 6 6 6 6 6 6 6 6 6 6 6 6 6 ",
"'...4 9 6 0 > < 9 q 9 q 9 9 5 5 5 5 9 5 9 5 9 9 9 9 9 9 9 5 9 9 9 9 9 6 6 6 6 6 9 9 9 9 6 6 6 6 9 9 9 6 6 6 6 6 9 9 9 9 6 5 5 5 > > > > > > > > > > > > > > > > > 5 5 > > > > > > > > 5 5 5 5 5 5 5 5 5 5 5 5 5 5 5 5 5 5 5 5 5 5 5 5 5 5 5 9 9 5 5 5 5 5 7 q 8 @.@.@.@.@.@.@.@.@.@.@.@.@.@.@.@.8 8 8 8 8 8 0 0 @.$.$.8 9 9 9 9 9 < 4 < > > > > > > > > < > > > > < > > > > 4 9 9 9 q > > > > > > > 9 > 5 > 5 > 5 > 9 > 5 > 5 > > < < < > > > > > > > > > > > > 5 > > > > > 5 5 5 5 > > > > > > > > > > > > > > > 9 9 9 9 9 9 9 9 9 9 9 9 9 9 9 9 9 9 9 9 9 9 9 9 9 9 9 9 9 6 9 5 5 5 5 5 5 5 5 5 5 5 5 5 5 5 5 5 5 5 5 5 5 5 5 5 5 5 5 5 5 5 5 > > > > > > > > > > > > > > > > > > : > > > > > > > > > > > > > > > > > > > > > 5 5 5 5 5 5 5 5 5 5 5 5 5 5 5 5 5 5 5 5 5 5 > > > > > > > > > > > > > > > > > > > > > > > > > > > > > > > > : : > > > > > > > > > > > > > > > > > > > > > > > > : : : : : : : : : : : : : : : : # # : # : # : # : # : # : # : : : # : : > > > > > > > > > > > > > > > > > > > > > > > > > > > > > > ",
"^...q 0 0 6 > < 6 9 0 9 6 5 6 6 5 5 5 5 5 5 6 6 6 6 6 6 5 5 6 6 9 9 9 6 9 9 6 6 9 9 9 9 9 9 6 6 9 6 9 6 9 9 6 6 9 9 9 9 9 9 9 9 5 5 5 5 5 5 5 5 5 5 5 5 5 5 5 5 5 5 5 5 5 5 5 5 5 5 5 5 5 9 9 9 5 5 5 5 5 5 5 5 5 5 5 5 5 5 5 5 5 5 5 5 5 5 9 9 5 5 5 5 5 0 0 @.O.O.O.O.O.O.O.O.O.O.O.O.O.O.O.O.o.o.o.o.o.o.o.o.O.o.@.@.6 6 6 6 6 9 6 9 6 5 6 5 6 9 6 9 6 9 6 9 9 5 9 6 6 6 6 6 9 6 6 5 9 5 5 5 5 5 5 5 5 5 5 5 5 5 5 5 5 5 5 5 > > > > > > > > > > 9 > > > > > > > > > > > 5 5 5 5 > > > > > > > > > > > > > > > 9 6 6 6 5 6 6 9 9 9 9 9 9 9 9 9 9 9 9 9 9 9 9 9 9 6 9 9 9 6 9 5 5 6 6 6 5 6 5 5 5 5 5 5 5 5 5 5 5 5 5 5 5 5 5 5 5 5 5 5 5 5 5 > > > : > > : : : : : : : : : : : : : : : : : : : : : : : : : : > > > > > > > > > > > > > > > > > > > > > > > > 5 5 5 > > > > > > > > > > > > > > > > > > > > > > > > > > > > > > > > > > > : : > > > > > > > > > > > > > > > > > > > > > > > > : : : : : # # # # # # # # # # # # @ @ @ @ @ @ @ @ @ @ @ @ @ @ @ # # # # : : > > > > > > > > : : : : > : : : > : : : > : : : > : : : ",
"/.} 9 0 o.6 5 5 9 6 6 6 9 5 6 6 6 6 6 6 6 6 6 6 6 6 6 6 6 6 6 6 6 6 6 0 6 6 6 6 6 6 6 6 6 6 6 6 6 6 0 0 6 6 6 6 6 6 6 6 6 6 6 6 5 5 9 9 9 9 5 5 5 9 9 9 9 9 5 9 5 9 5 5 9 9 9 9 9 9 5 9 9 5 9 9 5 5 5 5 5 5 5 5 5 5 5 5 5 5 5 5 5 5 5 5 6 5 9 9 5 5 5 5 5 6 0 @.O.%.%.%.%.%.%.%.%.%.%.%.%.%.%.O.O.O.O.O.O.O.O.O.O.O.O.O.o.o.6 6 6 5 6 5 6 5 6 5 6 5 6 5 6 5 6 5 5 5 5 6 6 6 6 6 6 6 6 9 9 9 5 9 9 5 5 5 5 5 5 5 5 5 5 5 5 5 5 5 5 > > > 5 5 5 5 9 9 9 9 5 > > > 5 5 > 5 > > > > > > > > > > 5 5 5 5 > 5 > > > > 5 5 6 6 5 5 9 6 6 6 6 6 6 6 6 6 6 6 6 6 6 6 6 6 6 6 6 6 6 6 6 6 6 6 6 6 6 6 6 6 5 5 5 5 5 5 5 5 5 5 5 5 5 5 5 5 5 5 5 5 5 5 5 9 > > : : : : : : : : # # : : : : : : : : : : : : : # # # : : : : : : : : : : > > > > > > > > > > > > > > > > > > > > > > > > > > > > > > > > > > > > > > > > > > > > > > > > > > > > > > > > : : : : : : : : > > > > : : : : > > : : : : : : : : : : : : # # # @ @ @ @ @ # @ # @ @ @ @ @ @ @ @ @ @ @ @ @ @ @ @ @ @ @ @ # # : : : : : : : : : : : : : : : : : : : : : : : : : : : : : ",
"/.( 9 0 o.o.5 5 6 6 0 6 9 6 6 6 6 6 6 6 6 6 6 6 6 6 6 6 6 6 6 6 6 0 0 0 0 0 0 0 0 0 0 0 0 0 0 0 0 0 0 0 0 0 0 0 0 0 0 0 0 6 6 6 5 5 9 9 9 9 9 9 9 9 9 9 9 9 9 9 9 9 9 9 9 9 9 9 9 9 5 5 5 5 9 9 5 5 5 5 5 5 5 5 5 5 5 5 5 5 5 5 5 5 5 5 5 6 6 9 5 5 5 5 5 6 o.O.O.O.O.O.O.O.O.O.O.O.O.O.O.O.O.O.O.O.O.O.O.%.%.%.%.%.O.O.o.o.o.6 6 6 6 6 6 6 6 6 6 6 6 6 6 6 6 6 6 6 6 6 6 6 6 6 6 6 6 6 6 5 9 9 5 5 5 5 5 5 5 5 5 5 5 5 5 5 5 5 5 > > 5 5 5 5 5 5 9 9 9 5 > > > 5 5 5 5 > > > > > > > > > > > 5 5 5 5 5 > > > > 5 5 6 6 5 6 6 6 6 6 6 6 6 6 6 0 6 6 6 6 6 6 6 0 0 6 6 6 0 0 0 0 6 6 6 6 6 6 6 6 5 5 5 5 5 5 5 5 5 5 5 5 5 5 5 5 6 6 6 5 5 5 9 9 > > : : : : : # # # # # # # # # # # # # # # # # # # # # # # : # : : : : : : : : : > : : : : : : : : : : : : : > > > > > > > > > > > > > > > > > > > > > > > > > > > > > > > > > > > > > > > : : : : : : : : > : : : : : : : > > : : : : : : : : : : : : # # # @ @ @ @ @ @ @ @ @ @ @ @ @ @ . @ . @ . @ . @ . @ @ @ @ @ # # : : : : : : : : : : : : : : : : : : : : : : : : : : : : : ",
"/.} 9 0 o.o.5 5 6 6 0 6 9 5 6 6 6 6 6 6 6 6 6 6 6 6 6 6 6 6 6 6 6 6 6 6 6 6 6 6 6 6 6 6 6 6 6 6 6 6 6 6 6 6 6 6 6 6 6 6 6 6 6 6 5 5 5 5 5 5 5 5 5 5 5 5 5 5 5 5 5 5 5 5 5 5 5 5 5 5 5 5 5 5 5 5 5 5 5 5 5 5 5 5 5 5 5 5 5 5 5 5 > 5 5 5 6 6 9 9 9 5 5 5 6 6 o.O.o.o.o.o.o.o.o.o.O.o.o.o.o.o.o.o.O.O.O.O.O.O.%.%.%.O.O.O.o.o.6 6 6 6 6 6 6 6 6 6 6 6 6 6 6 6 6 6 6 6 6 6 6 6 6 6 6 6 6 9 5 5 5 9 5 5 5 5 5 5 5 5 5 5 5 5 5 5 5 5 5 5 > 5 5 5 5 5 5 5 5 5 > > > > > 5 5 5 5 5 > > 5 5 5 > > > 5 5 5 5 > > > > 5 5 5 5 5 5 6 6 6 6 6 6 6 6 6 6 6 6 6 6 6 6 6 6 6 6 6 6 6 6 6 6 6 6 6 6 6 6 6 5 6 5 5 5 5 5 5 5 5 5 5 5 5 5 5 5 5 5 6 6 6 5 5 5 9 9 > : : : : : # # # # # # # # # # # # # # # # # # # # # # # # : : : : : : : : > : : : : : : : : : : : : : : : : : > > > > > > > > > > > > > > > > > > > > > > > > > > > > > > > > > > > > > > : : : : : : : : > > : : : : : : : : : : : : : : : : > : : : # # @ @ @ @ @ @ @ @ @ @ @ @ @ @ @ @ @ @ @ @ @ @ @ @ @ @ @ @ @ # # : : : : : : : : : : : : : : : : : : : : : : : : : : : : : ",
"/.( 9 0 o.6 5 5 5 6 6 6 6 5 6 6 6 6 6 6 6 6 6 6 6 6 6 6 6 6 6 6 6 6 6 6 6 6 6 6 6 6 6 6 6 6 6 6 6 6 6 6 6 6 6 6 6 6 6 6 6 6 6 6 5 5 5 5 5 5 5 5 5 5 5 5 5 5 5 5 5 5 5 5 5 5 5 5 5 5 5 5 5 5 5 5 5 5 5 5 5 5 5 5 5 5 5 5 5 5 5 5 > > 5 5 6 6 9 9 9 5 5 5 6 o.O.O.o.o.o.o.o.o.o.o.o.o.o.o.o.o.o.o.o.o.O.O.O.O.O.O.O.O.o.@.o.6 6 6 6 6 6 6 6 6 6 6 6 6 6 6 6 6 6 6 6 6 6 6 6 6 6 6 6 6 6 5 5 5 5 5 5 5 5 5 5 5 5 5 5 5 5 5 5 5 5 5 5 5 5 5 5 5 5 5 5 5 5 5 5 > > > 5 5 > > 5 5 > 5 5 5 5 5 > > 5 5 5 5 > > > > 5 5 5 5 5 6 6 6 6 6 6 6 6 6 6 6 6 6 6 6 6 6 6 6 6 6 6 6 6 6 6 6 6 6 6 6 6 5 5 5 5 5 5 5 5 5 5 5 5 5 5 5 5 5 5 5 5 6 6 6 6 6 5 5 9 > > : : # # # # * # # : # : # # # # # # # : # : # # # # # # # : : : : : : > > > : : : : : : : : : : : : : > : : : : > > > > > > > > > > > > > > > > > > > > > > > > > > > > > > > > 5 > > > : : : : : : : : : > : : : : : : : : : : : : : : : : : > > > : : # * @ @ @ @ @ @ @ @ @ @ @ @ @ @ @ @ @ @ @ @ @ @ @ @ @ @ @ @ # # : : : > > > > : : : : : : : : : : : : : : : : : : : : : : ",
"/.' 9 0 o.6 5 5 5 6 6 6 5 5 6 6 6 5 6 5 6 6 6 5 6 5 6 5 6 5 6 6 6 6 6 6 6 6 6 6 6 6 6 6 6 6 6 6 6 6 6 6 6 6 6 6 6 6 6 6 6 6 6 5 5 5 5 5 5 5 5 5 5 5 5 5 5 5 5 5 5 5 5 5 5 5 5 5 5 5 5 5 5 5 > > 5 5 5 5 5 5 5 5 5 5 5 5 5 5 5 5 > > 5 5 5 5 9 5 9 > 5 5 6 o.O.O.O.O.O.O.O.O.O.O.O.O.O.O.O.O.O.o.@.o.o.O.O.O.O.O.O.o.@.@.6 6 5 5 6 6 6 6 6 6 6 6 6 6 6 6 6 6 6 6 6 6 6 6 6 6 6 6 6 6 6 5 5 5 5 > 5 5 5 5 5 5 5 5 5 5 5 5 5 5 5 5 5 5 5 5 5 5 5 5 5 5 5 5 5 > > > 5 5 > > 5 5 5 5 5 5 5 5 > > > 5 5 5 > > > 5 5 5 5 6 6 6 6 6 o.6 6 6 6 6 6 6 6 6 6 6 6 6 6 6 6 6 6 6 6 6 6 6 6 6 6 5 5 5 5 5 5 5 5 6 6 6 6 6 6 6 6 6 6 6 6 6 6 6 6 6 6 6 5 5 9 > : : # # # * * * # : : : : : : : : : : : : : : : : : : : : : : : < < > > > > > > > : > : > : > : > : > : > : : : : 2 2 : > > > > > > > > > > > > 5 5 > > > > 5 5 > > > > > 5 > > 5 > > > > : : : : : : : : : : : : : : : : : : : : : : : : : : > > > > : : # * @ @ @ @ @ @ @ # # @ @ @ @ # # # @ @ @ @ @ # # # @ @ @ @ # : : > > > > > > > : : : : : : : > > > > : : > : > : : > : : ",
"/.' q 6 6 6 5 5 5 6 6 6 5 5 6 6 6 5 5 5 6 6 6 5 5 5 5 5 6 6 5 5 6 6 6 6 6 6 6 6 6 6 6 6 6 6 6 6 6 6 6 6 6 6 6 6 6 6 6 6 6 6 6 5 5 5 5 5 5 5 5 > 5 > 5 5 5 5 5 5 5 5 5 5 5 5 5 5 5 5 5 5 5 > > > 5 5 5 5 5 5 5 5 5 5 5 5 5 5 5 5 5 5 5 5 5 5 9 5 9 5 5 5 6 o.O.O.O.O.O.O.O.O.O.O.O.O.O.O.O.O.O.O.o.o.@.@.O.O.O.O.O.o.@.@.6 6 5 5 5 6 6 6 6 6 6 6 6 6 6 6 6 6 6 6 6 6 6 6 6 6 6 6 6 6 6 5 5 5 5 > 5 5 5 5 5 5 5 5 5 5 5 5 5 5 5 5 5 5 5 5 5 5 5 5 5 5 5 5 > > > > > 5 > > 5 5 5 5 5 5 5 5 > > 5 5 5 5 > > > > 5 5 5 9 6 0 6 6 o.6 6 6 6 6 6 6 6 6 6 6 6 6 6 6 6 6 6 6 6 6 6 6 6 6 5 5 5 5 5 5 5 5 5 6 6 6 6 6 6 6 6 6 6 6 6 6 6 6 6 6 6 6 5 5 9 > : : # # # # # # : : : : : : : : : : : : : : : : : : : : : : : : > > > > > > > > > > > > > > > > > > > > > > > : : : : > > > > > > > > > > > > > 5 5 5 > > > 5 5 5 > > > > > > > > > > > > : : : : : : : : : : : : : : : : : : : : : : : : : : > > > > : : # * @ @ @ @ @ @ @ @ # @ @ @ @ # # @ @ # @ @ @ # # @ @ @ @ @ # : : > > > > > > > : : : : : > : > > > > > : > : > > > > > : ",
"W.( q 0 o.6 5 5 5 6 6 6 9 5 6 6 6 6 6 6 6 6 6 6 6 6 6 6 6 6 6 6 6 6 6 6 6 6 6 6 6 6 6 6 6 6 6 6 6 6 6 6 6 6 6 6 6 6 6 6 6 6 6 6 5 5 5 5 5 5 5 5 5 5 5 5 5 5 5 5 5 5 5 5 5 5 5 5 5 5 5 5 5 5 5 5 5 5 5 5 5 5 5 5 5 5 5 5 5 5 5 5 5 5 5 5 9 9 9 5 5 5 5 5 6 o.O.O.O.O.O.O.O.O.O.O.O.O.O.O.O.O.O.O.o.@.O.O.O.O.O.O.O.O.o.@.o.6 6 5 6 6 6 6 6 6 6 6 6 6 6 6 6 6 6 6 5 5 5 6 6 6 6 6 6 6 6 5 5 5 5 5 5 5 5 5 5 5 5 5 5 5 5 5 5 5 5 5 5 5 5 5 5 5 5 5 5 5 5 5 5 5 > > 5 5 > > > 5 5 5 5 5 5 5 > > > > 5 5 > > > > 5 5 5 5 6 6 6 6 6 6 6 6 6 6 6 6 6 6 6 6 6 6 6 6 6 6 6 6 6 6 6 6 6 6 6 5 5 5 5 5 5 5 5 5 5 5 5 5 5 5 5 5 5 5 5 5 5 5 5 5 6 6 6 5 5 9 > : # # # # # : : : : : # # : : : : # # # : : : # # # # : : : : : : > > : > > > > > : : : : > > > > > > > > > > > > > > > > > > > > > > > > > > > > > > > > > > > > > > > > > > > > > > > > > > : : : : : : : : : : : : : : : : : : : : : : : : > > : : : # # @ @ @ @ @ @ @ @ @ @ @ @ @ @ @ @ @ @ @ @ @ @ @ @ @ @ @ @ # : : : : > > > > : : : : : : > : > : > : > : > : > : > : : : ",
"!.E q 0 o.6 5 5 6 6 6 6 5 5 6 6 6 6 6 6 6 6 6 6 6 6 6 6 6 6 6 6 6 6 6 6 6 6 6 6 6 6 6 6 6 6 6 6 6 6 6 6 6 6 6 6 6 6 6 6 6 6 6 6 5 5 5 5 5 5 5 5 5 5 5 5 5 5 5 5 5 5 5 5 5 5 5 5 5 5 5 5 5 5 5 5 5 5 5 5 5 5 5 5 5 5 5 5 5 5 5 5 5 5 5 5 9 5 9 5 5 5 5 5 6 6 O.O.O.O.O.O.O.O.O.O.O.O.O.O.O.O.O.O.O.o.O.O.O.O.O.O.O.O.o.@.o.6 6 6 6 6 6 6 6 6 6 6 6 6 6 6 6 6 6 6 5 6 5 5 6 6 6 6 6 6 6 5 5 5 5 5 5 5 5 5 5 5 5 5 5 5 5 5 5 5 5 5 5 5 5 5 5 5 5 5 5 5 5 5 5 5 5 > 5 > > > > 5 5 5 > 5 5 5 > > > > 5 5 > > > 5 5 5 5 5 6 6 6 6 6 6 6 6 6 6 6 6 6 6 6 6 6 6 6 6 6 6 6 6 6 6 6 6 6 6 6 6 5 5 5 5 5 5 5 5 5 5 5 5 5 5 5 5 5 5 5 5 5 5 5 5 6 6 6 6 9 9 > : # # # # : : : : # # # # : : : : # # # # : : # # # # : : : : : : > > : : > > > > : : : : > > > > > > : > : : > > > > > > > > > > > > > > > > > > > > > > > > > > > > > > > > > > > > > > > > : : : : : : : : : : : : : : : : : : : : : : : : > : : : : # # @ @ @ @ @ @ @ @ @ @ @ @ @ @ @ @ @ @ @ @ @ @ @ @ @ @ @ @ # : : : : > > > : : : : : : : : : : : : : : : : : : : : : : : ",
"!.E q 0 o.6 5 5 6 6 6 6 5 5 6 6 6 6 6 6 6 6 6 6 6 6 6 6 6 6 6 6 6 6 6 6 6 6 6 6 6 6 6 6 6 6 6 6 6 6 6 6 6 6 6 6 6 6 6 6 6 6 6 6 5 5 5 5 5 5 5 5 5 5 5 5 5 5 5 5 5 5 5 5 5 5 5 5 5 5 5 5 5 5 5 5 5 5 5 5 5 5 5 5 5 5 5 5 5 5 5 5 5 5 5 5 5 5 5 5 5 5 5 5 6 o.O.O.O.O.O.O.O.O.O.O.O.O.O.O.O.O.O.O.O.o.O.O.O.O.O.O.O.O.o.@.o.6 6 6 6 6 6 6 6 6 6 6 6 6 6 6 6 6 6 6 6 6 6 6 6 6 6 6 6 6 6 5 5 5 5 5 5 5 5 5 5 5 5 5 5 5 5 5 5 5 5 5 5 5 5 5 5 5 5 5 5 5 5 5 5 5 > > 5 5 > > > > 5 5 > > 5 5 > > 5 > 5 5 > > > > 5 5 5 5 0 0 6 6 6 6 6 6 6 6 6 6 6 6 6 6 6 6 6 6 6 6 6 6 6 6 6 6 6 6 6 6 5 5 5 5 5 5 5 5 5 5 5 5 5 5 5 5 5 5 5 5 5 5 5 5 6 6 6 6 9 9 > : # # # # : : : : # # # # : : : : : # : : : : : : : : : : : : : : > > : : > > > > > : > > > > > > : : : : : : > > > > > > > > > > > > > > > > > > > > > > > > > > > > > > > > > > > > > > > > : : : : : : : : : : : : : : : : : : : : : : : : > : : : : # # @ @ @ @ @ @ @ @ @ @ @ @ @ @ @ @ @ @ @ @ @ @ @ @ @ @ @ # # : : : : > > : : : : : : : : : : : : : : : : : : : : : : : : ",
"!.E q 0 o.6 5 5 6 6 6 6 5 5 6 6 6 6 6 6 6 6 6 6 6 6 6 6 6 6 6 6 6 6 6 6 6 6 6 6 6 6 6 6 6 6 6 6 6 6 6 6 6 6 6 6 6 6 6 6 6 6 6 5 5 5 5 5 5 5 5 5 5 5 5 5 5 5 5 5 5 5 5 5 5 5 5 5 5 5 5 5 5 5 5 5 5 5 5 5 5 5 5 5 5 5 5 5 5 5 5 5 5 5 5 5 5 5 5 5 5 5 5 5 6 o.O.O.O.O.O.O.O.O.O.O.O.O.O.O.O.O.O.O.O.o.O.O.O.O.O.O.O.O.o.o.o.6 6 6 6 6 6 6 6 6 6 6 6 6 6 6 6 6 6 6 6 6 6 6 6 6 6 6 6 6 6 5 5 5 5 5 5 5 5 5 5 5 5 5 5 5 5 5 5 5 5 5 5 5 5 5 5 5 5 5 5 5 5 5 5 5 > > 5 5 > > > > 5 > > > > > > > 5 5 5 5 > > > > 5 5 5 5 0 6 6 6 6 6 6 6 6 6 6 6 6 6 6 6 6 6 6 6 6 6 6 6 6 6 6 6 6 6 6 6 5 5 5 5 5 5 5 5 5 5 5 5 5 5 5 5 5 5 5 5 5 5 5 5 6 6 6 5 9 9 > : # # # # : : # : : # # # # : : : : : : : : : : : : : : : : : : : > > : : > > > > > : > > > > > > : : : : : : > > > > > > > > > > > > > > > > > > > > > > > > > > > > > > > > > > > > > > > > : : : : : : : : : : : : : : : : : : : : : : : : > : : : : # # @ @ @ @ @ @ @ @ @ @ @ @ @ @ @ @ @ @ @ @ @ @ @ @ @ @ @ # # : : : : > > : : : : : : : : : : : : : : : : : : : : : : : : ",
"!.E q 0 o.6 5 5 6 6 6 6 6 5 6 6 6 6 6 6 6 6 6 6 6 6 6 6 6 6 6 6 6 6 6 6 6 6 6 6 6 6 6 6 6 6 6 6 6 6 6 6 6 6 6 6 6 6 6 6 6 6 6 5 5 5 5 5 5 5 5 5 5 5 5 5 5 5 5 5 5 5 5 5 5 5 5 5 5 5 5 5 5 5 5 5 5 5 5 5 5 5 5 5 5 5 5 5 5 5 5 5 5 5 5 5 5 5 9 5 9 5 5 5 6 6 O.O.O.O.O.O.O.O.O.O.O.O.O.O.O.O.O.O.O.O.O.O.O.O.O.O.O.O.o.o.6 6 6 6 6 6 6 6 6 6 6 6 6 6 6 6 6 6 6 6 5 5 5 6 6 6 6 6 6 6 6 5 5 5 5 5 5 5 5 5 5 5 5 5 5 5 5 5 5 5 5 5 5 5 5 5 5 5 5 5 5 5 5 5 > > > > 5 > > > > > > > > > > > > 5 5 5 > > > > > > > > 5 5 6 0 6 6 6 6 6 6 6 6 6 6 6 6 6 6 6 6 6 6 6 6 6 6 6 6 6 6 6 6 6 6 5 5 5 5 5 5 5 5 5 5 5 5 5 5 5 5 5 5 5 5 5 5 5 5 6 6 6 6 9 9 > : # # # # : : : : # : # # : : # # : : : # # # : : : : : : : : : : > > > > > > > > > > > : : : : : : : > : : : > > > > > > > > > > > > > > > > > > > > > > > > > > > > > > > > > > > > > > > > > > : : : : : : : : : : : : : : : : : : : : : : : : : : : # # @ @ @ @ @ @ @ @ @ @ @ @ @ @ @ @ @ @ @ @ @ @ @ @ @ @ @ @ # # : : : > > : : : : : : : : : : : : : : : : : : : : : : : : ",
"!.E q 0 o.6 5 5 6 6 6 6 6 5 6 6 6 6 6 6 6 6 6 6 6 6 6 6 6 6 6 6 6 6 6 6 6 6 6 6 6 6 6 6 6 6 6 6 6 6 6 6 6 6 6 6 6 6 6 6 6 6 6 5 5 5 5 5 5 5 5 5 5 5 5 5 5 5 5 5 5 5 5 5 5 5 5 5 5 5 5 5 5 5 5 5 5 5 5 5 5 5 5 5 5 5 5 5 5 5 5 5 5 5 5 5 5 5 9 5 9 5 5 5 6 o.o.O.O.O.O.O.O.O.O.O.O.O.O.O.O.O.O.O.O.O.O.O.O.O.O.O.O.O.o.o.o.6 6 6 6 6 6 6 6 6 6 6 6 6 6 6 6 6 6 6 5 5 6 6 6 6 6 6 6 6 6 5 5 5 5 5 5 5 5 5 5 5 5 5 5 5 5 5 5 5 5 5 5 5 5 5 5 5 5 5 5 5 5 5 > > > > > > > > > > > > > > > > > > 5 5 > > > > > > > > 5 5 6 6 6 6 6 6 6 6 6 6 6 6 6 6 6 6 6 6 6 6 6 6 6 6 6 6 6 6 6 6 6 6 5 5 5 5 5 5 5 5 5 5 5 5 5 5 5 5 5 5 5 5 5 5 5 5 6 6 6 6 9 9 > : # # # # : : : : # # # # : : # : : : : # # # : # : : : : : : : : > > > > > > > > > > > > : : : > : : > : : : > > > > > > > > > > > > > > > > > > > > > > > > > > > > > > > > > > > > > > > > > > : : : : : : : : : : : : : : : : : : : : : : : : : : : # # @ @ @ @ @ @ @ @ @ @ @ @ @ @ @ @ @ @ @ @ @ @ @ @ @ @ @ # # # : : : > > : : : : : : : : : : : : : : : : : : : : : : : : ",
"!.` q 0 o.6 5 5 6 6 6 6 6 5 6 6 6 6 6 6 6 6 6 6 6 6 6 6 6 6 6 6 6 6 6 6 6 6 6 6 6 6 6 6 6 6 6 6 6 6 6 6 6 6 6 6 6 6 6 6 6 6 6 6 5 5 5 5 5 5 5 5 5 5 5 5 5 5 5 5 5 5 5 5 5 5 5 5 5 5 5 5 5 5 5 5 5 5 5 5 5 5 5 5 5 5 5 5 5 5 5 5 5 5 5 5 9 9 9 5 9 5 5 5 6 o.o.O.O.O.O.O.O.O.O.O.O.O.O.O.O.O.O.O.O.o.O.O.O.O.O.O.O.O.o.@.6 6 6 6 6 6 6 6 6 6 6 6 6 6 6 6 6 6 6 6 5 5 5 5 6 6 6 6 6 6 6 5 5 5 5 5 5 5 5 5 5 5 5 5 5 5 5 5 5 5 5 5 5 5 5 5 5 5 5 5 5 5 5 5 5 5 5 5 > > > > > > > 5 5 5 > > > > > > > > > > > > > > 5 5 6 6 6 6 6 6 6 6 6 6 6 6 6 6 6 6 6 6 6 6 6 6 6 6 6 6 6 6 6 6 6 6 5 5 5 5 5 5 5 5 5 5 5 5 5 5 5 5 5 5 5 5 5 5 5 5 6 6 6 6 9 9 > : # # # # : : : : : # : : : : # # : : : : # # # # # # : : : : : : > > > : > > > : > > > : : : > > > > > > : : > > > > > > > > > > > > > > > > > > > > > > > > > > > > > > > > > > > > > > > > > > : : : : : : : : : : : : : : : : : : : : : : : : : : : # # @ @ @ @ @ @ @ @ @ @ @ @ @ @ @ @ @ @ @ @ @ @ @ @ @ @ @ @ # # : : : > > : : : : : : : : : : : : : : : : : : : : : : : : ",
"!.` q 0 o.6 5 5 6 6 6 6 6 5 6 6 6 6 6 6 6 6 6 6 6 6 6 6 6 6 6 6 6 6 6 6 6 6 6 6 6 6 6 6 6 6 6 6 6 6 6 6 6 6 6 6 6 6 6 6 6 6 6 6 5 5 5 5 5 5 5 5 5 5 5 5 5 5 5 5 5 5 5 5 5 5 5 5 5 5 5 5 5 5 5 5 5 5 5 5 5 5 5 5 5 5 5 5 5 5 5 5 5 5 5 5 9 9 9 5 9 5 5 5 6 6 o.O.O.O.O.O.O.O.O.O.O.O.O.O.O.O.O.O.O.o.O.O.O.O.O.O.O.O.o.@.o.6 6 6 6 6 6 6 6 6 6 6 6 6 6 6 6 6 6 6 5 5 5 5 6 6 6 6 6 6 6 5 5 5 5 5 5 5 5 5 5 5 5 5 5 5 5 5 5 5 5 5 5 5 5 5 5 5 5 5 5 5 5 5 5 5 5 5 > > > > > > > 5 5 5 5 5 > > > > 5 > > > > > > > 5 5 6 6 6 6 6 6 6 6 6 6 6 6 6 6 6 6 6 6 6 6 6 6 6 6 6 6 6 6 6 6 6 6 5 5 5 5 5 5 5 5 5 5 5 5 5 5 5 5 5 5 5 5 5 5 5 5 6 6 6 6 9 9 > : # # # # : : : : : # : : : : # # : : : : : : # # # : : : : : : : > > > > > > : : > > > : : : > > > > > > : : > > > > > > > > > > > > > > > > > > > > > > > > > > > > > > > > > > > > > > > > > > : : : : : : : : : : : : : : : : : : : : : : : : : : : # # @ @ @ @ @ @ @ @ @ @ @ @ @ @ @ @ @ @ @ @ @ @ @ @ @ @ @ @ # # : : : > > : : : : : : : : : : : : : : : : : : : : : : : : ",
"^.' q 0 o.6 5 5 6 6 6 6 6 5 6 6 6 6 6 6 6 6 6 6 6 6 6 6 6 6 6 6 6 6 6 6 6 6 6 6 6 6 6 6 6 6 6 6 6 6 6 6 6 6 6 6 6 6 6 6 6 6 6 6 5 5 5 5 5 5 5 5 5 5 5 5 5 5 5 5 5 5 5 5 5 5 5 5 5 5 5 5 5 5 5 5 5 5 5 5 5 5 5 5 5 5 5 5 5 5 5 5 5 5 5 5 5 5 5 5 9 5 5 5 6 o.O.O.O.O.O.O.O.O.O.O.O.O.O.O.O.O.O.O.O.o.O.O.O.O.O.O.O.O.o.o.o.6 6 6 6 6 6 6 6 6 6 6 6 6 6 6 6 6 6 6 6 6 6 5 6 6 6 6 6 6 6 5 5 5 5 5 5 5 5 5 5 5 5 5 5 5 5 5 5 5 5 5 5 5 5 5 5 5 5 5 5 5 5 5 > > > > 5 5 > > > > > > > > > > > > > > 5 5 > > > > > > 5 5 6 6 6 6 6 6 6 6 6 6 6 6 6 6 6 6 6 6 6 6 6 6 6 6 6 6 6 6 6 6 6 6 5 5 5 5 5 5 5 5 5 5 5 5 5 5 5 5 5 5 5 5 5 5 5 5 6 6 6 6 9 9 > : # # # # : : : : : : # # # : # : : : # # # # : : : : : : : : > : > > > > > > : : : : : : > > > > > > > > > : > > > > > > > > > > > > > > > > > > > > > > > > > > > > > > > > > > > > > > > > : : : : : : : : : : : : : : : : : : : : : : : : > : : : : # # @ @ @ @ @ @ @ @ @ @ @ @ @ @ @ @ @ @ @ @ @ @ @ @ @ @ @ # # # : : : > > : : : : : : : : : : : : : : : : : : : : : : : : ",
"^.' q 0 o.6 5 5 6 6 6 6 6 5 6 6 6 6 6 6 6 6 6 6 6 6 6 6 6 6 6 6 6 6 6 6 6 6 6 6 6 6 6 6 6 6 6 6 6 6 6 6 6 6 6 6 6 6 6 6 6 6 6 6 5 5 5 5 5 5 5 5 5 5 5 5 5 5 5 5 5 5 5 5 5 5 5 5 5 5 5 5 5 5 5 5 5 5 5 5 5 5 5 5 5 5 5 5 5 5 5 5 5 5 5 5 9 5 9 5 9 5 5 5 6 o.O.O.O.O.O.O.O.O.O.O.O.O.O.O.O.O.O.O.O.o.O.O.O.O.O.O.O.O.o.o.o.6 6 6 6 6 6 6 6 6 6 6 6 6 6 6 6 6 6 6 6 6 5 5 6 6 6 6 6 6 6 5 5 5 5 5 5 5 5 5 5 5 5 5 5 5 5 5 5 5 5 5 5 5 5 5 5 5 5 5 5 5 5 5 > > > > 5 5 > > > > > > > > > > 5 > > > 5 5 > > > > 5 > 5 5 6 6 6 6 6 6 6 6 6 6 6 6 6 6 6 6 6 6 6 6 6 6 6 6 6 6 6 6 6 6 6 6 5 5 5 5 5 5 5 5 5 5 5 5 5 5 5 5 5 5 5 5 5 5 5 5 6 6 6 6 9 9 > : # # # # : : : : : : # # # : : : : : # # # # : : : : : : : : > : > : : > > > : : : : : : > > > > > > > > > > > > > > > > > > > > > > > > > > > > > > > > > > > > > > > > > > > > > > > > > > : : : : : : : : : : : : : : : : : : : : : : : : > : : : : # # @ @ @ @ @ @ @ @ @ @ @ @ @ @ @ @ @ @ @ @ @ @ @ @ @ @ @ # # # : : : > > > : : : : : : : : : : : : : : : : : : : : : : : ",
"^.' q 0 o.6 5 5 6 6 6 6 6 5 6 6 6 6 6 6 6 6 6 6 6 6 6 6 6 6 6 6 6 6 6 6 6 6 6 6 6 6 6 6 6 6 6 6 6 6 6 6 6 6 6 6 6 6 6 6 6 6 6 6 5 5 5 5 5 5 5 5 5 5 5 5 5 5 5 5 5 5 5 5 5 5 5 5 5 5 5 5 5 5 5 5 5 5 5 5 5 5 5 5 5 5 5 5 5 5 5 5 5 5 5 5 9 9 5 5 9 > 5 5 6 6 O.O.O.O.O.O.O.O.O.O.O.O.O.O.O.O.O.O.O.o.O.O.O.O.O.O.O.O.o.o.o.6 6 6 6 6 6 6 6 6 6 6 6 6 6 6 6 6 6 6 6 6 6 6 6 6 6 6 6 6 6 5 5 5 5 5 5 5 5 5 5 5 5 5 5 5 5 5 5 5 5 5 5 5 5 5 5 5 5 5 5 5 5 5 > > > > 5 5 5 > 5 5 5 5 > > 5 5 5 5 5 5 5 5 > > 5 5 5 5 5 5 6 0 6 6 6 6 6 6 6 6 6 6 6 6 6 6 6 6 6 6 6 6 6 6 6 6 6 6 6 6 6 6 5 5 5 5 5 5 5 5 5 5 5 5 5 5 5 5 5 5 5 5 5 5 5 5 6 6 6 6 9 9 > : # # # # : : : # : : # # : : : : : : : : # : : : : : : : : : > > : : : : > > > > > > : : : : : : > > > > > > > > > > > > > > > > > > > > > > > > > > > > > > > > > > > > > > > > > > > > > > : : : : : : : : : : : : : : : : : : : : : : : : > : : : : # # @ @ @ @ @ @ @ @ @ @ @ @ @ @ @ @ @ @ @ @ @ @ @ @ @ @ @ # # # : : : > > : : : : : : : : : : : : : : : : : : : : : : : : ",
"^.' q 0 o.6 5 5 6 6 6 6 6 5 6 6 6 6 6 6 6 6 6 6 6 6 6 6 6 6 6 6 6 6 6 6 6 6 6 6 6 6 6 6 6 6 6 6 6 6 6 6 6 6 6 6 6 6 6 6 6 6 6 6 5 5 5 5 5 5 5 5 5 5 5 5 5 5 5 5 5 5 5 5 5 5 5 5 5 5 5 5 5 5 5 5 5 5 5 5 5 5 5 5 5 5 5 5 5 5 5 5 5 5 5 5 9 9 5 5 9 > 5 5 6 o.O.O.O.O.O.O.O.O.O.O.O.O.O.O.O.O.O.O.O.o.O.O.O.O.O.O.O.O.o.o.o.6 6 6 6 6 6 6 6 6 6 6 6 6 6 6 6 6 6 6 6 6 5 6 6 6 6 6 6 6 6 5 5 5 5 5 5 5 5 5 5 5 5 5 5 5 5 5 5 5 5 5 5 5 5 5 5 5 5 5 5 5 5 5 > > > > 5 5 > > 5 5 5 5 > > 5 5 5 5 5 5 5 5 > > > 5 5 5 5 5 6 0 6 6 6 6 6 6 6 6 6 6 6 6 6 6 6 6 6 6 6 6 6 6 6 6 6 6 6 6 6 6 5 5 5 5 5 5 5 5 5 5 5 5 5 5 5 5 5 5 5 5 5 5 5 5 6 6 6 6 9 9 > : # # # # : : # # : : : : : : : : : : : : : : : : : # : : : : > > : : : : > > > > > > : : : > : : : > > > > > > > > > > > > > > > > > > > > > > > > > > > > > > > > > > > > > > > > > > > > > > : : : : : : : : : : : : : : : : : : : : : : : > : : : : # # @ @ @ @ @ @ @ @ @ @ @ @ @ @ @ @ @ @ @ @ @ @ @ @ @ @ @ @ # : : : : > > : : : : : : : : : : : : : : : : : : : : : : : : ",
"!.' q 0 o.6 5 5 6 6 6 6 6 5 6 6 6 6 6 6 6 6 6 6 6 6 6 6 6 6 6 6 6 6 6 6 6 6 6 6 6 6 6 6 6 6 6 6 6 6 6 6 6 6 6 6 6 6 6 6 6 6 6 6 5 5 5 5 5 5 5 5 5 5 5 5 5 5 5 5 5 5 5 5 5 5 5 5 5 5 5 5 5 5 5 5 5 5 5 5 5 5 5 5 5 5 5 5 5 5 5 5 5 5 5 5 9 9 9 5 9 5 5 5 6 6 O.O.O.O.O.O.O.O.O.O.O.O.O.O.O.O.O.O.O.o.O.O.O.O.O.O.O.O.o.o.o.6 6 6 6 6 6 6 6 6 6 6 6 6 6 6 6 6 6 6 5 5 5 5 6 6 6 6 6 6 6 5 5 5 5 5 5 5 5 5 5 5 5 5 5 5 5 5 5 5 5 5 5 5 5 5 5 5 5 5 5 5 5 5 5 5 5 5 > > 5 5 > > > > > > 5 5 5 5 5 5 > > > > > > > > 5 5 6 0 6 6 6 6 6 6 6 6 6 6 6 6 6 6 6 6 6 6 6 6 6 6 6 6 6 6 6 6 6 6 5 5 5 5 5 5 5 5 5 5 5 5 5 5 5 5 5 5 5 5 5 5 5 5 6 6 6 6 9 9 > : # # # # : : # # # # : : : : : : : : : : : : # # # # : : : : > : > : : : > > > > : : : : > > : : > > > > : : > > > > > > > > > > > > > > > > > > > > > > > > > > > > > > > > > > > > > > > > > > : : : : : : : : : : : : : : : : : : : : : : : : : : : # # # @ @ @ @ @ @ @ @ @ @ @ @ @ @ @ @ @ @ @ @ @ @ @ @ @ @ # # : : : : > > > : : : : : : : : : : : : : : : : : : : : : : : ",
"^.' q 0 o.o.5 5 6 6 6 6 6 5 6 6 6 6 6 6 6 6 6 6 6 6 6 6 6 6 6 6 6 6 6 6 6 6 6 6 6 6 6 6 6 6 6 6 6 6 6 6 6 6 6 6 6 6 6 6 6 6 6 6 5 5 5 5 5 5 5 5 5 5 5 5 5 5 5 5 5 5 5 5 5 5 5 5 5 5 5 5 5 5 5 5 5 5 5 5 5 5 5 5 5 5 5 5 5 5 5 5 5 5 5 5 9 5 5 5 5 5 5 5 6 6 O.O.O.O.O.O.O.O.O.O.O.O.O.O.O.O.O.O.O.o.O.O.O.O.O.O.O.O.o.o.o.6 6 6 6 6 6 6 6 6 6 6 6 6 6 6 6 6 6 6 5 5 5 5 6 6 6 6 6 6 6 5 5 5 5 5 5 5 5 5 5 5 5 5 5 5 5 5 5 5 5 5 5 5 5 5 5 5 5 5 5 5 5 5 5 5 5 > > > 5 5 > > > > > > 5 5 5 5 5 5 > > > 5 > > > > 5 5 6 0 6 6 6 6 6 6 6 6 6 6 6 6 6 6 6 6 6 6 6 6 6 6 6 6 6 6 6 6 6 6 5 5 5 5 5 5 5 5 5 5 5 5 5 5 5 5 5 5 5 5 5 5 5 5 6 6 6 6 9 9 > : # # # # : : # # : : : : : : : : : : : : : : # # # # : : : : : : > : : > > > > > : : > > > > : : > > > > : : > > > > > > > > > > > > > > > > > > > > > > > > > > > > > > > > > > > > > > > > > > : : : : : : : : : : : : : : : : : : : : : : : : : : : # # # @ @ @ @ @ @ @ @ @ @ @ @ @ @ @ @ @ @ @ @ @ @ @ @ @ @ # # : : : : > > : : : : : : : : : : : : : : : : : : : : : : : : ",
"^.' q 0 6 6 5 5 6 6 6 6 6 5 6 6 6 6 6 6 6 6 6 6 6 6 6 6 6 6 6 6 6 6 6 6 6 6 6 6 6 6 6 6 6 6 6 6 6 6 6 6 6 6 6 6 6 6 6 6 6 6 6 6 5 5 5 5 5 5 5 5 5 5 5 5 5 5 5 5 5 5 5 5 5 5 5 5 5 5 5 5 5 5 5 5 5 5 5 5 5 5 5 5 5 5 5 5 5 5 5 5 5 5 5 5 9 5 9 5 5 5 5 5 6 o.O.O.O.O.O.O.O.O.O.O.O.O.O.O.O.O.O.O.O.o.O.O.O.O.O.O.O.O.o.@.o.6 6 6 6 6 6 6 6 6 6 6 6 6 6 6 6 6 6 6 5 5 5 5 6 6 6 6 6 6 6 5 5 5 5 5 5 5 5 5 5 5 5 5 5 5 5 5 5 5 5 5 5 5 5 5 5 5 5 5 5 5 5 5 5 5 > > > > 5 5 > > > > > > > > 5 > > > > > 5 5 5 > > > 5 5 0 6 6 6 6 6 6 6 6 6 6 6 6 6 6 6 6 6 6 6 6 6 6 6 6 6 6 6 6 6 6 6 5 5 5 5 5 5 5 5 5 5 5 5 5 5 5 5 5 5 5 5 5 5 5 5 6 6 6 5 9 9 > : # # # # : : : : : : # : # # : : : : # # # # : # : : : : : : : : > : > > > > > : : : > > > > : > > > > : : : > > > > > > > > > > > > > > > > > > > > > > > > > > > > > > > > > > > > > > > > > : : : : : : : : : : : : : : : : : : : : : : : : : : : : # # # @ @ @ @ @ @ @ @ @ @ @ @ @ @ @ @ @ @ @ @ @ @ @ @ @ @ @ # # : : : > > : : : : : : : : : : : : : : : : : : : : : : : : ",
"^.' q 0 6 6 5 5 6 6 6 6 5 5 6 6 6 6 6 6 6 6 6 6 6 6 6 6 6 6 6 6 6 6 6 6 6 6 6 6 6 6 6 6 6 6 6 6 6 6 6 6 6 6 6 6 6 6 6 6 6 6 6 5 5 5 5 5 5 5 5 5 5 5 5 5 5 5 5 5 5 5 5 5 5 5 5 5 5 5 5 5 5 5 5 5 5 5 5 5 5 5 5 5 5 5 5 5 5 5 5 5 5 5 5 5 9 9 9 5 9 5 5 5 6 o.o.O.O.O.O.O.O.O.O.O.O.O.O.O.O.O.O.O.O.o.O.O.O.O.O.O.O.O.O.@.o.6 6 6 6 6 6 6 6 6 6 6 6 6 6 6 6 6 6 6 6 6 6 6 6 6 6 6 6 6 6 5 5 5 5 5 5 5 5 5 5 5 5 5 5 5 5 5 5 5 5 5 5 5 5 5 5 5 5 5 5 5 5 5 > > > > > > 5 5 5 > > > > > > > > > > > > > 5 5 5 > > 5 5 5 0 6 6 6 6 6 6 6 6 6 6 6 6 6 6 6 6 6 6 6 6 6 6 6 6 6 6 6 6 6 6 6 6 5 6 5 6 5 5 5 5 5 5 5 5 5 5 5 5 5 5 5 5 5 5 6 6 6 6 5 9 5 > : # # # : : # : : : : # # # # # : : : # # # # : : : : : : : : : : : : > > > > > > : : > > > > : > > > : : : : > > > > > > > > > > 5 5 5 5 5 5 > > > > > > > > > > > > > > > > > > > > > > > > > > : : : : : : : : : : : : : : : : : : : : : : : : : : : # # # @ @ @ @ @ @ @ @ @ @ @ @ @ @ @ @ @ @ @ @ @ @ @ @ @ @ @ # # : : : > > : > : : : : : : : : : : : : : : : : : : : : : : ",
"/.' 9 0 6 6 5 5 6 6 6 6 5 5 6 6 6 6 6 6 6 6 6 6 6 6 6 6 6 6 6 6 6 6 6 6 6 6 6 6 6 6 6 6 6 6 6 6 6 6 6 6 6 6 6 6 6 5 6 5 5 5 5 5 5 5 5 5 5 5 5 5 5 5 5 5 5 5 5 5 5 5 5 5 5 5 5 5 5 5 5 5 5 5 5 5 5 5 5 5 5 5 5 5 5 5 5 5 5 5 5 5 5 5 5 5 5 5 5 5 5 5 5 5 6 o.o.o.O.O.O.O.O.O.O.O.O.O.O.O.O.O.O.O.O.o.O.O.O.O.O.O.O.O.O.o.o.6 6 6 5 9 9 9 5 9 9 9 9 9 9 9 9 9 6 6 6 6 6 6 6 6 6 6 0 6 6 6 6 5 5 5 5 5 5 5 5 5 5 5 5 5 5 5 5 5 5 5 5 5 5 5 5 5 5 5 5 5 > > > > > > > 5 5 5 5 5 5 5 5 5 5 5 5 5 5 5 > > > > 5 5 5 5 6 6 6 6 6 6 6 6 6 6 6 6 6 6 6 6 6 6 6 6 6 6 6 6 6 6 6 6 6 6 6 6 6 6 6 6 6 6 6 6 5 5 5 5 5 5 5 5 5 5 5 5 5 5 5 5 6 6 6 6 6 5 5 5 > : : # : : : # : : : : : : : : # # # # : : : # # # : : : : : : : : : : > > > > > > > > > > > > > > > > > > > > > > > > > > > 5 > > 5 5 5 5 5 5 > > > > > > > > > > > > > > > > > > 5 5 5 > > > > > > : : : : : > > : : : : : : : : > : : > > : > > : : : # # @ @ @ @ @ @ @ @ @ @ @ @ @ @ @ @ @ @ @ @ @ @ @ @ @ @ @ @ # # : : : : > : > : : : : : : : : : : : : : : : : : : : : : : ",
"/.( 9 o.o.o.5 7 6 6 6 6 5 5 6 6 6 6 6 6 6 6 6 6 6 6 6 6 6 6 6 6 6 6 6 6 6 6 6 6 6 6 6 6 6 6 6 6 6 6 6 6 6 6 6 6 6 5 5 5 5 5 5 5 5 5 5 5 5 5 5 5 5 5 5 5 5 5 5 5 5 5 5 5 5 5 5 5 5 5 5 5 5 5 5 5 5 5 5 5 5 5 5 5 5 5 5 5 5 5 5 5 5 9 9 9 5 5 5 5 5 5 5 6 6 o.o.O.O.O.O.O.O.O.O.O.O.O.O.O.O.O.O.O.o.o.O.O.O.O.O.O.O.O.O.o.6 6 5 5 6 9 6 9 6 9 6 9 6 9 6 9 6 9 6 6 6 6 6 6 6 6 6 6 6 6 6 6 6 6 5 5 5 5 5 5 5 5 5 5 5 5 5 5 5 5 5 5 5 5 5 5 5 5 5 5 5 5 > > > > > > > > 5 5 5 5 5 5 5 5 > > 5 5 5 5 > > > > 5 5 5 5 5 5 6 6 6 6 6 6 6 6 6 6 6 6 6 6 6 6 6 6 6 6 6 6 6 6 6 6 6 6 6 6 6 6 6 6 6 6 6 6 5 5 5 5 5 5 5 5 5 5 5 5 5 5 5 5 6 6 6 6 6 5 5 5 > : : : : : # # : : : # : : : : # # # # : : : : # # : : : : : : : : : : > > > > > > > > > > > > > > > > > > > > > : > > > > > 5 > 5 5 5 5 5 5 5 > > > > > > > > > > > > > > > > > 5 5 5 5 > > > > > > > : > : : > > > > > : > : > > > : > : > > : : : : : # # @ @ @ @ @ @ @ @ @ @ @ @ @ @ @ @ @ @ @ @ @ @ @ @ @ @ * # # # 1 : : : : > : : : : : : : : : : : : : : : : : : : : : : : ",
"/.( 9 o.o.o.5 5 6 6 6 6 6 6 6 6 6 6 6 6 6 6 6 6 6 6 6 6 6 6 6 6 6 6 6 6 6 6 6 6 6 6 6 6 6 6 6 6 6 6 6 6 6 6 6 6 6 6 6 5 5 5 5 5 5 5 5 5 5 5 5 5 5 5 5 5 5 5 5 5 5 5 5 5 5 5 5 5 5 5 5 5 5 5 5 5 5 5 5 5 5 5 5 5 5 5 5 5 5 5 5 5 9 5 9 5 5 5 5 5 5 5 5 5 6 o.o.o.O.O.O.O.O.O.O.O.O.O.O.O.O.O.O.O.O.O.O.O.O.O.O.O.O.O.O.o.6 6 6 6 6 6 6 6 6 6 6 6 6 6 6 6 6 6 6 6 6 6 6 6 6 6 6 6 5 5 5 5 5 5 5 5 5 5 5 5 5 5 5 5 5 5 5 5 5 5 5 5 5 5 5 5 5 5 5 5 5 5 5 5 > > 5 5 5 5 5 5 5 5 > > > > > > > > 5 > > > > > 5 5 5 5 5 5 5 6 6 0 6 6 6 6 6 6 6 6 6 0 6 6 6 6 6 6 6 6 6 6 6 6 6 6 6 6 6 6 6 6 6 6 6 6 5 5 5 5 5 5 5 5 5 5 5 5 5 5 5 5 5 6 6 5 5 5 5 5 > : : : : : # # : # # # # # : : : # : : : : : : # # : : : : : : > : > > > > > > > > > > > > > > > > > > > > > > > > > > > > > > > > > > > > > > > > > > > > > > > > > > > > > > > > > > > > > > > : > : , , : : : : > : > : : : , , : : : : : : : : : : : # # @ @ @ @ @ @ @ @ @ @ @ @ @ @ @ @ @ @ @ @ @ @ @ @ @ * * # # 1 : : : : > > > > > : : > > > > : : : : > > > > > > > > : : ",
"W.( 9 o.o.6 5 5 5 6 6 6 5 5 6 6 6 6 6 6 6 6 6 6 6 6 6 6 6 6 6 6 6 6 6 6 6 6 6 6 6 6 6 6 6 6 6 6 6 6 6 6 6 6 6 6 6 6 6 5 5 5 5 5 5 5 5 5 5 5 5 5 5 5 5 5 5 5 5 5 5 5 5 5 5 5 5 5 5 5 5 5 5 5 5 5 5 5 5 5 5 5 5 5 5 5 5 5 5 5 5 5 5 5 5 5 5 5 5 5 5 5 5 5 6 6 o.@.o.O.O.O.O.O.O.O.O.O.O.O.O.O.O.o.@.@.O.O.O.O.O.O.O.O.o.o.6 6 6 6 6 6 6 6 6 6 6 6 6 6 6 6 6 6 6 6 6 5 5 5 5 5 5 5 5 5 5 5 5 5 5 5 5 5 5 5 5 5 5 5 5 5 5 5 5 5 5 5 5 5 5 5 5 5 5 5 5 5 5 5 5 5 5 5 5 5 5 5 5 > > > > > > > > 5 5 5 > > > 5 5 5 5 5 5 5 5 6 0 9 6 5 6 6 6 6 6 6 6 6 6 6 6 6 6 6 6 6 6 6 6 6 6 6 6 6 5 5 5 5 5 5 5 5 5 5 5 5 5 5 5 5 5 5 5 5 5 5 5 5 5 5 5 5 5 5 5 > : : : : : : # # # # # # # # : : : : : : : : : : # # : : : : : : > > > > > > > > > > > > > > > > > > > > > > > > > > > > > > > > > > > > > > > > > > > > > > > > > > > > > > > > > > > > > > : : : : : : : : : : : : : : : : : : : : : : : : : : : : : : # # # @ @ @ @ @ @ @ @ @ @ @ @ @ @ @ @ @ @ @ @ @ @ @ @ @ * @ # # # : : : : : > > : : : : : : : : : : : : : : : : : : : : : : ",
"!.( q 0 o.0 5 5 9 9 0 9 6 5 6 6 6 9 9 6 9 9 6 6 0 0 0 9 9 6 0 0 6 6 0 0 0 0 6 6 6 6 6 6 6 6 6 6 6 6 6 6 6 6 6 6 6 6 9 9 9 6 5 6 5 5 5 5 5 5 5 5 5 5 5 5 5 5 5 5 5 5 5 5 5 5 5 5 5 5 5 5 5 5 5 5 5 5 5 5 5 5 5 5 5 5 5 5 5 5 5 5 5 5 5 5 5 5 5 5 5 5 5 5 6 0 0 +.o.o.o.o.o.o.o.o.o.o.o.o.o.o.o.o.@.o.o.o.o.o.o.O.o.@.@.o.6 5 5 5 6 6 6 6 6 6 6 6 6 6 6 6 6 6 6 6 6 6 5 6 5 6 9 6 6 6 6 5 5 5 5 5 5 5 5 5 5 5 5 5 5 5 5 5 5 5 5 5 5 5 5 5 5 5 5 5 5 5 5 5 > > > 5 5 5 5 5 5 5 > > > > > > > > > > 5 5 5 5 > > 5 5 5 5 9 9 6 6 6 6 9 6 6 6 6 6 6 6 6 6 6 6 6 6 6 9 9 9 9 9 9 9 9 9 9 9 9 9 9 9 9 9 9 9 9 9 9 9 9 9 9 9 9 9 9 9 9 9 5 5 5 5 > > > > : : : : : : # # : : : : # # : : : : : : : : : : # # # # # : : : : : > > > > > > > > > > > > > > > > > > > > > > > > > > > > > > > > > > : > > > > > > > > > > > > > > > > > > > > > < < < < : : : : : : : # : : : : : : : : : : : : : : : : : : , , 1 1 # # # @ @ @ @ @ @ @ @ @ @ @ @ @ @ @ @ @ @ @ @ @ @ @ @ @ @ # # # # : : : : : > > : : : : : : : : : : : : : : : : : : : : : : ",
"^...4 0 0 6 > > 5 9 9 9 q 9 5 5 9 5 9 5 9 9 9 9 q 9 q 9 9 9 9 9 9 6 9 9 9 5 9 9 9 9 9 9 9 6 9 9 9 6 9 9 5 5 5 5 0 6 6 6 6 6 6 6 5 5 5 5 > > 5 > 5 5 5 5 5 5 5 5 5 5 5 5 > > > > 5 5 5 5 5 5 5 5 > > > > 5 5 5 5 > > > > 5 5 5 5 5 > 5 > > > > > 5 5 5 5 5 0 0 8 @.@.@.@.@.@.@.@.@.@.@.@.@.@.@.@.@.$.@.@.@.@.@.@.@.@.@.0 0 6 6 6 9 6 0 9 6 6 6 9 0 9 0 9 0 6 0 6 6 6 6 6 9 9 9 9 9 9 9 5 5 5 5 5 5 5 5 5 5 5 5 5 5 5 5 5 5 5 5 5 5 5 5 5 5 5 5 5 5 5 5 5 > > > > > > 5 5 5 5 > > > > > 5 > > 5 5 5 5 5 5 > > 5 5 9 9 9 9 9 > < q 9 6 9 6 9 6 9 q 9 9 9 9 9 6 9 6 9 9 9 6 9 9 9 q 5 9 9 5 9 5 5 5 9 6 9 6 9 9 9 9 9 9 9 9 9 6 9 6 7 7 9 < < < < < : : : # : : # # : : : : # # : : : : : : : : : # # # # # # : : : : : > > > > > > > > > > > > > > > > > > > > > > > > > > > > > : < , , , , , , , < < < > < > > > < < < < > > < < < < < 2 , , , 1 : # # # # # # # # # # # # : # # # # # # # # # # 1 1 # # # # # @ @ @ @ # # # # # # @ # @ # @ # @ # @ # @ # @ # # # # # # : : : : : : > > > : : : > > : : : : > > : : : > > > : : > > ",
"Y.[ 3 > > > : : : > > > : : > > > : : : : > : : > > > > > : > > > > > > > > > > > > > > > > > > > > > > > > > > > > > > > > > > 5 5 > > > > > > > > > > > > 5 5 5 5 > > > > > > > > > > > > 5 5 > > > > 5 5 > > > > > > 5 5 5 5 > > > > > > > > > > 5 5 5 5 5 5 0 0 0 0 0 0 0 0 0 0 0 0 0 0 0 0 0 6 0 0 0 0 0 0 6 0 0 6 9 5 > > > > 5 > 5 > 5 > > > > > 5 > 5 > > > > > > > > > > > > > 5 5 5 5 5 5 5 5 5 5 5 5 5 5 5 5 5 5 5 5 5 5 5 5 5 5 5 5 5 5 5 5 > > > 5 > > > > 5 5 5 > > > 5 5 5 5 5 5 > 5 > > > > > > 9 > > > : : : < > > 2 > 2 > 2 > 2 > 2 > 2 > 2 > > > 2 > 2 > 2 > > > > > > > > > > > > > > > > > > > > > > > > > > > : : : : : : : : # # # # # # # # # # # # # # # # # # # # # # # # # # : : : : : : > > > > > > > > > > > > > > > > > > > > > > > > > > > > : : : : # # # # # # : : : : : : : : : : : : : : : : : : # : : # # # # # # # # # # # # # # # # # # # # # # # # # # # # # # # # # # # # # # # # # # # # # # # # # # # # # # # # # # # # # # # : : > > > > > > > > > > > > > > > > > > > > > > > > > > > > ",
"D.l * : : : @ @ # # : # # # # # # # # # # # # # # # # # # # # # : : : : # # # : # # : : : : : : : : : : : : : : : : : : : : : : > 5 > > > > > > > > > > > > 5 5 > 5 > > > > > > > > > > > > 5 5 > > > > 5 > > > > > > > 5 5 5 > > > > > > > > > > > > > > > > > : : : : : : : : : : : : : : : : : : : : : : > > > > > : : : : : : : : : : : : : : : : : : : : : : : : : : : : : : : > > > > 9 6 5 5 5 5 5 5 5 5 5 5 5 5 5 5 5 5 5 5 5 5 5 5 5 5 5 5 5 5 > > > 5 > > > > 5 5 5 5 5 > 5 5 5 5 5 5 > > > > > > > > > : : : # # # # # # # # : # # # : : # # # # # # # # # # # # # # # # # # # # # # : : : : : : : : : : : : : : : : : # # # # # # # : # # # # # # # # # # # # # # # # # # # # # # # # # # # : # : : : : > > > > > > > > > > > > > > > > > > > > > > > > > > > : : # # # @ @ @ @ @ @ # # # @ @ # # # # # # # @ @ @ @ @ # # # # @ @ @ @ @ @ @ @ @ @ @ @ @ @ @ @ @ @ @ @ @ @ @ @ @ @ @ @ @ @ @ # # * * # # # # # # # # # # # # # # # # # # # # # # # # # # # : : < < > > > > > > > > > > > > > > > > > > > > > > > > > > > ",
"G.p & # : # @ @ @ * # # @ @ # # # @ @ @ @ @ @ @ @ @ @ @ @ @ # @ # # # # # # # # * * # # # # # # # # # # # # # # # # # # # # : : > > > > > > > > > > > > > > > > > > > > > > > > > > > > > > > > > > > > > > > > > > > > > > > > > > > > > > > > > > > > > > : : : : : : : : : : : : : : : : : : # # : : : : : : : : : : # # # # # : : : : : : # # : : : : : : : : : : : : : : : : : : > > 5 5 5 5 5 5 5 5 5 5 5 5 5 5 5 5 5 5 5 5 5 5 5 5 5 5 5 5 5 5 5 5 5 > > 5 5 5 5 > > 5 5 5 5 > > > > > > > > 5 5 5 5 > > > : : # # # # # # # # # # # # # # # # # # # # # # # # # # # * * # * * * # # # # # # # # # # # # # # # # # # # # # # # # # # # # # # # # # # # # # # # # # # # # # # # # # # # # # # # # # : : : < < > > > > > > > > > > > > > > > > > > > > > > 5 > > > < < : # @ @ @ @ @ @ @ @ @ @ @ @ @ @ @ @ @ @ @ @ @ @ @ @ @ @ @ @ @ @ @ @ @ @ @ @ @ @ @ @ @ @ @ @ @ @ @ @ @ @ @ @ @ @ @ @ @ @ @ @ # * # # # # # # : : : # # # # # # # # # # # # # # # # # # # # : : : > > > > > > > > > > > > > > > > > > > > > > > > > > > > ",
"G.i O * # # . . @ @ @ @ @ @ @ @ @ @ @ @ @ @ @ @ @ @ @ @ @ @ @ @ @ # # # * @ @ @ @ @ # @ # * @ @ # # # # # # # # # # # # # # # : > > > > > > > > > > > > > > > > > > > > > > > > > > > > > > > > > > > > > > > > > > > > > > > > > > > > > > > > > > > > > : : : # # # # # # # # # # # # # # # # # # # # # # # # # # # # # # # # # # # # # # # # # # # # # # # # # # # # # # # # : : : > > 5 5 5 5 5 5 5 5 5 5 5 5 5 5 5 5 5 5 5 5 5 5 5 5 5 5 5 5 5 5 5 5 5 > > 5 5 5 5 > > > 5 5 5 5 5 > > > > > > 5 > 5 5 > > > : : # # # # @ @ @ @ # * # @ @ @ @ @ @ * * * * @ @ @ @ @ @ @ @ @ @ @ @ @ @ @ @ # # # # * # # # # # # * # # # # # # # # # # # # # # # # # # # # # # # # # # # # # # # # # # # # # # # # # # : : < > > > > > > > > > > > > > > > > > > > > > > > 5 5 > > > , # # @ @ @ @ @ @ @ @ @ @ @ @ @ @ @ @ @ @ @ @ @ . . @ @ @ @ @ @ @ @ @ @ @ @ @ @ @ @ @ @ @ @ @ @ @ @ @ @ @ @ @ @ @ @ @ @ @ @ @ # * # # # # # # : : : : # # # # # # # # # # # # # # # # # # # : : > > > > > > > > > > > > > > > > > > > > > > > > > > > > > ",
"K.a O @ # #   o . @ @ @ . . @ @ @ @ @ @ @ @ @ @ @ @ @ @ @ @ @ @ $ @ @ @ @ @ @ @ @ @ @ @ @ @ @ @ $ $ $ $ @ $ @ @ @ @ # @ # # # : > > > > > > > > > > > > > > > > > > > > > > > > > > > > > > > > > > > > > > > > > > > > > > > > > > > > > > > > > > > > > : : # # * * * # # * * * * # # # # * * * * * * * * # # # # * * * * * # # # # # # # # # # # # # # # # # # # # # # # # # # : : : > 9 5 5 5 5 5 5 5 5 5 5 5 5 5 5 5 5 5 5 5 5 5 5 5 5 5 5 5 5 5 5 5 5 5 5 5 5 5 5 > > 5 5 5 5 5 5 5 5 5 5 > > 5 5 5 5 > > > : : # # # # $ @ @ @ @ @ @ @ @ @ @ @ @ @ @ @ $ $ $ $ $ @ $ $ $ $ $ @ $ $ @ $ $ @ * @ @ @ @ @ @ @ @ @ @ @ @ @ @ # # # # # # # # # # # # # # # # # # # # # # # # # # # # # # # # # # # # # # : : > > > > > > 5 5 > > > > > > > > > > > > > > > > 5 5 > > < , # @ @ @ @ . . . @ @ . . . . . . . . . . . . . . . . . @ @ @ @ @ @ @ @ @ @ @ . . . @ @ @ @ @ @ @ . . . . . @ @ @ @ @ @ @ @ @ # * # # # # # # # # # # # # # # # # # # # # # # # # # # # # # : : > > > > > > > > > > > > > > > > > > > > > > > > > > > > > ",
"K.f O @ # $   o . @ @ @ . @ @ @ @ @ @ @ @ @ @ @ @ @ @ @ @ @ @ @ $ @ @ @ @ @ @ @ @ @ @ @ @ @ @ @ $ $ $ $ $ $ $ $ @ $ $ @ @ @ * # > > > > > > > > > > > > > > > > > > > > > > > > > > > > > > > > > > > > > > > > > > > > > > > > > > > > > > > > > > > > : : : # # * * * # # * * * $ # # # # * * * * * * * * # # # * * * * * # # # # # # # # # # # # # # # # # # # # # # # # # # # : : : > 9 5 5 5 5 5 5 5 5 5 5 5 5 5 5 5 5 5 5 5 5 5 5 5 5 5 5 5 5 5 5 5 5 5 5 5 5 5 > > > 5 5 5 5 5 5 5 5 5 5 > 5 5 5 5 5 5 > > : : # # # # @ @ @ @ @ @ @ @ @ @ @ @ @ @ @ @ $ $ $ $ $ @ @ $ $ $ $ @ @ @ @ $ $ @ @ @ @ @ @ @ @ @ @ @ @ @ @ @ @ # # # # # # # # # # # # # # # # # # # # # # # # # # # # # # # # # # # # # # : : : > > > > > 5 5 > > > > > > > > > > > > > > > > 5 5 > > < , # # @ @ . . . . @ @ .   .   .   .   .   .   .   . . . . . . @ @ @ @ @ @ @ @ . . @ @ @ @ @ @ @ . . . . . @ @ @ @ @ @ @ @ @ @ # # # # # # # # # # # # : # # # # : # # # # # # # # # # # # : : > > > > > > > > > > > > > > > > > > > > > > > > > > > > > > ",
"K.g O @ # # . o @ @ @ @ @ @ @ @ @ @ @ @ @ @ @ @ @ @ @ @ @ @ @ @ @ @ @ @ # @ @ @ @ @ @ @ @ * # # @ $ @ @ @ @ @ @ @ # # # * * * 1 > > > > > > > > > > > > > > > > > > > > > > > > > > > > > > > > > > > > > > > > > > > > > > > > > > > > > > > > > > > > : : : # # * # * # * # * * * * * * * * * # * # * * # # # * * * # * * * # # # # # # # # # # # # # # # # # # # # # # # # # # # : > 5 9 5 5 5 5 5 5 5 5 5 5 5 5 5 5 5 5 5 5 5 6 5 5 5 5 5 5 5 5 5 5 5 5 5 5 > > > > 5 5 5 5 5 5 5 5 5 5 5 5 > > > 5 5 5 5 > > > : # # * * @ * @ @ # @ @ @ @ # # @ @ @ @ @ @ @ @ @ @ @ @ @ @ @ @ @ @ @ @ @ @ @ @ @ @ @ @ @ @ @ @ @ @ @ @ @ @ # # # # # # # # # # # # # # # # # # # # # # # # # # # # # # # # # # # # # # : : : > > > > > 5 5 > > > > > > > > > > > > > > > > 5 5 > > < , # @ @ @ . @ . . @ . . . . . . . . . . . . . . . . . . . . . . . @ . @ @ @ @ @ @ @ @ . . @ @ @ @ . . . . @ @ @ . @ @ @ @ @ @ @ * # : : : # # # # # # : # # # # # # # # # # # : # # # : # : : : > > > > > > > > > > > > > > > > > > > > > > > > > > > > > ",
").g O * # # . @ @ @ @ @ @ @ @ @ @ @ @ @ @ @ @ @ @ @ @ @ @ @ @ @ * * # # # # # # # # # # # # * * @ @ @ @ @ @ # # @ # # # * * # 1 > > > > > > > > > > > > > > > > > > > > > > > > > > > > > > > > > > > > > > > > > > > > > > > > > > > > > > > > > > > > : : : # # # # # # # # # # # # # # # # # # # # # # # # # # # # # # # # # # # # # # # # # # # # # # # # # # # # # # # # # # # : : 5 9 5 5 5 5 5 5 5 5 5 5 5 5 5 5 5 5 5 5 6 6 5 5 5 5 5 5 5 5 5 5 5 5 5 5 > > > > 5 5 5 5 5 5 5 5 5 5 > > > > > 5 5 5 5 5 > > : # # # # @ * * # # # # # # # # # # # # # # # # # # # # # # # # # # # # # # * * # # # # # # # # # # # # * * # # # # # # # # # # * * # # # # # # # # # # # # # # # # # # # # # # # # # # : : < > > > > > 5 > 5 > > > > > > > > > > > > > > > 5 5 > > < : # @ @ @ . . . . @ @ @ @ . . . . . . @ @ @ @ @ @ @ . . . . . . . . . . . @ @ @ @ @ @ . . @ @ @ @ . . @ . @ @ . . @ . @ @ @ @ @ * # # : : # # # # # # # # # # # # # # # # # # # # # # : # : : : > > > 5 > > > > > > > > > > > > > > > > > > > > > > > > > ",
"L.g = # # # @ @ @ # * # @ $ # # # @ # @ # # @ @ @ @ @ @ @ @ @ # # # # # # # # # # # # # # # # # * @ @ # # # * * # * # # # # # : > > > > > > > > > > > > > > > > > > > > > > > > > > > > > > > > > > > > > > > > > > > > > > > > > > > > 5 5 5 > > > > < : : : # # # # # # # # # # # # # # # # # : : # # # # # # # # # # : : : : # # # # # # # # # # # # # # # # # # # # # * # # # # : : 5 9 5 5 5 5 5 5 5 5 5 5 5 5 5 5 5 5 5 5 6 6 6 6 5 5 5 5 5 5 5 5 5 5 5 5 5 5 > > > > > > 5 5 5 5 > > > > > > > > 5 5 5 5 > > : # # # * @ # # # # # # # # # # # # # # # # # # # # # # # # # # # # # # # # # # # # # # # # # # # # # # * * * # * * # # # # * * * * # # * * # # # # # # # # # # # # # # # # # # # # # # : : < > > > > > 5 > 5 > > > > > > > > > > > > > > > 5 5 > > < : # @ @ @ @ @ @ @ @ @ @ @ @ @ @ @ @ @ @ @ @ @ @ @ @ @ @ . . . . . . . . . . . @ @ @ @ . . . @ @ @ @ . @ @ @ @ . . . . @ @ @ @ @ * # # : : # # # # # # # # # # # # # # # # # # # # # # : # : : : > > > 5 5 > 5 5 > 5 5 > > > > > > > > > > > > > > > > > > ",
"R.| = * # # @ $ @ @ * * @ @ # # # @ # # # # # @ # @ # @ # # # # # # # # # # # # # # # # # # # # * * * # # # * * # * # # # # : : > > > > > > > > > > > > > > > > > > > > > > > > > > > > > > > > > > > > > > > > > > > > > > > > > > > > > > > > > > > < : : : # # # # # : # # # # # # # # # # : : : # # # # # # # # # # : : : : # # # # : # # # # # # # : # # # # # # # # * # # # # : : 5 5 5 5 5 5 5 5 5 5 5 5 5 5 5 5 5 5 5 5 6 6 6 5 5 5 5 5 5 5 5 5 5 5 5 5 5 5 5 5 > > > > > > 5 5 5 > > > > > > > > 5 5 5 > > : # # # $ @ # # # # # # # # # # # # # # # # # # # # # # # # # # # # # # # # # # # # # # # # # # # # # # # # * * * * * # # # * * * * # * * # # # # # # # # # # # # # # # # # # # # # # # : : < > > > > > > > > > > > > > > > > > > > > > > > 5 > > > < , # @ @ @ @ @ @ @ @ @ @ @ @ @ @ @ @ @ @ @ @ @ @ @ @ @ @ . . . . . . . . . . . . @ @ . . . . . @ @ . . @ @ @ @ . . . . @ @ @ @ @ * # # : : # # # # # # # # # # # # # # # # # # # # # # : # : : : > > > 5 5 5 5 5 5 5 5 > > > > > > > > > > > > > > > > > > ",
"R.| O @ # # @ @ @ @ @ * # @ @ @ @ @ @ @ # @ # @ # @ # @ # @ # # # * # # # # # # # # # # # # # # # # # # # @ @ @ @ # * # # # # : > > > > > > > > > > > > > > > > > > > > > > > > > > > > > > > > > > > > > > > > > > > > > > > > > > > > > > 5 > > > > > : : : # # # # # # # # # # # # # # # # # # # # # # # # # # # # # # # # # # # # # # # # # # # # # # # # # # # # # # # # # # # : > > 5 5 5 5 5 5 5 5 5 5 5 5 5 5 5 5 5 5 5 5 5 5 5 5 5 5 5 5 5 5 5 5 5 5 5 5 5 5 5 5 5 > 5 5 5 5 5 5 5 5 5 > > > > 5 > > > > : : # # # * @ # # # # # # # # # # # # # * # # # # # # # # # # # # # # # # # # # # # @ # @ # # # # # @ # # # # * * # @ # # # # # # # # # # # # # # # # # # # # # # # # # # # # # # * * # # # : > > > > 5 5 > > > > > > > > > > > > > > > > > > 5 > > > > < : # @ @ . . . @ @ @ @ . @ . @ . @ @ @ . @ . @ . @ . . @ @ . . . . . @ @ @ @ @ @ . . @ @ . . @ @ @ @ . @ @ @ . . . . @ @ @ @ # # # # # # : : : # # # # # # # # # # # # # # # # # # # : : : : : > > > > > 5 5 > > > > > > > > > > > > > > > > > > > > > > ",
"R.| + @ # # @ @ @ @ @ * * @ @ . @ @ @ @ @ # @ @ @ @ @ @ @ @ @ @ # # # # @ @ # # # # @ @ @ @ # # # * @ # @ @ @ @ @ @ * @ # # # : > > > > > > > > > > > > > > > > > > > > > > > > > > > > > > > > > > > > > > > > > > > > > > > > > > > > > > > > > > > > : : : # # # # # # # # # # # # # # # # # # # # # # # # # # # # # # # # # # # # # # # # # # # # # # # # # # # # # # # # # # # : > 5 5 5 5 5 5 5 5 5 5 5 5 5 5 5 5 5 5 5 5 5 5 5 5 5 5 5 5 5 5 5 5 5 5 5 5 5 5 5 5 5 5 > > 5 5 5 5 5 5 5 5 5 5 5 5 > > > > > : : # # $ * @ # # # # @ @ @ @ # @ # # # # @ @ # # # # # # @ @ @ @ # # # # @ @ # # # # @ @ # # # # @ @ @ @ # # * * @ @ @ @ # # # # # # # # # # # # # # # # # # # # # # # # # # # # # * # # # : > > > 5 5 > > > > > > > > > > > > > > > > > > > > > > > > < : # @ @ .   . @ @ @ @ . . . @ . @ @ . . . . . . . . @ @ @ @ . . . . @ @ @ @ @ @ . . @ @ . . @ @ @ @ . @ @ @ . . . . @ @ @ @ @ * # # # # : : : : # # # # # # : # # # # # # # : : # # : : : : : > > > > > > > > > > > > > > > > > > > > > > > > > > > > > ",
"R.] O @ # # @ @ . @ @ * * @ @ . @ @ @ @ @ @ @ @ @ @ @ @ @ @ @ @ # # @ @ @ # # # # # @ @ @ @ @ # # # # @ @ @ @ @ @ # # # # # # : > > > > > > > > > > > > > > > > > > > > > > > > > > > > > > > > > > > > > > > > > > > > > > > > > > > > > > > > > > > > : : : # # # # # # # # # # # # # # # # # # # # # # # # # # # # # # # # # # # # # # # # # # # # # # # # # # # # # # # # # # # : > 5 5 5 5 5 5 5 5 5 5 5 5 5 5 5 5 5 5 5 5 5 5 5 5 5 5 5 5 5 5 5 5 > > > > 5 5 > > 5 > > > > 5 5 5 5 5 5 5 5 5 5 5 5 > > > > : : # # * * @ # # # # # # @ @ @ @ @ @ # # # @ @ # # # # # # # @ # # # # # @ @ # # # # @ # # # # # @ @ @ @ @ # * * * @ # # # # # # # # # # # # # # # # # # # # # # # # # # # # # # # * # # # : > > > 5 5 > > > > > > > > > > > > > > > > > > > > > > > > > : # @ @ .   . @ @ @ @ . @ @ @ @ @ @ @ @ . . . . @ @ @ @ @ @ @ @ . . . @ . . @ . . . @ @ . . @ . @ @ . . @ @ @ @ . . @ @ @ @ @ * # # # # : : : : # # # # # # # # # # # # # : # # # # : # : : : > > > > > > > > > > > > > > > > > > > > > > > > > > > > > ",
"R.] O @ # # @ @ . @ @ * * @ @ . @ @ @ @ @ @ @ @ @ @ @ @ @ @ @ @ # # # @ @ @ # # # # @ @ @ @ @ # # # # # @ @ @ @ @ # * # # # # : > > > > > > > > > > > > > > > > > > > > > > > > > > > > > > > > > > > > > > > > > > > > > > > > > > > > > > > > > > > > : : : # # # # # # # # # # # # # # # # # # # # # # # # # # # # # # # # # # # # # # # # # # # # # # # # # # # # # * # # # # # : > 5 5 5 5 5 5 5 5 5 5 5 5 5 5 5 5 5 5 5 5 5 5 5 5 5 5 5 5 5 5 5 5 > > > > > > > > > > > > > 5 5 5 5 5 5 > 5 5 5 5 5 > > > > : : # # * * @ # # # # # # # @ @ @ @ # # # @ @ @ # # # # # # # @ # # # # # @ @ # # # # @ # # # # # @ @ @ @ @ # * * * @ # # # # # # # # # # # # # # # # # # # # # # # # # # # # # # # * # # # : > > > 5 > > > > > > > > > > > > > > > > > > > > > > > > > < : # @ @ .   . @ @ @ @ . @ @ @ @ @ @ @ . . . . @ @ @ @ @ @ @ @ @ @ . . . . . . . . . @ @ . . . . @ @ . . @ @ @ @ . . @ @ @ @ @ * # # # # : : : : # # # # # # # # # # # # # # # # # # : : : : : > > > > > 5 > > > > > > > > > > > > > > > > > > > > > > > ",
"R.| + @ @ # @ @ @ @ @ * * @ @ . @ @ @ @ @ @ @ @ @ @ @ @ @ @ @ @ # @ @ @ @ @ @ @ # # @ @ @ @ # # # # # # # * @ @ @ @ # # # # # : > > > > > > > > > > > > > > > > > > > > > > > > > > > > > > > > > > > > > > > > > > > > > > > > > > > > > > > > > > > > : : : # # # # # # # # # # # # # # # # # # # # # # # # # # # # # # # # # # # # # # # # # # # # # # # # # # # # # * * * * # # : > 5 5 5 5 5 5 5 5 5 5 5 5 5 5 5 5 5 5 5 5 5 5 5 5 5 5 5 5 5 5 5 5 > 5 5 5 5 5 > > > > > > > > 5 5 5 5 > > 5 5 5 5 5 > > > > : # # # # @ @ * # # # # # # # # # # # @ # # # @ @ # # # # # # # # # # # # # # @ @ @ @ # # @ @ # # @ @ @ @ # # * * * * # # # # # # # # # # # # # # # # # # # # # # # # # # # # # # # * # # # : > > > 5 > > > > > > > > > > > > > > > > > > > > > > > > > < : # @ @ .   . . @ @ @ @ @ @ . @ @ @ @ @ . . . . @ @ @ @ @ @ @ @ @ @ @ @ . . . . . . @ @ @ @ . . . @ . . . @ @ @ @ @ @ @ @ @ @ * # # # # : : : : # # # # # # # : # # # # # # # # # # # # : : : > > > > > 5 5 > > > > > > > > > > > > > > > > > > > > > > ",
"R.| + @ # # @ @ @ @ @ * * @ @ . @ @ @ @ @ @ @ @ @ @ @ @ @ @ @ @ # # @ @ @ @ @ @ # # @ @ # @ # # # # # * # # @ @ @ @ # # # # # : > > > > > > > > > > > > > > > > > > > > > > > > > > > > > > > > > > > > > > > > > > > > > > > > > > > > > > > > > > > > : : : # # # # # # # # # # # # # # # # # # # # # # # # # # # # # # # # # # # # # # # # # # # # # # # # # # # # # * * * * # # : > 5 5 5 5 5 5 5 5 5 5 5 5 5 5 5 5 5 5 5 5 5 5 5 5 5 5 5 5 5 5 5 5 > > 5 5 5 5 > > > > > > > > 5 5 5 5 > > 5 5 5 5 5 > > > > : # # # $ @ @ # # # # # # # # # # # # @ # # # @ @ # # # # # @ * # # # # # # # @ @ @ @ # @ @ @ # # @ @ # @ # # * * * * # # # # # # # # # # # # # # # # # # # # # # # # # # # # # # # * # # # : > > > 5 > > > > > > > > > > > > > > > > > > > > > > > > > < : # @ @ .   . . @ @ @ @ @ @ . @ @ @ @ @ . . . . @ @ @ @ @ . @ @ @ @ @ @ . . . . . . @ @ . . . . . . . . @ @ @ @ @ @ @ @ @ @ @ * # # # # : : : : # # # # # : # : # # # # # # # # # # : # : : : > > > > > 5 5 > > > > > > > > > > > > > > > > > > > > > > ",
"R.| + @ @ # @ @ @ @ @ * * @ @ . @ @ @ @ @ @ @ @ @ @ @ @ @ @ @ @ # # # # # # # # # # # @ # # # # # # # # @ @ @ @ @ @ * * # * # : > > > > > > > > > > > > > > > > > > > > > > > > > > > > > > > > > > > > > > > > > > > > > > > > > > > > > > > > > > > > > : : # # # # # # # # # # # # # # # # # # # # # # # # # # # # # # # # # # # # # # # # # # # # # # # # # # # # # * * # # # : : > 5 5 5 5 5 5 5 5 5 5 5 5 5 5 5 5 5 5 5 5 5 5 5 5 5 5 5 5 5 5 5 5 5 5 5 5 5 5 5 5 > 5 5 > > > 5 5 5 > > > 5 5 5 5 5 > > > > : : # # * * @ # # @ # @ @ # # # # # @ @ @ # # @ # # # # @ @ @ # # @ @ @ @ # # # # # # # # @ @ # # # @ # # # * * * @ * @ @ # # # # # # # # # # # # # # # # # # # # # # # # # # # # # * # # # : > > > > 5 > > > > > > > > > > > > > > > > > > > > > > > > < : # @ @ .   . @ @ @ @ @ . . . . @ @ @ @ @ . . @ @ @ @ @ . . . . @ . @ @ @ @ . . . . . . . . . . @ @ @ @ @ @ @ @ @ . . . @ @ @ * # # # # : : : : # # # # # # # # # # # # # # # # # # : # : : : > > > > > 5 5 > > > > > > > > > > > > > > > > > > > > > > ",
"R.| + @ # # @ @ @ @ @ * * @ @ . @ @ @ @ @ @ @ @ @ @ @ @ @ @ @ @ # # # # # # # # # # # # # # # # # # # # @ # @ @ @ @ * * * * # : > > > > > > > > > > > > > > > > > > > > > > > > > > > > > > > > > > > > > > > > > > > > > > > > > > > > > > > > > > > > > : : # # # # # # # # # # # # # # # # # # # # # # # # # # # # # # # # # # # # # # # # # # # # # # # # # # # # # # * # # # : : > 5 5 5 5 5 5 5 5 5 5 5 5 5 5 5 5 5 5 5 5 5 5 5 5 5 5 5 5 5 5 5 5 5 5 5 5 5 5 5 5 5 5 5 5 > > 5 5 5 5 > > 5 5 5 5 5 > > > > : : # # * * @ # # @ @ @ @ @ @ # # # @ @ @ # # @ @ # # # @ @ @ # # @ @ @ @ @ # # # # # # # @ # # # # # # # # # * * @ @ @ @ # # # # # # # # # # # # # # # # # # # # # # # # # # # # # * # # # : > > > > 5 > > > > > > > > > > > > > > > > > > > > > > > > < : # @ @ .   . . @ @ @ . . . . . @ @ @ @ @ @ . . @ @ @ @ . . . . . . @ @ @ @ @ @ @ @ . . . . . . . @ @ @ @ @ @ @ @ . . . @ @ @ * # # # # : : : : # # # # # # # # # # # # # : # # # # : # : : : > > > > > 5 5 > > > > > > > > > > > > > > > > > > > > > > ",
"J.d O @ # # @ @ . @ @ * * @ @ . @ @ @ # @ @ @ @ # @ @ @ @ @ @ @ # # # @ @ @ # # @ @ # # # # @ @ # # @ @ # # @ @ @ @ * @ * * # : > > > > > > > > > > > > > > > > > > > > > > > > > > > > > > > > > > > > > > > > > > > > > > > > > > > > > > > > > > > > : : : # # # # # # # # # # # # # # # # # # # # # # # # # # # # # # # # # # # # # # # # # # # # # # # # # # # # # # # # # # # : > > 5 5 5 5 5 5 5 5 5 5 5 5 5 5 5 5 5 5 5 5 5 5 5 5 5 5 5 5 5 5 5 > > > > > > > > > > 5 5 5 5 5 > 5 5 5 5 5 5 5 5 5 > > > > : : # # * * @ # @ @ @ # # # # # # # @ @ # # # # # # @ # # # # # # # # # # # # @ @ @ @ @ @ # # # # # # @ @ @ @ # @ @ @ # # # # # # # # # # # # # # # # # # # # # # # # # # # # # # # # # # # : > > > > > > > > > > > > > > > > > > > > > > > > > > > > > < : # @ @ .   . @ @ @ @ @ @ @ @ . @ @ . . . . @ @ @ @ @ . . . . . . . @ @ @ @ @ @ @ @ . . @ @ . . . . @ @ @ @ @ @ . . . . @ @ @ * # # # # # : : : # # # # # : # # # # # # # # # # # : : # : : : > > > > > > > > > > > > > > > > > > > > > > > > > > > > > ",
"J.d O @ # # @ @ . @ @ * * @ @ . @ @ @ @ @ @ @ @ @ @ @ @ # @ @ @ # # @ @ @ @ # # @ @ # # # @ @ @ # # # # # # @ @ @ @ * @ * * # : > > > > > > > > > > > > > > > > > > > > > > > > > > > > > > > > > > > > > > > > > > > > > > > > > > > > > > > > > > > > : : : # # # # # # # # # # # # # # # # # # # # # # # # # # # # # # # # # # # # # # # # # # # # # # # # # # # # # # # # # # # : > 5 5 5 5 5 5 5 5 5 5 5 5 5 5 5 5 5 5 5 5 5 5 5 5 5 5 5 5 5 5 5 5 > > 5 > > 5 > > > > 5 5 5 5 5 > 5 5 5 5 5 5 5 5 5 > > > > : : # # * * @ # @ @ @ # # # # # # @ @ @ @ # # # # # @ # # # # @ # # # # # # # # # @ @ # # # # # # # # @ @ @ @ # @ @ @ # # # # # # # # # # # # # # # # # # # # # # # # # # # # # # # # # # # : > > > > > > > > > > > > > > > > > > > > > > > > > > > > > < : # @ @ .   . @ @ @ @ @ @ @ . . @ @ . . . . @ @ @ @ @ @ . . . . . . @ @ @ @ @ @ @ @ @ @ @ @ . . . . @ . @ @ @ @ . . . . @ @ @ * # # # # : : : : # # # # # # : # # # # # # # # # # : : # : : : > > > > > > 5 > > > > > > > > > > > > > > > > > > > > > > ",
"J.p O @ # # @ @ @ @ @ * * @ @ . @ @ @ @ @ @ @ @ @ @ @ @ @ @ @ @ # # # # @ # # # @ @ # # # # # @ # # # # # # @ @ @ # * # * * # : > > > > > > > > > > > > > > > > > > > > > > > > > > > > > > > > > > > > > > > > > > > > > > > > > > > > > > > > > > > > : : : # # # # # # # # # # # # # # # # # # # # # # # # # # # # # # # # # # # # # # # # # # # # # # # # # # # # # * * # # # : : > 5 5 5 5 5 5 5 5 5 5 5 5 5 5 5 5 5 5 5 5 5 5 5 5 5 5 5 5 5 5 5 5 5 5 5 5 5 5 5 5 5 5 5 5 5 5 > > > > 5 5 5 5 5 5 5 > 5 > > : : # # * @ @ # # @ # # # @ @ # # @ @ @ @ # # # # @ @ # # # # @ @ @ # @ @ # @ # # # # # # # # @ @ # # @ # # # # # @ @ # # # # # # # # # # # # # # # # # # # # # # # # # # # # # # # # # # # : > > > 5 > > > > > > > > > > > > > > > > > > > > > > > > > < : # @ @ .   . @ @ @ @ @ . . . . . . @ @ . . @ @ @ @ @ . . . . . @ @ . @ @ @ @ @ . . @ @ @ @ @ @ . . . . . . @ . . . @ @ @ @ @ * # # # # : : : : # # # # # # # # # # # # # # # # # # : # : : : > > > > > 5 5 > > > > > > > > > > > > > > > > > > > > > > ",
"J.p O @ # # @ @ @ @ @ * * @ @ . @ @ @ @ @ @ @ @ @ @ @ @ @ @ @ @ # # # # # # # # @ @ # # # # @ @ # # # # # * @ @ @ # * # * # # : > > > > > > > > > > > > > > > > > > > > > > > > > > > > > > > > > > > > > > > > > > > > > > > > > > > > > > > > > > > > : : : # # # # # # # # # # # # # # # # # # # # # # # # # # # # # # # # # # # # # # # # # # # # # # # # # # # # # * * # # # # : > > 5 5 5 5 5 5 5 5 5 5 5 5 5 5 5 5 5 5 5 5 5 5 5 5 5 5 5 5 5 5 5 5 5 5 5 5 5 5 5 5 5 5 5 5 5 > > > > 5 5 5 5 5 5 5 > 5 > > : : # # * * @ # # # # @ @ @ @ # @ @ @ @ @ @ # # # @ @ @ @ # # @ @ @ # @ @ @ @ # # # # # # # * @ @ # # # # # # * # # # @ @ # # # # # # # # # # # # # # # # # # # # # # # # # # # # # # # # # : > > > 5 > > > > > > > > > > > > > > > > > > > > > > > > > < : # @ @ . . . @ @ @ @ @ @ . . . . . @ @ . . @ @ . . @ . . . . . @ @ . @ @ @ @ @ . . @ @ @ @ @ @ @ . . . . . @ @ . . @ @ @ @ @ * # # # # : : : : # # # # # # # # # # # # : : # # # # : # : : : > > > > > 5 5 > > > > > > > > > > > > > > > > > > > > > > ",
"J.p O @ # # @ @ @ @ @ * * @ @ . @ @ @ @ @ @ @ @ @ @ @ @ @ @ @ @ @ @ @ # # # @ @ # # # # # # # # # # # # @ @ @ @ @ @ * # # # # : > > > > > > > > > > > > > > > > > > > > > > > > > > > > > > > > > > > > > > > > > > > > > > > > > > > > > > > > > > > > : : : # # # # # # # # # # # # # # # # # # # # # # # # # # # # # # # # # # # # # # # # # # # # # # # # # # # # # * * * * # # : > > 5 5 5 5 5 5 5 5 5 5 5 5 5 5 5 5 5 5 5 5 5 5 5 5 5 5 5 5 5 5 5 5 5 5 5 5 5 5 5 5 5 5 5 5 5 5 > > > > 5 5 5 5 5 > > > > > : # # # * * @ # # @ # # # @ @ # # @ @ @ @ # # # # # @ @ @ @ # # # @ @ @ # # # @ # # # # # @ @ @ # # # # # # # * * @ @ @ # # # # # # # # # # # # # # # # # # # # # # # # # # # # # # * # # # : > > > 5 > > > > > > > > > > > > > > > > > > > > > > > > > < : # @ @ .   . . @ @ @ . . . @ . . . @ @ @ @ @ . . . @ @ . . . . @ @ . . @ @ @ @ . . . @ . . @ @ @ @ @ @ @ . . . . . @ @ @ @ @ * # # # # : : : : # # # # # # # # # # # # # # # # # # : # : : : > > > > > 5 5 > > > > > > > > > > > > > > > > > > > > > > ",
"J.p O @ # # @ @ @ @ @ * * @ @ . @ @ @ @ @ @ @ @ @ @ @ @ @ # @ @ @ @ @ # # # # @ # # # # # # # # # # # # @ @ @ @ @ @ * # # # # : > > > > > > > > > > > > > > > > > > > > > > > > > > > > > > > > > > > > > > > > > > > > > > > > > > > > > > > > > > > > : : : # # # # # # # # # # # # # # # # # # # # # # # # # # # # # # # # # # # # # # # # # # # # # # # # # # # # # * * * * # # : > 5 5 5 5 5 5 5 5 5 5 5 5 5 5 5 5 5 5 5 5 5 5 5 5 5 5 5 5 5 5 5 5 5 5 > > > > 5 5 5 5 5 5 5 5 > > > > 5 5 5 5 5 5 > > > > > : : # # * * @ # # @ @ # # # # # # @ @ @ @ # # # # @ @ @ @ @ @ # # @ @ # # # # @ @ # # # # # @ @ @ # # # * # # * * @ @ # # # # # # # # # # # # # # # # # # # # # # # # # # # # # # # * # # # : > > > 5 > > > > > > > > > > > > > > > > > > > > > > > > > > : # @ @ .   . . @ @ @ . . . @ . . . @ @ @ @ . . . . @ @ . . . . @ @ . . @ @ @ @ . . @ @ . . @ @ @ @ @ @ . . . . . @ @ @ @ @ @ * # # # # : : : : # # # # # # # # # # # # # : # # : # : # : : > > > > > > 5 5 > > > > > > > > > > > > > > > > > > > > > > ",
"J.d O @ # # @ @ @ @ @ * * @ @ . @ @ @ @ @ @ @ @ @ @ @ @ @ @ @ @ @ @ # # # # @ @ # # # # # # @ # # # @ # @ @ @ @ @ @ * # # # # : > > > > > > > > > > > > > > > > > > > > > > > > > > > > > > > > > > > > > > > > > > > > > > > > > > > > > > > > > > > > > : : # # # # # # # # # # # # # # # # # # # # # # # # # # # # # # # # # # # # # # # # # # # # # # # # # # # # # # # # # # # : > 5 5 5 5 5 5 5 5 5 5 5 5 5 5 5 5 5 5 5 5 5 5 5 5 5 5 5 5 5 5 5 5 > > > > > > > > 5 5 5 5 > > > > > 5 > 5 5 5 5 5 > > > > > : : # # # @ @ # # @ @ # # # # # # # # # # # # # # @ @ # @ # # # # @ @ # # # # # @ # # # # # @ # # # # # * # # * * * @ # # # # # # # # # # # # # # # # # # # # # # # # # # # # # # # * # # # : > > 5 5 > > > > > > > > > > > > > > > > > > > > > > > > > > : # @ @ .   . @ @ @ @ @ @ @ @ @ . . . . @ @ @ . @ @ @ @ @ @ . @ @ @ . . . @ @ . . . @ @ . . . . @ . @ @ @ @ . . @ @ @ @ @ @ @ * # # # # : : : : # # # : # # # # : # # # # # # # # # : # : : : > > > > > 5 5 > > > > > > > > > > > > > > > > > > > > > > ",
"J.d O @ # # @ @ @ @ @ @ @ @ @ @ $ @ @ @ @ @ @ @ @ @ @ @ @ @ @ @ # # # # * # @ @ @ # # # # # # # @ @ @ @ # @ @ @ @ # * # # # # : > > > > > > > > > > > > > > > > > > > > > > > > > > > > > > > > > > > > > > > > > > > > > > > > > > > > > > > > > > < > : : : # # # # # # # # # # # # # # # # # # # # # # # # # # # # # # # # # # # # # # # # # # # # # # # # # # * # # # # # # # : : > 5 5 5 5 5 5 5 5 5 5 5 5 5 5 5 5 5 5 5 5 5 5 5 5 5 5 5 5 5 5 5 5 5 > 5 > 5 > 5 > 5 > 5 5 5 > 5 > 5 5 5 5 5 5 5 5 5 > > > > : : # # # * @ @ # @ @ # # # # * # # # # # # # * @ @ @ * * * # * # @ @ # # # # @ @ @ # # @ @ @ @ # # @ # @ @ @ * * @ @ # # # # * # # # # # # # # # # # # # # # # # # # # # # # # # * # # # # : > > > > > > > > > > > > > > > > > > > > > > > > > > > > > > : # @ @ .   . . . . @ @ @ @ @ @ @ @ @ @ @ @ @ @ @ @ @ @ @ @ @ @ @ @ @ @ @ @ @ @ @ @ @ @ @ @ @ @ @ @ @ @ @ @ @ @ @ @ @ . @ @ @ # # # # # # # # # # # # : # # # # # # # # # # # # # # # # # : : > > > > > 5 5 5 > > > > > 5 > > > 5 > 5 > 5 > > > > > 5 > ",
"L.p O @ @ $   . @ @ @ @ @ @ @ @ @ @ @ @ @ @ @ @ @ @ @ @ @ @ @ @ @ @ @ @ @ @ @ @ @ @ @ @ @ @ @ @ @ @ @ # @ @ @ @ # * # # # # # : > > > > > > > > > > 5 > > > > > > > > > > > 5 > > > > > > > > > > > 5 > > > > > > > 5 > > > > > > > > 5 5 5 5 > > < > : : : : # # * * * # * # # # # # # * * * * # # # # # # # # # # # # # # # # # # # # # # # # # # # # # # # # * $ $ * * * # # # : : > 5 5 5 5 5 5 6 5 6 5 6 5 6 5 6 5 6 5 6 6 6 6 6 5 6 5 5 5 5 5 5 5 5 5 5 5 5 5 5 > 5 > 5 5 5 > 5 5 5 5 5 5 5 5 5 5 5 5 5 > > : # # # * @ @ @ @ @ @ @ # @ @ @ @ @ # @ @ @ @ @ @ * @ @ @ * @ @ @ @ @ @ @ @ @ @ @ @ @ @ @ @ @ @ @ @ @ @ @ @ @ @ * @ @ * # * * * * * * # # # # # # # # # # # # # # # # # # # # # # # # # # # : : > > > > > > > > > > > > > > > > > > > > > > > 6 5 > > > < # @ @ . . . + + O O @ @ @ @ @ @ @ @ @ @ @ @ @ @ @ @ @ @ @ @ @ @ @ @ @ @ @ @ @ @ @ @ @ @ @ @ @ @ @ @ @ @ @ @ @ @ @ @ . . @ @ $ $ * * * * # # # # # # # # # # # # # # # # # # # # # # # # # : : < > > > > > > > > > > > > > > > > > > > > > > > > > > > > ",
"L.s O @ @ $   o @ @ * @ @ . @ @ @ @ @ @ @ @ @ @ @ @ @ @ @ @ @ @ @ @ @ @ # # # # @ @ @ @ @ @ @ @ @ @ @ @ @ @ # # # # # # # # # : > > > > > > > > > > > > > > > > > > > > > > > > > > > > > > > > > > > > > > > > > > > > > > > > > > > 5 5 5 5 > > > : : : : : : # * * * * * * # * * * * * * * # # # # # # # # # # # # # # # # # # # # # * # * # * # * # * # * * @ @ @ @ # # # # : : : > 5 5 5 5 5 5 5 5 5 5 5 5 5 5 5 5 5 5 5 5 5 5 5 5 5 5 5 5 5 5 5 5 5 5 5 5 5 5 5 5 5 5 5 5 5 5 5 5 5 5 5 5 5 5 5 5 9 9 9 5 > : : # # # # @ @ @ @ @ # # # @ # @ # # # @ # @ @ & * & & @ @ @ @ @ * * * @ # @ @ @ @ @ @ @ @ @ @ @ @ @ @ @ @ @ * * * @ * # * * * * * # # # # # # # # # # # # # # # # # # # # # # # # # # # : : : > > > > > > > > > > > > > > > > > > > > > > 5 5 5 > > < : # # @ . . . O O O O . @ @ @ @ @ . @ @ @ @ @ @ @ @ @ @ @ @ @ . . . @ @ @ @ @ @ . @ @ @ @ . @ @ @ @ @ @ @ . @ @ @ @ @ . . . . @ @ @ * * # # # # # # # # # # # # # # # # # # # # # # # * # # : : < > > 5 5 5 5 5 5 9 5 5 5 5 5 5 5 5 5 5 5 5 5 5 5 5 5 5 5 ",
"L.p = # # $   o @ @ # @ @ . @ @ @ @ @ @ @ @ @ @ @ @ @ @ @ @ @ @ @ @ # # # # # # # # # # # # # @ @ @ # # # # # # # # # # # # # : > > > > > > > > > > > > > > > > > > > > > > > > > > > > > > > > > > > > > > > > > > > > > > > > > > > > > 5 > > > : , , : : : : # # # # # # # # # # # # # # # # # # # # # # # # # # # # # # # # # # # # # # # # # # # # # # # # * * * * # # # : : : : > 5 5 5 5 5 5 5 5 5 5 5 5 5 5 5 5 5 5 5 5 5 5 5 5 5 5 5 5 5 5 5 5 > 5 > > > 5 5 5 5 > 5 5 5 5 > > 5 > 5 > > > > > > > > > > : : # # # # @ @ @ # # # # # @ # @ # # # @ # @ @ @ * @ @ @ # @ * * * * # # # # # # @ @ @ @ * * * * @ @ @ @ @ * * * * # # # * # # # # # # # # # # # # # # # # # # # # # # # # # # # # # # # : : : > > > > > > > 5 5 > > > > 5 5 > > > > 5 5 > 5 5 5 > > < : : # @ @ @ @ @ O O . . . . . . . . . . . . . . . . . . . . . . . . . . . . . . . . . . . . . . . . . . . . . . . . . @ @ @ @ @ @ # # # # # # # : # # # # : # # : # # # # : : # # # # * # # : , > > > > > > > > > > > > > > > > > > > > > > > > > > > > > ",
"J.g = # # #   o @ # # @ @ . @ @ @ @ @ @ @ @ @ @ @ @ @ @ @ @ @ @ @ @ @ # # # # # # # # # # # # @ @ @ # # # # # # # # # # # # # 1 < < < < > > < > < < < < < < < > < > > > > < < < < < < > > > < > < > < > < > < > < > < > < > < < < > > > > > > > : : , , : : : : # # # # # # # # # # # # # # # # : : # # # # # # # # : : : : # : : : : : : : : : : : : : : : : : # : : : : : : : : : : > 9 9 9 9 5 5 9 5 9 5 9 5 9 5 9 5 9 5 9 5 9 5 9 5 9 5 9 5 > > > > > > > > > > > > > > > > > > > > > > > > > > > > > > > > > : # # # # * # # # # # # # # # # # # # # # # # # @ * * # # # # # # # # # # # # # # # # # # # # # # # # # # # # # # # # # # # # # # # # # # # # # # # # : # : # # # # # : # # # # # # # # # : : < < > > > > 5 5 5 5 > > > > 5 5 5 > > > 5 5 > > 5 5 > > > > : # # # # @ @ @ @ @ . . . . . . . . . . . . . . . . . . . . . . . . . . . . . . . . . . . . . . . . . . . . . . . @ @ @ @ @ # # # # # # : : : # : : : : : : : : # # : # : : : : : # : : : : : > > > > > > > > > > > > > > > > > > > > > > > > > > > > > ",
"R.| & * # # . @ @ # # # @ @ @ @ @ @ @ @ @ @ @ @ @ @ @ @ @ @ @ @ # # # # # # # # # # @ @ # # # # # # # # # # # # # # # # # # # # , , , , , , 1 , , , 1 , , , , , , , , , , , , , , , , , , , 1 , , : , : , : , : , : , : , : , : : : : > > > > : , : : : : : : : : : : : : : : : : : : : : : : : : : : : : : : : : : : : : : : : : : : : : : : : : : : : : : : : : : : : : : : : : : : > < > > < > > > > > > > > > > > > > > > > > > > > > > > < > < < < < > < > < < < < < < < < < < < < < < < < < < < < < < < < : : : # # # # # # # # # # # # # # # # # # # # # * # * # # # # # # # # # : # # # # # # # # # : # : # # # # # : : # # # # # # # # : # # # # # # # : : : : : : : : : : : : : : : : : # # : : : : : < > > > > 5 5 5 5 5 5 > > > > 5 5 5 5 5 > > > > 5 5 > > > > : : # # # # # # # # @ @ @ @ @ @ @ @ @ . @ @ @ @ . . @ @ @ @ @ @ @ @ @ @ . @ @ @ @ @ @ @ @ @ @ @ . . @ @ @ @ . @ @ @ # # # # # # # : : : : : : : : : : : : : : : : : : : : : : : : : : : 1 : : , < < < < < < 2 1 1 1 < < < < < < < < < < < < < < < < < < ",
"R.| & * # # . @ @ # # # @ @ @ @ @ @ @ @ @ # # # @ @ @ # @ @ @ @ * * * * # * * * * * # * # # * * * * * * # # # # # # # # # # # # 1 1 : : : : 1 1 : : 1 : 1 1 : : : : : : 1 1 1 1 1 1 : : : : 1 : 1 : 1 : : : 1 : 1 : 1 : 1 : 1 # # # : : : : : : # # # # : : > > > : : : : : : : : : : : : : : : > > > > > > > > > > > > > > > > > > > > > > > > > > > > > > > > > > > > > > > > > > > : : : , < : : , : : : : : : : : : : : : : : : : : : , , , , : : : : : : : 1 : : : 1 1 1 1 : : 1 1 1 1 : : : : 1 : 1 : : : : : : : # # # # # : : : # # # # # # # : : : : # # # # # # # # # : : : : : : : : : : : : : : : : : : : : : : : : : : : : : : : : : : : : : : : : : : : : : : : : : : : : : : : : : : : : : : : : < > > 5 5 5 5 5 5 5 5 5 5 5 5 5 5 5 5 5 > > > > 5 5 > > > > > > > > > > > > > > : : : : : : : : : : : : : : : : : : : : : : : : : : : : : : : : : : : : : : : : : : : : : : : : > > > > > : : : : : : : : : : : : : : : : : : : : : : : : : : : : : : : : : : : : : : : : 1 1 1 : : : : 1 : 1 : 1 : 1 : : : : : 1 : ",
"R.| & # # # @ $ # # : # # $ @ @ # # # # # # # # # # # # # # # # * # # # # * * * * * * * # # # # * * # # * # * * * * * * # * # # # @ @ @ @ @ @ @ @ @ @ @ @ @ @ @ @ @ @ @ @ @ @ @ @ @ @ @ @ @ @ @ @ @ @ @ @ @ @ @ @ @ @ @ @ @ @ @ @ @ # # # # # # # @ # # : : > 9 9 5 5 > 9 5 9 5 9 5 9 5 > > > 5 5 5 5 5 5 5 5 5 5 5 9 5 6 5 5 5 6 6 6 6 9 9 9 9 6 5 5 5 9 9 9 9 6 6 9 6 6 6 5 5 5 > > : : # # # # # # # # # # # # # # # # # # # # # # # # # # # # # @ @ @ @ @ @ # # @ # # # # # # # # @ # # # # @ @ @ @ @ @ # # # # : : : : : : : : : : : : : : : : : : : : : : : : : : : : : : < > < > < > > > > > > > > > > > > > > > > > > > > > > > < > > > : : : : : : : : : : : : : : : : : : : : : : : : : : : : : : > > > > 9 5 5 5 5 5 > > 5 5 > > > > > 5 5 5 > > 5 5 5 5 5 5 > 5 5 6 6 6 0 0 0 0 0 0 0 0 0 0 0 0 0 0 0 0 0 0 0 0 0 0 0 0 0 0 0 0 0 0 0 0 0 0 0 0 0 0 0 0 0 0 0 0 0 0 0 0 0 0 0 0 0 0 0 0 0 0 6 5 > > > > > : : : : : > > > > > > > > > > > > > > > > : , , : : # # # # # # # @ @ @ @ @ @ @ @ @ @ @ @ @ @ @ @ # @ @ @ @ @ ",
"R.] & # # # @ $ # : : : * # # # # * * * # # # # * * # # # * * * * # # # # # * # * * * * # # # # # * * # * * * * # # # # # # # # @ @ @ @ @ @ @ @ @ @ @ @ @ @ @ @ @ @ @ @ @ @ @ @ @ @ @ @ @ @ @ @ @ @ @ @ @ @ @ @ @ @ @ @ @ @ @ @ @ @ @ @ @ @ @ @ @ @ @ # # > 9 9 6 6 6 6 6 6 6 6 6 6 6 6 6 6 6 6 5 6 0 0 0 6 6 5 5 5 5 5 6 6 6 5 6 6 6 6 5 5 5 5 5 6 6 6 6 6 6 6 6 6 6 6 6 6 6 6 0 q > : # @ @ @ @ @ @ @ # # # # @ @ @ @ @ @ @ @ # # @ @ @ @ @ @ @ @ @ @ @ @ @ @ @ @ @ @ @ @ @ @ @ @ @ @ @ @ @ @ @ @ @ @ @ @ @ @ # # : : : : : : : : : : : : : : : : : : : : : : : : : : : : : : < > > > > > > > 9 9 6 9 9 9 6 6 9 9 9 9 9 9 9 9 9 9 9 9 9 > > < > > : : : : : : > > > > : : : : > : > : > : > : : : : : : > > > 9 > 5 5 5 5 5 5 5 > > 5 > > > > > 5 5 5 > 5 5 5 5 5 5 5 > 5 6 0 $.+.+.@.@.@.@.@.o.o.#.o.#.o.#.o.#.o.#.o.#.o.#.o.#.o.#.o.#.o.#.o.#.o.#.o.#.o.#.o.#.o.#.o.#.o.#.o.#.o.#.o.#.o.#.o.@.@.@.+.0 5 5 > > > > > > > > > > > > > > > > > > > > > > > > > 2 2 2 : # # @ @ @ @ @ @ @ @ @ @ @ @ @ @ @ @ @ @ @ @ @ @ @ @ @ @ @ @ ",
"R. .& : : # @ $ # # 1 : * # # # # # # # # # # # # # # # # # # # # # # * * * # # * * * * # # # # # # * * * * * * # * # * # # # @ @ . @ . @ @ @ @ @ @ @ @ @ @ @ @ @ @ @ @ @ @ . . @ . @ . @ @ @ @ @ @ @ @ @ @ @ @ @ @ @ @ @ @ @ @ . . @ @ @ @ @ @ @ @ @ @ # > 9 9 9 5 5 5 5 5 5 6 5 5 5 5 5 5 5 5 6 6 6 6 6 6 6 6 6 6 6 6 6 6 6 6 6 6 6 6 6 6 6 6 6 6 6 6 6 6 6 6 6 6 6 6 6 6 6 6 9 9 > : # @ @ @ @ @ @ @ @ @ @ @ @ @ @ @ @ @ @ @ @ @ @ @ @ @ @ @ @ @ @ @ @ @ @ @ @ @ @ @ @ @ @ @ @ @ @ @ @ @ @ @ . . @ @ @ @ @ @ @ # : : : : : : : : : : : : : : : : : : : : : : : : : : : : : : > > > > 5 5 5 5 5 5 5 5 5 5 5 5 5 5 5 5 5 5 5 5 5 5 5 5 5 5 5 > > > > > : : : : : : > > > : > : > > > : > : > : : : : > > > > > > > 5 5 5 5 5 5 5 > 5 5 5 > > > 5 5 > > > > 5 5 > 5 5 > 5 5 6 0 @.o.@.o.o.o.O.O.O.O.%.O.%.O.%.O.%.O.%.O.%.O.%.O.O.O.%.O.%.O.%.O.%.O.%.O.%.O.%.O.%.O.%.O.%.O.%.O.%.O.%.O.%.O.%.O.O.@.@.@.6 6 5 5 > > > > > > > > > > > > > > > > > > > > > > > > > > > : # # # @ @ @ @ @ @ @ @ @ @ @ @ @ @ @ @ @ @ @ @ @ @ @ @ @ @ @ ",
"Y.] & : : # $ $ # : 1 : * # # # # # # # # # # # # # # # # # # # # # # * * * # * * * * * # # # # # # * # * * * * # * # * # # # @ @ . . . . . . . . . . . . . . . . . . . . . . . . . . . . . . . @ @ @ @ . . . . @ @ @ @ . . @ @ . . . @ @ @ @ @ . @ @ @ # > 6 9 6 6 6 6 6 6 6 6 6 6 6 6 6 6 6 6 6 6 6 6 6 6 6 6 6 6 6 6 6 6 6 6 6 6 6 6 6 6 6 6 6 6 6 6 6 6 6 6 6 6 o.o.o.o.6 6 6 6 9 : # @ @ @ @ @ @ @ @ @ @ @ @ @ @ @ @ @ @ @ @ @ @ @ @ @ @ @ @ @ @ . @ . . . @ . @ . @ . . . @ . . . @ . @ . . . . . @ @ @ @ @ # # : : : : : : : : : : : : : : : : : : : : : : : : : : : > > > > 5 5 5 5 5 5 5 5 5 5 5 5 5 5 5 5 5 5 5 5 5 5 5 5 5 5 5 5 5 5 > > > > : > : : > > > > > > > > > > > > > > > > : : > > > > > > > 5 5 5 5 5 5 5 5 > 5 5 5 > > > 5 5 > > > > 5 5 > > 5 5 5 5 6 o.o.o.o.O.O.O.O.O.%.%.%.%.%.%.%.%.%.%.%.%.%.%.%.%.%.O.%.%.%.%.%.%.%.%.%.%.%.%.%.%.%.%.%.%.%.%.%.%.%.%.%.%.%.%.%.O.O.O.o.o.6 6 5 5 > > > > > > > > > > > > > > > > > > > > > > > > > > > : # @ @ @ @ @ @ @ @ @ @ @ @ @ @ @ @ @ @ @ @ @ @ @ @ @ @ @ @ @ ",
"Y.[ & : : # @ $ # : 1 : * # # # # # # # # # # # # # # # # # # # # # # # # # # # # # # # # # # # # # # # # # * # # * # * * * # @ @ . . . . . . . . . . . . . . . . . . . . . . . . . . . . . . . @ @ @ @ @ . . . @ @ . . . . . @ . . @ @ @ @ . . . . @ @ # > 9 6 6 6 6 6 6 6 6 6 6 6 6 6 6 6 6 6 6 6 6 6 6 6 6 6 6 6 6 6 6 6 6 6 6 6 6 6 6 6 6 6 6 6 6 6 6 6 6 6 6 6 6 o.o.o.o.6 6 0 9 : # @ @ @ @ @ @ @ @ @ @ @ @ @ @ @ @ @ @ @ @ @ @ @ @ @ @ . @ . . . . . . . . . . . . . . . . . . . . . . . . . . . . . @ @ @ # # : : : : : : : : : : : : : : : : : : : : : : : : : > > > > > 9 5 5 5 5 5 5 5 5 5 5 5 5 5 5 5 5 5 5 5 5 5 5 5 5 5 5 5 5 5 5 > > > > : > > : > > > > > > > > > > > > > > > > > > > > > > > > > > 5 5 5 5 5 5 5 5 5 5 5 5 > > 5 5 5 5 > 5 5 > > > 5 5 5 5 6 o.o.o.O.O.O.O.O.O.O.O.O.O.O.O.O.O.O.O.O.O.O.O.O.O.O.O.O.O.O.O.O.O.O.O.O.O.O.O.O.O.O.O.O.O.O.O.O.O.O.O.O.O.O.O.O.O.O.O.o.o.6 6 5 5 5 > > > > > > > > > > > > 5 5 5 > > > 5 5 > > > > > > : # @ @ @ . . . . @ @ @ @ @ . . . . . . . . . . . . . . . . . ",
"R.] & : : # @ $ # : : : * # # # # # # # # # # # # # # # # # # # # # # # # # # # # # # # # # # # # # # # # # # # # * # # * * # @ . . . . . . . . . . . . . . . . . . . . . . . . . . . . . . . . @ @ @ @ @ . . . @ @ . . . . . . . . @ @ @ . . . . . @ @ # > 5 6 6 6 6 6 6 6 6 6 6 6 6 6 6 6 6 6 6 6 6 6 6 6 6 6 6 6 6 6 6 6 6 6 6 6 6 6 6 6 6 6 6 6 6 6 6 6 6 6 6 6 6 o.o.o.o.6 6 0 9 : # @ @ . @ @ @ @ @ @ @ @ @ @ @ @ @ @ @ @ @ @ @ @ @ @ . . . . . . . . . . . . . . . . . . . . . . . . . . . . . . . . @ @ @ # # : : : > > : : : : : : : : : : : : : : : : : : : : > > > > > 9 5 5 5 5 5 5 5 5 5 5 5 5 5 5 5 5 5 5 5 5 5 5 5 5 5 5 5 5 5 5 > > > > : > > > > > > > > > > > > > > > > > > > > > > > > > > > > > 5 5 5 5 5 5 5 > 5 5 5 5 > > 5 5 5 5 > 5 5 5 > > 5 5 5 6 6 o.o.O.O.O.O.O.O.O.O.O.O.O.O.O.O.O.O.O.O.O.O.O.O.O.O.O.O.O.O.O.O.O.O.O.O.O.O.O.O.O.O.O.O.O.O.O.O.O.O.O.O.O.O.O.O.O.O.O.O.o.6 6 5 5 5 > > > > > > > > > > > > 5 5 5 > > > 5 5 5 > > > > < : # @ @ @ . . . . @ @ @ @ @ . . . . . . . . . . . . . . . . . ",
"I.z & # # # $ $ # : : : * # # # # # # # # # # # # # # # # # # # # # # # # # # # # # # # # # # # # # # # # # # # # # # # * * @ @ . . . . . . . . . . . . . . . . . . . . . . . . . . . . . . . . . . . . @ @ @ @ @ . . . . . . . . @ @ @ . O O . . . @ @ # > 9 6 6 6 6 6 6 6 6 6 6 6 6 6 6 6 6 6 6 6 6 6 6 6 6 6 6 6 6 6 6 6 6 6 6 6 6 6 6 6 6 6 6 6 6 6 6 6 6 6 6 6 6 6 o.o.o.6 6 6 9 : @ @ @ . @ @ @ @ @ @ @ @ @ @ @ @ @ @ @ @ @ @ @ @ @ @ . . . . . . . . . . . . . . . . . . . . . . . . . . . . . . . . @ @ @ # # : : : > > > : : : : : : : : : : : : : : : : : : > > > > > > 5 5 9 5 5 5 5 9 9 9 9 5 9 9 9 9 9 9 9 9 9 9 5 6 5 5 5 5 5 5 5 > > > > > > > > > > > > > > > > > > > > > > > > > > > > > > > > > > 5 5 > > > 5 5 5 5 5 5 5 5 5 > > > 5 5 5 5 5 > 5 5 5 5 6 6 o.o.O.O.O.O.O.O.O.O.o.O.O.O.O.O.o.o.o.o.O.o.o.O.O.O.O.O.O.o.O.o.o.o.o.O.O.O.O.O.o.o.o.o.O.o.o.O.O.O.O.O.o.o.O.o.O.O.O.O.o.6 6 5 5 > > > > > > 5 5 5 5 5 5 5 > > > 5 > 5 5 > > > > > > < : # @ @ @ . . . . @ @ @ @ @ . . . . . . . . . . . . . . . . . ",
"I.z & # # # $ $ # # : : * # # # # # # # # # # # # # # # # # # # # # # # # # # # # # # # # # # # # # # # # # # # # # # # * * @ @ . . . . . . . . . . . . . . . . . . . . . . . . . . . . . . . . . . . . @ @ @ @ @ @ . . . . . . . @ @ @ O O O O . . @ @ # > 9 6 6 6 6 6 6 6 6 6 6 6 6 6 6 6 6 6 6 6 6 6 6 6 6 6 6 6 6 6 6 6 6 6 6 6 6 6 6 6 6 6 6 6 6 6 6 6 6 6 6 6 6 6 o.o.o.o.6 6 5 : @ @ @ . @ @ @ @ @ @ @ @ @ @ @ @ @ @ @ @ @ @ @ @ @ @ . . . . . . . . . . . . . . . . . . . . . . . . . . . . . . . @ @ @ @ # # : : > > > > : : : : : : : : : : : : : : : : : : : : > > > > 5 5 9 5 5 5 5 9 9 9 9 5 9 9 9 9 9 9 9 9 9 9 5 6 6 5 5 5 5 5 5 > > > > > > > > > > > > > > > > > > > > > > > > > > > > > > > > > > 5 5 > > > 5 5 5 5 > 5 5 5 5 > > 5 5 5 5 5 > > 5 5 5 5 6 6 o.o.O.O.O.O.O.O.O.O.o.O.O.O.O.O.O.o.O.o.o.o.o.O.O.O.O.O.O.o.o.o.o.o.o.O.O.O.O.O.O.o.O.o.o.o.o.O.O.O.O.O.O.o.O.o.O.O.O.O.o.6 6 5 5 > > > > > > 5 5 5 5 5 5 > > > > 5 5 5 5 5 > > > > > > : # @ @ . . . . . @ @ @ @ @ . . . . . . . . . . . . . . . . . ",
"D.l & # : # @ $ # # : # * # # # # * # # * * * * * # * * * # # # # # # # # # # # # # # # # # # # # # # # # # # # # # # * * * @ @ @ . . . . . . . . . . . . . . . . . . . . . . . . . . . . . . . . @ @ @ @ @ @ @ @ @ @ @ @ @ @ @ @ @ @ @ O O O O . . @ @ # > 9 6 6 6 6 6 6 6 6 6 6 6 6 6 6 6 6 6 6 6 6 6 6 6 6 6 6 6 6 6 6 6 6 6 6 6 6 6 6 6 6 6 6 6 6 6 6 6 6 6 9 6 6 6 6 o.o.o.6 6 5 : @ @ @ . @ @ @ @ @ @ @ @ @ @ @ @ @ @ @ @ @ @ @ @ @ @ @ @ . . . . . . . . . . . . . . . . . . . . . . . . . . . . @ @ @ @ @ # # 1 : > > > > : : : : : : : : : : : : : : : : : : : : > > > > 5 5 5 9 9 9 9 9 9 9 9 5 5 9 9 9 9 9 9 9 9 9 5 6 6 5 5 5 5 9 9 > > > > > > : : : : > > > > : : > > > > : : : : : > : : > > > > > > 5 5 > > 5 5 5 5 > > > > 5 5 > > 5 5 5 5 > > > 5 5 5 5 6 0 o.o.o.O.O.O.O.O.O.O.O.O.O.O.O.O.O.O.O.O.O.O.O.O.O.O.O.O.O.O.O.O.O.O.O.O.O.O.O.O.O.O.O.O.O.O.O.O.O.O.O.O.O.O.O.O.O.O.O.O.o.6 6 5 > > > > > > > > > > > > > > > > > > > > > > > > > > > > : # @ @ . . . . . @ @ @ @ @ @ @ @ @ @ @ @ @ @ @ @ @ @ @ @ @ @ ",
"D.l & : : : $ $ # # : # * # # # # # # # * * * # # # * * * # # # # # # # # # # # # # # # # # # # # # # # # # # # # # # * * * # @ @ . . . . . . . . . . . . . . . . . . . . . . . . . . . . . . . . @ @ @ @ @ @ @ @ @ @ @ @ @ @ @ @ @ @ @ O . O O . . @ @ # > 6 6 6 6 6 6 6 6 6 6 6 6 6 6 6 6 6 6 6 6 6 6 6 6 6 6 6 6 6 6 6 6 6 6 6 6 6 6 6 6 6 6 6 6 6 6 6 6 6 6 6 6 6 6 6 6 o.6 6 6 5 : @ @ . . @ @ @ @ @ @ @ @ @ @ @ @ @ @ @ @ @ @ @ @ @ @ @ @ . . . . . . . . . . . . . . . . . . . . . . . . . . . . @ @ @ @ @ # # 1 : : > > > : : : : : : : : : : : : : : : : : : : : : > > > 5 5 5 9 9 9 9 9 9 9 5 5 5 9 9 9 9 9 9 9 9 9 5 5 6 5 5 5 5 9 9 > > > > > > : : : : : : > > : : : > > > : : : : : : : : > > > > > > 5 5 > > 5 5 5 5 > > > > > 5 > > 5 5 > 5 5 5 5 5 5 5 5 6 0 o.o.O.O.O.O.O.O.O.O.O.O.O.O.O.O.O.O.O.O.O.O.O.O.O.O.O.O.O.O.O.O.O.O.O.O.O.O.O.O.O.O.O.O.O.O.O.O.O.O.O.O.O.O.O.O.O.O.O.O.o.6 6 5 5 > > > > > > > > > > > > > > > > > > > > > > > > > > > : # @ @ . . . . . @ @ @ @ @ @ @ @ @ @ @ @ @ @ @ @ @ @ @ @ @ @ ",
"F.p & : : : $ $ # # : # * # # # # # # # # # # # # # # # # # # # # # # # # # # # # # # # # # # # # # # # # # # # # # * # # # # @ @ . . . . . . . . . . . . . . . . . . . . . . . . . . . . . . . @ @ @ @ @ @ @ @ @ @ @ @ @ @ @ @ . . @ @ @ @ . . . . @ @ # > 9 9 6 6 6 6 6 6 6 6 6 6 6 6 6 6 6 6 6 6 6 6 6 6 6 6 6 6 6 6 6 6 6 6 6 6 6 6 6 6 6 6 6 6 6 6 6 6 6 6 6 6 6 6 6 6 6 6 6 6 6 : # @ . . @ @ @ @ @ @ @ @ @ @ @ @ @ @ @ @ @ @ @ @ @ @ @ @ @ @ . . . . . . . . . . . . . . . . . . . . . . . . . . . @ @ @ @ # # : : : > > > : : : : : : : : : : : : : : : : : : : : > > > > 5 5 5 5 5 5 5 5 5 5 5 5 5 5 5 5 5 5 5 5 5 5 5 5 5 5 5 5 5 5 9 > > > > > > > > : : : : : : > > > > : : : : : : : : > > > > > > > > > > 5 5 5 > > > > > > 5 5 5 5 5 > > > > 5 5 5 5 5 5 5 5 6 o.o.O.O.O.O.O.o.O.O.O.O.O.O.O.O.O.O.O.O.O.O.O.O.O.O.O.O.O.O.O.O.O.O.O.O.O.O.O.O.O.O.O.O.O.O.O.O.O.O.O.O.O.O.O.O.O.O.O.o.o.6 6 5 5 > > > > > > > > > > > > > > > > > > > > > > > > > 5 < : @ @ . . . . @ @ @ @ @ @ @ @ @ @ @ @ @ @ @ @ @ @ @ @ @ @ @ @ ",
"F.p & : : : @ $ # # : # * # # # # # # # # # # # # # # # # # # # # # # # # # # # # # # # # # # # # # # # # # # # # # * # # # # @ @ . . . . . . . . . . . . . . . . . . . . . . . . . . . . . . . @ @ @ @ @ @ @ @ . . @ . @ @ @ . . . @ @ @ . . . . . @ @ # > 9 6 6 6 6 6 6 6 6 6 6 6 6 6 6 6 6 6 6 6 6 6 6 6 6 6 6 6 6 6 6 6 6 6 6 6 6 6 6 6 6 6 6 6 6 6 6 6 6 6 6 6 6 6 6 6 6 6 6 0 6 : # @ .   @ @ @ @ @ @ @ @ @ @ @ @ @ @ @ @ @ @ @ @ @ @ @ @ @ @ . . . . . . . . . . . . . . . . . . . . . . . . . . . . @ @ @ # # : : : > : > : : : : : : : : : : : : : : : : : : : : : > > > 9 5 5 5 5 5 5 5 5 5 5 5 5 5 5 5 5 5 5 5 5 5 5 5 5 5 5 5 5 5 9 > > > > > > > > > > : : : : > > > > : : : : : : : : > > > > > > > > > > 5 5 5 5 > > > > > > 5 5 5 5 > > > > 5 5 5 5 5 5 5 5 6 o.o.O.O.O.O.O.o.O.O.O.O.O.O.O.O.O.O.O.O.O.O.O.O.O.O.O.O.O.O.O.O.O.O.O.O.O.O.O.O.O.O.O.O.O.O.O.O.O.O.O.O.O.O.O.O.O.O.O.o.o.6 6 5 > > > > > > > > > > > > > > > > > > > > > > > > > 5 5 < : @ . . . . . @ @ @ @ @ . @ @ @ @ @ @ @ @ @ @ @ @ @ @ @ @ @ @ ",
"D.l & : : : @ $ # # : # * # # # # # # # # # # # # # # # # # # # # # # # # # # # # # # # # # # # # # # # # # # # # # * # # # # @ @ . . . . . . . . . . . . . . . . . . . . . . . . . . . . . . . . @ @ @ @ @ . . . . . . . . @ . . . @ . @ @ @ . . . @ @ # > 9 6 6 6 6 6 6 6 6 6 6 6 6 6 6 6 6 6 6 6 6 6 6 6 6 6 6 6 6 6 6 6 6 6 6 6 6 6 6 6 6 6 6 6 6 6 6 6 6 6 6 6 6 6 6 6 6 6 6 0 6 : # @     @ @ @ @ @ @ @ @ @ @ @ @ @ @ @ @ @ @ @ @ @ @ @ @ @ @ . . . . . . . . . . . . . . . . . . . . . . . . . . . . @ @ @ # # : : : > > : : : : : : : : : : : : : : : : : : : : : : > > > 9 5 5 5 5 5 5 5 5 5 5 5 5 5 5 5 5 5 5 5 5 5 5 5 5 5 5 5 5 9 9 > > > > > > > > > > > > : > > > : : : : > > > > : > > > : : > > > > > 5 5 5 5 5 5 5 > 5 > > > > 5 5 5 > 5 5 5 5 5 5 > > > 5 6 6 o.O.O.O.O.O.o.o.O.O.O.O.O.O.O.O.O.O.O.O.O.O.O.O.O.O.O.O.O.O.O.O.O.O.O.O.O.O.O.O.O.O.O.O.O.O.O.O.O.O.O.O.O.O.O.O.O.O.o.o.6 6 5 > > > > > > > > > > > > > > > > > > > > > > > > > 5 5 < : @ @ . . . . @ @ @ @ @ . @ @ @ @ @ @ @ @ @ @ @ @ @ @ @ @ @ @ ",
"H.l & : : : @ $ # # : # # # # # # # # # # # # # # # # # # # # # # # # # # # # # # # # # # # # # # # # # # # # # # # * # # # # @ @ . . . . . . . . . . . . . . . . . . . . . . . . . . . . . . . . @ @ @ @ @ . . . . . . . . . . . . @ . @ @ @ . . . @ @ # > 9 6 6 6 6 6 6 6 6 6 6 6 6 6 6 6 6 6 6 6 6 6 6 6 6 6 6 6 6 6 6 6 6 6 6 6 6 6 6 6 6 6 6 6 6 6 6 6 6 6 6 6 6 6 6 6 6 6 6 0 6 : # @ .   @ @ @ @ @ @ @ @ @ @ @ @ @ @ @ @ @ @ @ @ @ @ @ @ @ @ . . . . . . . . . . . . . . . . . . . . . . . . . . . . @ @ @ # # : : : > > : : : : : : : : : : : : : : : : : : : : : : > > > 9 5 5 5 5 5 5 5 5 5 5 5 5 5 5 5 5 5 5 5 5 5 5 5 5 5 5 5 5 9 9 > > > > > > : : > > > > > > > > > : : : > > > > : : > > : : > > > > > 5 5 5 5 5 5 5 5 5 > > > 5 5 5 5 > 5 5 5 5 5 5 > > > 5 6 6 o.O.O.O.O.O.o.o.O.O.O.O.O.O.O.O.O.O.O.O.O.O.O.O.O.O.O.O.O.O.O.O.O.O.O.O.O.O.O.O.O.O.O.O.O.O.O.O.O.O.O.O.O.O.O.O.O.O.o.o.6 6 5 > > > > > > > > > > > > > > > > > > > > > > > > > 5 5 < : @ @ . . . . @ @ @ @ @ . @ @ @ @ @ @ @ @ @ @ @ @ @ @ @ @ @ @ ",
"L.] & : : : @ $ # # : # # # : : # # # # # # # # # # # # # # # # # # # # # # # # # # # # # # # # # # # # # # # # # # # # # # # @ @ . . . . . . . . . . . . . . . . . . . . . . . . . . . . . . . . . @ @ @ @ . . . @ . @ . @ @ . . . . . @ @ . . . . @ @ # > 9 6 6 6 6 6 6 6 6 6 6 6 6 6 6 6 6 6 6 6 6 6 6 6 6 6 6 6 6 6 6 6 6 6 6 6 6 6 6 6 6 6 6 6 6 6 6 6 6 6 6 6 6 6 6 6 6 6 6 0 6 : # @ .   @ @ @ @ @ @ @ @ @ @ @ @ @ @ @ @ @ @ @ @ @ @ @ @ @ @ . . . . . . . . . . . . . . . . . . . . . . . . . . . . @ @ @ # # : : : > : : : : : : : : : : : : : : : : : : : : : : : > > > 9 5 5 5 5 5 5 5 5 5 5 5 5 5 5 5 5 5 5 5 5 5 5 5 5 5 5 5 5 9 9 > > > > > > : : : > > > > > > > > > : : : : > > : : : : : : > > > > 5 5 > > 5 5 5 5 > > > > 5 5 5 5 5 5 5 > > > 5 5 5 > > 5 6 o.O.O.O.O.O.O.o.o.O.O.O.O.O.O.O.O.O.O.O.O.O.O.O.O.O.O.O.O.O.O.O.O.O.O.O.O.O.O.O.O.O.O.O.O.O.O.O.O.O.O.O.O.O.O.O.O.O.O.o.o.6 6 5 > > > > > > > > > > > > > > > > > > > > > > > > > > > < : # @ . . . . @ @ @ @ @ . @ @ @ @ @ @ @ @ @ @ @ @ @ @ @ @ @ @ ",
"L.| & : : : @ $ # # : # # # : : # # # # # # # # # # # # # # # # # # # # # # # # # # # # # # # # # # # # # # # # # # # * # # # @ @ . . . . . . . . . . . . . . . . . . . . . . . . . . . . . . . . . @ @ @ @ . . . . . . . . @ . . . . . @ @ . . . . @ @ # > 9 6 6 6 6 6 6 6 6 6 6 6 6 6 6 6 6 6 6 6 6 6 6 6 6 6 6 6 6 6 6 6 6 6 6 6 6 6 6 6 6 6 6 6 6 6 6 6 6 6 6 6 6 6 6 6 6 6 6 0 6 : # @ .   @ @ @ @ @ @ @ @ @ @ @ @ @ @ @ @ @ @ @ @ @ @ @ @ @ @ . . . . . . . . . . . . . . . . . . . . . . . . . . . . @ @ @ # # : : : > > > : : : : : : : : : : : : : : : : : : : : : > > > 9 5 5 5 5 5 5 5 5 5 5 5 5 5 5 5 5 5 5 5 5 5 5 5 5 5 5 5 5 9 9 > > > > > > : : : : > > > > > > > > > > : : > > : : : : : : > > > > 5 5 > > 5 5 5 5 > > 5 5 5 5 5 5 5 5 5 5 > > 5 5 5 > > 5 6 o.O.O.O.O.O.O.O.O.O.O.O.O.O.O.O.O.O.O.O.O.O.O.O.O.O.O.O.O.O.O.O.O.O.O.O.O.O.O.O.O.O.O.O.O.O.O.O.O.O.O.O.O.O.O.O.O.O.O.o.o.6 6 5 5 > > > > > > > > > > > > > > > > > > > > > > > > > > < : @ @ . . . . @ @ @ @ @ . @ @ @ @ @ @ @ @ @ @ @ @ @ @ @ @ @ @ ",
"Y.| & : : : @ $ # # # # # # : # # # # # # # # # # # # # # # # # # # # # # # # # # # # # # # # # # # # # # # # # # # * * # # # @ @ . . . . . . . . . . . . . . . . . . . . . . . . . . . . . . . . . . @ @ @ . . . . @ . @ @ @ . . . @ @ @ @ . . . . @ @ # > 9 5 6 6 6 6 6 6 6 6 6 6 6 6 6 6 6 6 6 6 6 6 6 6 6 6 6 6 6 6 6 6 6 6 6 6 6 6 6 6 6 6 6 6 6 6 6 6 6 6 6 6 6 6 6 6 6 6 6 0 6 : # @ .   @ @ @ @ @ @ @ @ @ @ @ @ @ @ @ @ @ @ @ @ @ @ @ @ @ @ . . . . . . . . . . . . . . . . . . . . . . . . . . . . @ @ @ # # : : : > > > : : : : : : : : : : : : : : : : : : : : : > > > 9 5 5 5 5 5 5 5 5 5 5 5 5 5 5 5 5 5 5 5 5 5 5 5 5 5 5 5 5 9 9 > > > > > > : > : : : : > > > > > > > > : : : > : : > > > > > > > > > > > > 5 5 5 5 > > 5 5 5 5 > > 5 5 5 5 > > 5 5 5 > > 5 6 o.O.O.O.O.O.O.O.O.O.O.O.O.O.O.O.O.O.O.O.O.O.O.O.O.O.O.O.O.O.O.O.O.O.O.O.O.O.O.O.O.O.O.O.O.O.O.O.O.O.O.O.O.O.O.O.O.O.O.o.o.6 6 5 5 > > > > > > > > > > > > > > > > > > > > > > > > > > < : @ @ . . . . @ @ @ @ @ . @ @ @ @ @ @ @ @ @ @ @ @ @ @ @ @ @ @ ",
"_.| & : : : @ $ # # : # * # # # # # # # # # # # # # # # # # # # # # # # # # # # # # # # # # # # # # # # # # # # # # * # # # * @ @ . . . . . . . . . . . . . . . . . . . . . . . . . . . . . . . . . . @ @ @ . . . . @ @ @ @ @ . . . @ @ @ @ @ . . . @ @ # > 9 5 6 6 6 6 6 6 6 6 6 6 6 6 6 6 6 6 6 6 6 6 6 6 6 6 6 6 6 6 6 6 6 6 6 6 6 6 6 6 6 6 6 6 6 6 6 6 6 6 6 6 6 6 6 6 6 6 6 0 6 : # @ .   @ @ @ @ @ @ @ @ @ @ @ @ @ @ @ @ @ @ @ @ @ @ @ @ @ @ . . . . . . . . . . . . . . . . . . . . . . . . . . . . @ @ @ # # : : : > : > : : : : : : : : : : : : : : : : : : : : : > > > 9 5 5 5 5 5 5 5 5 5 5 5 5 5 5 5 5 5 5 5 5 5 5 5 5 5 5 5 5 9 9 > > > > > > > > : : : : > > > : > > > > : : > > : : > > > > > > > > > > > > 5 5 5 5 > > 5 5 5 5 > > 5 5 5 > > > 5 5 5 > > 5 6 o.O.O.O.O.O.O.O.O.O.O.O.O.O.O.O.O.O.O.O.O.O.O.O.O.O.O.O.O.O.O.O.O.O.O.O.O.O.O.O.O.O.O.O.O.O.O.O.O.O.O.O.O.O.O.O.O.O.O.o.o.6 6 5 5 > > > > > > > > > > > > > > > > > > > > > > > > > > < : @ @ . . . . @ @ @ @ @ . @ @ @ @ @ @ @ @ @ @ @ @ @ @ @ @ @ @ ",
"L.| & : : : @ $ # # : # * # # # # # # # # # # # # # # # # # # # # # # # # # # # # # # # # # # # # # # # # # # # # # * # # # # @ @ . . . . . . . . . . . . . . . . . . . . . . . . . . . . . . . @ @ @ . . @ @ @ @ @ . . . . . . . . . . @ . @ . . . @ @ # > 9 6 6 6 6 6 6 6 6 6 6 6 6 6 6 6 6 6 6 6 6 6 6 6 6 6 6 6 6 6 6 6 6 6 6 6 6 6 6 6 6 6 6 6 6 6 6 6 6 6 6 6 6 6 6 6 6 6 6 0 9 : # @ .   @ @ @ @ @ @ @ @ @ @ @ @ @ @ @ @ @ @ @ @ @ @ @ @ @ @ . . . . . . . . . . . . . . . . . . . . . . . . . . . . @ @ @ # # : : : > > > : : : : : : : : : : : : : : : : : : : : : > > > 9 5 5 5 5 5 5 5 5 5 5 5 5 5 5 5 5 5 5 5 5 5 5 5 5 9 5 5 5 5 9 > > > > > > > > > > > > > > : : : : > > > > : : : > > > : : > > > > > > 5 5 5 5 5 > > > 5 5 5 5 > > 5 5 5 5 5 > 5 5 5 > 5 5 6 o.O.O.O.O.O.O.o.o.O.O.O.O.O.O.O.O.O.O.O.O.O.O.O.O.O.O.O.O.O.O.O.O.O.O.O.O.O.O.O.O.O.O.O.O.O.O.O.O.O.O.O.O.O.O.O.O.O.O.O.o.6 6 5 5 > > > > > > > > > > > > > > > > > > > > > > > > > > < : $ @ . . . . @ @ @ @ @ . @ @ @ @ @ @ @ @ @ @ @ @ @ @ @ @ @ @ ",
"L.| & : : : @ $ # # : # * # # # # # # # # # # # # # # # # # # # # # # # # # # # # # # # # # # # # # # # # # # # # # * # # # # @ @ . . . . . . . . . . . . . . . . . . . . . . . . . . . . . . . @ @ @ . . @ @ @ @ @ @ @ . . . . . . . . @ . @ . . . @ @ # > 9 6 6 6 6 6 6 6 6 6 6 6 6 6 6 6 6 6 6 6 6 6 6 6 6 6 6 6 6 6 6 6 6 6 6 6 6 6 6 6 6 6 6 6 6 6 6 6 6 6 6 6 6 6 6 6 6 6 6 0 9 : # @ .   @ @ @ @ @ @ @ @ @ @ @ @ @ @ @ @ @ @ @ @ @ @ @ @ @ @ . . . . . . . . . . . . . . . . . . . . . . . . . . . . @ @ @ # : : : : > > > : : : : : : : : : : : : : : : : : : : : : > > > 9 5 5 5 5 5 5 5 5 5 5 5 5 5 5 5 5 5 5 5 5 5 5 5 5 5 5 5 5 5 9 > > > > > > > > > > > > > > : : : : > > > : : : : : > > : : > > > > 5 > 5 > 5 5 5 > > > 5 5 5 5 > > 5 5 5 5 > > 5 5 5 > > 5 6 o.O.O.O.O.O.O.o.o.O.O.O.O.O.O.O.O.O.O.O.O.O.O.O.O.O.O.O.O.O.O.O.O.O.O.O.O.O.O.O.O.O.O.O.O.O.O.O.O.O.O.O.O.O.O.O.O.O.O.O.o.6 6 5 > > > > > > > > > > > > > > > > > > > > > > > > > > > < : $ @ . . . . @ @ @ @ @ . @ @ @ @ @ @ @ @ @ @ @ @ @ @ @ @ @ @ ",
"L.| & : : : @ $ # # : # * # # # # # # # # # # # # # # # # # # # # # # # # # # # # # # # # # # # # # # # # # # # # # * # # # # @ @ . . . . . . . . . . . . . . . . . . . . . . . . . . . . . . . @ @ . . . . @ @ @ @ @ @ @ @ . . . . @ @ @ @ @ . . . @ @ # > 9 6 6 6 6 6 6 6 6 6 6 6 6 6 6 6 6 6 6 6 6 6 6 6 6 6 6 6 6 6 6 6 6 6 6 6 6 6 6 6 6 6 6 6 6 6 6 6 6 6 6 6 6 6 6 6 6 6 6 0 9 : # @ .   @ @ @ @ @ @ @ @ @ @ @ @ @ @ @ @ @ @ @ @ @ @ @ @ @ @ . . . . . . . . . . . . . . . . . . . . . . . . . . . . @ @ @ # # : : : > : > : : : : : : : : : : : : : : : : : : : : : > > > 9 5 5 5 5 5 5 5 5 5 5 5 5 5 5 5 5 5 5 5 5 5 5 5 5 5 5 5 5 5 9 > > > > > > > > : > : : > : : : : : > > > > : : : > > > > : > > > > 5 > > > > > 5 5 > > 5 5 5 5 > 5 5 5 > > > > 5 5 > > > 5 6 o.O.O.O.O.O.O.o.o.O.O.O.O.O.O.O.O.O.O.O.O.O.O.O.O.O.O.O.O.O.O.O.O.O.O.O.O.O.O.O.O.O.O.O.O.O.O.O.O.O.O.O.O.O.O.O.O.O.O.O.o.6 6 5 > > > > > > > > > > > > > > > > > > > > > > > > > 5 5 < : @ @ . . . . @ @ @ @ @ . @ @ @ @ @ @ @ @ @ @ @ @ @ @ @ @ @ @ ",
"L.| & : : : @ $ # # : # # # # # # # # # # # # # # # # # # # # # # # # # # # # # # # # # # # # # # # # # # # # # # # * # # # # @ @ . . . . . . . . . . . . . . . . . . . . . . . . . . . . . . . @ @ . . . . @ @ @ @ @ @ @ @ @ . . . @ @ @ @ @ . . . @ @ # > 9 6 6 6 6 6 6 6 6 6 6 6 6 6 6 6 6 6 6 6 6 6 6 6 6 6 6 6 6 6 6 6 6 6 6 6 6 6 6 6 6 6 6 6 6 6 6 6 6 6 6 6 6 6 6 6 6 6 6 0 9 : # @ .   @ @ @ @ @ @ @ @ @ @ @ @ @ @ @ @ @ @ @ @ @ @ @ @ @ @ . . . . . . . . . . . . . . . . . . . . . . . . . . . . @ @ @ # # : : : > : > : : : : : : : : : : : : : : : : : : : : : > > > 9 5 5 5 5 5 5 5 5 5 5 5 5 5 5 5 5 5 5 5 5 5 5 5 5 5 5 5 5 5 9 > > > > > > > > : : : : > : : : : : > > > > : : : > > > > : > > > > > > > > > > 5 5 > > 5 5 5 > > 5 5 5 5 > > > 5 5 5 > > 5 6 o.O.O.O.O.O.O.O.o.O.O.O.O.O.O.O.O.O.O.O.O.O.O.O.O.O.O.O.O.O.O.O.O.O.O.O.O.O.O.O.O.O.O.O.O.O.O.O.O.O.O.O.O.O.O.O.O.O.O.O.o.6 6 5 5 > > > > > > > > > > > > > > > > > > > > > > > > 5 5 < : @ @ . . . . @ @ @ @ @ . @ @ @ @ @ @ @ @ @ @ @ @ @ @ @ @ @ @ ",
"L.| & : : : @ $ # # : # # # : : # # # # # # # # # # # # # # # # # # # # # # # # # # # # # # # # # # # # # # # # # # # # # # # @ @ . . . . . . . . . . . . . . . . . . . . . . . . . . . . . . . @ @ . . . . @ @ @ @ @ @ @ @ @ . . . @ @ @ @ @ . . . @ @ # > 9 6 6 6 6 6 6 6 6 6 6 6 6 6 6 6 6 6 6 6 6 6 6 6 6 6 6 6 6 6 6 6 6 6 6 6 6 6 6 6 6 6 6 6 6 6 6 6 6 6 6 6 6 6 6 6 6 6 6 0 6 : # @ . . @ @ @ @ @ @ @ @ @ @ @ @ @ @ @ @ @ @ @ @ @ @ @ @ @ @ . . . . . . . . . . . . . . . . . . . . . . . . . . . . @ @ @ # # : : : > : > : : : : : : : : : : : : : : : : : : : : : > > > 9 5 5 5 5 5 5 5 5 5 5 5 5 5 5 5 5 5 5 5 5 5 5 5 5 5 5 5 5 5 9 > > > > > > : : > > : : : : : : : > > > > > > : : : > > > > > > > > > > 5 5 5 > 5 5 5 5 > > > > 5 5 > > 5 5 5 5 5 5 5 > 5 5 6 o.O.O.O.O.O.O.O.o.O.O.O.O.O.O.O.O.O.O.O.O.O.O.O.O.O.O.O.O.O.O.O.O.O.O.O.O.O.O.O.O.O.O.O.O.O.O.O.O.O.O.O.O.O.O.O.O.O.O.o.o.6 6 5 5 > > > > > > > > > > > > > > > > > > > > > > > > > > > : # @ . . . . @ @ @ @ @ . @ @ @ @ @ @ @ @ @ @ @ @ @ @ @ @ @ @ ",
"L.| & : : : @ $ # # : # # # : : # # # # # # # # # # # # # # # # # # # # # # # # # # # # # # # # # # # # # # # # # # # * # # # @ @ . . . . . . . . . . . . . . . . . . . . . . . . . . . . . . . @ @ . . . . @ @ @ @ @ @ @ @ @ . . . @ @ @ @ @ . . . @ @ # > 9 6 6 6 6 6 6 6 6 6 6 6 6 6 6 6 6 6 6 6 6 6 6 6 6 6 6 6 6 6 6 6 6 6 6 6 6 6 6 6 6 6 6 6 6 6 6 6 6 6 6 6 6 6 6 6 6 6 6 0 6 : # @ .   @ @ @ @ @ @ @ @ @ @ @ @ @ @ @ @ @ @ @ @ @ @ @ @ @ @ . . . . . . . . . . . . . . . . . . . . . . . . . . . . @ @ @ # # : : : > : > : : : : : : : : : : : : : : : : : : : : : > > > 9 5 5 5 5 5 5 5 5 5 5 5 5 5 5 5 5 5 5 5 5 5 5 5 5 5 5 5 5 5 9 > > > > > > : : > > : : : : : : : : > > > > > > : : > > > > > > > > > > 5 5 5 5 5 5 5 5 > > > > 5 5 > > 5 5 5 5 5 5 5 > 5 5 6 o.O.O.O.O.O.O.O.O.O.O.O.O.O.O.O.O.O.O.O.O.O.O.O.O.O.O.O.O.O.O.O.O.O.O.O.O.O.O.O.O.O.O.O.O.O.O.O.O.O.O.O.O.O.O.O.O.O.O.o.o.6 6 5 > > > > > > > > > > > > > > > > > > > > > > > > > > > < : @ @ . . . . @ @ @ @ @ . @ @ @ @ @ @ @ @ @ @ @ @ @ @ @ @ @ @ ",
"L.| & : : : @ # # # # # # # : # # # # # # # # # # # # # # # # # # # # # # # # # # # # # # # # # # # # # # # # # # # * * # # # @ @ . . . . . . . . . . . . . . . . . . . . . . . . . . . . . . . . . . . . . . @ @ @ . . . . @ . . . . @ @ @ @ . . . @ @ # > 9 6 6 6 6 6 6 6 6 6 6 6 6 6 6 6 6 6 6 6 6 6 6 6 6 6 6 6 6 6 6 6 6 6 6 6 6 6 6 6 6 6 6 6 6 6 6 6 6 6 o.o.6 6 6 6 6 6 6 0 6 : # @ .   @ @ @ @ @ @ @ @ @ @ @ @ @ @ @ @ @ @ @ @ @ @ @ @ @ @ . . . . . . . . . . . . . . . . . . . . . . . . . . . . @ @ @ # # : : : > : : : : : : : : : : : : : : : : : : : : : : : > > > 5 5 5 5 5 5 5 5 5 5 5 5 5 5 5 5 5 5 5 5 5 5 5 5 5 5 5 5 5 5 9 > > > > > > : : > > > > : > : : > > > > > > > > : : > > > : > > > > > > 5 5 5 5 > > 5 > 5 > 5 5 5 5 > > > 5 5 5 5 5 5 > 5 5 6 o.o.O.O.O.O.O.o.o.O.O.O.O.O.O.O.O.O.O.O.O.O.O.O.O.O.O.O.O.O.O.O.O.O.O.O.O.O.O.O.O.O.O.O.O.O.O.O.O.O.O.O.O.O.O.O.O.O.O.o.o.6 6 5 > > > > > > > > > > > > > > > > > > > > > > > > > > > < : @ @ . . . . @ @ @ @ @ . @ @ @ @ @ @ @ @ @ @ @ @ @ @ @ @ @ @ ",
"L.| & # : : @ $ # # # # * # # # # # # # # # # # # # # # # # # # # # # # # # # # # # # # # # # # # # # # # # # # # # * * # # * @ @ . . . . . . . . . . . . . . . . . . . . . . . . . . . . . . . . . . . . . . . . . . . . . . . . . . . . . . . . . @ @ # > 9 6 9 6 6 6 6 6 6 6 6 6 6 6 6 6 6 6 6 6 6 6 6 6 6 6 6 6 6 6 6 6 6 6 6 6 6 6 6 6 6 6 6 6 6 6 6 6 6 6 6 6 6 6 6 6 6 6 6 0 9 : # @ . . . @ @ @ @ @ @ @ @ @ @ @ @ @ @ @ @ @ @ @ @ @ @ @ @ . . . . . . . . . . . . . . . . . . . . . . . . . . . . . @ @ @ # # : : : > > : : : : : : : : : : : : : : : : : : : : : : : > > 5 5 5 5 5 5 5 5 5 5 5 5 5 5 5 5 5 5 5 5 5 5 5 5 5 5 5 5 5 9 9 > > > > > : : : > > > > > > > > > > > > > > > : : : > > > : > > > > 5 5 5 5 5 5 > > > > 5 5 5 5 5 5 > > > 5 5 5 5 5 > > 5 5 6 o.o.O.O.O.O.O.O.O.O.O.O.O.O.O.O.O.O.O.O.O.O.O.O.O.O.O.O.O.O.O.O.O.O.O.O.O.O.O.O.O.O.O.O.O.O.O.O.O.O.O.O.O.O.O.O.O.O.O.o.o.6 6 5 > > > > > > > > > > > > > > > > > > > > > > > > > > > < : # @ . . . . . @ @ @ . . . . . . . . . . . . . . . . . . @ @ ",
"G.p & # : # @ $ * # # # * # # # # * # * * * * * # * * * * * # # # # # # * * * * # # # # * * * * # # # # # * * * # # * * * # # @ . . . . . . . . . . . . . . . . . . . . . . . . . . . . . . @ . . . . . . . . . . . . . . . . . . . . . . . . . . . @ @ # : > 6 9 6 6 6 6 6 6 6 6 6 6 6 6 6 6 6 6 6 6 6 6 6 6 6 6 6 6 6 6 6 0 0 6 6 6 6 6 6 6 6 6 6 6 6 6 6 6 6 6 6 6 6 6 6 6 6 0 0 > : # @ @ . . . @ . @ . @ . @ . @ . @ . @ @ @ @ @ @ @ @ @ @ . . . . . . . . . . . . . . . . . . . . . . . . . . . . . . @ @ @ # # 1 : : > > > > > > > > > > > > > > > > > > : : : : : : : > > 5 6 6 5 5 5 5 5 5 5 5 9 9 9 5 5 9 5 9 9 5 5 5 5 5 9 5 5 5 5 9 > > > : : : : : : : : : : : > : : : : : : : : : : : : : > > > > > > > > 5 5 5 5 > > 5 5 5 > > > 5 5 5 > > > 5 5 > > 5 5 5 5 6 o.O.O.O.O.O.O.O.O.O.O.O.O.O.O.O.O.O.O.O.O.O.O.O.O.O.O.O.O.O.O.O.O.O.O.O.O.O.O.O.O.O.O.O.O.O.O.O.O.O.O.O.O.O.O.O.O.O.O.O.o.0 6 5 > > > > > > > > > > > > > > > > > > > > > > > > > > > < : @ @ . . . . . . . . @ @ . . . . . . . . . . . . . . O . O . ",
"J.s & : : : @ $ * # # # * # # # # # # # # # # # # # # # # # # # # # # # # # # # # # # # # # # # # # # # # # # # # # # # # # # @ . . . . . . . . . . . . . . . . . . . . . . . . . . . . @ @ @ @ . . . . . . . . . . . . . . . . . . . .     . . . . @ # : > 9 6 5 6 6 6 6 6 6 6 6 6 6 6 6 6 6 6 6 6 6 6 6 6 6 6 6 6 6 6 6 6 6 0 6 6 6 6 6 6 6 6 6 6 6 6 6 6 6 6 6 6 6 6 6 o.6 6 0 6 > : # @ @ @ @ @ @ @ @ @ @ @ @ @ @ @ @ @ @ @ @ @ @ @ @ @ @ @ @ . . . . . . . . . . . . . . . . . . . . . . @ . . @ . @ @ @ @ @ # : 1 : : : : > : : : : : : : : : : : : : : : : : : : : : : > 5 5 6 6 6 5 5 5 9 9 6 9 9 9 9 9 9 9 6 9 9 9 9 9 6 6 6 6 9 9 9 9 > > > : > : : : : : : : : : > > : : : : : : : : : : : : > > > > > > > > > 5 5 5 5 > > 5 > > > > > > > > > > 5 > > > 5 5 5 5 6 o.o.O.O.O.O.O.O.O.O.O.O.O.O.O.O.O.O.O.O.O.O.O.O.O.O.O.O.O.O.O.O.O.O.O.O.O.O.O.O.O.O.O.O.O.O.O.O.O.O.O.O.O.O.O.O.O.O.O.O.o.o.6 5 > > > > > > > > > > > > > > > > > > > > > > > > > > > < : # @ @ @ . . . . . . @ @ . . . . . . . . . . . . . . . . . . ",
"D.l * : : : $ # # # # # # # # : # # # # # # # # # # # # # # # # # # # # # # # # # # # # # # # # # # # # # # # # # # # # # # # # @ . @ . @ . . . . . @ . @ . @ @ @ @ . . . . . . @ @ @ @ @ @ @ @ @ @ @ @ @ @ @ @ @ @ @ @ @ @ @ @ @ @ @ @ . . . @ @ @ @ # : > 9 6 5 6 6 6 6 6 6 6 6 6 6 6 6 6 6 6 6 6 6 6 6 6 6 6 6 6 6 6 6 6 6 6 6 6 6 6 6 6 6 6 6 6 6 6 6 6 6 6 6 6 6 6 6 6 6 6 0 6 > : # @ @ @ @ @ @ @ @ @ @ @ @ @ @ @ @ @ @ @ @ @ @ @ @ @ @ @ @ @ @ . . . . . @ @ @ @ @ @ . @ @ @ @ @ @ @ @ @ @ @ @ @ @ @ @ @ @ # # : : : : : : : : : : : : : : : : : : : : : : : : : : : : : > 5 9 6 9 5 6 6 6 6 9 9 9 9 9 9 9 6 9 9 9 9 9 6 6 9 6 6 9 9 9 9 > > > > > > > > > > > > > > > > > > > > > > > > > > > > > > > > > > > > 5 5 5 5 5 5 5 5 5 5 5 5 5 5 5 5 5 5 5 > > > > 5 5 5 6 o.o.@.o.o.o.o.O.O.@.@.@.@.@.@.o.o.o.@.o.o.o.o.@.@.o.o.o.o.@.@.o.o.o.@.o.o.o.o.@.@.o.o.@.@.@.o.o.o.o.o.o.o.@.o.@.@.o.o.@.@.0 6 5 5 > > > > > > > > > > > > > > > > > > > > > > > > > > > : # @ @ @ @ @ @ @ @ @ @ @ @ @ @ @ @ @ @ @ @ @ @ @ @ @ @ @ @ @ ",
"D.l * : : : # # # # : : # # : : : : : : : : : : : : : : : : : : : : # # # # # # : : # # # # # # : : : : : : : : # # # # # # # # @ @ @ @ @ @ @ @ @ @ @ @ @ @ @ @ @ @ @ @ @ @ @ @ @ @ @ @ @ # # # # # # # # # # # # # # # # # # # # # # @ @ @ @ @ # # # : : > 5 5 6 6 6 6 6 6 6 6 6 6 6 6 6 6 6 6 6 6 6 6 6 6 6 6 6 6 6 6 6 6 6 6 6 6 6 6 6 6 6 6 6 6 6 6 6 6 6 6 6 6 6 6 6 6 6 6 6 0 9 > # # @ @ @ @ @ @ @ @ @ @ @ @ @ @ @ @ @ @ # # @ @ @ @ @ @ @ @ @ @ . . @ @ @ @ @ @ @ @ @ @ @ @ @ @ @ @ @ @ @ @ @ @ @ @ @ @ @ # # # : : : : , : , : 1 : 1 : 1 : 1 : : : 1 : 1 : : , % , : : > 5 5 9 5 5 5 9 9 9 5 5 5 5 5 5 9 9 5 5 5 5 9 9 9 9 9 9 9 > 9 > > > > > > > > > > > > > > > > > > > > > > > > > > > > > > > > > > 5 > 5 5 5 5 5 5 5 5 5 5 5 5 5 5 5 5 5 5 5 5 5 > > 5 5 5 5 6 6 @.@.@.@.@.@.@.@.@.@.@.@.@.@.@.@.@.@.@.@.@.@.@.@.@.@.@.@.@.@.@.@.@.@.@.@.@.@.@.@.@.@.@.@.@.@.@.@.@.@.@.@.@.@.@.@.@.@.@.0 0 0 9 5 > > > > > > > > 5 > 5 > 5 > 5 > 5 > 5 5 5 > 5 > > > > > : # # # @ # # # # # # # # # # # # # # # # # # # # # # # # # ",
"Y.z * > > > # # : : : : : : : : : : : : : : : : : : : : : : : : : : : : : : : : : : : : : : : : : : : : : : : : : : : : : : : : : : : : : : : : : : : : : : : : : : : # : : # # # # : : : : : : : : : : : : : : : : : : : : : : > > > : : : : : : : : > > 5 5 6 6 6 6 6 6 6 6 6 6 6 6 6 6 6 6 6 6 6 6 6 6 6 6 6 6 6 6 6 6 6 6 6 6 6 6 6 6 5 6 5 6 6 6 6 6 5 6 5 5 5 5 6 6 6 6 6 0 6 9 > : # # * # # # # # # # # # # # # # # # # # # # # # # # # # # @ @ @ @ @ @ $ $ $ $ @ @ @ @ $ $ $ $ @ @ @ @ @ @ @ @ @ @ @ @ @ @ # * # # # # # # # # # # # # # # # # # # # # # # # # # # # # : > > 5 > > > < > > > > > > > > > > > > > > > > > > > > > > > > > > > > > > > > > > > > > > > > > > > > > > > > > > > > > > > > 5 5 5 5 5 5 5 5 5 5 5 5 5 5 5 5 5 5 5 5 5 5 5 5 5 5 5 5 5 5 6 6 6 6 6 6 0 0 0 0 6 6 6 6 6 6 6 6 6 6 6 6 6 6 6 0 6 6 6 6 6 6 6 6 6 6 6 6 6 6 6 0 6 6 6 6 6 6 6 6 6 6 6 6 6 6 6 6 6 6 6 6 9 9 5 5 5 5 5 5 5 5 5 5 5 5 5 5 5 5 5 5 5 5 5 5 5 5 5 5 5 5 5 > > > : : : : : : > > > > > : : : : : : : : : : : : > > > : : ",
"Y._ 1 > 5 > : , : < > > > > > > > > > > > > > > > > > > > > > > > > > > > > > > > > > > > > > > > > > > > > > > > > > > > > > > > > > > > > > > > > > > > > > > > > > > < < < < < < > > 5 9 9 6 5 5 5 5 9 9 5 9 5 6 5 5 6 6 6 6 6 6 6 6 9 9 9 9 6 6 6 6 6 6 6 6 6 6 6 6 6 6 6 6 6 6 6 6 6 6 6 6 6 6 6 6 6 6 6 6 6 6 6 6 6 6 6 6 5 5 5 5 5 5 5 5 5 5 5 5 5 5 5 5 5 5 5 5 6 6 6 6 5 9 9 > : : # # , : , , 1 1 1 1 1 1 1 1 , , 1 1 : : : : : : , , 1 1 # # # # # # # # # * # # # # # # # # # # # * # # # * # # # # * @ @ @ * * * * @ @ @ @ @ @ @ @ @ @ @ @ @ @ @ @ @ @ @ @ @ @ @ # : : > > > : : : > > > > > > > > > > > > > > > > : : : : : > > > > > > > > 5 5 > > > > > > > > > > > > > > > > > > > 5 5 > 5 5 5 9 9 5 5 5 5 6 5 5 5 5 5 5 5 5 5 5 5 5 5 5 5 5 5 5 5 5 5 5 5 5 5 5 > > > > > > > > > > > > > > > > > > > > > > > > > > > > > > > > > > > > > > > > > > > > > > > > > > > > > > > > > > > 5 5 5 5 5 5 5 5 5 5 5 5 5 5 5 5 5 5 5 5 5 5 5 5 5 5 5 5 6 6 6 5 6 6 9 9 9 9 9 9 0 0 0 0 0 6 0 6 0 6 0 6 0 6 0 6 0 6 0 6 0 6 ",
"T.` 2 9 5 5 : < < > 9 9 > > 5 5 5 > > > > > > > > > > > > > > > > > > > > > > > > > > > > > > > > > > > > > > > > > > > > > 9 9 9 6 9 6 9 6 6 6 9 6 9 6 9 6 9 6 0 0 9 6 9 6 9 6 9 6 6 0 0 0 0 0 @.@.@.@.@.@.@.0 @.@.@.@.@.@.@.@.@.@.@.@.@.0 0 0 0 0 $.@.@.o.6 6 6 6 6 6 6 6 6 6 6 6 6 6 6 6 6 6 6 6 6 6 6 6 6 6 6 6 6 6 6 5 5 5 5 5 5 5 5 5 5 5 5 5 5 5 5 5 5 5 5 5 5 5 5 5 5 5 5 5 5 > > : : 1 , : , > , : , : , : , : > > > , < < > > , , , , : , 1 : # # # : 1 # # # # # # # # # # # # # # # : : # # # # * * * @ @ @ @ @ @ @ @ @ @ @ @ @ @ @ @ @ @ @ @ @ @ @ @ @ . . . . @ @ # : : : : : : : : : : : : : : : : : : : : : : : : : : : : : : > > > > > 5 5 5 5 5 > 5 > 5 > > > 5 > > > 5 5 5 > 5 5 5 5 5 5 5 5 6 9 9 6 6 6 6 6 6 5 6 5 6 5 6 5 6 5 6 5 6 5 6 5 6 5 5 5 5 5 5 > > > > : : : : : > > > > > > > > > > > > > > > > > > > > > > > > > > > > > > > > > > > > > > > > > > > > > > > > > > > > > > 5 5 9 9 6 6 6 6 6 6 5 9 5 5 9 5 9 9 9 5 5 5 5 9 9 6 6 6 6 6 0 8 8 0 0 0 @.@.@.@.@.@.@.@.@.@.@.@.@.@.@.0 @.@.@.@.@.@.@.@.",
"T.` 2 5 5 5 > < > > 5 > > > > 5 5 > > > > > > > > > > > > > > > > > > > > > > > > > > > > > > 5 > > 5 > 5 > 5 > 5 > > > > 5 5 5 0 6 6 0 6 6 6 6 6 6 6 6 6 6 6 6 6 6 6 6 6 5 0 6 0 6 6 0 0 @.@.o.o.o.o.o.o.o.o.o.o.o.o.o.o.o.O.O.o.o.o.@.o.o.o.o.o.@.@.@.@.o.6 6 6 6 6 6 6 6 6 6 6 6 6 6 6 6 6 6 6 6 6 6 6 6 6 6 6 6 6 6 6 5 5 5 5 5 5 5 5 5 5 5 5 5 5 5 5 5 5 > 5 5 5 5 5 5 5 5 5 5 5 > > : : , : : : : : : : : : : : : > : > : : : > : : : : : : : : : : # : : # # # # # # # # # # # # # # # # # # # # # # # # * @ @ @ @ @ . . @ . @ @ @ @ @ . @ @ @ . @ . @ @ @ @ . . . . @ @ * : : : : : : : : : : : : : : : : : : : : : : : : : : : : : : : > > > 5 5 5 5 5 5 5 5 5 5 5 > > 5 5 > > 5 5 5 5 5 5 5 5 5 5 5 5 0 0 6 6 6 6 6 6 6 6 6 6 6 6 6 6 6 6 6 6 6 6 6 6 6 5 5 5 5 5 5 > > : : : : : 1 1 : : : : : : : : : : : : : : : : : : : : : : : : : : : : : : : : : : : : : : : : : : : : : : : : : : : > > 5 9 0 0 6 6 6 6 6 6 6 6 0 0 0 0 0 0 0 0 0 0 6 0 0 0 6 6 6 6 6 o.@.@.o.o.o.o.o.o.O.O.O.o.o.o.o.o.o.o.o.o.o.o.o.o.o.o.o.o.o.",
"!.` 2 9 6 5 > < > 5 5 5 > > 5 5 5 5 5 5 5 5 5 > 5 > 5 > 5 5 5 > 5 > 5 > > > > > 5 > 5 > > > 5 5 > > 5 > 5 > 5 5 5 5 5 > > > 5 6 6 6 6 6 6 6 6 6 o.o.6 6 6 6 6 6 6 6 6 6 6 6 6 6 6 6 6 6 6 o.o.O.O.O.O.O.O.O.O.O.O.O.O.O.O.O.O.O.O.O.O.O.O.O.O.O.O.O.o.o.o.o.o.6 6 6 6 6 6 6 6 6 6 6 6 6 6 6 6 6 6 6 6 6 6 6 6 6 5 5 5 5 5 5 5 5 5 5 5 5 5 5 5 5 5 5 5 5 5 5 5 5 5 5 5 5 5 5 5 5 5 5 5 > > > : : : : > : > : > > > : > : > : > > > > > > > > > : : : : : : : : : : # : # # # # # # # : # : # # # : : : # # # # # * @ @ @ @ @ @ . . . . . . . . . . . . . . . . . . . . . .   . @ * # : : : : # : : : : : : : : : : : : : : : : : : : : : : : : : > > > 5 5 5 5 5 5 5 5 5 5 5 5 5 5 5 5 5 5 5 5 5 5 5 5 5 5 5 5 5 6 6 6 6 6 6 6 6 6 6 6 6 6 6 6 6 6 6 6 6 6 6 6 6 6 6 6 5 6 5 > > : : : # # # # # : : : : : : : : : : : : : : : : : : : : : : : : : : : : : : : : : : : : : : : : : : : : : : : : : : : : > 9 6 6 6 6 6 6 6 6 6 6 6 6 6 6 6 6 6 6 6 6 6 6 6 6 6 6 6 6 6 o.o.@.O.O.O.O.O.O.O.O.O.O.O.O.O.O.O.O.O.O.O.O.O.O.O.O.O.O.O.O.",
"!.` 2 6 5 6 > < > 5 5 5 > > 5 5 5 5 5 5 5 5 5 5 5 5 5 5 5 5 5 5 5 5 5 5 > > > > 5 5 5 5 > > 5 5 5 5 5 5 5 5 5 5 5 5 5 5 > 5 5 9 6 o.o.o.o.o.6 6 o.o.o.6 6 o.o.o.o.o.o.6 6 6 6 6 6 o.o.o.o.o.o.O.O.O.O.O.O.O.O.O.O.O.O.O.O.O.O.O.O.O.O.O.O.O.O.O.O.O.o.O.o.o.o.6 6 6 6 6 6 6 6 6 6 6 6 6 6 6 6 6 6 6 6 6 6 6 6 6 5 5 5 5 5 5 5 5 5 5 5 5 5 5 5 5 5 5 5 5 5 5 5 5 > 5 5 5 5 5 5 5 5 5 5 > > > > > > > > > > > > > > > > > > > > > > > > > > > : : > : : : : : : : : : : : # # # # # : : : # # # # : : : : # # # # * @ @ @ @ . . . . . . . . . . . . . . . . . . . . . . .   . . @ * # : : : : # # : : : : : : : : : : : : : : : : : # : : : : : : > > > 5 5 5 5 5 5 5 5 5 5 5 5 5 5 5 5 5 5 5 5 5 5 5 5 5 5 5 5 5 6 6 6 6 6 6 6 6 6 6 6 6 6 6 6 6 6 6 6 6 6 6 6 6 6 6 6 5 6 5 > > : : : # # # # # # : : : : : : : : : : : : : : : : : : : : : : : : : : : : : : : : : : : : : : : : : : : : : : : : : : : > 9 6 0 6 6 6 6 6 6 6 6 6 6 6 6 6 6 6 6 6 6 6 6 6 6 6 6 6 6 6 o.o.O.O.O.O.O.O.O.O.O.%.O.O.O.O.O.O.O.O.O.O.O.O.O.O.O.O.O.O.O.",
"!.` 2 9 6 5 > < > 5 5 5 > > 5 5 5 5 5 5 5 5 5 5 5 5 5 5 5 5 5 5 5 5 5 5 5 5 > > 5 5 5 5 > 5 5 5 5 5 5 5 5 5 5 5 5 5 5 5 5 5 5 9 6 o.6 6 6 6 6 o.o.o.6 6 6 6 o.o.o.o.o.6 o.o.6 6 6 o.o.o.o.o.O.O.O.O.O.O.O.O.O.O.O.O.O.O.O.O.O.O.O.O.O.O.O.O.%.O.O.O.o.O.o.o.6 6 6 6 6 6 6 6 6 6 6 6 6 6 6 6 6 6 6 6 6 6 6 6 6 6 6 5 5 5 5 5 5 5 5 5 5 5 5 5 5 5 5 5 5 5 5 5 5 5 > > 5 5 5 5 5 5 5 5 5 > > > > > > > > > > > > > > > > > > > > > > > > > > > : > : : : : : : : : : : : : : : : : : : : : : : : : : : : : : # # # * @ @ @ @ . . . . . . . . . . . . . . . . . . . . . . .   . . @ * # : : : : # # : : : : : : : : : : : : : : : : : # : : : : : : > > > 5 5 5 5 5 5 5 5 5 5 5 5 5 5 5 5 5 5 5 5 5 5 5 5 5 5 5 5 5 6 6 6 6 6 6 6 6 6 6 6 6 6 6 6 6 6 6 6 6 6 6 6 6 6 6 6 5 6 5 > > : : : # # # # # # # # # # # # # # # # # # # # # # # # # # # # # # # # # # # # # # # # # # # # # # # # # # # # # 1 # : : > 9 9 6 6 6 6 6 6 6 6 6 6 6 6 6 6 6 6 6 6 6 6 6 6 6 6 6 6 6 6 o.o.O.O.O.O.%.%.%.%.%.O.O.O.O.O.O.O.O.O.O.O.O.O.O.O.O.O.O.O.O.",
"!.` 2 9 5 5 > < > 5 5 5 > > 5 5 5 5 5 5 5 5 5 5 5 5 5 5 5 5 5 5 5 5 5 5 5 5 5 5 5 5 5 5 > > 5 5 5 5 5 5 5 5 5 5 5 5 5 5 5 5 5 6 6 6 6 6 6 6 o.6 o.6 6 6 6 6 o.o.o.o.o.6 o.6 6 6 6 o.o.o.o.o.o.O.O.O.O.O.O.O.O.O.O.O.O.O.O.O.O.O.O.O.O.O.O.%.%.O.O.O.O.o.o.o.6 6 6 6 6 6 6 6 6 6 6 6 6 6 6 6 6 6 6 6 6 6 6 6 6 6 6 5 5 5 5 5 5 5 5 5 5 5 5 5 5 5 5 5 5 5 5 5 5 5 5 5 5 5 5 5 5 5 5 5 > > > > > > > > > > > > > > > > > > > > > > > > > > > > > : : : : : : : : : : : : : : : : : : : : : : : : : : : : : : : # # # # @ @ @ . . . . . . . . . . . . . . . . . . . @ . . . .   . @ * # : : : : # # : : : : : : : : : : : : : : : : : # : : : : : : > > > > 5 5 5 5 5 5 5 5 5 5 5 5 5 5 5 5 5 5 5 5 5 5 5 5 5 5 5 5 6 6 6 6 6 6 6 6 6 6 6 6 6 6 6 6 6 6 6 6 6 6 6 6 6 6 6 5 6 5 > > : : : # : : # # # # : # : # : # : # : # : # : # : # : # : # : # : # : # : # : # : # : # : # : # : # : # : # : # 1 # : : > 9 9 6 6 6 6 6 6 5 5 5 6 6 6 6 6 6 6 6 6 6 6 6 6 6 6 6 6 6 6 o.o.O.O.O.O.%.%.%.%.O.O.O.O.O.O.O.O.O.O.O.O.O.O.O.O.O.O.O.O.O.",
"T.` 2 9 5 5 > < > 5 5 5 > > 5 5 5 > 5 5 5 5 5 5 > > 5 5 5 5 5 5 5 > > 5 5 > > > > > 5 > 5 5 5 > > 5 5 5 5 5 5 5 5 5 5 5 > 5 5 9 6 6 6 6 6 6 6 6 6 6 6 6 6 6 6 6 6 6 6 6 6 6 6 6 6 o.o.o.o.o.o.o.O.O.O.O.O.O.O.O.O.O.O.O.O.O.O.O.O.O.O.O.O.O.O.O.O.O.o.@.@.o.6 6 6 6 6 6 6 6 6 6 6 6 6 6 6 6 6 6 6 6 6 6 6 6 6 6 6 5 5 5 5 5 5 5 5 5 5 5 5 5 5 5 5 5 5 5 5 5 5 5 5 5 5 5 5 5 5 5 5 5 5 > > > > : > > > > > > > > : > > > > > > > > > > > > > > : : : : : : : : : : : : : : : : : : : : : : : : : # # : : : : # # # @ @ @ @ . . . . . . . . . . . . . . . . . . . @ @ .     . @ @ # : : : : : : # : : : : : : : : : : : : : : : : : # : : : : : : > > > > 5 5 5 5 5 5 5 5 > 5 5 5 > > > > 5 5 5 5 5 5 5 5 5 5 5 5 5 5 6 6 6 6 6 6 6 6 6 6 6 6 6 6 6 6 6 6 6 6 6 6 6 6 6 6 6 5 > > : : : : : : : : : : : : : : : : : : : : : : : : : : : : : : : : : : : : : : : : : : : : : : : : : : : : : : : : 1 : : : > 9 6 6 6 6 6 6 5 5 5 5 5 6 6 6 6 6 6 6 6 6 6 6 6 6 6 6 6 6 6 6 o.o.O.O.O.O.O.O.O.O.O.O.O.O.O.O.O.O.O.O.O.O.O.O.O.O.O.O.O.O.",
"T.` 2 9 5 5 > < > 5 5 5 > > 5 5 > > 5 5 5 5 > > 5 5 5 5 5 5 > > > > > 5 5 5 > > > > > > 5 5 > > > > 5 > 5 5 5 5 5 5 5 5 > 5 5 9 6 6 6 6 6 6 6 6 6 6 6 6 6 6 6 6 6 6 6 6 6 6 6 6 6 6 6 6 6 o.o.@.O.O.O.O.O.O.O.O.O.O.O.O.O.O.O.O.O.O.O.O.O.O.O.O.O.O.o.@.@.0 6 6 6 6 6 6 6 6 6 6 6 6 6 6 6 6 6 6 6 6 6 6 6 6 6 5 5 5 5 5 5 5 5 5 5 5 5 5 5 5 5 5 5 5 5 5 5 5 5 5 5 5 5 5 5 5 5 5 5 5 5 > > : : : > : > > > > > > : : > : > > > > > > > > > : : : : : : : : : : : : : : : : : : : : : : : : : : # # # : : : : # # # @ @ @ @ . . . . . . . . . . . . . . . . . . @ @ @ . . . . @ @ * : : : : : : : : : : : : : : : : : : : : : : : : # : : : : : : > > > > 5 > 5 5 5 5 5 5 > 5 5 5 > > > > 5 5 5 5 > 5 5 5 5 5 5 5 5 5 6 6 6 6 6 6 6 6 6 6 6 6 6 6 6 6 6 6 6 6 6 6 6 6 6 6 6 5 > > : : : : : : : : : : : : : : : : : : : : : : : : : : : : : : : : : : : : : : : : : : : : : : : : : : : : : : : : 1 : : : > 5 6 6 6 6 6 6 5 5 5 5 5 6 6 6 6 6 6 6 6 6 6 6 6 6 6 6 9 6 6 6 o.o.O.O.O.O.O.O.O.O.O.O.O.O.O.O.O.O.O.O.O.O.O.O.O.O.O.O.O.O.",
"T.` 2 9 5 5 : < > > 5 > > > 5 5 > > > > 5 > > > > > > > > > > > > > > > > > > > > > > > > > > > > > > > > > > > > > > > > > 5 6 6 6 6 6 6 6 6 6 6 6 6 6 6 6 6 6 6 6 6 6 6 6 6 6 6 6 6 6 6 6 o.@.@.O.O.O.o.o.o.o.O.O.O.O.o.o.o.@.@.@.O.O.O.O.O.O.O.O.o.@.@.0 0 9 6 6 6 6 6 6 6 6 6 6 6 6 6 6 6 6 6 6 6 6 6 6 6 5 5 5 5 5 5 5 5 5 5 5 5 5 5 5 5 5 5 5 5 5 5 5 5 5 5 9 5 5 5 5 5 5 5 5 > > > > : : : : : : > > : : : : : : : : : : > > > : : : : : : : : : : # # # # # # # : : : : : # # # : : : # # # # # : : # # # # @ @ @ . . . . @ @ @ . . . @ @ @ @ @ . . . @ @ @ . . . . @ @ # : : : : : : : : : : : : : : : : : : : : : : : : 1 1 : : : : : > > > > > > 5 > 5 5 > > > > 5 5 5 5 > > 5 5 > > > > 5 5 5 5 5 5 5 5 6 6 6 6 6 6 6 6 6 6 6 6 6 6 6 6 6 6 6 6 6 6 6 6 6 6 5 5 > > : : : : : : : : : : : : : : : : : : : : : : : : : : : : : : : : : : : : : : : : : : : : : : : : : : : : : : : : : : : > > 5 6 6 6 6 6 5 6 9 9 9 5 5 5 5 6 6 5 5 5 5 5 5 5 5 6 5 6 9 6 6 @.@.O.O.O.O.O.O.O.O.o.o.O.O.O.O.o.o.o.o.O.O.O.O.o.o.o.o.o.O.",
"T.` 2 9 5 5 > < > > 5 > > > 5 5 > > > > > > > > > > > > > > > > > > > > > > > > > > > > > > > > > > > > > > > > > > 5 > > > 5 9 6 6 6 6 6 6 6 6 6 6 6 6 6 6 6 6 6 6 6 6 6 6 6 6 6 6 6 6 6 6 o.@.o.O.O.O.o.o.o.o.O.O.O.O.o.o.o.o.O.O.O.O.O.O.O.O.O.O.o.@.@.0 0 5 6 6 6 6 6 6 6 6 6 6 6 6 6 6 6 6 6 6 6 6 6 6 6 5 6 5 5 5 5 5 5 5 5 5 5 5 5 5 5 5 5 5 5 5 5 5 5 5 5 5 5 5 5 5 5 5 5 5 > > > > : : : : : : : > : : : : : : : : : : > > : : : : : : : : : : : # # # : # # # : : : : : # : # : : : : # # # # : : # # # # @ @ @ . . . . @ @ @ . . @ @ @ @ @ @ . . . @ @ @ . . . . @ @ # : : : : : : : : : : : : : : : : : : : : : : : : 1 1 : : : : : > > > > > > > > 5 5 > > > > 5 5 5 5 5 > 5 5 > > > > 5 5 5 5 5 5 5 5 6 6 6 6 6 6 6 6 6 6 6 6 6 6 6 6 6 6 6 6 6 6 6 6 6 6 5 5 > > : : : : : : : : : : : : : : : : : : : : : : : : : : : : : : : : : : : : : : : : : : : : : : : : : : : : : : : : : : : > > 5 6 6 6 6 6 5 6 5 9 9 5 5 5 6 6 6 5 5 5 5 5 5 5 6 6 5 9 9 6 6 @.@.O.O.O.O.O.O.O.O.o.@.O.O.O.O.o.o.o.o.O.O.O.O.o.o.o.o.o.O.",
"!.` 2 9 6 5 > > > 5 5 5 > > 5 5 5 5 5 > 5 5 5 5 > 5 5 5 > > > > > > 5 5 > > > > > > > > > > > > 5 > > > > > > > > 5 9 5 > 5 5 6 6 6 6 6 6 6 6 6 6 6 6 6 6 6 6 6 6 6 6 6 6 6 6 6 6 6 6 6 6 o.o.o.o.O.O.O.O.O.O.O.O.O.O.O.O.O.O.O.O.O.O.o.o.o.O.O.O.O.O.O.o.0 6 5 6 6 6 6 6 6 6 6 6 6 6 6 6 6 6 6 6 6 6 6 6 6 6 6 6 6 5 5 5 5 5 5 5 5 5 5 5 5 5 5 5 5 5 5 5 5 5 5 5 5 5 5 5 5 5 5 5 5 > > > : : : > > > : : : > > > > > > > : : : : : > > > > > : : : : : : # # # : : : : : : : : : : : : # # : : # # : : : : # # * @ @ . @ . . . . . . . . . . . . . . . . . . @ @ @ . . . . @ @ # # : : : : # : : : : : : : : : : : : : : : : : : # : : : : : : > > > > 5 5 5 5 > > 5 5 5 5 > > > > > 5 5 5 5 5 5 5 > > 5 5 5 5 5 5 6 6 6 6 6 6 6 6 6 6 6 6 6 6 6 6 6 6 6 6 6 6 6 6 6 5 6 5 > > : : : : : : : : : : : : : : : : : : : : : : : : : : : : : : : : : : : : : : : : : : : : : : : : : : : : : : : : 1 : : : > 5 5 6 6 6 6 6 5 5 5 5 5 6 6 6 6 6 6 6 6 6 6 6 6 6 6 6 9 6 6 6 o.o.O.O.O.O.O.O.O.O.o.o.O.O.O.O.O.O.O.O.O.O.O.O.O.O.O.O.O.O.",
"!.` 2 9 5 5 > > > 5 5 5 > > 5 5 5 5 5 > 5 5 5 5 > 5 5 5 5 > > > > > 5 5 > > > > > > > > 5 > > > 5 5 > > > > > > > > 5 5 5 5 5 9 6 6 6 6 6 6 6 6 6 6 6 6 6 6 6 6 6 6 6 6 6 6 6 6 6 6 o.6 6 6 o.o.O.O.O.O.O.O.O.O.O.O.O.O.O.O.O.O.O.O.O.o.o.o.o.O.O.O.O.O.o.o.6 5 6 6 6 6 6 6 6 6 6 6 6 6 6 6 6 6 5 5 5 5 6 6 6 6 6 6 6 5 5 5 5 5 5 5 5 5 5 5 5 5 5 5 5 5 5 5 5 5 5 5 5 5 5 5 5 5 5 5 5 > > > : : > > : : : : > > > > : > > > : : : : > > > > : > > : : : : # # # : : : # : : : : : : : : # # # : # # # : : : # # * @ @ @ @ . . . . . . . . . . . . . . . . . . . @ . . .   . . @ # # : : : : # # : : : : : : : : : : : : : : : : : # : : : : : : > > > > 5 5 5 5 > > 5 5 5 5 > > > > 5 5 5 5 5 5 5 5 > > 5 5 5 5 5 5 6 6 6 6 6 6 6 6 6 6 6 6 6 6 6 6 6 6 6 6 6 6 6 6 6 5 6 5 > : : : : : : : : : : : : : : : : : : : : : : : : : : : : : : : : : : : : : : : : : : : : : : : : : : : : : : : : : 1 : : : > 5 6 5 6 6 6 6 6 5 5 5 6 6 6 6 6 6 6 6 6 6 6 6 6 6 6 6 6 6 6 6 o.O.O.O.O.O.O.O.O.O.O.o.O.O.O.O.O.O.O.O.O.O.O.O.O.O.O.O.O.O.",
"!.E 2 9 5 5 > > > 5 5 5 > > 5 5 5 5 > > > > 5 5 > > 5 5 5 5 > > > 5 5 5 > > > > > > 5 5 5 5 5 > 5 5 > > > > > > > > 5 5 > 5 5 9 6 6 6 6 6 6 6 6 6 6 6 6 6 6 6 6 6 6 6 6 6 6 6 6 6 6 o.6 6 o.o.o.O.O.O.O.O.O.O.O.O.O.O.O.O.O.O.O.O.O.O.o.o.o.O.O.O.O.O.O.o.o.6 5 6 6 6 6 6 6 6 6 6 6 6 6 6 6 6 6 5 5 5 5 6 6 6 6 6 6 6 5 5 5 5 5 5 5 5 5 5 5 5 5 5 5 5 5 5 5 5 5 5 5 5 5 5 5 5 5 5 5 5 > > > > > > > > > : : > > : : : : > > > > : : > > : : : : > : : : : # # # : : # # : # : : : : : : # # : : # # : : : : # # # @ @ @ @ . . . . . . . . . . . . . . . . . . . @ . . .   . . @ # # : : : : : # : : : : : : : : : : : : : : : : : # : : : : : : > > > > 5 5 5 5 > > > 5 5 5 5 > 5 5 5 5 > 5 > > 5 > > > 5 5 5 5 6 6 6 6 6 6 6 6 6 6 6 6 6 6 6 6 6 6 6 6 6 6 6 6 6 6 6 5 6 5 > > : : : : : : : : : : : : : : : : : : : : : : : : : : : : : : : : : : : : : : : : : : : : : : : : : : : : : : : : 1 : : : > 5 6 6 6 6 6 6 6 5 5 5 6 6 6 6 6 6 6 6 6 6 6 6 6 6 6 6 6 6 6 6 o.O.O.O.O.O.O.O.O.O.O.O.O.O.O.O.O.O.O.O.O.O.O.O.O.O.O.O.O.O.",
"T.E 2 9 5 5 > > > 5 5 5 > > 5 5 5 5 > > > > 5 5 > > 5 5 5 5 > 5 5 5 5 > 5 > > > > > 5 5 5 5 5 5 5 5 5 > > > > > > > 5 5 5 5 5 9 6 6 6 6 6 6 6 6 6 6 6 6 6 6 6 6 6 6 6 6 6 6 6 6 6 6 6 6 6 o.o.o.O.O.O.O.O.O.O.O.O.O.O.O.O.O.O.O.O.O.O.o.o.o.O.O.O.O.O.O.o.o.6 6 6 6 6 6 6 6 6 6 6 6 6 6 6 6 6 6 6 5 5 5 6 6 6 6 6 6 6 5 5 5 5 5 5 5 5 5 5 5 5 5 5 5 5 5 5 5 5 5 5 5 5 5 5 5 5 5 5 5 5 > > > > > > > > > : : > > : : : : > > > > : : > > : : : : > : : : : # # # : : # # # # : : # # : : : # : : # # : : : : # # # @ @ @ @ . . . . . . . . . . . . . . . . . . . @ . . .   . . @ # # : : : : : # : : : : : : : : : : : : : : : : : # : : : : : : > > > > 5 5 5 5 > > > 5 5 5 5 5 5 5 5 5 > > > > 5 > > > 5 5 5 5 6 6 6 6 6 6 6 6 6 6 6 6 6 6 6 6 6 6 6 6 6 6 6 6 6 6 6 5 6 5 > : : : : : : : : : : : : : : : : : : : : : : : : : : : : : : : : : : : : : : : : : : : : : : : : : : : : : : : : : 1 : : : > 5 6 6 6 6 6 6 6 5 5 5 6 6 6 6 6 6 6 6 6 6 6 6 6 6 6 6 6 6 6 6 o.O.O.O.O.O.O.O.O.O.O.O.O.O.O.O.O.O.O.O.O.O.O.O.O.O.O.O.O.O.",
"U.E 2 9 5 5 > > > > 5 5 > > 5 5 5 5 5 > > > > 5 > > 5 5 5 5 5 5 5 5 > > 5 5 5 5 > 5 5 5 5 5 5 5 5 5 > > > > > > > > 5 5 5 5 9 9 6 6 6 6 6 6 6 6 6 6 6 6 6 6 6 6 6 6 6 6 6 6 6 6 6 6 6 6 6 o.o.o.O.O.O.O.O.O.O.O.O.O.O.O.O.O.O.O.O.O.O.O.o.o.o.O.O.O.O.O.o.o.6 6 6 6 6 6 6 6 6 6 6 6 6 6 6 6 6 6 6 6 5 5 6 6 6 6 6 6 6 5 5 5 5 5 5 5 5 5 5 5 5 5 5 5 5 5 5 5 5 5 5 5 5 5 5 5 5 5 5 5 5 > > > > > : : : > > > > > : : > > > : > > : : : : > > > > > : : : : # # # : : # # # # # : # # # # : : : : # # : : : : # # # @ @ @ @ . . . . . . . . . . . . . . . . . . . @ . . .   . . @ # # : : : : : # : : : : : : : : : : : : : : : : : # : : : : : : > > > > 5 > 5 5 5 5 5 5 > > 5 5 5 5 5 5 5 5 > > 5 5 5 5 5 5 5 5 5 5 6 6 6 6 6 6 6 6 6 6 6 6 6 6 6 6 6 6 6 6 6 6 6 6 6 5 6 5 > > : : : : : : : : : : : : : : : : : : : : : : : : : : : : : : : : : : : : : : : : : : : : : : : : : : : : : : : : 1 : : : > 9 6 6 6 6 6 6 6 6 5 5 6 6 6 6 6 6 6 6 6 6 6 6 6 6 6 6 6 6 6 6 o.O.O.O.O.O.O.O.O.O.O.o.O.O.O.O.O.O.O.O.O.O.O.O.O.O.O.O.O.O.",
"U.E 2 9 5 5 > > > 5 5 5 > > 5 5 5 5 > > > > 5 5 > > 5 5 5 5 5 5 5 5 5 > 5 5 5 5 > > 5 5 5 5 5 5 5 5 > > > > > > > > 5 5 > 5 9 9 6 6 6 6 6 6 6 6 6 6 6 6 6 6 6 6 6 6 6 6 6 6 6 6 6 6 6 6 6 o.o.@.O.O.O.O.O.O.O.O.O.O.O.O.O.O.O.O.O.O.O.o.o.o.o.O.O.O.O.O.o.o.6 6 6 6 6 6 6 6 6 6 6 6 6 6 6 6 6 6 6 6 6 5 6 6 6 6 6 6 6 5 5 5 5 5 5 5 5 5 5 5 5 5 5 5 5 5 5 5 5 5 5 5 5 5 5 5 5 5 5 5 5 > > > : > : : : > > > > > > > > > : : > > : : : : > > > > > : : : : # # # : : # # # # # : # # : # : : : : # # : : : : # # # @ @ @ @ . . . . . . . . . . . . . . . . . . . @ . . .   . . @ # # : : : : : # : : : : : : : : : : : : : : : : : # : : : : : : > > > > 5 > 5 5 5 5 5 5 > 5 5 5 5 5 > > 5 5 > 5 > 5 5 5 5 5 5 5 5 5 6 6 6 6 6 6 6 6 6 6 6 6 6 6 6 6 6 6 6 6 6 6 6 6 6 5 6 5 > > : : : : : : : : : : : : : : : : : : : : : : : : : : : : : : : : : : : : : : : : : : : : : : : : : : : : : : : : : : : : > 9 6 6 6 6 6 6 6 6 5 5 6 6 6 6 6 6 6 6 6 6 6 6 6 6 6 6 6 6 6 6 o.O.O.O.O.O.O.O.O.O.O.o.O.O.O.O.O.O.O.O.O.O.O.O.O.O.O.O.O.O.",
"U.E 2 9 5 5 > > > 5 5 5 > > 5 5 5 > > > > > 5 5 5 5 5 5 5 5 5 > 5 5 > > > > > > > > > > > > > > 5 5 > > > > > > > > 5 5 5 5 9 9 6 6 6 6 6 6 6 6 6 6 6 6 6 6 6 6 6 6 6 6 6 6 6 6 6 6 6 6 6 o.o.@.O.O.O.O.O.O.O.O.O.O.O.O.O.O.O.O.O.O.O.O.o.o.o.O.O.O.O.O.o.o.6 5 6 6 6 6 6 6 6 6 6 6 6 6 6 6 6 6 5 5 5 5 6 6 6 6 6 6 6 5 5 5 5 5 5 5 5 5 5 5 5 5 5 5 5 5 5 5 5 5 5 5 5 5 5 5 5 5 5 > 5 > > > : : : : > > > > : : > > > > : : : : : : : : > > > > > : : : : # # # : : # # # # : : : : : : # # # # # # : : : : # # # # @ @ @ . . . . . . . . . . . . . . . . . . . @ . . .   . . @ # # : : : : # # : : : : : : : : : : : : : : : : : # : : : : : : > > > > 5 > 5 5 5 5 > > > > 5 5 > > > > 5 5 5 5 > > 5 5 5 5 5 5 5 5 6 6 6 6 6 6 6 6 6 6 6 6 6 6 6 6 6 6 6 6 6 6 6 6 6 5 6 5 > > : : : : : : : : : : : : : : : : : : : : : : : : : : : : : : : : : : : : : : : : : : : : : : : : : : : : : : : : : : : : > 5 9 6 6 6 6 6 6 5 5 5 6 6 6 6 6 6 6 6 6 6 6 6 6 6 6 6 6 6 6 6 o.O.O.O.O.O.O.O.O.O.O.o.O.O.O.O.O.O.O.O.O.O.O.O.O.O.O.O.O.O.",
"U.E 2 5 5 5 > > > 5 5 5 > > 5 5 5 5 > > > > > 5 5 5 5 5 5 5 5 > > 5 > > > > > > > > > > > > > > 5 5 > > > > > > > > 5 5 5 5 9 9 6 6 6 6 6 6 6 6 6 6 6 6 6 6 6 6 6 6 6 6 6 6 6 6 6 6 o.6 6 o.o.o.O.O.O.O.O.O.O.O.O.O.O.O.O.O.O.O.O.O.O.O.o.o.o.O.O.O.O.O.o.o.6 6 6 6 6 6 6 6 6 6 6 6 6 6 6 6 6 6 5 6 6 5 6 6 6 6 6 6 6 5 5 5 5 5 5 5 5 5 5 5 5 5 5 5 5 5 5 5 5 5 5 5 5 5 5 5 5 5 5 > 5 > > > : : : : : > > > : : > > > > : : : : > > : : : > > > > : : : : # # # : : # # : : : : : : : : # # # # # # : : : : # # # # @ @ @ . . . . . . . . . . . . . . . . . . . . . . .   . . @ # # : : : : # # : : : : : : : : : : : : : : : : : # : : : : : : > > > > 5 > 5 5 5 5 5 > > > 5 5 > > > > 5 5 5 5 > > 5 5 5 5 5 5 5 5 6 6 6 6 6 6 6 6 6 6 6 6 6 6 6 6 6 6 6 6 6 6 6 6 6 5 6 5 > > : : : : : : : : : : : : : : : : : : : : : : : : : : : : : : : : : : : : : : : : : : : : : : : : : : : : : : : : : : : : > 5 9 6 6 6 6 6 6 6 5 5 6 6 6 6 6 6 6 6 6 6 6 6 6 6 6 6 6 6 6 6 o.O.O.O.O.O.O.O.O.O.O.o.O.O.O.O.O.O.O.O.O.O.O.O.O.O.O.O.O.O.",
"U.E 2 5 5 5 > > > > 5 5 > > 5 5 5 5 > > > > 5 5 5 5 5 5 5 5 > > > > > > > > > 5 5 5 5 5 > > > > 5 5 > > > > > > > > 5 5 5 5 9 9 6 6 6 6 6 6 6 6 6 6 6 6 6 6 6 6 6 6 6 6 6 6 6 6 6 6 o.6 6 o.o.o.O.O.O.O.O.O.O.O.O.O.O.O.O.O.O.O.O.O.O.O.O.o.o.O.O.O.O.O.o.o.6 6 6 6 6 6 6 6 6 6 6 6 6 6 6 6 6 6 5 5 6 5 6 6 6 6 6 6 6 5 5 5 5 5 5 5 5 5 5 5 5 5 5 5 5 5 5 5 5 5 5 5 5 5 5 5 5 5 5 > 5 > > > > > > > > > > > : : > > > > : : : : > > > > > > > > : : : : : # # # : : # # # # : : # # # # # : : : # # : : : : # # # @ @ @ @ . . . . . . . . . . . . . . . . . . . @ . . .   . . @ # # : : : : : # : : : : : : : : : : : : : : : : : # : : : : : : > > > > 5 5 5 5 5 5 5 5 > > 5 5 > > 5 5 5 > > > > > > > 5 5 5 5 5 5 6 6 6 6 6 6 6 6 6 6 6 6 6 6 6 6 6 6 6 6 6 6 6 6 6 6 6 5 > > : : : : : : : : : : : : : : : : : : : : : : : : : : : : : : : : : : : : : : : : : : : : : : : : : : : : : : : : 1 : : : > 5 6 6 6 6 6 6 6 5 5 5 6 6 6 6 6 6 6 6 6 6 6 6 6 6 6 6 6 6 6 6 o.O.O.O.O.O.O.O.O.O.O.o.O.O.O.O.O.O.O.O.O.O.O.O.O.O.O.O.O.O.",
"U.E 2 9 5 5 > > > 5 5 5 > > 5 5 5 5 > > > > 5 5 5 > 5 5 5 5 > > > > > > > > 5 5 5 5 > > > > > > 5 5 > > > > > > > > 5 5 5 5 5 9 6 6 6 6 6 6 6 6 6 6 6 6 6 6 6 6 6 6 6 6 6 6 6 6 6 6 o.6 6 6 o.@.O.O.O.O.O.O.O.O.O.O.O.O.O.O.O.O.O.O.O.O.O.o.o.O.O.O.O.O.o.o.6 6 6 6 6 6 6 6 6 6 6 6 6 6 6 6 6 6 6 5 6 6 6 6 6 6 6 6 6 5 5 5 5 5 5 5 5 5 5 5 5 5 5 5 5 5 5 5 5 5 5 5 5 5 5 5 5 5 5 > 5 > > > : > : : > > > > : : : > > > : : : : > > > > > > > > : : : : : # # # : : # # # # : : # : # # : : : : # # : : : : # # # @ @ @ @ . . . . . . . . . . . . . . . . . . . @ . . .   . . @ # # : : : : : # : : : : : : : : : : : : : : : : : # : : : : : : > > > > 5 5 5 5 5 5 5 5 > > 5 5 > 5 5 5 5 > > > > > 5 5 5 5 5 5 5 5 6 6 6 6 6 6 6 6 6 6 6 6 6 6 6 6 6 6 6 6 6 6 6 6 6 5 6 5 > > : : : : : : : : : : : : : : : : : : : : : : : : : : : : : : : : : : : : : : : : : : : : : : : : : : : : : : : : 1 : : : > 5 6 6 6 6 6 6 6 5 5 5 6 6 6 6 6 6 6 6 6 6 6 6 6 6 6 6 6 6 6 6 o.O.O.O.O.O.O.O.O.O.O.o.O.O.O.O.O.O.O.O.O.O.O.O.O.O.O.O.O.O.",
"U.E 2 9 5 5 > > > 5 5 5 > > 5 5 5 5 5 5 5 5 5 5 > > > > 5 5 > > 5 > > > > > > > > > > > > > 5 5 5 5 > > > > > > > > 5 5 > 5 5 9 6 6 6 6 6 6 6 6 6 6 6 6 6 6 6 6 6 o.6 6 6 6 6 6 6 6 o.6 6 o.o.@.O.O.O.O.O.O.O.O.O.O.O.O.O.O.O.O.O.O.O.O.o.o.o.O.O.O.O.O.o.o.6 6 6 6 6 6 6 6 6 6 6 6 6 6 6 6 6 6 6 6 6 5 6 6 6 6 6 6 6 5 5 5 5 5 5 5 5 5 5 5 5 5 5 5 5 5 5 5 5 5 5 5 5 5 5 5 5 5 5 5 5 > > > : : : : : : > > > : : : > > > > : : : : > > > > > > > : : : : # # # : : : # : : : : : : : : : : : : # # : : : # # # # @ @ @ @ . . . . . . . . . . . . . . . . . . . @ . . .   . . @ # # : : : : : # : : : : : : : : : : : : : : : : : # : : : : : : > > > > 5 5 5 5 5 5 5 5 > > > 5 > > 5 5 5 5 > > 5 5 5 5 5 5 5 5 6 5 6 6 6 6 6 6 6 6 6 6 6 6 6 6 6 6 6 6 6 6 6 6 6 6 6 5 6 5 > > : : : : : : : : : : : : : : : : : : : : : : : : : : : : : : : : : : : : : : : : : : : : : : : : : : : : : : : : 1 : : : > 5 6 6 6 6 6 6 6 5 5 5 6 6 6 6 6 6 6 6 6 6 6 6 6 6 6 6 6 6 6 6 o.O.O.O.O.O.O.O.O.O.O.o.O.O.O.O.O.O.O.O.O.O.O.O.O.O.O.O.O.O.",
"U.E 2 9 5 5 > > > 5 5 5 > > 5 5 5 5 5 5 5 5 5 5 > > > 5 5 5 > > 5 > > > > > > > > > > > > 5 5 5 5 5 5 5 > > > > > > 5 5 > 5 5 9 6 6 6 6 6 6 6 6 6 6 6 6 6 6 6 6 6 o.6 6 6 6 6 6 6 6 o.6 6 o.o.@.O.O.O.O.O.O.O.O.O.O.O.O.O.O.O.O.O.O.O.o.o.o.o.O.O.O.O.O.o.o.6 6 6 6 6 6 6 6 6 6 6 6 6 6 6 6 6 6 6 6 6 5 6 6 6 6 6 6 6 5 5 5 5 5 5 5 5 5 5 5 5 5 5 5 5 5 5 5 5 5 5 5 5 5 5 5 5 5 5 > 5 > > > > > : : : : > > : : : : > > > > : > : : > > > > > : > : : : : # # # : : : : : : : : : : : : : : : : # # : : : # # # # @ @ @ @ . . . . . . . . . . . . . . . . . . . @ . . .   . . @ # # : : : : : # : : : : : : : : : : : : : : : : : # : : : : : : > > > > 5 5 5 5 5 5 5 > > > > 5 > > 5 5 5 5 > > 5 5 5 5 5 5 5 5 6 5 6 6 6 6 6 6 6 6 6 6 6 6 6 6 6 6 6 6 6 6 6 6 6 6 6 6 6 5 > > : : : : : : : : : : : : : : : : : : : : : : : : : : : : : : : : : : : : : : : : : : : : : : : : : : : : : : : : 1 : : : > 5 6 6 6 6 6 6 6 5 5 5 6 6 6 6 6 6 6 6 6 6 6 6 6 6 6 6 6 6 6 6 o.O.O.O.O.O.O.O.O.O.O.o.O.O.O.O.O.O.O.O.O.O.O.O.O.O.O.O.O.O.",
"T.E 2 9 5 5 > < > 5 5 5 > > 5 5 5 5 5 5 5 > > > 5 5 5 5 > > 5 5 5 5 > > > > > > > > > > > > 5 5 5 5 > > > > > > > > 5 5 5 5 5 9 6 6 6 6 6 6 6 6 6 6 6 6 6 6 6 6 6 6 6 6 6 6 6 6 6 6 o.6 6 o.o.o.O.O.O.O.O.O.O.O.O.O.O.O.O.O.O.O.O.O.O.o.o.o.o.O.O.O.O.O.o.o.6 6 6 6 6 6 6 6 6 6 6 6 6 6 6 6 6 6 5 5 5 5 6 6 6 6 6 6 6 5 5 5 5 5 5 5 5 5 5 5 5 5 5 5 5 5 5 5 5 5 5 5 5 5 5 5 5 5 5 5 5 > > > : > > > > : : : : : : : : : > > > > : : > > > > : : > : : : : # # # # : : : : # # # : : : : : : : : # # : : : : # # # @ @ @ @ . . . . . . . . . . . . . . . . . . . @ . . .   . . @ # # : : : : : # : : : : : : : : : : : : : : : : : # : : : : : : > > > > 5 > 5 5 > > > > 5 5 > > > 5 5 5 5 5 5 > 5 5 > > 5 5 5 5 6 5 6 6 6 6 6 6 6 6 6 6 6 6 6 6 6 6 6 6 6 6 6 6 6 6 6 5 6 5 > : : : : : : : : : : : : : : : : : : : : : : : : : : : : : : : : : : : : : : : : : : : : : : : : : : : : : : : : : 1 : : : > 5 6 6 6 6 6 6 6 6 5 5 6 6 6 6 6 6 6 6 6 6 6 6 6 6 6 6 6 6 6 6 o.O.O.O.O.O.O.O.O.O.O.o.O.O.O.O.O.O.O.O.O.O.O.O.O.O.O.O.O.O.",
"!.E 2 9 5 5 > > > 5 5 5 > > 5 5 5 5 5 5 5 5 > > 5 5 > > > > > 5 5 5 > > > > 5 5 > > > 5 > > 5 5 5 5 > > > > > > > > 5 5 5 5 9 9 6 6 6 6 6 6 6 6 6 6 6 6 6 6 6 6 6 6 6 6 6 6 6 6 6 6 o.6 6 o.o.@.O.O.O.O.O.O.O.O.O.O.O.O.O.O.O.O.O.O.O.o.o.o.o.O.O.O.O.O.o.o.6 6 6 6 6 6 6 6 6 6 6 6 6 6 6 6 6 6 5 5 5 5 6 6 6 6 6 6 6 5 5 5 5 5 5 5 5 5 5 5 5 5 5 5 5 5 5 5 5 5 5 5 5 5 5 5 5 5 5 5 5 > > > > > > > > > : : : > : : > > > > > > : : > > > > : : > : : : : # # # # : : : : : # # # # : : : : : : # # : : : : # # # @ @ @ @ . . . . . . . . . . . . . . . . . . . @ . . .   . . @ # # : : : : : # : : : : : : : : : : : : : : : : : # : : : : : : > > > > 5 > 5 5 > > > > 5 > > > > > 5 5 5 5 5 5 5 5 > > 5 5 5 5 5 5 6 6 6 6 6 6 6 6 6 6 6 6 6 6 6 6 6 6 6 6 6 6 6 6 6 5 6 5 > : : : : : : : : : : : : : : : : : : : : : : : : : : : : : : : : : : : : : : : : : : : : : : : : : : : : : : : : : 1 : : : > 5 6 6 6 6 6 6 6 6 5 5 6 6 6 6 6 6 6 6 6 6 6 6 6 6 6 6 6 6 6 6 o.O.O.O.O.O.O.O.O.O.O.O.O.O.O.O.O.O.O.O.O.O.O.O.O.O.O.O.O.O.",
"!.` 2 9 6 5 > > > 5 5 5 > > 5 5 5 > 5 5 5 5 > > 5 5 5 > > 5 5 5 5 > > > > 5 5 5 > 5 5 5 > > > > 5 > > > > > > > > > 5 5 5 5 9 9 6 6 6 6 6 6 6 6 6 6 6 6 6 6 6 6 6 6 6 6 6 6 6 6 6 6 6 6 6 6 o.@.O.O.O.O.O.O.O.O.O.O.O.O.O.O.O.O.O.O.O.o.O.o.o.O.O.O.O.O.o.o.6 6 6 6 6 6 6 6 6 6 6 6 6 6 6 6 6 6 5 5 5 5 6 6 6 6 6 6 6 5 5 5 5 5 5 5 5 5 5 5 5 5 5 5 5 5 5 5 5 5 5 5 5 5 5 5 5 5 5 > 5 > > > > : > > > > : : > > > > > > > > > : : : > > > : : : > : : : : # # # # # : : : : # # # # # # : : : : # # : : # : # # # @ @ @ @ . . . . . . . . . . . . . . . . . . . @ . . . . . . @ # # : : : : : # : : : : : : : : : : : : : : : : : # : : : : : : > > > > 5 > 5 5 5 5 5 5 5 5 > > 5 5 5 5 5 5 5 5 5 > > > 5 5 5 5 5 5 6 6 6 6 6 6 6 6 6 6 6 6 6 6 6 6 6 6 6 6 6 6 6 6 6 5 6 9 > : : : : : : : : : : : : : : : : : : : : : : : : : : : : : : : : : : : : : : : : : : : : : : : : : : : : : : : : : 1 : : : > 5 5 6 6 6 6 6 6 5 5 5 6 6 6 6 6 6 6 6 6 6 6 6 6 6 6 6 6 6 6 6 o.O.O.O.O.O.O.O.O.O.O.O.O.O.O.O.O.O.O.O.O.O.O.O.O.O.O.O.O.O.",
"!.` 2 6 6 5 > > > 5 5 5 > > 5 5 5 > 5 5 5 > > > 5 5 5 > 5 5 5 5 5 5 > > > 5 5 5 5 5 5 5 > > > > 5 > > > > > > > > > 5 5 5 5 9 9 6 6 6 6 6 6 6 6 6 6 6 6 6 6 6 6 6 6 6 6 6 6 6 6 6 6 o.6 6 o.o.o.O.O.O.O.O.O.O.O.O.O.O.O.O.O.O.O.O.O.O.O.O.O.O.O.O.O.O.O.o.o.6 6 6 6 6 6 6 6 6 6 6 6 6 6 6 6 6 6 6 6 5 5 6 6 6 6 6 6 5 5 5 5 5 5 5 5 5 5 5 5 5 5 5 5 5 5 5 5 5 5 5 5 5 5 5 5 5 5 5 5 > > > > : : > > > > : : > > > > > > > > > : : : > > > : : : > : : : : : # # # # : : : : : # # # # : : : # # # # : : : # # # * @ @ . . . . . . . . . . . . . . . . . . . . . . . .   . . . @ @ # : : : : : : : : : : : : : : : : : : : : : : # # : : : : : : > > > > > > 5 5 5 5 5 5 5 5 5 5 5 5 5 5 5 5 5 5 5 5 5 5 5 5 5 5 5 6 6 6 6 6 6 6 6 6 6 6 6 6 6 6 6 6 6 6 6 6 6 6 6 6 6 5 6 5 > > : : : : : : : : : : : : : : : : : : : : : : : : : : : : : : : : : : : : : : : : : : : : : : : : : : : : : : : : : : : : > 9 5 6 6 6 6 6 5 5 6 6 6 6 6 6 6 6 6 6 6 6 6 6 6 6 6 6 6 6 6 6 o.o.O.O.O.O.O.O.O.O.O.O.O.O.O.O.O.O.O.O.O.O.O.O.O.O.O.O.O.O.",
"!.` 4 6 6 6 > > > 5 5 5 > > > 5 5 5 5 5 5 5 > > 5 5 5 5 5 5 5 > > > > 5 > > > > > > 5 5 > > > > > 5 5 5 > > 5 > 5 5 > 5 5 5 6 0 6 6 6 6 6 o.o.o.6 6 6 6 6 6 6 6 o.o.o.o.6 6 6 o.o.6 6 6 o.o.o.o.O.O.O.O.O.O.O.O.O.O.O.O.O.O.O.O.O.O.O.O.O.O.O.O.O.O.O.O.o.o.o.6 6 6 6 6 6 6 6 6 6 6 6 6 6 6 6 6 5 5 6 6 6 6 6 6 6 9 9 5 5 5 5 5 5 5 5 5 5 5 5 5 5 5 5 5 5 5 5 5 5 5 5 5 5 5 5 5 5 9 > > > > > : : : : : : : : : : : : : : : : : : : : : : : : : > : : : : : : : : : : : : : : : : : : : : : : : : : # # # # # # * $ @ . @ . .   . . . . . . . . . . . . . . . .         . . . @ @ # # : : : : : : : : : : : : : : : : : : : : : # # : : : : : : : > < > > > 5 5 5 5 5 5 5 5 5 5 5 5 5 5 5 5 5 5 5 5 5 5 5 5 5 5 6 6 6 6 6 6 6 6 6 6 6 6 6 6 6 6 6 6 6 6 6 6 6 6 6 5 5 5 6 9 > > > : : : : : : : : : : : : : : : : : : : : : : : : : : : : : : : : : : : : : : : : : : : : : : : : : : : : : : : : : : > > > 9 6 6 9 9 9 9 9 9 6 6 6 6 6 6 6 6 6 6 6 6 6 6 6 6 6 6 6 6 6 o.O.O.O.O.O.O.O.O.O.O.O.O.O.O.O.O.O.O.O.O.O.O.O.O.O.O.O.O.O.",
"T.` 2 9 5 5 > > 5 5 5 5 > > 5 5 5 5 5 5 5 5 5 5 5 5 5 5 5 5 5 5 5 > > 5 > > > > > > > 5 > > > > > > 5 5 5 5 5 5 5 5 > > > 5 5 5 6 6 6 6 o.6 o.6 6 6 6 6 o.6 6 6 6 6 o.6 6 6 6 6 o.6 6 6 o.o.@.@.o.O.O.O.O.o.O.o.O.O.O.O.O.O.O.o.o.O.o.o.o.o.o.o.O.O.o.@.o.o.o.6 6 6 6 6 6 6 6 6 6 6 6 6 6 6 6 6 5 5 6 6 6 6 6 6 9 9 6 5 5 5 9 9 5 5 5 5 5 5 5 5 5 5 5 5 5 5 5 5 5 5 5 5 5 5 5 5 9 > > > > > > > > : : : : : : > : : : : : : : : : : : > : : : : : : : : : : : : : # : : : : : : : : : # : : : : : : : # # # # # # @ @ . . . . . . . . . . @ . . . . . . . @ @ . . . . . . . @ @ # # # : : : : : : : : : : : : : : : : : : : : : # # : : > > > > : < < < > > 5 5 5 5 5 5 5 5 5 5 5 5 5 5 5 5 5 5 5 5 5 5 5 5 5 5 5 5 6 6 6 6 6 6 6 6 6 6 6 6 6 6 6 6 6 6 6 6 6 6 6 5 5 5 6 9 > > > : : : : : : : : : : : : : : : : : : : : : : : : : : : : : : : : : : : : : : : : : : : : : : : : : : : : : : : : : > > > 5 9 9 6 9 6 6 6 6 9 9 6 6 6 6 6 6 6 6 6 6 6 6 6 6 6 6 6 6 6 6 @.@.o.O.O.O.O.O.O.O.O.O.o.O.O.O.O.O.O.O.O.O.O.O.O.O.O.O.O.O.",
"!.` 2 5 6 6 > > 5 5 9 5 9 5 5 5 5 5 5 5 5 5 5 5 5 5 5 5 5 5 5 5 5 > 5 5 > 5 5 5 > > 5 5 5 5 5 5 5 5 5 5 5 5 5 5 5 5 > 5 5 5 5 5 6 6 6 6 6 6 6 6 6 6 6 6 6 6 6 6 6 6 6 6 6 6 6 6 0 6 6 6 6 6 0 0 @.@.@.@.@.@.@.@.@.@.@.@.@.@.@.@.@.@.+.+.@.@.@.@.@.@.@.@.@.0 6 6 6 6 6 6 6 6 6 6 6 6 6 6 6 6 6 6 6 6 6 6 6 6 6 6 9 9 6 5 5 5 5 > 5 5 > > 5 5 5 5 5 5 > > 5 5 5 5 5 5 > > 5 5 > > > > > > > > > > > > > > > > > > > > > > > > > > : : > > > > > > : : : : : : : : : : : : : : : : : : : : : : : : : : : : : : : : # # @ @ @ @ @ @ @ @ @ @ # # @ # @ @ @ @ @ @ @ @ @ @ @ @ @ @ # # # : : : : > > : : : : : : : : : : : : : : : : : : : : : > > > > > < < < > > > 5 > > > > 5 > > > > > 5 > > > > > > > 5 5 > 5 > > 5 5 5 5 5 5 5 5 5 5 5 5 5 5 5 5 5 5 5 5 5 5 5 5 5 5 5 5 9 5 9 > > : : : : : : : : : : : : : : : : : : : : : : : : : : : : : : : : : : : : : : : : : : : : : : : : : : : : : : : : : > > > > 9 6 9 5 5 5 5 5 5 5 5 5 5 5 5 5 5 5 5 5 5 5 5 5 5 5 5 5 5 0 0 0 @.@.@.@.@.@.@.@.@.@.@.@.@.@.@.@.@.@.@.@.@.@.@.@.@.@.@.@.",
"!.` 2 6 6 6 > 5 5 6 6 5 5 5 5 5 5 5 5 5 5 5 5 5 5 5 5 5 5 5 5 5 5 5 5 5 5 5 5 5 5 5 5 5 5 5 5 5 5 5 5 5 5 5 5 5 5 5 5 5 5 5 5 5 5 5 5 5 5 5 5 5 5 5 5 5 5 5 5 5 5 5 5 5 5 5 5 5 5 5 5 5 5 5 9 5 0 6 0 6 6 6 6 6 0 6 0 6 0 6 0 0 6 6 0 0 0 0 0 6 6 6 6 6 6 5 6 6 6 6 6 6 6 6 6 6 6 6 6 6 6 6 6 6 6 6 6 6 6 6 6 6 5 9 5 5 5 > > > > > > > > > > > > > > > > > > > > > > > > > > > > > > > > > > > > > > > > > > > > > > > > > > > > : > > > > > > > : > : > : > : : : : : : : : : : : : : : : : : > > > > > > > : : : : : : : : : : : : : : : : : : : : : : : : : : : : : : : : : > > > > > > > > > > > > > > > > > > > > > > > > > > > > > > > > > : : : : : > > : : : : : : : : : : : : : : : : : : : : > > > > > > > > > > > > > > > > > > > > > > > > > > > > > > > > > > > > : : : : : : : : : : : : : : : : : : : : : : : : : : : : : : : : > : : > > : > : > : > > > : > : > > > : > : > > > > > > > > > > > > > > > > > > > > > > > > > > > > > > > > > > > > > 5 5 6 5 6 0 0 0 0 6 6 6 0 6 6 6 6 5 5 6 6 6 6 6 6 6 6 6 6 5 5 ",
"!.' q 6 o.6 5 5 6 6 6 6 5 5 5 6 6 6 6 6 6 6 6 6 6 5 6 5 6 5 6 6 9 6 6 6 6 6 6 6 6 6 6 6 6 6 9 5 6 6 9 6 9 6 9 6 9 9 9 9 9 9 9 5 > > > > > > > > > > > > > > > > > > > > > > > > > > > > > > > > > > > > > > > > > > > > > > > > > > > > > > > > > > > 5 5 5 6 6 5 6 6 6 6 6 6 6 6 6 6 6 6 6 6 6 5 5 6 6 6 6 6 6 5 6 5 5 5 > > > > > > > > > > > > > > > > > > > > > > > > > > > > > > > > > > > > > > > > > > > > > > > > > > > > > > > > > > > > > > > > > > > > > > > > > > > > > > > < > > > > 5 5 5 5 5 5 5 5 5 6 6 6 6 9 9 9 9 9 9 9 9 9 9 9 9 9 9 9 9 9 9 9 6 9 6 6 9 9 9 9 9 5 5 5 5 5 5 5 > > > 5 > 5 > > > > > > > > > > > > 5 5 5 > > : : # # : : : : : : : : : : : : : : : : # # : : : : : : : : : : : : : : : : : : : : : : : : : : : : : : : : : : : > > : : : : > : > : : : : > : : : : : : : > : : : : : : : : : : : : : : : > > > > > > > > > > > > > > > > > > > > > > > > > > > > > > > > > > > > > > > > > : : : : : : : : : : : : : : : : : : : : : : : : > > > > > : : : > > > > > > > > > > > > > > > > > > > ",
"!.X.q 0 o.o.5 5 6 6 0 6 5 5 6 6 6 6 6 6 6 6 6 6 6 6 6 6 6 6 6 6 0 0 0 0 0 0 0 0 0 0 0 0 0 0 0 0 0 0 0 0 0 0 0 0 6 0 0 0 0 0 9 6 > : > : : : : : > : : : > : > : : : : : > : > : : : : : : : : : : : : : : : : : : : : : : : : : : : : : : : : : : : : > > > 5 9 5 6 6 6 6 6 6 6 6 6 6 6 6 6 6 6 5 5 6 6 6 6 6 6 0 5 5 5 5 > > > > > > > > > > > > > > > > > > > > > > > > > > > > > > > > > > > > > > > > > > > > > > > > > > > > > > > > > > > > > 5 5 5 5 5 5 > 9 9 9 9 9 9 > 9 9 9 9 > > 9 9 5 5 5 5 5 5 9 9 6 0 0 @.@.@.@.@.@.@.@.@.@.@.@.@.@.@.@.@.@.@.@.@.@.@.@.@.@.@.@.@.0 6 6 6 6 5 9 9 5 5 5 5 5 5 5 5 5 5 5 5 5 5 5 5 9 5 5 5 5 9 9 > : : # # # # # # # # # # # # # # # # # # # # # # # # # # # # # # # # # # # # : : # # # # : # : # : # : # # # # # : : : : : : : > > > : : : : > > : : > : > : > > > : > : > : > : > : > > > > < > > > > > > > 9 > 5 > 9 > > > > > 5 > 5 > > > 5 > > > > > > : : : : : : : : : : : : # : # # # # # # # # # : # : # # # # # # # # # # # # # # # # # # # # # # # # # # # # # # # # # # # ",
"!.' 9 0 o.o.5 6 6 0 0 0 0 6 6 6 6 6 6 6 6 6 6 6 6 6 6 6 6 6 6 6 6 6 6 6 6 6 6 6 6 6 0 6 0 0 0 0 6 6 6 6 6 6 6 6 6 6 0 0 6 6 6 5 > : : : : : : : : : : : : : : : : : : : : : : : : : : : : : : : : # : # : # : # : # : # : # : # # # # # # # : : : : : : > > > 5 5 6 6 6 6 6 6 6 6 6 6 6 6 6 6 6 5 5 6 6 6 6 6 6 0 9 5 5 5 > > > > > > : > > > > > > > > > > > > > > > > > > > > > > > > > > > > > > > > > > > > > > > > > > > > > > > > > > > > > > 5 9 5 5 5 5 5 5 5 5 5 5 5 5 5 5 5 5 5 5 5 5 5 5 9 9 9 9 9 6 6 6 o.@.o.O.O.O.o.O.O.O.o.o.o.o.o.o.o.o.o.o.O.O.O.#.#.#.o.#.@.@.o.6 0 6 6 6 6 5 5 5 5 5 5 5 5 5 5 5 5 5 5 5 5 5 5 5 5 5 6 5 5 > : # # @ @ * * # # # # @ # @ # # # # # # # # # # # # # # # # # # # # # # # # # # # # # # # # # # # # # # # # # # # # : : # # : > : : > > > > > > > > > > > > > > > > > > > > > > > > > > > > > > 9 9 9 9 5 > 5 5 5 5 5 5 5 > 5 5 5 5 5 5 5 > 5 > 5 > > > > : : : : : : : # # : # # # # # # # # # # # # # # # # # # # # # # # # # # # @ @ @ @ @ @ # # # # # # # # # # # # # # # # # # ",
"!.' 9 o.o.o.6 6 6 6 o.0 0 6 6 6 6 0 0 0 0 0 6 6 0 0 0 0 6 6 6 0 0 6 6 6 6 6 6 6 6 6 6 6 0 0 0 0 6 6 6 0 0 0 0 6 6 6 6 6 6 6 5 5 > : : : : : : : : : : : : : : : : : : : : : : : : : : : : : : : # # # # # # # # # # # # # # # # # # # # # # # : : : : : > > > 9 9 6 6 6 6 6 6 6 6 6 6 6 6 6 6 6 5 5 6 6 6 6 6 6 0 9 5 5 5 > > > : : : : : : : : : : : : : : : : > > > > > > > > > > > > > > > > > > > > > > > > > > > > > > > > > > > > > > > > > > 5 5 5 5 5 5 5 5 5 5 5 5 5 5 5 5 5 5 5 5 5 5 5 5 5 5 5 5 5 6 6 o.o.O.O.O.O.O.O.O.O.O.O.O.O.O.O.O.O.O.O.O.O.O.O.O.O.O.O.O.O.@.o.6 6 6 6 6 6 5 5 5 6 5 6 5 6 5 6 5 6 5 6 5 6 5 6 6 6 6 6 6 5 > < : # @ @ * * * # # @ @ @ @ # # # # # # @ @ # # # # # # # # # # # # # # # # # # # # # # # # # # # # # # # # # # # # # # # # : : : : > > > > > > > > > > > > > > > > > > > > > > > > > > > > 5 5 5 5 5 5 > > 5 5 5 5 5 5 > 5 5 5 5 5 5 5 > > > > > > > > > : : # # # # # # # # # # # # # # # # # # # # # # # # # # # # # # @ @ @ # $ $ $ $ $ $ $ * * * * * # * # * # * # * # * * * * ",
"W.( 6 o.o.o.6 6 6 6 o.0 6 6 6 6 6 6 6 o.o.o.6 6 6 6 6 6 6 6 6 6 6 6 6 6 6 6 6 6 6 6 6 6 6 6 6 6 6 6 6 6 6 6 6 6 6 6 6 6 6 6 6 5 > : : : : : : : : : > : : : : : > : : : : : : : : : : : : : : : : # # # # # # # : : # # # # # # # # * # # # # : : : : : > > 9 6 9 6 6 6 6 6 6 6 6 6 6 6 6 6 6 6 5 5 6 6 6 6 6 6 5 5 5 5 5 > > > > : : : : : : > : : : > > > : : > > > > > > > > > > > > > > > > > > > 5 5 5 > > 5 5 5 5 > > > > > > 5 5 5 5 5 5 5 5 5 9 9 5 5 9 5 5 6 5 5 5 5 5 5 5 6 5 6 5 6 5 5 5 5 5 5 5 5 5 6 o.o.O.O.O.%.%.O.O.O.O.O.O.O.O.O.O.O.O.O.O.O.O.%.%.O.O.O.O.O.@.o.6 6 6 6 5 5 5 6 6 6 6 6 6 6 6 6 6 6 6 6 6 6 5 6 6 6 6 6 6 5 > , # @ @ @ @ @ * # # # # # # # # # # # # # # # # # # # # # # # # # # # # # # # # # # # # # # # # # # # # # # # # # # # # # # : : : : : > > > > > > > > > > > > > > > > > > > > > > > > > > > 5 5 > > 5 5 5 5 5 5 5 5 5 5 5 5 5 5 5 5 5 5 5 5 5 > > > > > > : : : # # # # # # # # # # # # # # # # # # # # # # # # # # * * * # # # # @ @ $ @ $ @ @ @ * * * @ @ * * * # @ @ @ * * * * * ",
"W.( 6 o.o.o.6 6 6 o.o.6 6 6 6 6 6 6 6 o.6 o.6 6 6 6 6 6 6 6 6 6 6 6 6 6 6 6 6 6 6 6 6 6 6 6 6 6 o.o.6 6 6 6 6 6 6 6 6 6 6 6 6 5 > : : : : : > > : : : > : : : : : > : : : : : : : : : : : : : : : # : # : # : # : # : # : # : # # * * * # # # : : : : : > > 5 6 9 6 6 6 6 6 6 6 6 6 6 6 6 6 6 6 5 5 6 6 6 6 6 6 5 5 5 5 5 > > > > : : : : : > > : : : : > > : : : > > > > > > > > > > > > > > > > > > > 5 5 > > 5 5 5 5 > > > > > > 5 5 5 5 5 5 5 5 5 9 5 5 5 5 5 6 6 6 5 5 5 5 5 5 6 5 6 6 6 5 5 5 5 5 5 5 5 5 6 o.o.O.O.O.%.%.O.O.O.O.O.O.O.O.O.O.O.O.O.O.O.O.%.%.O.O.O.O.O.@.o.6 6 5 5 5 5 5 6 6 6 6 6 6 6 6 6 6 6 6 6 6 6 6 6 6 6 6 6 6 9 > , # @ @ @ @ @ * # # # # # # # # # # # # # # # # # # # # # # # # # # # # # # # # # # # # # # # # # # # # # # # # # # # # # # : : : : : : > > > > > > > > > > > > > > > > > > > > > > > > > > 5 5 > > 5 5 5 5 5 5 5 5 5 5 5 5 5 5 5 5 5 5 5 5 5 5 > 5 9 > > : : # # # # # # # # # # # # # # # # # # # # # # # # # # # # * # # # @ # @ @ $ @ @ @ @ * * * * @ @ * * * * @ @ @ * * * * * ",
"W.( 6 o.o.o.6 6 6 o.o.6 6 6 6 6 6 6 6 6 6 6 6 6 6 6 6 6 6 6 6 6 6 0 0 6 6 6 6 6 6 6 6 6 6 6 6 6 o.o.o.o.6 6 6 6 6 6 6 6 6 6 5 5 > > > > > > > > > > > > > > > > > > > > > > > > > > > > > > > : : : : : : : : : : : : : : : : : : 1 : # # : : : : : : : > > 9 6 9 6 6 6 6 6 6 6 6 6 6 6 6 6 6 6 6 6 6 6 6 6 6 6 5 9 6 5 5 > > > > : : : > > > > : : : : > > > : : : > > > > > > > > > > > > > > > > > > > > > > > > > > > > > > > > > > > > > > 5 5 5 5 5 5 5 5 5 5 6 6 6 6 5 5 5 5 5 5 5 5 6 5 5 5 5 5 5 5 5 5 6 6 o.o.O.O.%.%.O.O.O.O.O.O.O.O.O.O.O.O.O.O.O.O.O.O.O.O.O.O.o.o.6 6 5 5 5 5 5 5 5 6 6 6 6 6 6 6 6 6 6 6 6 6 6 6 6 6 6 6 6 6 9 > , # @ @ $ @ @ * # # # # # # # # # # # # # # # # # # # # # # # # # # # # : : : # # # : : : : # # : # : # : : : # # # # # # # : : : : : : > > > > > > > > > > > > > > > > > > > > > > > > > > 5 5 > > 5 5 5 5 5 5 5 5 5 5 5 5 5 5 5 5 5 5 5 5 5 5 5 5 5 > : : # # # # # # * # # # # # # # : : : : # # : : : : # # # # # # * # * @ * * * @ @ @ @ * @ * # # # # * * # # # # * * * * * * ",
"W.( 6 o.o.o.6 6 6 o.o.6 6 6 6 6 6 6 6 6 6 6 6 6 6 6 o.o.o.o.6 6 6 6 0 0 6 6 6 6 6 6 6 6 6 6 6 6 6 6 o.o.6 6 6 6 6 6 6 6 6 6 5 5 > > > > > > > > > > > > > > > > > > > > > > > > > > > > > > > : : : : : : : : : : : : : : : : : : : : : # : : : : : : : > > 9 6 5 6 6 6 6 6 6 6 6 6 6 6 6 6 6 6 6 6 6 6 6 6 6 6 5 9 5 5 5 > > > > : > : > > > > : : : : > > : : : : > > > > > > > > > > > > > > > > > > > > > > > > > > > > > > > > > > > > > > 5 5 5 5 5 5 5 5 5 5 6 5 6 5 5 5 5 5 5 5 5 5 5 5 9 5 5 5 5 5 5 5 5 6 o.o.O.O.%.%.O.O.O.O.O.O.O.O.O.O.O.O.O.O.O.O.O.O.O.O.O.o.o.o.6 6 5 5 5 5 5 5 5 5 6 5 6 5 6 5 6 5 6 5 6 5 6 6 6 6 6 6 6 6 5 > , # # @ * @ # # # # # # # # # # # # # # # # # # # # # # # # # # # # # # : : : : # # : # : # # # # # # # : # : # # # # # # # : : > : : > > > > > > > > > > > > > > > > > > > > > > > > > > > 5 5 > > 5 5 5 5 5 5 5 5 5 5 5 5 5 5 5 5 5 5 5 5 5 5 5 5 5 > : : : # # # # # * # # # # # # # : # : # # # : # : # # # # # # # * # * * * * * * @ # * * * * # # # # * * # # # # * * * * * * ",
"!.( q o.o.o.6 6 6 o.o.6 6 6 6 6 6 6 6 6 6 6 6 6 6 6 6 6 6 6 6 6 6 6 6 6 6 6 6 6 6 6 6 6 6 6 6 6 6 o.o.o.6 6 6 6 6 6 6 6 6 6 5 5 > : > > > > > > : : : : : : > > > > > > > : : : > > > > : : : : : : : : : : : : : : : : : : : : : : : : : : # # : : : : > > 5 6 5 6 6 6 6 6 6 6 6 6 6 6 6 6 6 6 5 5 6 6 6 6 6 6 5 9 6 5 5 > > > > > > > > : : : > > > > : : > > : : : : : : > > > > > > > > > > > > > > > > > > > > > > > > > > > > > > > > > > 5 5 5 5 5 5 5 5 9 5 5 5 9 9 9 9 9 9 5 5 5 9 9 9 9 9 5 5 5 5 5 5 5 6 o.o.O.O.O.O.O.O.O.O.O.O.O.O.O.O.O.O.O.O.O.O.O.O.O.O.o.o.o.o.6 6 5 5 5 5 5 5 5 5 5 5 5 5 5 5 5 5 5 5 5 5 5 5 5 5 6 6 6 6 9 > , # # @ * # # # # # # # # # # # # # # # # # # # # # # # # # # # # # # # # # # # # # # # # # # # # # # # # # # # # # # # # : : : > > > > > > > > > : > : > > > : > : > : > : > > > > > > > > > > > > 5 5 5 5 5 5 > 5 5 5 > > > > > 5 5 5 5 5 5 5 5 5 9 > : : # # # # # # # # # # # # # # # # # # # # # # # # # # # # # # * @ # @ @ @ @ @ # # # # # @ @ @ # # # # # # # # # @ @ @ @ @ ",
"!.( 6 o.o.o.6 6 6 o.o.6 6 6 6 6 6 6 6 6 6 6 6 6 6 6 6 6 6 6 6 6 6 6 6 6 6 6 6 6 6 6 6 6 6 6 6 6 6 6 6 o.6 6 6 6 6 6 6 6 6 6 5 5 > : > : > : : : : : > : : : > : > : > : > : : : > : : : : : : : : : : : : : : : : : : : : : : : : : : : : # # # # # : : > > 5 6 5 6 6 6 6 6 6 6 6 6 6 6 6 6 6 6 5 5 6 6 6 6 6 6 5 9 6 5 5 > > > > > > > > > : : > > > > : > > > : : : : : : > > > > > > > > > > > > > > > > > > > > > > > > > > > > > > > > > > 5 5 5 5 5 5 5 5 9 9 5 5 9 9 9 9 9 9 9 5 5 9 9 9 9 6 5 5 5 5 5 5 6 6 o.o.O.O.O.O.O.O.O.O.O.O.O.O.O.O.O.O.O.O.O.O.O.O.O.o.o.o.o.o.6 6 6 5 5 5 5 5 5 5 5 5 5 5 5 5 5 5 5 5 5 5 5 5 5 5 5 6 6 5 5 > : # # # * # # # # # # # # # # # # # # # # # # # # # # # # # # # # # # # # # # # # # # # # # # # # # # # # # # # # # # # : : : : > > > > > > > > > : > : > > > > : : : : > : > : > > > > > > > > > > 5 5 5 5 5 5 > 5 5 5 > > > > > > 5 5 5 5 5 5 > 5 5 > : : # # # # # # # # # # # # # # # # # # # # # # # # # # # # # * * @ @ @ @ @ @ @ # # # # @ @ # # # # # # # # # # @ @ # # @ @ ",
"!.( 6 o.o.o.5 6 6 6 o.6 6 5 6 6 6 6 6 6 6 6 6 6 6 6 6 6 6 6 6 6 6 6 6 6 6 6 6 6 6 6 6 6 6 6 6 6 o.6 6 6 6 6 6 6 6 6 6 6 6 5 5 > : : : : : : : : : : : : : : : : : : : : : : : : : : : : : : : : : : : : : : : : : : : : : : : : : : : : 1 # # # # # : : > > 5 5 5 6 6 6 6 6 6 6 6 6 6 6 6 6 6 6 5 5 6 6 6 6 6 6 5 6 6 5 > > > > > : > > > : : : > > : : : : > > > > : : : : > > > > > > > > > > > > > > > > > > > > > > > > > > > > > > > > > > > 5 5 5 5 5 5 5 9 5 5 5 5 5 5 5 5 5 5 5 5 5 5 9 6 6 6 6 6 5 5 5 6 6 o.o.O.O.O.O.O.O.O.O.O.O.O.O.O.O.O.O.O.O.O.O.O.O.o.o.o.o.o.o.6 6 6 6 6 6 6 5 9 5 5 5 5 5 5 5 9 9 5 9 5 5 5 5 5 5 5 5 6 9 5 > : # # # # # # # # # # @ # @ # # # # # # # # # @ # $ @ @ @ @ @ # # # # # # # # # # # # # # # # # # # # # # # # # # : : : : : : : : > > > > > > > > > > > > > > > : : > > > > > : > > > > > > > > > > 5 5 5 5 > > > > 5 5 5 5 > > > > 5 > 5 5 > > > > 9 > : : # # # # # # # # # # # # # # # # # # # # # # # # # # * * # * # @ @ $ @ @ @ @ # # # # # @ @ @ @ @ @ @ @ @ # # @ @ @ @ @ @ ",
"W.( 9 o.o.o.5 6 6 6 o.6 6 5 6 6 6 6 6 6 6 6 6 6 6 6 6 6 6 6 6 6 6 6 6 6 6 6 6 6 6 6 6 6 6 6 6 6 6 6 6 6 6 6 6 6 6 6 6 6 6 5 5 > : : : : : : : : : : : : : : : : : : : : : : : : : : : : : : : : : : : : : : : : : : : : : : : : : : : 1 1 # # # # # # : : > 5 5 5 6 6 6 6 6 6 6 6 6 6 6 6 6 6 6 5 5 6 6 6 6 6 6 5 6 6 5 > > > > : : > > > : : : > > : : : : > > > > > > : : : > > > > > > > > > > > > > > > > > > > > > > > > > > > > > > > > > > 5 5 5 5 5 5 5 9 5 5 5 5 5 5 5 5 5 5 5 5 5 5 9 6 6 6 6 6 6 5 5 6 6 o.o.O.O.O.O.O.O.O.O.O.O.O.O.O.O.O.O.O.O.O.O.O.O.O.O.o.O.o.o.6 6 6 6 6 6 6 5 5 5 9 5 9 5 9 5 9 5 9 5 9 5 9 5 5 5 5 5 6 9 5 > > # # # # # # # # $ # $ @ $ # $ # $ # $ # $ # @ @ $ @ $ @ @ @ @ # # # # # # # # # # # # # # # # # # # # # # # # # # # : : : : : : > > > > > > > > > > > > > > > : : > > > > > > > > > > > > > > > 5 5 5 5 5 > > > > 5 5 5 5 5 > > > > > 5 5 5 5 > > > > : : # # # # # # # # # # # # # # # # # # # # # # # # # # * * * # # @ @ @ @ @ @ # # # # # # @ @ @ @ @ @ @ @ @ # # # @ @ @ @ @ ",
"!.' 9 o.o.o.5 6 6 6 o.0 6 6 6 6 6 6 6 6 6 6 6 6 6 6 6 6 6 6 6 6 6 6 6 6 6 6 6 6 0 6 6 6 6 6 6 6 6 6 6 6 6 6 6 6 6 6 6 6 6 6 5 5 > : : : : : : : : : : : : : : : : : : : : : : : : : : : : : : : : : : : : : : : : : : : : : : : : : : : : : : # # # # : : > 5 6 6 6 6 6 6 6 6 6 6 6 6 6 6 6 6 6 6 6 6 6 6 6 6 6 5 5 5 5 > > > > : : : : : : > > > : : : : : : : > > > > : > : : : : > > > > > > > > > > > > > > > > > > > > > > > > > > > > > > 5 5 5 5 5 5 5 5 5 5 9 5 9 5 9 5 9 5 9 5 9 5 9 9 9 9 5 5 5 5 5 5 6 6 @.@.O.O.O.O.O.O.O.O.O.O.O.O.O.O.O.O.O.O.O.O.O.O.O.O.O.O.o.o.6 6 6 5 5 6 6 6 5 5 5 5 5 5 5 5 5 5 5 5 5 5 5 5 5 5 5 5 6 6 5 9 : # # # # # # # # # # # # # # # # @ # @ # # # # @ @ # @ # # # # # # # # # # # # # # # # # # # # # # # # # # # # # # # # : : : : : > > > > > > > > > > > > > > > > > > > > > > > > > > > > > 5 5 > > > 5 5 5 5 5 > > > > > > 5 5 5 > > > > > > 5 5 5 5 > : : # # * * # # # # : : # # # # # # # # # # # # # # # # * * * * * @ @ @ @ @ # # # @ @ @ # # # @ @ @ # # # # # @ @ # # # # # ",
"!.' 9 o.o.o.5 6 6 6 o.0 6 5 6 6 6 6 6 6 6 6 6 6 6 6 6 6 6 6 6 6 6 6 6 6 6 6 6 6 6 6 6 6 6 6 6 6 0 6 6 6 6 6 o.o.6 6 6 6 6 6 5 5 > : : : : : : : : : : : : : : : > > : : : : : : : : : : : : : : : : : : : : : : : : : : : : : : # # : : : : : # # # # : > > 5 6 6 6 6 6 6 6 6 6 6 6 6 6 6 6 6 6 6 6 6 6 6 6 6 6 6 5 5 5 > > > > : : : : > > > > : : : : : : : : > > > > : > : : : : > > > > > > > > > > > > > > > > > > > > > > > > > > > > > > 5 5 5 5 5 5 5 5 5 5 5 5 5 5 5 5 5 5 5 5 5 5 5 5 9 9 5 5 5 5 5 5 6 6 o.@.o.O.O.O.O.O.O.O.O.O.O.O.O.O.O.O.O.O.O.O.O.O.O.O.O.O.O.o.6 6 5 5 5 5 6 5 6 5 5 5 5 5 5 5 5 5 5 5 5 5 5 5 5 5 5 5 6 6 5 5 > # # # # @ # # # # # # # # # # # # # # # # # # @ # # # # # # # # # # # # # # # # # # # # # # # # # # # # # # # # # # # : : : : > > > > > > : : > > > > > > > > > > > > > > > > > > > > > > 5 5 > > > > 5 5 5 5 > 5 > > 5 > 5 5 5 > > > > > > 5 5 5 5 > > : # # # * # # # # # # # # # # # # # # # # # # # # # # * # * * * # @ @ # # # # @ @ @ @ # # # @ @ @ # # # # @ @ @ @ # # # # ",
"!.' 9 o.o.o.5 5 6 6 o.0 0 6 6 6 6 6 6 6 6 6 6 6 6 6 6 6 6 6 6 6 6 6 6 6 6 6 6 6 6 6 6 6 6 6 0 6 6 6 6 6 6 6 o.o.6 6 6 6 6 6 5 5 > : : : : : : : : : : : : : : : > > : : : : : : : : : : : : : : : : : : : : : : : : : : : : : : # # : : : : : # : # : : > > 5 6 6 6 6 6 6 6 6 6 6 6 6 6 6 6 6 6 6 6 6 6 6 6 6 6 6 5 5 5 > > > > > : > > > > > > > > : : : : > > > > > > > > : : : : > > > > 5 > > > > > > > > > > > > > > > > > > > > > > > > > 5 5 5 5 5 5 5 5 5 5 5 5 5 5 5 5 5 5 5 5 5 5 5 5 9 5 5 5 5 5 6 6 6 6 o.o.o.O.O.O.O.O.O.O.O.O.O.O.O.O.O.O.O.O.O.O.O.O.O.O.O.O.O.@.6 6 5 5 5 5 6 5 6 5 5 5 5 5 5 5 5 5 5 5 5 5 5 5 5 5 5 5 6 6 5 5 > # # # # @ # # # # # # # # # # # # # # # # # # # # # # @ # # # # # # # # # # # # # # # # # # # # # # # # # # # # # # # : : : : > > > > > > : : > > > > > > > > > > > > > > > > > > > > > > > > > > > > > 5 5 5 5 5 5 5 5 5 5 5 5 5 > > > > 5 5 5 5 5 > > : # # # * * * # # # # # # # # # # # # # # # # # # # # # # * # * # # # # # # # @ @ @ @ # # # # @ # # # # # @ @ @ @ # # # # ",
"!.' 9 o.o.o.5 5 6 6 0 0 0 6 6 6 6 6 6 6 6 6 6 6 6 6 6 6 6 6 6 6 6 6 6 6 6 6 6 6 6 6 6 6 6 6 6 6 6 6 6 6 6 6 o.o.6 6 6 6 6 6 5 5 > : : : : : : : : : : : : : : : > > : : : : : : : : : : : : : : : : : : : : : : : : : : : : : : # # : : : : : # : # : : > > 5 6 6 6 6 6 6 6 6 6 6 6 6 6 6 6 6 6 6 6 6 6 6 6 6 6 6 5 5 5 > > > > > > > > > > > > > > : : : > > > > > > > > > : : : : > > > > > > > > > > > > > > > > > > > > > > > > > > > > > > 5 5 5 5 5 5 5 5 5 5 5 5 5 5 5 5 5 5 5 5 5 5 5 5 9 5 5 5 5 5 6 6 6 6 o.o.o.O.O.O.O.O.O.O.O.O.O.O.O.O.O.O.O.O.O.O.O.O.O.O.O.O.O.@.6 6 5 5 5 5 6 5 6 5 5 5 5 5 5 5 5 5 5 5 5 5 5 5 5 5 5 5 6 6 5 5 > # # # # @ # # # # # # # # # # # # # # # # # # # # # # @ @ # # # # # # # # # # # # # # # # # # # # # # # # # # # # # # : : : : > > > > > > : : > > > > > > > > > > > > > > > > > > > > > > > > > > > > > 5 5 5 5 5 5 5 5 5 5 5 5 5 > > > > 5 5 5 5 5 > > : # # # * * * # # # # # # # # # # # # # # # # # # # # # # # # * # # # # # # # @ @ @ @ # # # # @ # # # # @ @ @ @ @ @ # # # ",
"!.' 9 o.o.o.5 8 6 6 0 0 0 5 6 6 6 6 6 6 6 6 6 6 6 6 6 6 6 6 6 6 6 6 6 0 6 6 6 6 6 0 6 6 6 6 6 6 6 6 6 6 6 6 6 6 6 6 6 6 6 6 5 5 > : : : : : : : : : : : : : : : > : : : : : : : : : : : : : : : : : : : : : : : : : : : : : : : # # : : : : : # : # : : > > 5 6 6 6 6 6 6 6 6 6 6 6 6 6 6 6 6 6 6 6 6 6 6 6 6 6 6 5 5 5 > > > > > > > > > > > > > > : : : : > > > > > > > > > > > > > > > > 5 5 > > > > > > > > > > > > > > > > > > > > > > > > > > > 5 5 5 5 5 5 5 5 5 5 5 5 5 5 5 5 5 5 5 5 5 9 9 5 5 5 5 6 6 6 6 o.o.O.O.O.O.O.O.O.O.O.O.O.O.O.O.O.O.O.O.O.O.O.O.O.O.O.O.O.@.6 6 5 5 5 5 6 5 6 5 5 5 5 5 5 5 5 5 5 5 5 5 5 5 5 5 5 5 6 6 5 5 > : # # # @ # * # # # # # # # # # # # # # # # # # # # # # # # # # # # # # # # # # # # # # # # # # # # # # # # # # # # # : : : : > > > > > > : : > > > > > > > > > > > > > > > > > > > > > > > > > > > > > > > > 5 5 5 5 5 5 5 5 5 5 > > > > 5 5 5 5 5 > > : : # # # # * # # : # # # # # # # # # # # # # # # # # # # * * * # # # # # # # # # # # @ @ @ # # # @ @ # # @ @ @ @ # # @ # ",
"!.' 9 o.o.o.5 6 6 6 0 0 0 5 6 6 6 6 6 6 6 6 6 6 6 6 6 6 6 6 6 6 6 6 6 6 6 6 6 6 6 6 6 6 6 6 6 6 6 6 6 6 6 6 6 6 6 6 6 6 6 6 5 5 > : : : : : : : : : : : : : : : > > : : : : : : : : : : : : : : : : : : : : : : : : : : : : : : # # : : : : : # : # : : > > 5 6 6 6 6 6 6 6 6 6 6 6 6 6 6 6 6 6 6 6 6 6 6 6 6 6 6 5 5 5 > > > > > > > > > > > > > > : : : : > > > > > > > > : : > > > > > > 5 5 > > > > > > > > > > > > > > > > > > > > > > > > > > > 5 5 5 5 5 5 5 5 5 5 5 5 5 5 5 5 5 5 5 5 5 9 5 5 5 5 5 5 5 6 6 o.o.O.O.O.O.O.O.O.O.O.O.O.O.O.O.O.O.O.O.O.O.O.O.O.O.O.O.O.@.6 6 5 5 5 5 6 6 6 5 5 5 5 5 5 5 5 5 5 5 5 5 5 5 5 5 5 5 6 6 5 5 > : # # # @ # * # # # # # # # # # # # # # # # # # @ # # # # # # # # # # # # # # # # # # # # # # # # # # # # # # # # # # : : : : > > > > > > : : > > > > > > > > > > > > > > > > > > > > > > > > > > > > > > > > > > 5 5 5 5 5 5 5 5 > > > > 5 5 5 5 5 > > : # # # # # # # # : # # # # # # # # # # # # # # # # # # # * * # # # # * # # # # # # # @ @ @ @ # # @ @ # # @ @ @ @ # # @ # ",
"!.' 9 o.o.o.5 6 6 6 0 0 0 6 6 6 6 6 6 6 6 6 6 6 6 6 6 6 6 6 6 6 6 6 6 6 6 6 6 6 6 6 6 6 6 6 6 6 6 6 6 6 6 o.6 6 6 6 6 6 6 6 5 5 > : : : : : : : : : : : : : : : > : : : : : : : : : : : : : : : : : : : : : : : : : : : : : : : # # : : : : : # : # : : > > 5 6 6 6 6 6 6 6 6 6 6 6 6 6 6 6 6 6 6 6 6 6 6 6 6 6 6 5 5 5 > > > > : : : : > : > > > > > : : > > > > > > > : : : : > > > > > > > > > > > > > > > > > > > > > > > > > > > > > > > > > 5 > 5 5 5 5 5 5 5 5 5 5 5 5 5 5 5 5 5 5 5 5 5 9 9 5 5 5 5 5 5 6 6 o.@.O.O.O.O.O.O.O.O.O.O.O.O.O.O.O.O.O.O.O.O.O.O.O.O.O.O.O.@.6 6 5 5 5 5 6 6 6 5 5 5 5 5 5 5 5 5 5 5 5 5 5 5 5 5 5 5 6 6 5 5 > : # # # @ # * # # # # # # # # # # # # # # # # @ @ @ @ # # # # # # # # # # # # # # # # # # # # # # # # # # # # # # # # : # : : > > > > > > > > > > > > > > > > > > > > > > > > > > > > > > > > > > > > 5 5 5 5 > > > > 5 5 5 5 5 5 5 > > 5 5 5 5 5 5 > : : # # # # # # # # # # # # # # # # # # # # # # # # # # # * * * # # # # # # @ @ @ @ # # # @ # # # # @ @ # # # # # # # # @ @ ",
"!.' 9 o.o.o.5 6 6 6 o.0 0 6 6 6 6 6 6 6 6 6 6 6 6 6 6 6 6 6 6 6 6 6 6 6 6 0 6 6 6 6 6 6 6 6 6 6 6 6 6 6 6 o.o.o.6 6 6 6 6 6 5 5 > : : : : : : : : : : : : : : : > > : : : : : : : : : : : : : : : : : : : : : : : : : : : : : : # # : : : : : # : # : : > > 5 6 6 6 6 6 6 6 6 6 6 6 6 6 6 6 6 6 6 6 6 6 6 6 6 6 6 5 5 5 > > > > : : : : : : > > > > > > : > > > > > > > : : : : > > > > > > > > > > > > > > > > > > > > > > > > > > > > > > > > > 5 > 5 5 5 5 5 5 5 5 5 5 5 5 5 5 5 5 5 5 5 5 5 5 9 9 9 5 5 5 5 6 6 o.@.O.O.O.O.O.O.O.O.O.O.O.O.O.O.O.O.O.O.O.O.O.O.O.O.O.O.O.@.6 6 5 5 5 5 6 6 6 5 5 5 5 5 5 5 5 5 5 5 5 5 5 5 5 5 5 5 6 6 5 5 > : # # # @ # # # # # # # # # # # # # # # # # # @ @ @ @ # # # # # # # # # # # # # # # # # # # # # # # # # # # # # # # # : # : : > > > > > > > > > > > > > > > > > > > > > > > > > > > > > > > > > > 5 5 5 5 5 5 > > > > 5 5 5 > 5 5 5 5 5 5 5 5 5 5 5 > > : # # # # # # # # # # # # # # # # # # # # # # # # # # # # * * # # # # # # @ @ @ @ @ # # # # # # # @ @ # # # # # # # # @ @ ",
"/.X.q o.o.o.5 8 6 6 0 6 0 5 6 6 6 6 6 6 6 6 6 6 6 6 6 6 6 6 6 6 6 6 6 6 6 6 6 6 0 6 6 6 6 6 6 6 6 6 6 6 6 6 6 6 6 6 6 6 6 6 5 5 > : : : : : : : : : : : : : : : > > : : : : : : : : : : : : : : : : : : : : : : : : : : : : : : # # : : : : : : 1 # : : > > 5 6 6 6 6 6 6 6 6 6 6 6 6 6 6 6 6 6 6 6 6 6 6 6 6 6 6 5 5 5 > > > > > > > > > > > > : : : : > > > : > > > > > > : : : : > > > > > > > > > > > > > > > > > > > > > > > > > > > > > > > 5 5 5 5 5 5 5 5 5 5 5 5 5 5 5 5 5 5 5 5 5 5 5 5 9 9 9 5 5 5 5 6 6 o.o.o.O.O.O.O.O.O.O.O.O.O.O.O.O.O.O.O.O.O.O.O.O.O.O.O.O.O.@.6 6 5 5 5 5 6 6 6 5 5 5 5 5 5 5 5 5 5 5 5 5 5 5 5 5 5 5 6 6 5 5 > : # # # @ # # # # # # # # # # # # # # # # # # # # # # @ @ # # # # # # # # # # # # # # # # # # # # # # # # # # # # # # : : : : > > > > > > > > > > > > > > > > > > > > > > > > > > > > > > > > > 5 > > > > > 5 5 5 5 5 5 5 > > 5 5 5 5 > > > > 5 5 5 > > : # # # * * * # # # # # # # # # # # # # # # # # # # # # # # * * # # # # # # # @ # # # @ @ @ @ @ # # # @ @ @ @ # # # # @ # ",
"/.' q o.o.o.5 8 6 6 0 0 0 5 6 6 6 6 6 6 6 6 6 6 6 6 6 6 6 6 6 6 6 6 0 6 6 6 6 6 6 6 6 6 6 6 6 6 6 6 6 6 6 6 6 6 6 6 6 6 6 6 5 5 > : : : : : : : : : : : : : : : > > : : : : : : : : : : : : : : : : : : : : : : : : : : : : : : # # : : : : : # 1 # : : > > 5 6 6 6 6 6 6 6 6 6 6 6 6 6 6 6 6 6 6 6 6 6 6 6 6 6 6 5 5 5 > > > > > > > > : > : : : : : > > > > : > > > > > > : : : : > > > > > > > > > > > > > > > > > > > > > > > > > > > > > > > 5 5 5 5 5 5 5 5 5 5 5 5 5 5 5 5 5 5 5 5 5 5 5 9 9 5 5 5 5 5 5 6 6 o.o.o.O.O.O.O.O.O.O.O.O.O.O.O.O.O.O.O.O.O.O.O.O.O.O.O.O.O.@.6 6 5 5 5 5 6 5 6 5 5 5 5 5 5 5 5 5 5 5 5 5 5 5 5 5 5 5 6 6 5 5 > : # # # @ # # # # # # # # # # # # # # # # # # @ # # # @ @ # # # # # # # # # # # # # # # # # # # # # # # # # # # # # # : : : : > > > > > > > > > > > > > > > > > > > > > > > > > > > > > > > > 5 5 > > > > 5 5 5 5 5 5 5 5 > > 5 5 5 5 > > > > 5 5 5 > > : : # # * * * # # # # # # # # # # # # # # # # # # # # # # # * * # # # @ # # # @ # @ @ @ # @ @ # # # # @ @ @ @ # # # @ @ # ",
"/.' 9 o.o.o.5 8 6 6 0 0 0 5 6 6 6 6 6 6 6 6 6 6 6 6 6 6 6 6 6 6 6 6 6 6 6 6 6 6 6 6 6 6 6 6 6 6 6 6 6 6 6 6 o.o.6 6 6 6 6 6 5 5 > : : : : : : : : : : : : : : : > > : : : : : : : : : : : : : : : : : : : : : : : : : : : : : : : : : : : : : # : # : : > > 5 6 6 6 6 6 6 6 6 6 6 6 6 6 6 6 6 6 6 6 6 6 6 6 6 6 6 5 5 5 > > > > > > : : : : : : : : > > > > : : > > > > > > > > > > > > > > 5 5 > > > > > > > > > > > > > > > > > > > > > > > > > 5 5 5 5 5 5 5 5 5 5 5 5 5 5 5 5 5 5 5 5 5 5 5 5 5 5 5 5 5 6 6 6 6 o.o.o.O.O.O.O.O.O.O.O.O.O.O.O.O.O.O.O.O.O.O.O.O.O.O.O.O.O.@.6 6 5 5 5 5 6 6 6 5 5 5 5 5 5 5 5 5 5 5 5 5 5 5 5 5 5 5 6 6 5 5 > # # # # @ # * # # # # # # # # # # # # # # # # @ @ # # # # # # # # # # # # # # # # # # # # # # # # # # # # # # # # # # : : : : > > > > > > : : > > > > > > > > > > > > > > > > > > > > > > > > 5 5 5 > 5 5 5 5 > > > > 5 > > > > > 5 5 > 5 5 > 5 5 5 > > : # # # # * * # # : # # # # # # # # # # # # # # # # # # # * * * # # # @ @ @ # @ @ @ @ # # * # # # # # # # # # # # @ @ # # ",
"!.' 9 o.o.o.5 6 6 6 0 0 0 5 6 6 6 6 6 6 6 6 6 6 6 6 6 6 6 6 6 6 6 6 6 6 6 6 6 6 6 6 6 6 6 6 6 6 6 6 0 6 6 6 o.o.6 6 6 6 6 6 5 5 > : : : : : : : : : : : : : : : > > : : : : : : : : : : : : : : : : : : : : : : : : : : : : : : : : : : : : : # : # : : > > 5 6 6 6 6 6 6 6 6 6 6 6 6 6 6 6 6 6 6 6 6 6 6 6 6 6 6 5 5 5 > > > > > > : : : : : : : : > > > > : : > > > > > > > > > > > > > > 5 5 > > > > > > > > > > > > > > > > > > > > > > > > > 5 5 5 5 5 5 5 5 5 5 5 5 5 5 5 5 5 5 5 5 5 5 5 5 5 5 5 5 5 6 6 6 6 o.o.o.O.O.O.O.O.O.O.O.O.O.O.O.O.O.O.O.O.O.O.O.O.O.O.O.O.O.@.6 6 5 5 5 5 6 6 6 5 5 5 5 5 5 5 5 5 5 5 5 5 5 5 5 5 5 5 6 6 5 5 > : # # # @ # * # # # # # # # # # # # # # # # # @ @ # # # # # # # # # # # # # # # # # # # # # # # # # # # # # # # # # # : : : : > > > > > > : : > > > > > > > > > > > > > > > > > > > > > > > 5 5 5 5 > 5 5 5 5 > > > > 5 5 > > > > 5 5 5 5 5 5 5 5 5 > > : # # # # # # # # : # # # # # # # # # # # # # # # # # # # * * * # # # @ @ @ # @ @ @ @ # # # # # # # # # # # # # # @ @ # # ",
"!.' 9 o.o.o.5 5 6 6 o.0 6 6 6 6 6 6 6 6 6 6 6 6 6 6 6 6 6 6 6 6 6 6 0 6 6 6 6 6 6 6 6 6 6 6 6 6 6 6 6 6 6 6 o.o.6 6 6 6 6 6 5 5 > : : : : : : : : : : : : : : : > : : : : : : : : : : : : : : : : : : : : : : : : : : : : : : : : : : : : : : # : # : : > > 5 6 6 6 6 6 6 6 6 6 6 6 6 6 6 6 6 6 6 6 6 6 6 6 6 6 6 5 5 5 > > > > : : : : > : : : > > > > : : : : > > > > : : : > > > > > > > > > > > > > > > > > > > > > > > > > > > > > > > > > > 5 > 5 5 5 5 5 5 5 5 5 5 5 5 5 5 5 5 5 5 5 5 5 5 5 9 9 5 5 6 6 6 6 o.o.o.O.O.O.O.O.O.O.O.O.O.O.O.O.O.O.O.O.O.O.O.O.O.O.O.O.O.@.6 6 5 5 5 5 6 5 6 5 5 5 5 5 5 5 5 5 5 5 5 5 5 5 5 5 5 5 6 6 5 5 > # # # # @ # * # # # # # # # # # # # # # # # # @ @ # # # # # # # # # # # # # # # # # # # # # # # # # # # # # # # # # # : : : : > > > > > > : : > > > > > > > > > > > > > > > > > > > > > > 5 5 > 5 5 5 5 5 > > 5 5 5 > > > > > > > > > 5 5 5 5 5 5 5 > : : # # # # * * # # : # # # # # # # # # # # # # # # # # # # # * * # @ # @ @ @ @ @ @ # # # # # # # # # # # # # # @ @ # @ # # ",
"!.( 9 o.o.o.5 6 6 6 o.0 6 6 6 6 6 6 6 6 6 6 6 6 6 6 6 6 6 6 6 6 6 6 6 6 6 6 6 6 6 6 6 6 6 6 6 6 6 6 6 0 6 6 o.o.6 6 6 6 6 6 5 5 > : : : : : : : : : : : : : : : > > : : : : : : : : : : : : : : : : : : : : : : : : : : : : : : # # : : : : : # : # : : > > 5 6 6 6 6 6 6 6 6 6 6 6 6 6 6 6 6 6 6 6 6 6 6 6 6 6 6 5 5 5 > > > > : > : : > : : : > > > > > > > : > > > > : : : : : > > > > > > > > > > > > > > > > > > > > > > > > > > > > > > > > > > 5 5 5 5 5 5 5 5 5 5 5 5 5 5 5 5 5 5 5 5 5 5 5 9 9 5 5 5 5 6 6 o.o.o.O.O.O.O.O.O.O.O.O.O.O.O.O.O.O.O.O.O.O.O.O.O.O.O.O.O.@.6 6 5 5 5 5 6 5 6 5 5 5 5 5 5 5 5 5 5 5 5 5 5 5 5 5 5 5 6 6 5 5 > # # # # @ # # # # # # # # # # # # # # # # # # @ @ # # # # # # # # # # # # # # # # # # # # # # # # # # # # # # # # # # : : : : > > > > > > : : > > > > > > > > > > > > > > > > > > > > > > 5 5 > 5 5 5 5 5 > > 5 5 5 > > > > 5 > > 5 5 5 5 5 5 5 5 5 > > : # # # # * * # # : # # # # # # # # # # # # # # # # # # # * * * # @ @ # @ @ @ @ @ # * @ @ # # # # # # # # # # # # # @ # # ",
"!.( 9 o.o.o.5 5 6 6 o.0 6 5 6 6 6 6 6 6 6 6 6 6 6 6 6 6 6 6 6 6 6 6 6 6 6 6 6 6 6 6 6 6 6 6 6 6 6 6 6 6 6 6 o.o.6 6 6 6 6 6 5 5 > : : : : : : : : : : : : : : : : : : : : : : : : : : : : : : : : : : : : : : : : : : : : : : : # # : : : : : # # # : : > > 5 6 6 6 6 6 6 6 6 6 6 6 6 6 6 6 6 6 6 6 6 6 6 6 6 6 6 5 5 5 > > > > > > > > > > : : > > > > > > > > > > > > : > : : : : > > > > > > > > > > > > > > > > > > > > > > > > > > > > > > > 5 > 5 5 5 5 5 5 5 5 5 5 5 5 5 5 5 5 5 5 5 5 5 9 9 9 9 5 5 5 5 6 6 o.o.o.O.O.O.O.O.O.O.O.O.O.O.O.O.O.O.O.O.O.O.O.O.O.O.O.O.O.o.6 6 5 5 5 5 6 5 6 5 5 5 5 5 5 5 5 5 5 5 5 5 5 5 5 5 5 5 6 6 5 5 > : # # # @ # # # # # # # # # # # # # # # # # # # # # # # # # # # # # # # # # # # # # # # # # # # # # # # # # # # # # # : : : : > > > > > > > : > > > > > > > > > > > > > > > > > > > > > > > > > > > 5 5 > > > 5 5 5 5 > > 5 5 5 5 5 5 5 5 > > 5 5 5 > > : # # # # # * # # # # # # # # # # # # # # # # # # # # * * * * # # # # # # # @ # # # # @ @ @ # # # @ # @ @ # # # # # # # # ",
"W.( 9 0 o.o.5 5 6 0 o.0 6 5 6 6 6 6 6 6 6 6 6 6 6 6 6 6 6 6 6 6 6 6 6 6 6 6 6 6 6 6 0 6 6 6 6 6 6 6 6 6 6 6 6 6 6 6 6 6 6 6 6 5 > : : : : : : : : : : : : : : : : : : : : > > : : : : : : : : : : : : : : : : : : : : : : : : : : : : : : : : : : : : : > > 5 0 6 6 6 6 6 6 6 6 6 6 6 6 6 6 6 6 6 6 6 6 6 6 6 6 5 5 5 5 > > > > > > > > > > : : : > > > > > > > > > > : : : : : : : : > > > > > > > > > > > > > > > > > > > > > > > > > > > > > > 5 > 5 5 5 5 5 5 5 5 5 5 5 5 5 5 5 5 5 5 5 5 5 5 5 5 9 5 5 5 5 6 6 @.@.o.O.O.O.O.O.O.O.O.O.O.O.O.O.O.O.O.O.O.O.O.O.O.O.O.O.O.o.6 6 6 5 5 6 6 6 6 5 5 5 5 5 5 5 5 5 5 5 5 5 5 5 5 5 5 5 5 5 5 9 > # # # # # # # # @ # @ # # # # # @ # @ # # # # # # # # # # # # # # # # # # # # # # # # # # # # # # # # # # # # # # # # : : : : : : : : > > > > > > > > > > > > > > > > > > > > > > > > > > > > > > > > 5 > > > 5 5 5 5 5 > 5 5 5 5 5 5 5 5 > > > > 5 > > : : # # # # # # # # # # # # # # # # # # # # # # # # # * * * * # # # # # # # # # # # # @ @ @ # # # @ @ @ @ @ # # # # * # # ",
"W.( 9 0 0 0 5 7 0 0 0 0 0 6 0 0 0 0 0 0 0 0 0 0 0 0 0 0 0 0 0 0 6 6 6 6 6 6 6 6 6 6 6 6 6 6 6 6 0 0 0 6 6 6 6 6 0 0 6 6 0 6 6 5 > : : : : : : : : : : : : : : : : > > > : > > > > : : : : : : : : : : : : : # # : : : : : : : : : : : : : : : : : : : : > > 9 9 5 5 5 5 5 5 5 5 5 5 5 5 5 5 5 5 6 6 6 5 6 5 5 5 0 6 6 5 5 > > > > > > < < < > > > < < < < > > > > > > > < , , , , : : > > > > > > > > > > > > > > > > > > > > > > > > > > > > > 5 5 5 5 5 5 5 5 5 5 5 5 5 5 5 5 5 5 5 5 5 5 5 5 5 5 5 5 5 5 5 5 5 6 @.@.@.@.o.o.O.o.O.o.O.O.O.o.O.o.O.o.O.o.O.o.O.O.O.O.O.o.@.@.6 6 6 6 6 6 6 6 6 6 5 6 6 6 5 5 5 6 6 6 5 5 6 5 5 5 5 5 5 5 9 > : : # # # * # # # # # $ # # # # # # # $ # # # # @ @ @ @ # # # # # # # # # # # # # # # # # # # # # # # # # # # # # # : : : : : : , 1 : : : > > > > > > > > > > > > > > > > > > > > > > > 5 5 5 5 5 5 > > > > > 5 > > > > > 5 5 5 5 > > > 5 > > > 9 > > > : : : : : : : : # # : # # # # # # # # # # # # # # # # # # # # # # # # # # # # # # # # # # # # # # # # # # # # # # # # # # # ",
"W.( q 0 6 0 > q 6 0 0 0 9 q 9 9 0 0 0 0 0 0 0 0 0 0 0 0 0 0 0 0 0 0 0 0 0 0 6 0 0 6 0 0 0 0 0 6 6 0 6 6 6 0 6 6 0 0 6 6 0 6 6 5 > : : : : : : : : : : : : : : : : : : > > > > > > > > : : : : : : : : : : : : : : : : : : : : : : : : : : : : : : : : : > > > 9 6 6 6 6 6 5 5 6 6 6 6 6 6 5 5 6 9 9 9 6 9 6 6 9 9 9 9 9 > > > > > > : : : : : : : : : : : : : : > > : : , 1 1 1 , : : > > 5 5 > > > > > > > > > > > > > > > > > 5 5 5 5 > 5 5 5 5 5 5 9 9 5 9 9 5 5 5 5 5 5 5 5 5 5 5 5 5 5 5 5 5 5 5 5 5 5 5 5 6 6 +.+.@.@.o.@.@.@.@.@.o.@.@.@.o.@.o.@.o.@.@.@.@.@.@.@.o.@.@.@.6 6 6 6 5 5 5 5 5 5 5 5 5 5 5 5 5 5 5 5 5 5 5 5 5 5 5 5 5 > > > : : # # # # # # # @ # @ # # # # # @ # @ # # # # # # # # # # # # # # # # # # : # # # # # # # # # # # # # # # # # # : : : : : : : : : : : : : > > > : : : : : > : : : : : : : > : > > > > > > > > 5 > 5 > > > 5 > > > > > 9 > 9 > > > > > 5 > > > < < > > : : : : : : : : : : : : : # : # # # # # : # : # # # # # # # # # # # # # # # # # # # # # # # # # # # # # # # # # # # # # # # ",
"!.E 2 9 5 > : , > 5 9 5 > < < > > > > > > > > > > > > > > > > > 5 5 9 9 9 > 9 9 9 9 > 9 9 9 9 5 5 9 5 5 5 9 5 5 9 > > > 5 5 5 > > > > > > > > > > > > > > > > > > > > > > > > > > > > > > : : : : : : : : : : : : : : : : : : : : : : : : : : : : : : : > > > > > > > > > > > > > > > > > > > > 5 5 5 > 5 > > > > < > > > : : : : : : : : : : : : : : : : : : : : : : : : : : : : : : > 5 5 5 5 > 5 5 5 5 5 > > > 5 5 5 5 5 5 5 5 5 5 5 5 5 5 5 5 5 5 5 5 9 6 6 5 5 5 5 5 5 5 5 5 5 5 5 5 5 5 5 5 5 5 5 5 5 5 5 5 6 6 6 6 6 6 0 o.0 o.o.6 6 0 0 o.6 o.o.0 0 0 6 o.o.6 6 6 0 0 0 5 5 5 5 > > > > > 5 > > > > > > 5 5 5 5 > > > > > > > > > > > > : : : : : : : : : # # # : # : # : # # # : # : : : : # : : : : : : : : : : : > : : : : : : : : : : : : : : : : : : : > > > > : : # # # # : : > > : : : : : : : : : : : : : : : : : : : : > : : : > < > , > < > < > : > > > > > > > > > : > > > > : : : : : : > > > > > : : : : : : : : : : : : : : : : : : : : : : : : : : : : : : : : : : : : : : : : : : : : : : : : : : : : : : : ",
"P.k # : : : # # : : : : : # # : : : : : : : : : : : : : : : : : : : : : : : : : : : : : : : : : > > > : : : : : : : : : > > > > 9 5 9 5 9 5 9 5 9 5 9 5 9 5 9 9 > 9 9 9 9 5 5 9 5 9 9 > > > > > : : : : : : : : : : : : : : : : : : : : : : : : : : > > > : : : : : : : : : : : : : : : : : : : : : : : : : : : : : : : : # # # : : : : : : : : : : : : : : : : : : : : : # # # : : : > 5 5 5 5 5 5 5 5 5 5 5 5 5 5 5 5 5 5 5 5 5 5 5 5 9 9 5 5 9 9 9 9 6 6 6 6 6 6 6 6 6 6 6 9 6 9 6 6 6 6 6 6 5 5 5 5 5 5 5 5 5 5 5 5 5 5 5 5 5 5 5 5 5 5 5 5 5 5 5 5 5 5 5 5 5 5 5 5 5 5 5 > > > > : : : : : : : : : : : : : : : : : : : : : : > : : : : : : > > : : : : : : < > < > < > , : < > < : < > , < < < > > > > > > > > 5 5 5 5 5 9 5 > 5 > 5 > 5 > 5 > 5 > 5 > 5 > > > > 5 5 > > : # # # # # : : : # # # # # # # # # # # # # # # # # # : : : : : : : : : # : : : : : : : : : : : : : : : : : : : : : : : : : > > > > 9 > > > > < < > > > > > > > > > > > > > > > > > > 5 > 5 > 5 > 5 > 5 > 5 > 5 > > > > > > > > > > > > > > > > > > > ",
"V.j @ # # # . @ @ # # # @ @ @ @ @ @ @ @ @ @ @ @ @ @ @ @ @ @ @ @ # # # # # # # # # # # # # # # # # # # # # # # # # # # # # : : : 5 5 9 5 5 5 5 5 5 5 6 5 6 6 5 6 9 9 9 9 9 6 6 6 6 9 9 9 > > > > : : > : > : : : : : > : > : > : > : : : : : : : : > : : : : : : # # # # # # # # # # # # # # # # # # # # # # # # # # # # # # # # # # : # : # : # : # : # : : : : : # # # # # # # : : : > 5 5 5 5 6 6 6 6 6 6 6 6 6 6 6 6 6 6 6 6 9 9 9 9 5 9 6 6 6 6 6 6 6 6 0 6 6 6 6 6 6 6 6 6 6 6 6 6 6 6 6 6 6 6 6 5 6 6 5 5 5 5 > > > > > > > > > > > > > > > > > > > > > > > > > > > : : : : : : # # # # # # # : # : : : # : # : # : # : : : : : : : : : : : > < > > > > > > > > > > > > > > > > > > > > > > > 2 5 9 > 5 5 9 6 6 6 0 0 0 0 6 6 6 6 6 6 0 6 0 6 6 6 6 6 9 9 q 9 5 9 9 9 > : # # $ $ # # # # # # # # # # # # # # # # # # # # # # # # * # * # # # * # * # * # # # # # # # # # # # # # # # # # # # : : : > > 9 9 9 9 9 9 9 9 9 6 5 6 9 6 9 6 9 6 5 6 5 6 5 6 6 6 6 9 6 9 9 9 6 9 9 9 9 9 6 9 9 9 9 9 9 9 9 9 9 9 9 9 9 9 9 9 9 9 9 ",
"H.s . # # # .   @ @ # @ @ . @ @ @ @ @ @ @ @ @ @ @ @ @ @ @ @ @ @ @ # @ @ @ @ @ @ @ @ @ @ # # @ @ # # # # # @ @ @ @ @ # # # # 1 : 5 6 6 6 6 6 6 6 6 6 6 6 6 6 6 5 5 5 5 5 9 9 9 9 9 5 5 9 9 > > > > : > > > > > : > : > > > > > : > > : : > > : : : > : : : : : # # @ @ @ # # # # @ @ @ @ @ @ # # # # # # # # # # # # # @ # # # # # # # # # # # # # # # # # # # # # # # # # # # # # : : > 5 5 6 6 9 6 9 6 9 6 9 6 9 6 9 6 9 6 9 9 5 9 5 9 9 6 6 6 6 0 0 0 6 0 0 0 6 6 6 6 6 6 6 6 6 6 6 6 6 6 6 6 6 6 6 6 6 6 6 5 6 5 > > > : > > : : : : : : : : : : : : : : : : : : : : : : : : # # # # # # # # # # # # # # # # # # # # # # # # # # # # : : : : : > < > > > > 5 > 5 > > > > > > > 5 > > > > > > 5 5 5 5 5 5 5 5 0 6 6 6 6 0 6 6 6 6 6 6 6 6 6 6 6 6 6 6 6 6 6 6 6 5 9 9 9 9 > : # # $ @ @ # * # # @ @ @ @ @ @ @ @ @ @ @ @ @ @ @ @ @ @ # # # @ * * * * * * * $ $ * # # # # # # # # # $ $ # # # * # # # : : > 9 9 5 5 5 5 5 5 5 5 5 5 5 5 5 5 5 5 5 5 5 5 5 5 5 5 5 6 9 6 6 6 6 6 6 6 6 6 6 6 6 6 6 6 6 6 6 6 6 6 6 6 6 6 6 6 6 6 6 6 ",
").s O @ @ $     @ @ @ @ . . . . . . . . . . . . . . . . . . . . @ @ @ $ @ $ @ @ @ $ @ $ @ @ @ @ # # @ @ @ $ $ $ @ $ * @ * # # , 5 6 6 6 6 6 6 6 6 6 6 6 6 6 6 6 5 9 9 9 9 9 9 9 9 9 9 5 5 5 > > > > > > > > > > > > > > > > > > > > > > > > > > > > : : : : # # # $ $ $ @ $ $ $ $ $ $ $ @ $ @ $ * * * * # # # # # # * $ $ $ * # # # # # # # # # # # # # # # # # # # # # # # # # # : > > 5 5 6 6 6 9 6 9 6 9 6 9 6 9 6 9 6 9 6 6 6 6 6 6 6 6 6 6 6 6 6 0 0 0 0 0 6 6 6 6 6 6 6 6 6 6 6 6 6 6 6 6 6 6 6 6 6 6 6 5 6 5 > : : , , : : : : : : : : : : : : : : : : : : : : : # # # # # # # # # # # # # # # # # # # # # # # # # # # # # # # # # : : : : > > > > > 5 5 5 5 5 > 5 5 5 5 5 5 5 > 5 5 5 5 5 5 5 5 5 5 5 5 6 6 6 6 6 6 6 6 6 6 6 6 6 6 6 6 6 6 6 6 6 6 6 6 6 5 5 6 0 9 > : # # @ $ $ @ * * * @ @ @ * @ @ @ @ @ @ @ @ @ @ @ @ @ @ @ @ @ @ @ $ $ @ @ $ @ $ @ $ $ $ $ $ $ @ $ $ $ $ $ @ @ @ * * # # : : > 5 6 5 5 5 5 5 5 5 5 5 5 5 5 6 5 5 5 5 5 5 5 5 5 6 6 6 6 6 6 6 6 6 6 6 6 6 6 6 6 6 6 6 6 6 6 6 6 6 6 6 6 6 6 6 6 6 6 6 6 ",
").s O @ @ $     . @ @ @ . . . . . . . . . . . . . . . . . . . . $ @ @ $ @ $ @ $ @ $ @ $ @ @ @ @ @ @ @ @ @ $ $ $ @ @ @ @ @ # # , 6 6 6 6 6 6 6 6 6 6 6 6 6 6 6 6 6 6 6 6 6 6 6 6 6 6 0 9 9 5 5 > > > > > > > > > > > > > > > > > > > > > > > > > > > : : : # # # * $ $ $ @ $ @ $ $ $ $ $ @ $ @ $ * * * * $ $ $ # @ @ @ @ @ @ @ @ # # # # # # # # # # # # # # # # # # # # # # # # : : > > 5 6 6 6 6 6 6 6 6 6 6 6 6 6 6 6 6 6 6 6 6 6 6 6 6 6 6 6 6 6 6 6 0 0 0 6 6 6 6 6 6 6 6 6 6 6 6 6 6 6 6 6 6 6 6 6 6 6 6 5 6 > : : : : 1 1 : : : : : : : : : : : : : : : : : : # # # # # # # # # # @ $ # # # # # # # # # # # # # # # # # # # # * * # # # : : > > 5 5 > 5 5 5 5 5 5 5 5 5 5 5 5 5 5 5 5 5 5 5 5 5 5 5 5 5 5 6 6 6 6 6 6 6 6 6 6 6 6 6 6 6 6 6 6 6 6 6 6 6 6 0 6 6 6 0 0 > : # # $ @ @ @ @ * * * * * * * * * * * * * * * * @ @ @ @ @ @ @ @ @ @ @ @ @ @ @ @ @ @ @ @ @ @ @ @ @ @ @ @ @ @ @ @ @ * * # : : > 5 5 5 5 6 6 6 6 6 6 6 6 6 6 6 6 6 6 6 6 6 6 6 6 6 6 6 6 6 6 6 6 6 6 6 6 6 6 6 6 0 0 6 6 6 6 6 6 6 6 6 6 6 0 6 6 6 6 6 6 ",
"L.s O @ @ @     . @ @ @ . . . . . . . . . . . . . . . . . . . . $ @ @ @ @ @ @ @ @ @ @ @ @ @ @ @ @ @ @ @ @ @ @ @ @ @ @ # # # # 2 9 5 6 5 6 5 6 6 6 6 6 6 6 6 6 5 9 9 6 6 6 6 6 6 6 6 6 9 6 5 5 > > > > > > > > > > > > > > > > > > > > > > > > > > > : , 1 # # # @ @ @ @ @ @ @ @ @ @ @ @ @ @ @ @ @ @ @ @ * * # # * # * * * * * * # # # # # # # # # # # # # # # # # # # # # # # # # : : > 5 6 6 6 6 6 6 6 6 6 6 6 6 6 6 6 6 6 6 6 6 6 6 6 6 6 6 6 6 6 6 6 6 6 6 6 6 6 6 6 6 6 6 6 6 6 6 6 6 6 6 6 6 6 o.o.6 6 6 6 5 > : : : # # # : : : : : : : : : : : : : : : : : : : : # # # # # # * * * * * * # # # # # # # * # * # * # # # # * * # # # # # : : > > 5 5 5 5 5 5 > 5 > 5 > 5 > 5 > 5 > 5 > 5 5 5 5 5 5 5 5 5 5 5 5 5 6 6 6 6 6 6 6 6 6 6 6 6 6 6 6 6 6 6 6 6 6 6 6 6 6 6 6 > : # @ @ @ @ @ & @ * * * * * * * * * * * * * * * * * @ * @ * @ * @ * @ * @ * @ * @ * @ * @ * @ # @ # @ * @ * @ # # @ * # # : 9 9 5 6 6 6 6 6 6 6 6 6 5 6 5 6 5 6 5 6 5 6 5 6 5 6 6 6 6 6 6 6 6 6 6 6 6 6 6 6 6 6 6 6 6 6 6 6 6 6 6 6 6 6 6 6 6 6 6 6 6 ",
"H.s O @ @ @ .   @ @ # @ . . . . . . . . . . . . . . . . . . . @ @ @ # @ # @ * @ * @ * @ # @ * * # # * @ @ @ @ @ @ @ @ # * # # 2 5 5 5 5 6 6 6 6 6 5 6 6 6 6 5 5 9 9 6 6 6 6 6 6 6 6 6 9 9 5 5 > > > > > > > > > > > > > > > > > > > > > > > > > > > : , : # # # # @ # @ * @ # @ @ @ # @ # @ * * * @ @ @ * # # # * # * * # * # * # # # # # # # # # # # # # # # # # # # # # # # # # : : > 5 5 6 6 6 6 6 6 6 6 6 6 6 6 6 6 6 6 6 6 6 6 6 6 6 6 6 6 6 6 6 6 6 6 6 6 6 6 6 6 6 6 o.o.6 6 6 6 6 6 6 6 6 6 o.6 o.6 6 6 5 > : : # # * # : : : : : : : : : : : : : : : : : : : : : # # # # # # # * # # # # # # # # # # # # # # # # # # # * * # * # # # # : > > > 5 5 5 5 > > > > > > > > > > > > > > 5 > > > > > 5 5 5 5 5 5 5 5 5 5 6 5 6 6 6 6 6 6 6 5 6 6 6 5 6 5 6 6 6 6 6 6 6 6 > : # @ @ @ @ @ & @ * * * * * * * * * * * * * * * * * * * * * * * * * * * * * * * # * * * * # * # # * # # @ * * # # @ * # # : 9 9 5 6 6 6 6 6 6 6 5 5 5 5 5 5 5 5 5 5 5 5 5 5 5 5 5 5 5 6 5 6 6 6 5 6 5 6 5 6 6 6 6 6 6 6 6 6 6 6 6 6 6 6 6 6 6 6 6 6 6 ",
"L.s = @ @ @ . . @ @ # @ @ . . @ @ @ @ @ @ @ @ @ @ @ @ @ @ @ @ @ @ * * * * * * * * * # * # # * * * * * * * * @ @ * @ # * # # : 2 5 5 5 5 5 5 5 5 5 5 5 5 5 5 5 5 9 6 6 6 6 6 6 6 0 6 6 9 9 5 5 > > > > > > > > > > > > > > > > > > > > > > > > > > > > : : # # # # * * * * * # # * * * * # * * * # # # # # # # # # # # # # # # # # # # # # # # # # # # # # # # # # # # # # # # # # # : > 5 5 6 6 6 6 6 6 6 6 6 6 6 6 6 6 6 6 6 6 6 6 6 6 6 6 6 6 6 6 6 6 6 6 6 6 6 6 6 6 6 6 6 6 6 6 6 6 6 6 6 6 6 6 6 6 6 6 6 6 9 > > : # # * # : : : : : : : : : : : : : : : : : : : : : : 1 : : # # # # # # # # # # # : # # # # # # # : # # # # * # # # # # : > > > > > > 5 5 > > > > > > > > > > > > > > > > > > > > > > > 5 9 6 5 5 5 5 5 5 5 5 5 5 6 5 5 5 6 5 6 5 6 5 5 5 6 6 6 6 6 6 > : # @ $ @ @ @ @ * * # # # # # # # # # # # # # # # * * # # * # * * # # * * # # # # # # # # # # # # # # # # # # # # @ * * # : > 9 5 6 6 6 6 6 5 5 5 5 5 5 5 5 5 5 5 5 5 5 5 5 5 5 5 5 5 5 5 6 5 5 5 5 5 5 5 5 5 6 6 6 6 6 5 6 5 6 5 6 5 6 5 6 6 6 5 6 5 ",
"L.s O @ @ @ . . @ @ # # @ . @ @ @ @ @ @ @ @ @ @ @ @ @ @ @ @ @ @ * * * * * * * * * * # # # # * * * * * * * * @ @ * @ # * # # : 2 9 5 5 5 5 5 6 5 5 5 5 5 5 5 5 5 5 6 6 6 6 6 6 6 0 6 6 9 9 5 5 > > > > > > > > > > > > > > > > > > > : > > > > > > > > : : # # # # * * * * * * * * * * * # * * # # # # # # # # # # # # # # # # # # # # # # # # # # # # # # # # # # # # # # # # # # # : > 5 5 6 6 6 6 6 6 6 6 6 6 6 6 6 6 6 6 6 6 6 6 6 6 6 6 6 6 6 6 6 6 6 6 6 6 6 6 6 6 6 6 6 6 6 6 6 6 6 6 6 6 6 6 6 6 6 6 6 6 6 5 > : : # # # : : : : : : : : : : : : : : : : : : : : : : 1 1 # # # # # # # # # # # # : : # # # # : : : : # # # # # # # # # : : > < > > > > 5 > > > > > > > > > > > > > > > > > > > > > > > > 9 9 6 5 5 5 5 5 5 5 5 5 5 5 5 5 5 5 5 5 5 5 5 5 6 6 6 6 9 6 > : # # $ $ $ @ @ * * # # # # # # # # * # # # # # # * * # # # # * # # # * * * # # # # # # # # # # # # # # # # # # # @ * # # : 9 9 5 5 6 6 6 6 5 5 5 5 5 5 5 5 5 5 5 5 5 5 5 5 5 5 5 5 5 5 5 5 5 5 5 5 5 5 5 5 5 5 5 5 5 5 5 5 5 5 5 5 5 5 6 6 6 5 5 5 5 ",
"L.s O * @ @ .   @ @ # @ @ . @ @ @ @ @ @ @ @ @ @ @ @ @ @ @ @ @ @ @ # # # # # # # # # # # # # # # # # # # # @ # @ * @ # # # # : 2 9 5 6 6 6 5 6 5 6 5 6 5 6 5 6 5 5 5 6 6 6 6 6 6 6 6 6 5 5 5 5 > > > > : > : > : > : > > > > > : : : : > > > > > > > > : : # # # # # # # # # # # # # # # # # # # # # # # # # # # # # # # # # # # # # # # # # # # # # # # # # # # # # # # # # # # # # : > 9 5 5 6 6 6 6 6 6 6 6 6 6 6 6 6 6 6 6 6 6 5 5 5 6 6 6 6 6 6 6 6 6 6 6 6 6 6 6 6 6 6 6 6 6 6 6 6 6 6 6 6 6 6 6 6 6 6 6 6 9 5 > : : # # # : : : : : : : : : : : : : : : : : : : : : : : : : : # # # # # # # # # # # # # # # # # # # # # # # # # # # # : : : : < > > > > > > > > > > > > > > > > > > > > > > > > > > > 5 5 6 6 6 6 5 9 6 0 9 9 9 9 9 9 9 9 9 5 5 5 9 9 9 9 5 9 9 5 9 6 > : # # @ $ @ @ * * * # # # # # # # # # # # # # # # # # # # # # # # # # # # # # # # # # # # # # # # # # # # # # # # @ * # # : > 5 5 6 6 6 6 5 5 5 5 9 9 9 5 5 5 5 5 9 9 9 9 5 5 5 5 5 5 5 5 5 5 5 5 5 5 5 5 5 5 5 5 5 5 5 5 5 5 5 6 5 5 5 5 5 5 5 5 5 5 ",
"L.s O @ @ $     @ @ # @ @ . . @ @ @ @ @ @ @ @ @ @ @ @ @ @ @ @ @ @ # # # # # # # # # # # # # * # # # # # # # @ @ * # # # # # : 2 9 6 6 6 6 6 6 6 6 6 6 6 6 6 6 6 5 5 6 6 6 6 6 6 6 6 6 5 5 5 5 > > > > : : : : : : : > > > > > : : : : : > > > > > > > : : : # # # # # # # # # # # # # # # # # # @ $ # # @ @ @ # # # # # # # # # # # # # # # # # # # # # # # # # # # # # # # # # # # : > 9 5 5 6 6 6 6 6 6 6 6 6 6 6 6 6 6 6 6 6 5 5 5 5 6 6 6 6 6 6 6 6 6 6 6 6 6 6 6 6 6 6 6 6 6 6 6 6 6 6 6 6 6 6 6 6 6 6 6 6 6 5 > > : : # # : : : : : : : : : : : : : : : : : : : : : : : : : # # # # # # # # # # # # # # # # # # # # # # # # # # # # : : : : : < < > > > > > > > > 5 > > > > > > > > > > > > > > > > 5 5 5 6 9 6 9 6 5 6 6 6 6 6 6 6 6 6 6 6 6 6 6 6 6 6 9 5 6 6 5 9 6 > : # # $ @ @ * * # # # # # # # # # # # # # # # # # # # # @ # # # # # # # # # # # # # # # # # # # # # # # @ # # # # @ # # # : > 5 5 6 6 6 5 5 5 5 5 9 9 6 5 6 5 6 5 6 9 9 9 6 5 6 6 6 6 6 6 6 6 6 6 6 6 6 6 6 6 6 6 5 6 5 5 5 5 5 6 5 5 5 5 6 6 5 5 5 5 ",
"H.s O @ @ $     . @ @ @ .   . . @ @ @ @ @ @ @ @ @ @ @ @ @ @ @ @ @ @ @ @ # # @ @ @ @ @ @ @ @ @ @ @ @ @ @ @ @ @ @ * @ # # # # : 2 9 6 6 0 0 0 6 6 6 6 6 6 6 6 6 6 6 5 6 6 6 6 6 6 6 6 6 5 5 5 5 > > > > > : : > : > > > > > > > > , , : : > > > > > > > : : : # # # # @ @ # # # # # @ # @ # # # @ $ $ $ $ $ $ $ @ @ # # # # # # # # # # # # # # # # # # # # # # # # # # # # # # # # # : > 9 5 5 6 6 6 6 6 6 6 6 6 6 6 6 6 6 6 6 6 6 5 5 5 5 5 5 5 6 6 6 6 6 6 6 6 6 6 6 6 6 6 6 6 6 6 6 6 6 6 6 6 6 6 6 6 6 6 6 6 6 5 > > : : : : : : : : : : : : : : : : : : : : : # : # # # # : # # # # # # # # # # # # # # # # # # # # # # # # # # # # # # : : : : < < > > > < > > 5 > 5 > 5 > 5 > 5 > > > 5 > 5 5 5 5 5 5 5 5 9 9 9 6 6 6 6 6 6 6 6 6 6 6 6 6 6 6 6 6 6 6 6 6 9 6 9 5 6 9 > : # # @ @ # # # # # # @ @ @ @ @ @ @ @ @ @ # # @ @ @ @ # @ # @ # @ # @ # @ # @ # @ # @ # @ # @ # @ # @ # @ # @ # @ @ $ # # : > 5 5 6 6 6 5 5 5 5 5 9 6 6 6 6 6 6 6 6 6 6 6 6 6 6 6 6 6 6 6 6 6 6 6 6 6 6 6 6 6 6 6 6 6 6 6 6 6 6 6 6 6 6 6 6 6 6 6 6 6 ",
"H.s + @ @ $     . @ @ @ @ . . . @ @ @ @ @ @ @ @ @ @ @ @ @ @ @ @ @ @ @ @ @ # @ @ @ @ @ @ @ @ @ @ @ @ @ @ @ @ @ @ * @ @ # # # : 2 9 6 6 6 6 0 6 6 6 6 6 6 6 6 0 6 6 6 6 6 6 6 6 6 6 6 6 6 5 5 5 > > > > > > : > > > > > > > > > > : : : : > > > > > > > > : : # # # # @ # # # # # # @ # # # # # @ $ $ $ $ $ $ $ @ @ @ # # # # # # # # # # # # # # # # # # # # # # # # # # # # # # # # : > 9 5 5 6 6 6 6 6 6 6 6 6 6 6 6 6 6 6 6 6 6 5 5 5 5 5 5 6 6 6 6 6 6 6 6 6 6 6 6 6 6 6 6 6 6 6 6 6 6 6 6 6 6 6 6 6 6 6 6 6 6 5 > > : : : : : : : : : : : : : : : : : : : : : : : : : # # : # # # # # # # # # # # # # # # # # # # # # # # # # # # # # # : : : > < < > > > > > > 5 5 5 5 5 5 5 5 5 5 5 5 5 5 5 5 5 5 > 5 5 5 9 9 6 6 6 6 6 6 6 6 6 6 6 6 6 6 0 6 6 6 6 6 6 6 5 6 6 9 9 q > : # # # @ # # # # # $ @ $ @ @ @ @ @ $ @ $ # $ @ @ @ @ @ @ @ @ @ @ @ @ @ @ @ @ @ @ @ @ @ @ @ @ @ @ @ @ @ @ @ @ @ @ @ # # # : > 6 5 6 6 6 5 5 5 5 5 5 6 6 6 6 6 6 6 6 6 6 6 6 6 6 6 6 6 6 6 6 6 6 6 6 6 6 6 6 6 6 6 6 6 6 6 6 6 6 6 6 6 6 6 6 6 6 6 6 6 ",
"F.u + @ @ @ .   . . @ @ @ @ . . . @ @ @ @ @ @ @ @ @ @ @ @ @ @ @ @ @ @ @ # # # # # # # # # # # # @ @ @ # # # @ # * @ @ # * # : 2 9 6 6 6 6 6 6 6 6 6 6 6 6 6 6 6 5 5 5 5 6 6 6 6 6 6 6 9 6 5 5 > > > > > > > > > > > > > > > > > > > > : : : > > > > > > : : # # # # @ @ # # # # # # @ @ @ # # # # $ # # @ @ @ # # # # # * # * # # # # # # # # # # # # # # # # # # # # # # # # # # # : > 9 5 6 6 6 6 6 6 6 6 6 6 6 6 6 6 6 6 6 6 6 6 6 6 6 6 6 6 6 6 6 6 6 6 6 6 6 6 6 6 6 6 6 6 6 6 6 6 6 6 6 6 6 6 6 6 6 6 6 6 6 5 > > : : : : : : : : : : : : : : : : : : : : : : : : : : : # # # # # # # * # # # # # # # # # # # # # # # # # # # # # # # : : : > > > > > > 5 > 5 > 5 5 5 5 > > > 5 5 5 5 5 5 5 5 > > > 5 5 5 6 6 9 9 6 6 6 6 6 6 6 6 6 6 6 6 6 6 6 6 6 6 6 6 5 5 6 6 9 9 > : # * @ @ @ # # # # @ # @ # # # # # @ # @ # # # # # # # # # # @ @ # # # # # # # @ @ @ @ # # # # # # # # # # # # # @ # # # : > 6 5 6 6 6 6 5 5 5 5 5 5 6 5 6 5 6 5 6 5 6 5 6 5 6 6 5 6 6 6 6 6 6 6 6 6 6 6 6 6 6 6 6 6 6 6 6 6 6 6 6 6 6 6 6 6 6 6 6 6 ",
"D.u + . @ @ . . . . @ @ @ @ . . . @ @ @ @ @ @ @ @ @ @ @ @ @ @ @ @ @ @ @ # # # # # # @ @ # # # * @ @ @ # # # # # * @ @ # * # : > 9 6 6 6 6 6 6 6 6 6 6 6 6 6 6 6 5 6 5 5 6 6 6 6 6 6 6 6 6 5 5 > > > > > > > > > > > > > > > > > > > > > : : > > > > > > : : # @ # # @ @ @ @ # # # * @ @ # # # # # # # # # # # # # # # * * * * * # # # # # # # # # # # # # # # # # # # # # # # # # : : > 6 5 6 6 6 6 6 6 6 6 6 6 6 6 6 6 6 6 6 6 6 6 6 6 6 6 6 6 6 6 6 6 6 6 6 6 6 6 6 6 6 6 6 6 6 6 6 6 6 6 6 6 6 6 6 6 6 6 6 6 5 5 > : : : : : : : : : : : : : : : : : : : : : : : : : : : : : # # # # # # * * # # # # # # # # # # # # # # # # * * * * # # : : : > > > > > > 5 > > 5 5 5 5 5 > > > 5 > 5 5 > > > > > > > > 5 5 6 6 9 9 6 6 6 6 6 6 6 6 6 6 6 6 6 6 6 6 6 6 6 6 5 6 6 6 6 9 > : # # @ @ @ # # # # # # # # # # # @ # # # # # # # # @ # # # # @ @ # # # # # # @ @ @ @ # # # # # # @ @ # # # # # # @ # # # : > 6 5 6 6 6 6 6 5 5 5 5 5 5 5 5 5 5 5 5 5 5 5 5 5 5 5 5 5 6 6 6 6 6 6 6 6 6 6 6 6 6 6 6 6 6 6 6 6 6 6 6 6 6 6 6 6 6 6 6 6 ",
"D.u + . @ @ @ . . . @ @ @ @ . . . @ @ @ @ @ @ @ @ @ @ @ @ @ @ @ @ # @ # @ # @ @ # @ @ @ @ @ # # # @ # # # # # # * @ @ # # # : > 9 6 6 6 6 6 6 6 6 6 6 6 6 6 6 6 6 6 6 6 6 6 6 6 6 6 6 6 6 5 > > > > > > > > > > > > > > > > > > > > > : : : > > > > > > : : # # # # @ @ @ @ @ # # # # @ # # # # # # @ @ @ @ @ # # # # * * * # # # # # # # # # # # # # # # # # # # # # # * * # # : : : > 6 5 6 6 6 6 6 6 6 6 6 6 6 6 6 6 6 6 6 6 6 6 6 6 6 6 6 6 6 6 6 6 6 6 6 6 6 6 6 6 6 6 6 6 6 6 6 6 6 6 6 6 6 6 6 6 6 6 6 6 5 5 > : : : : : : : : : : : : : : : : : : : : : : : : : : : : : # # # # # # * # # # # # # # # # # # # # # # # # # # # # # # : : : > > > 5 > 5 5 > 5 > > 5 5 > > > > > > > > > > > > > > > > 5 5 6 6 9 9 6 6 6 6 6 6 6 6 6 6 6 6 6 6 6 6 6 6 6 6 6 6 6 6 6 9 > : # # @ @ @ @ # # # # # # # # @ @ @ @ @ # # @ # # @ @ @ @ # # @ @ # # # # * # # # # # # # # # @ @ @ @ @ # @ @ # @ @ # # # : > 6 5 6 6 6 6 6 5 5 5 5 5 5 5 5 5 5 5 5 5 5 5 5 5 5 5 6 5 6 6 6 6 6 6 6 6 6 6 6 6 6 6 6 6 6 6 6 6 6 6 6 6 6 6 6 6 6 6 6 6 ",
"D.u + . @ @ @ . . . @ @ @ @ . . . @ @ @ @ @ @ @ @ @ @ @ @ @ @ @ # # # # @ @ @ @ # @ @ @ @ # # @ # @ # * # # # # * @ @ @ * # : > 9 6 6 6 6 6 6 6 6 6 6 6 6 6 6 6 6 6 6 6 6 6 6 6 6 6 6 6 6 5 > > > > > > > > > > > > > > > > > > > > > : : : > > > > > > : : # # # # @ @ @ @ @ # # # @ @ # # # # * * @ @ @ @ # # @ @ # * * # # # # # # # # # # # # # # # # # # # # # # # * * # # : : : > 6 5 5 6 6 6 6 6 6 6 6 6 6 6 6 6 6 6 6 6 6 6 6 6 6 6 6 6 6 6 6 6 6 6 6 6 6 6 6 6 6 6 6 6 6 6 6 6 6 6 6 6 6 6 6 6 6 6 6 6 5 5 > : : : : : : : : : : : : : : : : : : : : : : : : : : : : : # # # # # # * # # # # # # # # # # # # # # # # # # # # # # # : : : > > > 5 > > 5 > 5 5 5 > > > > > > > > > > > > > > > > > > 5 5 6 6 9 9 6 6 6 6 6 6 6 6 6 6 6 6 6 6 6 6 6 6 6 6 5 6 6 6 6 9 > : # # @ @ @ # # # # @ # # # # @ @ @ @ @ # # @ @ @ @ @ @ # # # @ @ @ # # # # # # # # # # # # # # @ @ @ @ # @ @ @ @ @ # # # : > 6 5 6 6 6 6 6 5 5 5 5 5 5 5 5 5 5 5 5 5 5 5 5 5 5 5 6 5 5 6 6 6 6 6 6 6 6 6 6 6 6 6 6 6 6 6 6 6 6 6 6 6 6 6 6 6 6 6 6 6 ",
"D.u + . @ @ . . . . @ @ @ @ . . . @ @ @ @ @ @ @ @ @ @ @ @ @ @ @ # # # @ @ # # # @ # # # @ @ @ @ @ @ # # # # # # # @ @ @ # # : > 9 6 6 6 6 6 6 6 6 6 6 6 6 6 6 6 5 5 5 6 6 6 6 6 6 6 6 6 6 5 > > > > > > > > > > > > > > > > > > > > > : : : : > > > > > : # # @ # # @ @ @ @ # # @ @ # # @ @ @ @ @ @ @ @ # # @ @ @ @ # * * * # # # # # # # # # # # # # # # # # # # # # # # # # # : : : > 9 5 6 6 6 6 6 6 6 6 6 6 6 6 6 6 6 6 6 6 6 6 6 6 6 6 6 6 6 6 6 6 6 6 6 6 6 6 6 6 6 6 6 6 6 6 6 6 6 6 6 6 6 6 6 6 6 6 6 6 5 5 > : : : : : : : : : : : : : : : : : : : : : : : : : : : : : # # # # # # # # # # # # # # # # # # # # # # # # # # # # # # : : : > > > 5 > 5 5 > > 5 5 5 5 > > > > > > > > > 5 > > > > > > 5 5 6 6 9 9 6 6 6 6 6 6 6 6 6 6 6 6 6 6 6 6 6 6 6 6 6 6 6 6 6 9 > : # # * @ # # # # # # # # # # @ @ @ @ @ @ @ @ # # * # # # @ # # # @ @ # # # # # # # # # # # # @ @ # # @ @ @ # # # @ * # # : > 9 5 6 6 6 6 6 5 5 5 5 5 5 5 5 5 5 5 5 5 5 5 5 5 5 5 6 6 6 6 6 6 6 6 6 6 6 6 6 6 6 6 6 6 6 6 6 6 6 6 6 6 6 6 6 6 6 6 6 6 ",
"D.p + . @ @ . . . . @ @ @ @ . . . @ @ @ @ @ @ @ @ @ @ @ @ @ @ @ # # # @ # # @ # @ @ @ # @ @ # @ @ @ # # # # # # * @ @ # # # : > 9 6 6 6 6 6 6 6 6 6 6 6 6 6 6 6 5 5 6 6 6 6 6 6 6 6 6 6 6 5 > > > > > > > > > > > > > > > > > > > > > : : : : > > > > > : # # @ # # @ @ # @ # # @ @ @ # @ @ @ @ @ @ @ @ # @ @ @ # # # * * * # # # # # # # # # # # # # # # # # # # # # # # # # # # : : > 6 5 6 6 6 6 6 6 6 6 6 6 6 6 6 6 6 6 6 6 6 6 6 6 6 6 6 6 6 6 6 6 6 6 6 6 6 6 6 6 6 6 6 6 6 6 6 6 6 6 6 6 6 6 6 6 6 6 6 6 5 5 > : : : : : : : : : : : : : : : : : : : : : : : : : : : : : # # # # # # # # # # # # # # # # # # # # # # # # * * # # # # # : : > > > 5 > 5 5 > > 5 > 5 5 > > > > > > > > 5 5 > > > > > > 5 5 5 5 9 9 6 6 6 6 6 6 6 6 6 6 6 6 6 6 6 6 6 6 6 6 6 6 6 6 6 9 > : # # * @ @ # # # # # @ # # # @ @ @ @ @ @ @ @ # # # # # # @ # # # @ @ # # # # @ @ # # # # # # @ @ # # @ @ # # # # @ * # # : > 6 5 5 6 6 6 6 5 5 5 5 5 5 5 5 5 5 5 5 5 5 5 5 5 5 5 6 6 6 6 6 6 6 6 6 6 6 6 6 6 6 6 6 6 6 6 6 6 6 6 6 6 6 6 6 6 6 6 6 6 ",
"D.u + . @ @ . . . . @ @ @ @ . . . @ @ @ @ @ @ @ @ @ @ @ @ @ @ @ # # # @ # # # # @ @ # # # # # @ @ @ @ @ # # # # * @ @ # # # : > 9 6 6 6 6 6 6 6 6 6 6 6 6 6 6 6 5 5 5 5 6 6 6 6 6 6 6 6 6 5 > > > > > > > > > > > > > > > > > > > > > : : : > > > > > > : # # @ # # # @ # # # # @ @ # # # # # # @ @ # # # # @ @ # # # * * # # # # # # # # # # # # # # # # # # # # # # # # # # # # : : > 6 5 6 6 6 6 6 6 6 6 6 6 6 6 6 6 6 6 6 6 6 6 6 6 6 6 6 6 6 6 6 6 6 6 6 6 6 6 6 6 6 6 6 6 6 6 6 6 6 6 6 6 6 6 6 6 6 6 6 6 5 5 > : : : : : : : : : : : : : : : : : : : : : : : : : : : : : # # # # # # # # # # # # # # # # # # # # # # # # # * # * # # : : : > > > 5 > 5 5 > > > > 5 > > > 5 5 > > > > 5 5 > > > > > > 5 5 5 5 5 9 6 6 6 6 6 6 6 6 6 6 6 6 6 6 6 6 6 6 6 6 6 6 6 6 6 9 > : # * * @ @ # # # # @ @ # # # # @ # # # @ # # # # # # # @ @ @ # # @ # # # # @ @ @ @ @ @ @ # # # @ # # @ @ # # # # @ * # # : > 6 5 5 6 6 6 6 5 5 5 5 5 5 5 5 5 5 5 5 5 5 5 5 5 5 5 5 6 5 6 6 6 6 6 6 6 6 6 6 6 6 6 6 6 6 6 6 6 6 6 6 6 6 6 6 6 6 6 6 6 ",
"D.u + . @ @ . . . . @ @ @ @ . . . @ @ @ @ @ @ @ @ @ @ @ @ @ @ @ @ # @ @ # # # # # @ # # # # # # @ @ @ @ # # # # * @ @ # # # : > 9 6 6 6 6 6 6 6 6 6 6 6 6 6 6 6 5 5 5 5 6 6 6 6 6 6 6 6 6 5 > > > > > > > > > > > > > > > > > > > > > : : : > > > > > > : # # @ # # # # # # # # # @ # # # # # # @ # # @ # # # # # # # * * # # # # # # # # # # # # # # # # # # # # # # # # # # # # : : > 6 5 6 6 6 6 6 6 6 6 6 6 6 6 6 6 6 6 6 6 6 6 6 6 6 6 6 6 6 6 6 6 6 6 6 6 6 6 6 6 6 6 6 6 6 6 6 6 6 6 6 6 6 6 6 6 6 6 6 6 5 5 > : : : : : : : : : : : : : : : : : : : : : : : : : : : : : # # # # # # # # # # # # # # # # # # # # # # # # * * * # # # : : : > > > 5 > 5 5 > > > > 5 5 > > 5 5 > > > 5 5 5 > > > > > > 5 5 5 5 9 9 6 6 6 6 6 6 6 6 6 6 6 6 6 6 6 6 6 6 6 6 6 6 6 6 6 9 > : # * * @ @ # # # # @ @ @ # # # # # # # # # # # # # # # @ @ @ # # @ @ # # # @ @ @ @ @ @ @ # # # # # # @ @ # # # # @ * # # : > 6 5 5 6 6 6 6 5 5 5 5 5 5 5 5 5 5 5 5 5 5 5 5 5 5 5 6 6 6 6 6 6 6 6 6 6 6 6 6 6 6 6 6 6 6 6 6 6 6 6 6 6 6 6 6 6 6 6 6 6 ",
"Y.s + . @ @ @ . . . @ @ @ @ . . . @ @ @ @ @ @ @ @ @ @ @ @ @ @ @ @ # # # @ @ @ @ # # @ @ @ @ @ @ @ @ @ # # # # # # @ @ # * # : > 9 6 6 6 6 6 6 6 6 6 6 6 6 6 6 6 5 5 5 5 6 6 6 6 6 6 6 6 6 5 > > > > > > > > > > > > > > > > > > > > > : : : > > > > > > : : # # @ # # # @ @ @ @ # # @ @ @ @ @ @ @ @ @ $ @ @ # # # # # # * * # # # # # # # # # # # # # # # # # # # # # # # # # # # : : > 5 0 6 6 6 6 6 6 6 6 6 6 6 6 6 6 6 6 6 6 6 6 6 6 6 6 6 6 6 6 6 6 6 6 6 6 6 6 6 6 6 6 6 6 6 6 6 6 6 6 6 6 6 6 6 6 6 6 6 6 5 5 > : : : : : : : : : : : : : : : : : : : : : : : : : : : : : # # # # # # # # # # # # # # # # # # # # # # # # * * * * # # : : > > > > > > 5 5 > > > > 5 > > > 5 5 > > > > 5 5 > > > > 5 5 5 5 6 6 9 9 6 6 6 6 6 6 6 6 6 6 6 6 6 6 6 6 6 6 6 6 6 6 6 6 6 9 > : # * @ @ @ # # # # @ @ # # # @ @ # # @ @ @ # # # # # # # # # # # # # # # @ @ # # @ @ @ @ # # # # # # @ # # # # # @ # # # : > 6 5 6 6 6 6 6 5 5 5 5 5 5 5 5 5 5 5 5 5 5 5 5 5 5 5 5 6 6 6 6 6 6 6 6 6 6 6 6 6 6 6 6 6 6 6 6 6 6 6 6 6 6 6 6 6 6 6 6 6 ",
"Y.s + . @ @ @ . . . @ @ @ @ . . . @ @ @ @ @ @ @ @ @ @ @ @ @ @ @ @ # # # @ @ @ # # # # # @ @ # @ @ @ # # # # # # # @ @ # * # : > 9 6 6 6 6 6 6 6 6 6 6 6 6 6 6 6 6 6 5 5 6 6 6 6 6 6 6 6 6 5 5 > > > > > > > > > > > > > > > > > > > > > : : > > > > > > : : # # @ # # # # @ @ @ # # # # @ @ # # @ # @ @ # @ # # # # # # * * # # # # # # # # # # # # # # # # # # # # # # * # # # # : : > 5 0 6 6 6 6 6 6 6 6 6 6 6 6 6 6 6 6 6 6 6 6 6 6 6 6 6 6 6 6 6 6 6 6 6 6 6 6 6 6 6 6 6 6 6 6 6 6 6 6 6 6 6 6 6 6 6 6 6 6 5 5 > : : : : : : : : : : : : : : : : : : : : : : : : : : : : : # # # # # # # # # # # # # # # # # # # # # # # # * * * * # # : : > > > > > > 5 5 > > > > 5 > > > 5 5 > > > > 5 5 > > > > > > 5 5 6 6 9 9 6 6 6 6 6 6 6 6 6 6 6 6 6 6 6 6 6 6 6 6 5 6 6 5 6 9 > : # * @ @ @ # # # # @ @ # # # # @ * # @ @ @ # # # # # # # @ # # # # # # # @ @ # # # @ @ @ # # # # # # @ @ # # * # @ # # # : > 6 5 6 6 6 6 6 5 5 5 5 5 5 5 5 5 5 5 5 5 5 5 5 5 5 5 5 5 6 6 6 6 6 6 6 6 6 6 6 6 6 6 6 6 6 6 6 6 6 6 6 6 6 6 6 6 6 6 6 6 ",
"Y.s + . @ @ @ . . . @ @ @ @ . . . @ @ @ @ @ @ @ @ @ @ @ @ @ @ @ @ @ # # # # # # # # # # * # # @ @ @ # # # # # # # @ @ * * # : > 9 6 6 6 6 6 6 6 6 6 6 6 6 6 6 6 6 6 6 6 6 6 6 6 6 6 6 6 6 5 > > > > > > > > > > > > > > > > > > > > > : : : > > > > > > : : # @ @ @ # # # # # @ # # # # * # # # # # # # # # # # # # # # * * # # # # # # # # # # # # # # # # # # # # # # * * # # # : : > 5 0 6 6 6 6 6 6 6 6 6 6 6 6 6 6 6 6 6 6 6 6 6 6 6 6 6 6 6 6 6 6 6 6 6 6 6 6 6 6 6 6 6 6 6 6 6 6 6 6 6 6 6 6 6 6 6 6 6 6 5 5 > : : : : : : : : : : : : : : : : : : : : : : : : : : : : : # # # # # # # # # # # # # # # # # # # # # # # # # # # # # # : : > > > > > > 5 5 > > 5 > 5 5 > > 5 > > > > > 5 5 > > > > > > 5 5 5 5 9 9 6 6 6 6 6 6 6 6 6 6 6 6 6 6 6 6 6 6 6 6 6 6 6 6 6 9 > : # * @ @ @ # # # # @ # # # # @ @ # # # @ # # # # # # @ @ @ @ @ # # # # # @ @ # # # # # @ # # @ @ # @ @ @ @ # # # @ # # # : > 6 5 6 6 6 6 6 5 5 5 5 5 5 5 5 5 5 5 5 5 5 5 5 5 5 5 5 5 6 6 6 6 6 6 6 6 6 6 6 6 6 6 6 6 6 6 6 6 6 6 6 6 6 6 6 6 6 6 6 6 ",
"Y.s + . @ @ . . . . @ @ @ @ . . . @ @ @ @ @ @ @ @ @ @ @ @ @ @ @ @ @ # # # # # # # # # # # # # @ # @ # # # # # # # @ @ * * # : > 9 6 6 6 6 6 6 6 6 6 6 6 6 6 6 6 6 6 6 6 6 6 6 6 6 6 6 6 6 5 > > > > > > > > > > > > > > > > > > > > > : : : > > > > > > : : # @ @ @ # # # # # # # # # # # # # # # # # # # # # # # # # * * * # # # # # # # # # # # # # # # # # # # # # # * * # # # : : > 5 0 6 6 6 6 6 6 6 6 6 6 6 6 6 6 6 6 6 6 6 6 6 6 6 6 6 6 6 6 6 6 6 6 6 6 6 6 6 6 6 6 6 6 6 6 6 6 6 6 6 6 6 6 6 6 6 6 6 6 5 5 > : : : : : : : : : : : : : : : : : : : : : : : : : : : : : # # # # # # # # # # # # # # # # # # # # # # # # # # # # # # : : : > > > > > 5 5 > > 5 5 5 5 > > > > > > > > 5 5 > > > > > > 5 5 5 5 9 9 6 6 6 6 6 6 6 6 6 6 6 6 6 6 6 6 6 6 6 6 5 6 6 6 6 9 > : # * @ @ @ # # # # @ # # * # @ @ # # # # # # # # # # @ @ @ @ @ @ @ @ # # # @ # # # # # # # # @ @ # # @ @ @ # # # @ # # # : 9 6 5 5 6 6 6 6 5 5 5 5 5 5 5 5 5 5 5 5 5 5 5 5 5 5 5 5 6 6 6 6 6 6 6 6 6 6 6 6 6 6 6 6 6 6 6 6 6 6 6 6 6 6 6 6 6 6 6 6 6 ",
"Y.s + . @ @ . . . . @ @ @ @ . . . @ @ @ @ @ @ @ @ @ @ @ @ @ @ @ @ # # # # # # # # # # # # # # @ @ @ # # # # # # * @ @ # # # : > 9 6 6 6 6 6 6 6 6 6 6 6 6 6 6 6 5 5 5 6 6 6 6 6 6 6 6 6 6 5 5 > > > > > > > > > > > > > > > > > > > > : : : : : > > > > : : # @ @ # # # # # # # # # # # # # # @ @ @ @ # # # # # # @ # * # * # # # # # # # # # # # # # # # # # # # # # # * * # # # : : > 5 0 6 6 6 6 6 6 6 6 6 6 6 6 6 6 6 6 6 6 6 6 6 6 6 6 6 6 6 6 6 6 6 6 6 6 6 6 6 6 6 6 6 6 6 6 6 6 6 6 6 6 6 6 6 6 6 6 6 6 5 5 > : : : : : : : : : : : : : : : : : : : : : : : : : : : : : # # # # * # # # # # # # # # # # # # # # # # # # # # # # # # : : : > > > 5 > 5 5 > 5 5 5 5 > > > > > > > > > > > > > > > > > 5 5 5 5 5 5 6 6 6 6 6 6 6 6 6 6 6 6 6 6 6 6 6 6 6 6 6 6 6 6 6 9 > : # # * @ @ # # # # # # # # # # @ @ @ # # # @ @ @ # # @ @ @ @ @ @ @ @ @ @ # # # # # * # # # # @ @ @ @ @ @ @ @ @ @ @ * # # : > 6 5 6 6 6 6 6 5 5 5 5 5 5 5 5 5 5 5 5 5 5 5 5 5 5 5 6 6 6 6 6 6 6 6 6 6 6 6 6 6 6 6 6 6 6 6 6 6 6 6 6 6 6 6 6 6 6 6 6 6 ",
"Y.s + . @ @ . . . . @ @ @ @ . . . @ @ @ @ @ @ @ @ @ @ @ @ @ @ @ @ @ # # # # # # # # # # # # # @ @ @ # # # # # # * @ @ # # # : > 9 6 6 6 6 6 6 6 6 6 6 6 6 6 6 6 5 5 5 6 6 6 6 6 6 6 6 6 6 5 5 > > > > > > > > > > > > > > > > > > > > : : : > : > > > > : # # @ @ # # # # # # # # # # # # # @ @ @ @ @ # # # # # # # # * # * # # # # # # # # # # # # # # # # # # # # # # * * # # # : : > 5 0 6 6 6 6 6 6 6 6 6 6 6 6 6 6 6 6 6 6 6 6 6 6 6 6 6 6 6 6 6 6 6 6 6 6 6 6 6 6 6 6 6 6 6 6 6 6 6 6 6 6 6 6 6 6 6 6 6 6 5 5 > : : : : : : : : : : : : : : : : : : : : : : : : : : : : : # # # # * * # # # # # # # # # # # # # # # # # # # * # # # # : : : > > > 5 > 5 5 > 5 5 5 5 5 > > > > > > > > > > > > > > > > 5 5 5 5 9 9 6 6 6 6 6 6 6 6 6 6 6 6 6 6 6 6 6 6 6 6 6 6 6 6 6 9 > : # # # @ @ # # # # # # # # # # # @ @ # # @ @ @ @ # # @ @ @ @ @ # @ @ # # # @ # # # # # # # # @ @ @ @ @ # @ @ # # @ * # # : > 9 5 6 6 6 6 6 5 5 5 5 5 5 5 5 5 5 5 5 5 5 5 5 5 5 5 6 6 6 6 6 6 6 6 6 6 6 6 6 6 6 6 6 6 6 6 6 6 6 6 6 6 6 6 6 6 6 6 6 6 ",
"Y.s + . @ @ . . . . @ @ @ @ . . . @ @ @ @ @ @ @ @ @ @ @ @ @ @ @ @ # # # # # @ @ # @ # # # @ # @ @ @ @ # # # # # * @ @ # # # : > 9 6 6 6 6 6 6 6 6 6 6 6 6 6 6 6 5 5 5 5 6 6 6 6 6 6 6 6 6 5 5 > > > > > > > > > > > > > > > > > > > > > : : : : > > > > : # # @ # # # # # # @ @ @ @ # # # # @ @ @ @ @ @ # # # # @ @ # * * * * * # # # # # # # # # # # # # # # # # # # # * # # # # : : > 5 0 6 6 6 6 6 6 6 6 6 6 6 6 6 6 6 6 6 6 6 6 6 6 6 6 6 6 6 6 6 6 6 6 6 6 6 6 6 6 6 6 6 6 6 6 6 6 6 6 6 6 6 6 6 6 6 6 6 6 5 5 > : : : : : : : : : : : : : : : : : : : : : : : : : : : : : # # # # * * * * # # # # # # # # # # # # # # # # * * * * # # : : : > > > 5 > 5 5 > > 5 5 5 5 > > > > 5 5 5 5 > > > > > > > > 5 5 6 6 9 9 6 6 6 6 6 6 6 6 6 6 6 6 6 6 6 6 6 6 6 6 6 6 6 6 6 9 > : # # @ @ @ @ # # # # # # # # # # @ @ # # # # @ # # # # # @ # # # * # # # @ @ @ @ @ @ # # # # # # @ # # # # # # # @ * # # : > 9 5 6 6 6 5 6 5 5 5 5 5 5 5 5 5 5 5 5 5 5 5 5 5 5 5 6 6 5 6 6 6 6 6 6 6 6 6 6 6 6 6 6 6 6 6 6 6 6 6 6 6 6 6 6 6 6 6 6 6 ",
"Y.s + . @ @ . . . . @ @ @ @ . . . @ @ @ @ @ @ @ @ @ @ @ @ @ @ @ @ # # * @ @ @ @ @ @ # # # @ @ @ @ @ @ @ # # # # # @ @ @ # # : > 9 6 6 6 6 6 6 6 6 6 6 6 6 6 6 6 5 5 5 5 6 6 6 6 6 6 6 6 6 5 5 > > > > > > > > > > > > > > > > > > > > > > : : : > > > > : # # @ # # # * # # @ @ @ @ # # # @ @ @ @ @ @ @ @ # # # @ @ # * * * * * # # # # # # # # # # # # # # # # # # # # # # # # # : : > 5 0 6 6 6 6 6 6 6 6 6 6 6 6 6 6 6 6 6 6 6 6 6 6 6 6 6 6 6 6 6 6 6 6 6 6 6 6 6 6 6 6 6 6 6 6 6 6 6 6 6 6 6 6 6 6 6 6 6 6 5 5 > : : : : : : : : : : : : : : : : : : : : : : : : : : : : : # # # # * * * * # # # # # # # # # # # # # # # # * * * * # # : : > > > > 5 > 5 5 > > > > 5 5 5 > > > 5 5 5 5 5 > > > > > > > 5 5 6 6 6 9 6 6 6 6 6 6 6 6 6 6 6 6 6 6 6 6 6 6 6 6 6 6 6 6 6 9 > : # # * @ @ @ # # # # # # # # # # @ @ # # # # # # # # # # # # # # # # # # @ @ @ @ @ @ @ @ # # # # # # # # # # # # @ * # # : > 5 5 6 6 6 5 6 5 5 5 5 5 5 5 5 5 5 5 5 5 5 5 5 5 5 5 6 5 5 6 6 6 6 6 6 6 6 6 6 6 6 6 6 6 6 6 6 6 6 6 6 6 6 6 6 6 6 6 6 6 "
};
