/* XPM */
static char *e030b0cab735476ba8763a76a9a167cdDQe1Tf8GfukFDRWH[] = {
/* columns rows colors chars-per-pixel */
"354 550 256 2 ",
"   c #020101",
".  c #0B0103",
"X  c #010904",
"o  c #040409",
"O  c #0C0209",
"+  c #0C090B",
"@  c #040A09",
"#  c #130004",
"$  c #1B0005",
"%  c #14010A",
"&  c #1B010B",
"*  c #16090D",
"=  c #1C0311",
"-  c #190912",
";  c #120E13",
":  c #230005",
">  c #23000C",
",  c #2B000D",
"<  c #2A0106",
"1  c #33000D",
"2  c #3B000E",
"3  c #340006",
"4  c #240112",
"5  c #2C0113",
"6  c #2D0219",
"7  c #280A17",
"8  c #330014",
"9  c #3B0014",
"0  c #34021A",
"q  c #3C011B",
"w  c #330B1C",
"e  c #3B0A1C",
"r  c #29131B",
"t  c #34121D",
"y  c #3B0822",
"u  c #391624",
"i  c #2D1621",
"p  c #3A242D",
"a  c #430015",
"s  c #4B0015",
"d  c #43011C",
"f  c #4B001C",
"g  c #440A1D",
"h  c #53001C",
"j  c #5B001D",
"k  c #530015",
"l  c #46000E",
"z  c #64001D",
"x  c #75001B",
"c  c #440222",
"v  c #4C0123",
"b  c #430B23",
"n  c #4B0928",
"m  c #540123",
"M  c #5B0024",
"N  c #54022A",
"B  c #5C012B",
"V  c #540C2B",
"C  c #590B2B",
"Z  c #47152A",
"A  c #55132D",
"S  c #5B0832",
"D  c #591734",
"F  c #4B1A31",
"G  c #630024",
"H  c #6B0025",
"J  c #63012B",
"K  c #6B002C",
"L  c #650A2D",
"P  c #73002C",
"I  c #79002A",
"U  c #640232",
"Y  c #6C0233",
"T  c #640B33",
"R  c #6C0B34",
"E  c #6B083A",
"W  c #740133",
"Q  c #7B0134",
"!  c #74033A",
"~  c #7C023B",
"^  c #740B3B",
"/  c #7B0B3C",
"(  c #740B35",
")  c #671638",
"_  c #75143C",
"`  c #67112E",
"'  c #572539",
"]  c #492534",
"[  c #66243D",
"{  c #7B0A42",
"}  c #791744",
"|  c #6C1942",
" . c #6A2844",
".. c #782648",
"X. c #72334D",
"o. c #5C2F44",
"O. c #784257",
"+. c #830034",
"@. c #83023C",
"#. c #8B013C",
"$. c #87073A",
"%. c #93003D",
"&. c #98013B",
"*. c #830A36",
"=. c #A2003C",
"-. c #840442",
";. c #8C0343",
":. c #840B43",
">. c #8C0B44",
",. c #8B0B49",
"<. c #940244",
"1. c #9B0144",
"2. c #930B45",
"3. c #94044A",
"4. c #9C034A",
"5. c #940C4B",
"6. c #9C0B4C",
"7. c #9A0A46",
"8. c #831344",
"9. c #8C144B",
"0. c #881848",
"q. c #93134C",
"w. c #9B134D",
"e. c #95194B",
"r. c #9C0C52",
"t. c #980952",
"y. c #9C1453",
"u. c #981A54",
"i. c #8C1A52",
"p. c #A30045",
"a. c #A4024B",
"s. c #AB014C",
"d. c #A30B4D",
"f. c #AA0649",
"g. c #B3014D",
"h. c #B8024C",
"j. c #A3134D",
"k. c #AC0352",
"l. c #A40C53",
"z. c #AB0B54",
"x. c #A90956",
"c. c #B40253",
"v. c #BB0154",
"b. c #B30B55",
"n. c #B50459",
"m. c #BC045A",
"M. c #B40C5B",
"N. c #BC0B5C",
"B. c #BB0B55",
"V. c #A41354",
"C. c #AB1354",
"Z. c #AC145B",
"A. c #AC1B5B",
"S. c #A51958",
"D. c #B4135B",
"F. c #BB135D",
"G. c #B31B5C",
"H. c #B71658",
"J. c #B3124E",
"K. c #87254C",
"L. c #892853",
"P. c #982657",
"I. c #903357",
"U. c #A6255B",
"Y. c #B6235D",
"T. c #A52F5B",
"R. c #BB0B62",
"E. c #AC1A62",
"W. c #BC1462",
"Q. c #B41B62",
"!. c #BB1B63",
"~. c #B81765",
"^. c #B21166",
"/. c #AB2863",
"(. c #B72565",
"). c #AE3167",
"_. c #983262",
"`. c #C30155",
"'. c #C4035B",
"]. c #CB025D",
"[. c #C30B5D",
"{. c #CB0B5E",
"}. c #C80456",
"|. c #D3015D",
" X c #D7055D",
".X c #C3135D",
"XX c #C7165D",
"oX c #C70653",
"OX c #E4015E",
"+X c #CC0462",
"@X c #C40C62",
"#X c #CC0B64",
"$X c #CC0C6A",
"%X c #C50664",
"&X c #D40364",
"*X c #DB0265",
"=X c #D30B65",
"-X c #DB0B65",
";X c #D5056A",
":X c #DD036B",
">X c #D40C6B",
",X c #DC0B6C",
"<X c #C41363",
"1X c #CB1365",
"2X c #C31B64",
"3X c #CC146A",
"4X c #C41C6A",
"5X c #CB1B6B",
"6X c #C81767",
"7X c #D31265",
"8X c #D4136B",
"9X c #DB126C",
"0X c #D31A6C",
"qX c #D91768",
"wX c #DD0C72",
"eX c #D90872",
"rX c #DC1372",
"tX c #D61773",
"yX c #CB1871",
"uX c #E30265",
"iX c #EB0165",
"pX c #E4026C",
"aX c #EB016D",
"sX c #E30B6C",
"dX c #EB0A6D",
"fX c #E30A66",
"gX c #F2016D",
"hX c #FB016E",
"jX c #F2056A",
"kX c #E2126D",
"lX c #E5146C",
"zX c #E50471",
"xX c #EC0372",
"cX c #E40B72",
"vX c #EB0A73",
"bX c #ED047A",
"nX c #EA0A7A",
"mX c #F30274",
"MX c #FB0176",
"NX c #F20975",
"BX c #F50379",
"VX c #FF0078",
"CX c #FE0178",
"ZX c #FF007A",
"AX c #FE0078",
"SX c #F30A7A",
"DX c #FB0979",
"FX c #E31273",
"GX c #E81476",
"HX c #F41279",
"JX c #C52269",
"KX c #CF2470",
"LX c #D9216E",
"PX c #87425D",
"IX c #FC0481",
"UX c #F50F82",
/* pixels */
"ZXZXZXZXZXZXZXZXZXZXZXZXZXZXZXZXZXZXZXZXZXZXZXZXZXZXVXVXZXZXZXZXVXVXVXZXZXZXVXVXVXVXVXVXVXZXZXZXZXZXZXZXZXZXZXMXMXMXMXMXMXMXVXBXbXbXZXZXgXdXKXU. .e $ # %                                                                                                                                                   . .     .       . .                                                                                             .   X       . . .   o   . $ 1 h K.JX&XmXvXxXbXmXZXZXZXZXZXMXBXNXVXVXVXZXVXVXVXVXZXZXZXZXZXZXZXZXVXVXVXZXZXZXZXZXZXZXZXZXVXZXZXZXZXZXVXVXVXVXVXZXVXVXVXVXVXVXVXVXVXZXZXZXVXVXVXVXVXVXZXZXZXZXZXZXVXVXVXZXZXZXZXZXZXZXZXZXVXVXVXZXZXZXZXZXZXZXZXZXVXVXVXZXZXZXZXZXZXZXZXZXVXZXZXZXZXZXZXZXVXVXVXVXZXZXZXZX",
"ZXZXZXZXZXZXZXZXZXZXZXZXZXZXZXZXZXZXZXZXZXZXZXZXVXZXVXVXZXZXZXZXVXVXZXZXZXZXVXVXVXVXZXVXVXVXZXZXZXZXZXZXZXZXZXZXZXMXMXDXMXMXMXBXUXbXBXMXvX9XZ.( v > # . O     @                                                                                                                                                             . .                                                                                             .   X       . . .   o   . # : 2 L q.8XcXcXzXbXMXZXZXZXZXMXBXBXBXVXVXVXZXVXVXVXVXZXZXZXZXZXZXZXZXVXVXZXZXZXZXZXZXZXZXVXVXVXVXZXZXZXZXVXVXVXVXZXZXZXZXVXVXVXVXVXVXVXVXZXZXVXVXVXVXVXVXZXVXZXZXZXZXVXVXVXVXZXZXZXZXZXZXZXZXVXVXZXZXZXZXZXZXZXZXZXZXVXVXZXZXZXZXZXZXZXZXVXVXVXVXZXZXZXZXZXZXVXVXVXVXZXZXZXZX",
"ZXZXZXZXZXZXZXZXZXZXZXZXZXZXZXZXZXZXZXZXZXZXVXVXVXVXVXVXVXVXZXZXVXVXVXVXZXZXZXVXZXZXZXZXVXVXVXVXZXMXZXZXZXZXZXZXZXZXZXZXMXMXBXBXIXmXbXcX3XZ.! 9 , $ # . .                                                                                                                                                                                                                                                                             . . . .   o     . $ < 2 j y.^.3XcXmXVXVXVXMXBXBXBXBXMXVXVXZXVXVXVXZXZXZXZXVXZXVXVXVXVXVXVXVXZXZXZXZXZXVXVXVXVXVXVXVXVXZXZXVXVXZXZXZXZXZXZXZXZXVXVXVXVXVXZXZXZXZXZXZXZXVXZXVXVXVXVXZXVXVXVXZXZXZXZXVXZXVXVXVXVXVXVXVXZXZXZXVXZXVXVXVXVXVXVXVXZXZXZXZXZXVXVXVXVXVXVXVXVXZXZXZXZXZXZXVXVXVXZXVXZX",
"ZXZXZXZXZXZXZXZXZXZXZXZXZXZXZXZXVXZXZXZXVXVXVXVXVXVXVXVXVXZXZXZXVXVXVXVXZXZXZXVXZXZXZXZXVXVXVXVXMXBXMXMXZXZXZXZXZXZXZXZXMXMXBXBXMXBXFX@X3.Y d : & # # .                                                                                                                                                                                                                                                                         o   . O . . .   X       # # : < v ! l.3XdXmXMXMXNXBXmXBXMXMXZXZXZXVXVXVXZXZXZXZXVXVXVXVXVXVXVXVXVXZXZXZXZXVXVXVXVXVXVXVXVXVXZXZXVXVXZXZXZXZXZXZXZXZXZXVXVXVXVXZXZXZXZXZXZXZXZXZXVXVXVXVXZXVXVXVXZXZXZXZXVXVXVXVXVXVXVXVXVXZXZXZXVXVXVXVXVXVXVXVXVXZXZXZXZXVXVXVXVXVXVXVXVXVXZXZXZXZXZXZXVXVXZXZXVXZX",
"ZXZXZXZXZXZXZXZXZXZXZXZXZXZXZXZXVXVXZXZXZXZXVXVXVXVXZXZXVXVXVXVXZXZXZXZXVXVXVXZXZXZXVXVXVXZXVXVXMXBXMXMXMXZXZXZXZXZXZXZXZXZXMXMXMXvX1X3.B 8 & % O O .     O o                                                                                                                                                                                                                                                                       . . # . . . X         . # # % 0 Y d.=XdXNXNXNXNXBXBXMXZXZXZXZXZXZXZXZXVXVXVXVXVXVXVXVXVXVXVXVXVXZXZXZXZXVXVXVXVXVXZXVXVXVXVXZXZXZXZXVXZXZXZXZXZXVXVXVXVXZXZXZXZXZXZXZXZXZXZXZXZXVXVXVXVXVXVXVXVXZXZXZXZXVXVXVXVXZXZXVXVXVXVXVXVXVXVXVXVXVXVXVXVXZXZXZXZXVXVXVXVXVXZXVXVXVXVXVXVXVXZXZXZXZXZXVXVX",
"ZXZXZXZXZXZXZXZXZXZXZXZXZXZXZXZXVXVXZXZXZXZXVXVXVXVXVXZXVXVXVXVXZXZXZXZXVXVXVXZXZXZXVXVXZXZXZXZXMXMXMXMXMXMXMXMXZXZXZXZXZXZXZXMXNX-X4.J 0 %   o o .       o o                                                                                                                                                   . .                                                                                                                 . . . . . O X             . + % 8 J 6.1X,XsXvXNXBXMXMXZXZXZXZXZXZXZXVXVXVXVXZXZXVXVXVXVXVXVXVXVXZXZXZXZXVXVXVXVXVXZXVXVXVXVXZXZXZXZXVXZXZXZXZXZXVXVXVXVXZXZXZXZXZXZXZXZXVXVXZXZXVXVXVXVXVXVXVXVXZXVXZXZXVXVXVXVXZXZXVXVXVXVXZXZXVXVXVXVXVXVXVXVXZXZXZXZXVXVXVXVXVXZXVXVXVXVXVXVXVXVXZXZXZXVXVXVX",
"ZXZXZXZXZXZXZXZXZXZXZXZXZXZXZXZXVXVXVXVXZXZXZXVXVXVXZXZXZXZXVXVXZXZXVXVXVXVXZXZXVXVXVXVXZXZXZXZXVXVXVXVXVXMXMXMXMXMXMXZXZXZXVXmXdXB.P 1 & @     @                                                                                                                                                       . .   . # #                                                                                                             O O O . . # # %                 + . # 5 N @.b.=XvXBXMXZXZXZXZXZXZXVXZXZXZXVXVXVXZXZXZXZXVXZXVXVXVXVXVXZXZXZXVXVXVXVXZXZXZXZXVXZXVXZXVXVXVXVXZXZXZXZXVXVXVXZXZXZXZXZXVXZXVXVXVXVXZXZXZXZXVXVXVXVXVXVXVXVXZXZXZXVXVXVXZXZXZXZXVXVXZXZXZXZXVXZXVXVXVXVXVXZXZXZXVXVXVXVXZXZXZXZXVXZXVXVXVXZXZXZXVXVXVXVX",
"ZXZXZXZXZXZXZXZXZXZXZXZXZXZXZXZXVXVXVXVXZXZXVXVXVXVXZXZXZXZXZXZXZXZXZXVXVXVXZXZXVXVXVXVXZXZXZXZXVXVXVXVXVXVXVXMXMXMXMXMXMXMXMXdX1Xj.m $ O @   X       @ o     O                                                                                                                                         . # . . & $ O   .                                                                                                       + + O O # # % *                     o O & d @.W.sXmXMXVXMXZXZXZXZXVXZXZXZXVXVXVXZXZXZXZXZXZXVXVXVXVXVXVXZXZXVXVXVXVXZXZXZXZXZXZXVXVXVXVXVXVXZXZXZXZXVXVXZXZXZXZXZXZXVXVXVXVXVXVXZXZXZXZXZXVXZXZXVXVXVXVXZXZXZXVXVXVXZXZXZXZXZXVXZXZXZXZXZXZXVXVXVXVXVXVXZXZXVXVXVXVXZXZXZXZXZXZXVXVXVXZXZXZXVXVXVXVX",
"ZXZXZXZXZXZXZXZXZXZXZXZXZXZXZXZXVXVXVXVXZXZXZXZXVXVXZXZXZXVXVXVXZXZXVXVXVXVXZXZXVXVXVXVXZXZXZXZXVXZXVXVXVXMXVXVXhXMXNXmXvXvXcX8XV.J 1 & O                     .                                                                                                               X             O     o   . # & . & w w # . . #                                                                                                     + + O O # % & * .               . .       & m Q <X,XmXDXZXMXMXZXMXMXMXMXMXMXVXZXZXZXZXZXZXZXZXZXVXVXVXVXZXZXZXZXVXVXZXZXVXVXVXVXZXZXZXZXVXVXZXZXVXVXVXVXZXZXZXZXVXVXVXVXVXVXVXVXVXZXZXZXZXZXZXZXVXVXVXVXZXZXZXZXVXVXZXZXZXVXVXVXVXVXVXVXVXVXZXZXZXZXZXZXVXVXZXZXVXZXZXZXZXZXZXZXZXZXVXVXVXVXVXVXVXVX",
"ZXZXZXZXZXZXZXZXZXZXZXZXZXZXZXZXVXVXVXVXZXZXZXZXVXVXZXZXVXVXVXVXZXZXVXVXVXVXZXZXVXVXVXVXZXZXZXZXMXMXMXVXVXVXVXMXCXhXdXsXrXtX<Xl.K 9 : # .     .               .                                                                                                                       . . . O . . O   O $ , # > Z Z & # . #                                                                                                     o o   . . O # % . . .           . .       O 0 m +.c.,XdXaXBXZXmXMXMXMXMXMXMXVXZXZXZXZXZXZXZXZXZXZXVXVXVXZXZXZXZXZXVXZXZXVXVXVXVXZXZXZXZXVXVXZXVXVXVXVXVXZXZXZXVXVXVXVXVXVXVXVXVXZXZXZXZXZXZXZXZXVXVXVXVXZXZXZXZXVXVXZXZXZXVXVXVXVXVXVXVXZXVXZXZXZXZXZXVXVXVXZXZXVXVXZXZXZXZXZXZXZXZXVXVXVXVXVXVXZXVX",
"ZXZXZXZXZXZXZXZXZXZXZXZXZXZXZXZXZXZXVXVXZXZXZXZXZXZXZXZXZXVXVXVXZXZXZXZXVXVXVXZXZXVXVXVXVXZXVXVXmXNXMXVXMXMXMXhXhXNXkX0XJXS.-.B 1 $ # . . . . . .           o .                                                                                                                       O O % # . . .   # > w $ > D ' 4 % # #                                                                                                               . . . . . . . .                 . & 5 d ~ F.>XsXSXBXmXMXMXMXMXMXMXMXZXVXVXZXZXZXZXVXVXZXZXVXVXZXZXZXZXZXZXZXZXZXZXVXVXZXZXVXVXVXVXVXVXVXVXVXVXZXZXVXVXZXZXVXVXVXVXZXZXVXZXZXZXZXZXVXVXVXZXVXVXZXZXVXZXVXZXZXZXVXVXVXVXVXVXZXZXZXZXZXZXZXZXVXVXVXVXZXZXZXZXZXZXVXZXVXVXVXVXVXVXZXZXZXZXZXZX",
"ZXZXZXZXZXZXZXZXZXZXZXZXZXZXZXZXZXZXVXVXVXZXVXVXZXZXZXZXZXVXVXVXZXZXZXZXVXVXZXZXZXZXVXZXZXZXVXMXSXNXmXMXMXhXhXgXdXkX0XG.9.J d , # . O . . . . . .             o                                                                                                                   . . # % 7 # # O .   # , b & > A ' & O # #   X                                                                                                           . . . . . . . . .           . . . . O 4 f ~ F.9XsXdXNXBXMXMXMXMXMXMXZXVXVXZXZXZXZXZXVXZXZXVXVXVXVXZXVXZXZXZXZXZXVXVXVXZXZXZXVXVXVXVXVXZXVXZXZXZXZXVXVXZXVXVXVXVXVXZXZXVXZXZXZXZXVXVXVXZXZXVXVXZXZXVXVXZXZXZXZXZXVXVXVXZXZXZXZXZXZXZXZXZXZXVXVXVXVXZXZXZXZXZXZXVXVXVXVXVXVXVXVXZXZXZXZXZXZX",
"ZXZXZXZXZXZXZXZXZXZXZXZXZXZXZXZXZXZXZXZXVXVXVXVXZXZXVXVXZXZXZXZXVXVXVXZXZXZXVXVXZXZXZXZXVXVXZXVXmXmXaXaXaXdXsX9X5XD.5.Y d > & %   o . . . O .   o o o                                                                                                                             O . # - u $ # O o   # 8 Z & > g ' & . # #   X                                                                                                                 . . . . .             . # . .   % & d / D.1X,XvXNXBXMXBXMXMXMXZXVXVXZXZXZXZXVXVXZXZXZXZXVXVXVXVXZXZXVXVXZXZXZXZXVXVXVXVXZXZXVXVXZXZXZXZXVXVXVXVXZXZXVXVXVXVXZXZXVXVXZXZXZXZXVXVXZXZXZXZXVXVXVXVXZXZXVXVXZXZXZXZXZXZXZXZXZXZXZXZXZXVXVXVXVXZXZXZXVXVXZXZXZXZXVXVXVXZXVXVXVXVXZXZXZXZX",
"ZXZXZXZXZXZXZXZXZXZXZXZXZXZXZXZXZXZXZXZXVXVXVXVXZXZXVXVXZXZXZXZXVXVXVXVXZXZXZXVXZXZXZXZXVXVXZXZXmXmXmXvXGX9X3X!.6.W f 1 & # . o       . . O .                                                                                                                                     O . # 7 ] $ # .     % 8 Z > & g [ % . & .   X                                                                                                                     .                 . . . o o   O 4 d ~ D.0XsXvXBXMXBXMXMXMXVXVXVXZXZXZXZXVXVXZXZXZXZXVXVXVXVXZXZXZXVXZXZXZXZXVXVXVXVXZXVXVXVXZXZXZXZXVXVXVXVXZXZXVXVXVXVXZXZXVXVXZXZXZXZXVXVXZXZXZXZXVXVXVXVXZXVXVXVXZXZXZXZXZXVXZXZXZXZXZXZXZXVXVXVXVXVXZXZXVXVXZXVXZXZXVXVXZXZXZXZXVXVXZXZXZXZX",
"ZXZXZXZXZXZXZXZXZXZXZXZXZXZXZXZXVXVXZXVXVXVXZXZXZXZXVXVXVXVXZXZXVXVXZXZXZXZXVXVXVXVXZXZXZXVXZXZXVXVXMXvX9XW.r.{ v 8 & % * O           . . o X X       .                                                                                                                         . % . $ t o.> $ .     O 8 Z & & g  .% . & .   X                                                                 o                                                                             o X o % > f @.B.,XvXBXBXBXMXMXMXVXVXVXVXZXZXVXVXVXVXVXVXVXVXVXZXZXZXZXVXVXVXVXZXZXVXVXZXZXZXZXVXVXVXVXZXZXZXZXZXZXZXZXZXVXVXZXZXZXVXVXVXZXZXZXVXVXVXVXZXZXVXVXZXZXZXZXVXVXVXVXZXZXVXVXVXVXVXVXZXZXVXVXVXVXVXVXVXVXVXVXVXVXZXZXZXVXZXZXZXZXVXVXVXZXZXZX",
"ZXZXZXZXZXZXZXZXZXZXZXZXZXZXZXZXVXVXVXVXVXZXZXZXZXZXVXVXVXVXVXZXMXMXZXZXZXZXVXVXZXVXVXVXZXVXVXVXMXmXdX8XD.>.B 9 > # . . o     X       O .     @       .                                                                                                                     . . . O . $ b X., $ .     . 5 Z > & e o.# . % .   X                                                                 o o                                                                             @   o % , s @.W.wXvXNXmXMXMXMXVXVXVXZXZXZXVXVXVXVXVXVXVXVXVXZXZXZXZXVXVXVXVXVXVXZXZXZXZXZXZXVXVXVXVXZXZXZXZXZXZXZXZXZXVXVXVXZXZXVXVXVXVXZXZXVXVXVXVXVXVXZXZXZXZXZXZXVXVXVXVXZXZXVXVXVXVXVXVXZXZXZXVXVXVXVXVXVXVXVXVXVXVXZXZXZXVXZXZXZXZXVXVXVXVXZXZX",
"ZXZXZXZXZXZXZXZXZXZXZXZXZXZXZXZXVXVXVXVXZXZXZXZXZXZXVXVXVXVXZXMXNXNXZXZXZXZXZXZXZXZXVXMXMXVXMXgXNX9X<X6.Y a < > # . .                                                                                                             @   @ +   ; o . .   +   O     o   % % .   .   X   . > m ..n , # .     7 Z $ > 7 u i . # O                     . o                                                                                                                             o     . $ , d J !.wXzXmXMXVXVXMXMXMXVXVXVXVXBXBXVXVXZXZXZXVXVXVXVXVXVXVXVXVXZXZXZXZXVXVXVXZXZXZXZXZXZXVXVXVXZXZXZXZXVXVXVXZXZXZXVXVXVXZXZXZXVXVXVXVXVXVXVXZXZXZXZXZXVXVXVXVXVXZXZXZXZXZXVXVXZXZXZXZXZXZXZXZXZXVXZXZXZXZXVXVXVXVXVXVXVXVXZXZXZXZXVXVX",
"ZXZXZXZXZXZXZXZXZXZXZXZXZXZXZXZXVXVXZXZXVXVXZXZXZXZXVXVXVXVXZXMXNXNXZXZXZXZXZXZXxXMXZXZXVXMXgX-X0XC.#.J q > # .     . . O O @ X                                                                                                   @   @ % O o   # #   @   O   . o o % % .   .         > B K.D 5 $ #     > e > $ & r u $ # .                         o .                                                                                                                             . . . # & q 9.W.rXvXgXMXVXVXMXMXVXVXVXVXBXBXVXVXZXZXZXVXVXVXZXZXVXVXVXVXZXZXZXZXVXVXZXZXZXZXZXZXZXVXVXVXZXZXZXZXZXVXVXZXZXZXVXVXVXZXZXVXVXVXVXVXZXVXVXVXZXZXZXZXVXVXVXVXZXZXZXZXZXZXVXVXZXVXZXZXZXZXZXZXZXVXZXZXZXZXVXVXVXVXZXVXVXVXZXZXZXZXVXVX",
"ZXZXZXZXZXZXZXZXZXZXZXZXZXZXZXZXZXZXZXZXVXVXVXVXZXVXVXVXZXZXZXMXMXMXZXZXZXZXZXZXMXMXMXmXaXdX,X<Xy.! f , & O o       . . O O o @                                                                                                 . O   O 4 u O . # $ .     o . . o o % % . . .       . > N I.) 5 $ #     $ , w : % r F > #                               . . . o                                                                                                                     . . . . # , B 5.4X9XaXmXVXVXMXMXMXMXMXMXMXMXVXZXZXZXVXVXVXVXZXZXZXZXVXZXZXZXVXVXVXVXVXZXZXZXZXZXZXZXVXVXVXZXZXZXVXVXVXVXZXZXVXVXZXZXZXZXVXVXZXZXZXZXVXVXVXVXZXZXVXVXZXZXZXZXZXZXVXVXVXVXVXVXVXVXZXZXZXZXZXZXVXVXZXZXVXVXVXVXZXZXVXVXZXZXZXZXVXVX",
"ZXZXZXZXZXZXZXZXZXZXZXZXZXZXZXZXZXZXZXZXVXVXVXVXZXZXVXVXZXZXZXZXZXZXZXZXZXZXZXZXZXMXaXuX9X0XF.5.B q & # o o X X       . O O                                                                                                   . # # . & 0 ' & % # # . .   O . o   o % % .   .       . > N I...8 $ .     % > F , & 7 F 5 #                                                                                                                                                             . . . # & 8 J 5.<X,XvXMXMXMXBXBXNXNXMXVXVXZXZXZXZXZXVXVXVXZXZXZXZXVXVXZXZXVXVXVXVXVXZXZXZXZXZXZXVXVXVXVXVXZXZXVXVXVXVXZXZXVXVXZXZXZXZXVXVXZXZXZXZXVXVXVXVXZXZXVXVXZXZXZXZXZXZXZXVXVXVXVXVXVXVXVXVXZXZXZXVXVXVXZXZXZXVXZXZXZXZXVXVXVXVXZXVXVXVX",
"ZXZXZXZXZXZXZXZXZXZXZXZXZXZXZXZXZXZXVXVXZXZXVXVXZXZXZXZXZXZXZXZXZXZXZXMXMXMXZXVXMXmXvX9XJXS.~ v 6 & O o X X X @     . . . .                                                                                                   . $ $ # 4 v ..> > > $ # . . o . o     % * . . .       . $ v K...8 $ . O . & 5 D 8 & 7 Z 8 #                                                                                                                                                               . . # % & 8 B y.0XGXNXMXMXBXbXbXNXMXVXVXZXZXVXVXZXZXZXZXVXVXVXZXZXZXZXZXVXVXZXZXVXVXVXVXVXVXVXVXZXZXVXVXZXZXVXVXVXVXVXZXVXZXZXZXZXZXVXVXZXZXVXVXVXZXVXVXZXZXZXZXZXVXVXVXVXVXVXVXZXZXVXVXVXVXZXZXZXZXVXVXVXVXVXVXZXZXZXZXZXZXZXZXVXVXVXVXVXVX",
"ZXZXZXZXZXZXZXZXZXZXZXZXZXZXZXZXVXZXVXVXZXZXVXZXZXZXZXZXZXZXVXZXZXZXZXZXMXMXVXVXgXvX9XD.,.J d , & % O @ X     @     . . . . . o                                 o                                                             . $ : $ 8 R K.8 8 u > $ # * . . o     O * . . .       . $ d ) ..q > . . O % 6 A d & = n 8 #                       . . . .                                                                                                                                   . O . % # 8 E Z.tXvXBXBXBXbXbXNXMXVXVXZXVXVXVXZXZXZXZXVXVXZXZXZXZXZXZXVXVXZXZXVXVXVXVXVXVXVXVXZXZXZXVXZXZXVXVXVXVXZXZXVXVXZXZXZXZXVXVXZXZXVXVXZXZXZXZXZXZXZXZXZXVXVXVXVXVXVXVXZXVXVXVXVXVXZXZXZXZXVXVXVXVXVXVXZXZXZXZXZXZXZXZXVXVXVXVXVXVX",
"ZXZXZXZXZXZXZXZXZXZXZXZXZXZXZXZXVXVXVXVXZXZXZXZXZXZXZXZXVXVXVXZXZXZXZXZXMXMXVXNXNX9Xz.Q f 8 > & & % % O @     o . . . . . O O o     o o o o o o                                                                               . $ : & q 0.i.m n Z , $ > r # . o     O * O . .       . $ 9 C K.v > . O % . w V A & 4 A 9 #                       . . . .                                                                                                                                   . . .   . & q ! D.rXvXBXBXBXbXNXMXVXVXZXZXVXVXVXVXZXZXVXVXVXVXZXZXVXZXVXVXZXZXZXZXVXVXVXVXZXZXZXZXVXVXVXVXVXVXVXVXVXVXZXZXZXZXZXZXZXZXVXVXVXVXZXZXZXZXVXVXZXZXVXVXVXVXVXVXZXZXZXZXVXVXVXZXZXZXVXVXVXVXZXZXVXZXZXZXVXVXVXVXVXVXVXVXZXZXVXZX",
"ZXZXZXZXZXZXZXZXZXZXZXZXZXZXZXZXVXVXVXVXZXZXZXZXVXZXVXVXVXVXVXZXZXZXZXMXNXMXNXNXkXB.Q f 5 & % O % # # % - * O . O . . .   o o @                                                                                               . # $ & b P.u.Y ) n : : w ] 4 %       O * O . .   o   O & 8 m L.C > . O % . w m [ > 4 D f &   @                                                                                                                                     .                       O O .   @ % $ d ,.6XcXvXBXBXBXBXVXVXVXZXZXVXVXVXVXZXZXVXVXVXVXZXZXVXVXVXVXZXZXZXZXZXVXVXVXZXZXZXZXVXVXVXVXVXVXVXVXVXVXZXZXZXZXZXZXZXZXVXVXVXVXZXZXZXZXVXVXZXZXZXVXVXVXZXZXZXZXZXZXVXVXVXVXZXZXVXVXVXVXZXZXZXZXZXVXVXVXVXVXVXVXVXVXZXZXZXZX",
"ZXZXZXZXZXZXZXZXZXZXZXZXZXZXZXZXVXVXZXZXVXVXVXVXVXVXZXZXZXZXVXZXZXZXMXBXMXMXmXdX8X2.f > % o   . . # O . # % % . % # .                                           O                                                               . # & c /.6.! } ) 8 , , ' 0 # O o   . % - . O     o O & 5 v P.^ : $ % . % 4 f ..& 4 a v #       + O O                                                                                                             o       o o   . .                                   . > f 3.tXvXmXMXDXmXVXZXMXZXZXZXZXZXZXZXVXVXVXVXVXVXVXVXVXVXVXVXZXZXZXZXZXZXZXZXZXVXVXVXVXVXZXVXVXVXVXVXVXZXZXZXZXZXZXVXZXVXVXVXVXZXZXVXVXVXVXZXZXZXZXZXZXVXVXVXZXZXZXVXVXZXZXZXZXVXVXVXVXZXZXVXVXVXZXZXZXVXVXVXVXVXVXZXZXZXZX",
"ZXZXZXZXZXZXZXZXZXZXZXZXZXZXZXZXVXZXZXZXVXVXVXVXVXVXZXZXZXZXVXZXZXZXMXBXmXmXdX7Xa.K , # o     . . O . . O % % . % O .                                                                                                             # & v /.l.@.L.) 8 8 8 [ g $ # o o . % 7 # O   o O % & 5 v P.8.1 $ # . % 4 d  .& 4 f C >     o @ O O                                                                                                                     . . . . . .                                   # 8 W z.rXvXMXVXMXZXZXVXZXZXVXVXZXZXZXZXVXVXVXVXVXVXVXVXVXVXZXZXZXVXZXZXZXZXVXVXZXZXVXVXZXZXZXZXVXVXVXVXZXZXZXZXVXVXVXVXVXVXVXVXZXZXZXVXVXVXZXZXZXZXVXVXVXVXVXVXZXZXVXVXZXZXZXZXVXVXVXVXZXZXVXVXVXVXZXZXZXZXVXVXVXVXZXZXZXZX",
"ZXZXZXZXZXZXZXZXZXZXZXZXZXZXZXZXVXVXZXZXZXZXVXVXVXVXVXZXVXVXVXMXBXZXDXmXmXvX9XF.K a #   X X               O .   . o                                                                                                               % & m (.z.#.P.| 9 8 d ..m & O . . O * i # #   . % & % 4 m /.e.2 $ # . % 4 g  .> > f ` 4     o o O o                                                                                                                   . O O O . . . .                         . .   X o & v Q N.kXNXmXVXZXZXZXVXVXVXVXZXZXZXVXZXZXVXVXVXVXZXZXZXZXZXZXVXVXVXVXVXVXVXVXZXZXZXZXZXZXZXZXZXZXVXVXZXZXVXVXVXVXVXVXVXVXZXZXZXZXVXVXVXVXVXZXVXVXVXVXVXVXVXZXZXZXZXZXZXZXZXZXVXVXZXZXZXVXVXVXZXZXZXZXZXZXZXZXVXZXZXZXZXZX",
"ZXZXZXZXZXZXZXZXZXZXZXZXZXZXZXZXVXVXZXZXZXZXVXVXVXVXVXZXVXVXVXMXmXMXMXmXNXlX.X5.s , . X X         X     X X                                                         . . O O                                                       % > J !.c.&./.} a 8 g K.L > O . . # - ] & # . O % 6 & 4 v (.V.a : & % % > e  .> > v D > .   o O O                                                                                                                 . . O % # . O O . .                       . # .   o   O , h 2.1XkXaXMXZXZXZXZXVXVXVXZXZXZXVXZXZXVXVXZXZXZXZXZXZXZXZXVXVXVXVXVXVXVXVXZXZXZXZXZXZXZXZXZXZXZXVXZXVXVXVXVXVXVXVXVXVXZXZXZXZXVXVXVXVXZXZXVXVXVXVXVXVXVXZXZXZXZXZXVXVXZXVXVXVXZXZXZXVXVXVXZXZXZXZXZXZXZXZXVXVXZXZXZXZX",
"ZXZXZXZXZXZXZXZXZXZXZXZXZXZXZXZXVXVXVXVXZXZXZXVXVXVXZXZXVXZXVXMXMXMXMXgXGX8X6.J 1 & .           X X                                                                   . . .                                                       % 1 Q W.v.s.(.0.d 8 d P.( , O . . % 7 ] > % . # & u & 5 v (.C.h , = - % & 0 D > , v D : # O                     . . . .                                                                                         . O # % & # # # O O . .               . . O # # . . O o   # 1 G j.7XsXNXZXMXZXZXVXZXZXZXZXVXVXZXZXVXVXVXVXZXZXZXZXVXZXZXZXVXVXVXVXZXZXVXVXZXZXZXZXZXZXZXZXZXZXVXVXVXVXVXVXVXVXVXZXZXZXVXVXVXVXVXVXVXVXVXZXZXZXZXZXZXZXVXVXZXZXVXVXVXVXZXZXZXZXVXZXZXZXVXVXVXVXVXVXVXZXZXZXZXZXZXZX",
"ZXZXZXZXZXZXZXZXZXZXZXZXZXZXZXZXVXVXZXZXZXZXZXZXZXVXVXZXVXVXVXMXZXMXmXvX9XF.Q 9 > O         .           o   o o                                                     . O O O o                                                     & f 5.1X=X}.5Xq.f 1 d U.*.5 . . . % > o.> & # & 7 ] 5 6 m !.D.H 1 - - & & 5 Z 5 5 v ) , & #                                                                                                                     . # # & & & & # # # . .               . O O % = % . .     . $ 2 Q H.9XSXMXZXIXZXVXZXZXZXZXVXVXZXZXVXVXVXVXZXZXVXVXVXVXZXZXVXVXZXVXZXZXVXVXZXVXZXZXZXVXZXZXZXZXVXVXVXVXZXVXVXVXZXZXZXZXZXZXVXVXVXVXVXVXVXVXZXZXZXZXZXZXVXVXZXZXVXVXVXVXZXZXZXZXVXZXZXZXVXVXVXVXVXVXZXZXZXZXZXZXVXVX",
"ZXZXZXZXZXZXZXZXZXZXZXZXZXZXZXZXZXZXZXZXZXZXZXVXVXVXZXZXZXZXVXVXZXMXgXdX1X7.M > # .     . . . . . . . % % # O . O o                                             . . O + * * @ o                                                   > G G.#XsX-X0Xy.f 8 f T.$.8 . O . % > o., $ # & w o.6 6 v !.F./ 8 & - & & 4 w u 5 V ..y > #                                                                                                                     . . # & 4 7 7 % % # O .               . . O % i = % O .     . : f 2.1XvXBXIXIXZXZXZXZXZXVXVXVXZXZXZXVXVXZXZXZXVXVXVXVXZXZXZXZXZXZXZXZXVXVXVXVXZXZXVXVXVXVXVXVXZXZXZXZXZXZXVXVXVXZXZXZXZXZXZXZXVXZXVXVXZXZXZXZXZXZXVXVXVXVXZXZXZXZXVXVXVXZXVXVXVXVXZXZXZXZXVXVXVXVXVXVXZXZXVXZXVXVX",
"ZXZXZXZXZXZXZXZXZXZXZXZXZXZXZXZXZXZXZXZXZXZXZXVXVXVXZXZXZXZXMXVXZXMXaX9XD.~ q # O     . . # .   . . # & & # . O O o                                                 O + + + O                                                   O , P JX=XdXdX=Xy.f 8 v ).9.8   . . & 4 X.5 & % & w X.8 5 d Q.F.0.a & & & > & 4 F 8 V I.D , # .         . .     . O # O .                                                                                       . . . . $ 7 t t & % # O O .               . . # p w & % .     . # : K Z.>XvXDXMXZXZXZXZXVXVXVXVXZXZXVXVXVXZXZXZXVXVXVXVXZXZXZXZXZXZXZXZXVXVXVXVXZXZXVXVXVXVXVXVXZXZXZXZXZXZXVXVXVXZXZXZXZXZXZXZXZXZXVXVXZXZXZXZXZXVXVXVXVXVXZXZXZXZXZXVXVXVXVXVXVXVXZXZXZXVXVXVXVXVXVXVXZXZXVXVXVXVX",
"ZXZXZXZXZXZXZXZXZXZXZXZXZXZXZXZXZXZXZXZXZXZXVXVXVXVXVXMXMXBXmXMXVXgXGX5X:.d & .         . . . .                                                                                                                               . # 8 K JX,XdXmXsXy.f 8 f ).9.5   X o $ q X.9 > & & , ..h > n 6.Q.P.d 0 & u > & 5 ' d C L.) 1 #           . # . O . % > w %   .   .   % O X o   @ X           . .                                                   . . # # $ w ] 1 5 #   . # .           . . . % > F & . * . . . O & 0 Y Q.rXdXMXBXMXZXZXVXMXBXBXMXZXZXZXZXZXMXBXZXVXVXVXZXZXZXZXVXVXZXZXVXVXVXVXZXZXVXZXZXZXZXZXZXZXVXVXVXVXZXZXZXZXZXZXVXVXVXVXVXVXZXZXZXZXVXVXVXVXVXVXVXZXVXVXVXVXVXVXVXVXVXZXZXZXVXVXVXVXVXVXZXZXZXZXZXZXVXVXZXZX",
"ZXZXZXZXZXZXZXZXZXZXZXZXZXZXZXZXZXZXZXZXZXZXVXZXVXVXVXMXMXBXBXMXMXmXrXZ.U 5 O           . . .                                                                                                                                 . # 8 Y JX9XaXMXsXy.v 9 m (.>.5   X X > d ..a , 5 > 8 K.M > c 5.!.y.m 8 > Z > & w [ v B ..^ 9 #           # $ + + . & , w *   O   . . % % o o o o X           . .                                                     . . # # 7 ] ' 1 $ - # . +         . . . . % , e u * % . # . . O & d >.6XkXgXmXMXZXZXMXMXNXNXMXZXZXZXZXZXBXBXMXVXVXVXZXZXZXZXVXZXZXZXVXVXVXVXVXVXVXVXZXZXZXZXZXZXVXVXVXVXZXZXZXZXVXVXZXZXVXVXVXVXZXZXZXZXVXVXVXVXVXVXZXZXZXZXVXVXVXVXVXVXVXVXZXZXVXVXVXVXVXVXZXVXZXZXZXZXVXVXZXZX",
"ZXZXZXZXZXZXZXZXZXZXZXZXZXZXZXZXVXVXVXVXZXZXZXZXVXVXVXZXZXMXMXmXgXvX<X;.v > o                                                                                                                                                 O # 8 Y (.8XdXNX,Xy.m 9 m (.2.8 o   o > f K.m q u , 9 K.L , q @.(.S.! d 8 D < > w ..T m _ } f $         . # & + + . $ , e 7 . O . . # & = O O % O               .                                                       . # # & u  .g 5 > # . o         . . . o O > > ] u . % O . . % & 5 G V.9XdXBXMXZXZXZXMXBXBXMXZXZXZXZXZXBXBXZXZXVXVXZXVXZXZXVXVXZXZXZXZXVXVXVXVXVXVXVXVXZXZXZXZXZXZXVXVXVXZXVXVXVXVXZXZXZXZXVXZXZXZXVXVXVXVXVXVXZXZXZXZXZXZXZXZXVXVXVXVXVXZXZXZXZXZXZXZXVXZXVXVXVXVXZXVXVXVXZXVX",
"ZXZXZXZXZXZXZXZXZXZXZXZXZXZXZXZXVXVXVXVXZXZXZXZXVXVXZXZXZXMXMXmXsX9Xz.H 9 & o X                                                                                                                                             . O # 5 J (.5XsXNX9X5.f 9 j (.2.9 .   . > f L.R v F < a L.` , 8 Q (.(.u.f a _ a 5 q L.} M ^ P.B $         . # # .   . $ 1 n t % # . # # 4 r = = 6 & .     .     o o                                                         O # # 7 Z  .V < & %             . .   o # # t ] & - O O . O = 4 a @.XX-XNXMXZXZXZXMXBXBXMXZXZXZXZXZXMXNXZXZXVXVXVXVXZXZXVXVXZXZXZXZXVXVXVXVXVXVXVXVXZXZXZXZXZXZXVXVXZXZXVXVXVXVXZXZXZXZXVXVXZXZXVXVXVXVXVXVXZXZXZXZXZXZXZXZXZXVXVXVXVXZXZXZXZXZXZXZXZXZXVXVXVXVXZXVXVXVXVXVX",
"ZXZXZXZXZXZXZXZXZXZXZXZXZXZXZXZXVXVXVXVXVXVXZXZXVXVXZXZXZXZXMXvX9X!.@.s , &                                                                                                                                                 O # # , B U.W.=XsX0X,.f 9 j (.e.q #   . , m P.} v b < a I.` 8 8 I (.(.y.s h K.J 9 q K.i.M ( U.R >           # #     . $ 9 A Z > % . # $ 5 y 6 6 b 5 % . . .     o o     .                                                   . . . & 4  .} a 4 *   @   .     . .   X . % > F ] 4 # # . O O & > j d.{.vXBXZXZXZXZXBXBXBXMXZXZXVXVXMXNXZXZXZXZXVXVXVXVXVXVXVXVXZXZXZXVXVXVXVXZXVXVXVXVXVXVXVXZXZXZXZXZXVXVXZXZXVXVXZXZXVXVXVXVXVXZXZXZXZXZXZXZXVXZXZXZXZXZXVXVXVXVXZXZXZXZXZXZXZXZXZXZXZXZXVXVXVXVXVXVXVXVX",
"ZXZXZXZXZXZXZXZXZXZXZXZXZXZXZXZXVXVXVXVXVXVXMXMXVXVXVXZXZXVXBXcX4Xw.J 2 > %                                                                                                                                                 O # # > v P.l.c.=X6X:.a 2 j ).e.d # . . : m P.0.d 8 , f I.L 8 8 P (.Y.w.h j P./ 9 9 / q.j ( /.( 5           # # . . . $ d ) D , & . # $ 5 b q q D q & . . .         . . . . .                                               . . . # > b } _ 8 # o   . .     . .     o O & 0 o.> > . # .   O # 1 Q F.,XmXMXZXZXZXMXMXBXMXZXVXVXVXMXMXZXZXZXZXVXVXVXVXVXVXZXZXZXZXZXZXVXVXVXZXVXVXVXVXVXVXVXVXZXZXZXVXZXVXZXZXVXVXZXVXZXVXVXVXZXZXZXZXZXZXZXZXVXZXZXZXZXZXVXVXVXVXZXZXZXZXZXZXZXZXVXVXZXZXVXVXVXVXVXVXVXVX",
"ZXZXZXZXZXZXZXZXZXZXZXZXZXZXZXZXVXMXVXVXVXMXMXMXVXVXVXVXVXMXxX>XS.Y a , & .             o o                                                                                                                               . O % # > d 0.@.1.b.G.^ 9 8 f T.*.9 % . . : v P.i.a , , n L.M < 1 K /.S.$.h M e.8.9 1 W q.G / Y.Q 8 .       . . # O O O & v ..) 8 & O . # , n c c | V > # . .         . O . . .                                         X           O & , R K.V , % . .       . .     @ . & > F w 7 $ & O     O > M w.3XzXmXMXVXVXMXMXBXMXVXVXVXVXMXMXVXVXZXZXVXVXZXZXZXZXZXZXZXZXZXVXVXVXZXZXZXZXVXZXVXVXVXZXZXZXVXVXZXZXZXZXVXVXVXVXZXZXVXVXVXZXZXZXVXZXVXVXVXVXZXZXZXZXVXVXVXZXZXZXZXZXVXZXVXVXVXVXZXZXZXZXVXVXVXVXVXVX",
"ZXZXZXZXZXZXZXZXZXZXZXZXZXZXZXZXVXMXVXVXVXMXMXMXMXVXVXVXVXmXsX6X0.a : > #     @         o o                                                                                                                               . # & # > q _ P Q 4.S.T 8 , 9 K.R 5 % . . > v L.i.a , 1 b ..a : , B P./ G a h 9.0.8 8 W w.K :.G.Q q O .       . . O O O > V K._ a > # O % 5 V v N L.) > # . .         O O O . .                                         X           O O 5 C } ..N , & .         .       o # > $ ' 0 , # O     o # 3 K W.,XxXmXMXVXZXMXBXMXZXVXVXVXMXMXVXVXZXZXVXVXVXZXZXZXZXZXZXZXZXVXVXVXZXZXZXZXZXZXVXVXVXZXZXZXVXVXZXZXZXZXVXVXVXVXZXZXVXVXVXZXZXZXVXVXVXVXVXVXZXZXZXZXVXVXZXZXZXZXZXZXVXVXVXVXVXVXZXZXZXZXZXVXZXZXVXVX",
"ZXZXZXZXZXZXZXZXZXZXZXZXZXZXZXZXVXVXVXVXVXVXBXBXmXMXVXVXMXuXGXZ.f , & # .                                   . . . . . o o           o o                                                                         o o       . # 7 & $ , V Y K ~ P.A 5 > 0 ) v > .   % > d P.e.d 8 5 D a 1 $ 5 v L.m 9 d a $.K.1 8 K y.~ Q !.6.9 & .       . # ; r % & m K.8.M > O . = 8 D S N 0.T 5 # # .     O . # & 7 # . .   O                                           o   . O 4 8 T P.{ a 5 * X o @     . .   o   # > e X.1 > .       & $ f <.3XFXxXMXZXVXZXMXMXZXVXVXVXMXVXVXVXVXVXVXZXZXZXZXZXZXZXZXZXVXVXVXZXZXZXZXZXZXZXZXZXVXVXVXVXVXVXZXZXZXZXVXVXVXZXZXZXVXVXVXVXVXZXZXZXZXZXVXVXZXZXVXVXVXVXZXZXZXZXVXVXVXVXVXVXVXVXVXZXZXZXZXZXZXZXVXVX",
"ZXZXZXZXZXZXZXZXZXZXZXZXZXZXZXZXMXVXVXVXZXVXBXBXBXMXVXVXmX,X6X>.9 & # .                                   . . . % .   O +     o                                                                                         . . % r 4 $ 5 n C M R L.b > $ 5 A 0 % O   % & d e.i.c 5 w ' g < $ 4 c ..d 8 q 9 / K.8 8 K S.@.#.6XC.v & .       . O * - O & C K.e.K 5 O . 4 q | E J i.^ 8 # # .     O . # # 7 % . .                                             o o O . . & > v e.u.J 9 %   o @     # # . o   . # 8 [ b 5 . @     # . 8 Y z.9XcXmXVXZXDXMXMXZXZXVXVXVXVXVXVXVXVXZXZXZXZXZXZXZXZXZXZXVXVXVXVXZXZXZXZXZXZXZXZXVXVXVXVXVXVXZXZXZXZXVXVXVXZXZXZXVXVXVXVXZXZXZXZXZXZXVXVXZXVXVXVXVXVXZXZXZXVXVXVXVXVXVXVXVXVXZXZXZXZXZXZXZXZXZXZX",
"ZXZXZXZXZXZXZXZXZXZXZXZXZXZXZXZXMXMXVXZXZXZXMXBXBXMXVXMXuX8X6.J , # .                                   . . O O . . # * O     o             . . .                                                                       . . & r 7 $ > y b d C X.w # # & u 4 % O . O & d i.P.V 6 w Z 0 : # & 0  .5 4 w 9 R K.b q W U.3.<.0X!.B 4 #   .       o + O & C P.U.Q 6 % # 5 v } { W u.0.9 & # .     # # # # 7 - . . .                                           o O o O . % % 8 / U.9.m 4 O o @     . . . . X o # , A [ w $ % O . .   & d @.<XFXgXMXDXZXMXMXZXZXVXVXVXVXVXVXVXVXVXZXZXZXVXVXVXVXZXVXVXVXZXZXZXZXVXZXVXVXVXVXVXVXZXZXZXZXZXZXVXZXVXVXZXZXZXZXVXVXZXZXZXZXZXZXVXVXVXVXVXVXVXVXVXVXZXZXVXVXZXZXVXVXVXVXZXZXVXZXZXZXZXZXVXVXZXZX",
"ZXZXZXZXZXZXZXZXZXZXZXZXZXZXZXZXBXMXZXZXZXZXMXBXMXmXMXNX-XJXW a $ .                                   . . # # # . - i - . . .   o         . . . . . . .                                                           X     . . & r > $ & 7 8 8 n  .4 . # & u & % % O . & c e./.) 0 > 6 , $ # % > F 4 4 w q H L.A d W /.l.p.8X2XE 5 # . . .     o . . & N P.Y.*.6 % 4 q J u.y.+.l.u.v > # # O O & > $ # i r . . .         o o                                 o O O . O O > M e.P.^ q & O +     . . # . X @ . 5 d ..F 5 # # . . O % , J Z.tXdXhXZXVXZXMXZXZXZXVXVXVXVXVXVXVXVXZXZXZXVXVXVXVXVXVXVXVXZXZXZXZXVXVXVXVXVXVXVXVXZXZXZXZXZXZXVXVXVXVXZXZXZXZXVXVXZXZXZXZXZXZXZXVXVXVXVXVXZXVXZXZXZXZXVXVXZXVXVXVXVXVXZXZXVXZXZXZXZXVXVXVXZXZX",
"ZXZXZXZXZXZXZXZXZXZXZXZXZXZXZXMXBXBXZXZXZXZXZXBXMXmXMXNX=XQ.M , # .                             . . . . . . # # * r r * . . O           . . . . . . . .                                                           X o   . . & r & % # * > > 0 F & . # & u 4 = = # . & c u./.) 0 > 5 w $ # # & y = 4 w f H T.) f W (.z.s.9X5X/ 8 # . . .     o o o & v 9.G.@.6 % q B ~ G.D.1.z.S.N 5 # O o O 7 7 $ $ u u # .           o o                                   . . O   O & 9 ( P.P.B 8 % O o o # # .   X + . 4 1 ) ..n > # # O @ . & d 9.5XdXgXVXVXZXZXZXZXZXZXZXZXVXVXZXZXVXVXVXVXZXVXVXVXVXVXVXVXVXVXZXZXZXZXVXVXVXZXVXVXVXVXZXZXVXVXVXVXZXZXZXZXZXZXZXZXZXVXVXVXVXVXVXVXZXZXVXVXZXZXZXZXVXVXVXVXZXZXVXVXVXVXZXZXVXVXZXZXZXZXVXVXZXZX",
"ZXZXZXZXZXZXZXZXZXZXZXZXZXZXZXMXBXBXZXZXZXZXZXBXBXMXhXdX1X5.d & .   .                           . O O . . . # # p r % # O . . .         . . O # # # O .                                                                 . . & r & % O O % $ 4 w % . # & t 4 6 r % # & b u.U.B 8 5 0 Z > # # # 4 = > 8 C P T...h W (.n.h.sX7X-.9 # . . .     o   o & d $.G.#.6 = V ! 7.2X6Xg.m.(.T 5 # .   O 4 7 $ & u i & .                                                         . % : v i./.:.m > % @ X O # . . o o O & : v K.| 9 $ % O o   O 5 E D.kXhXVXZXZXZXZXZXZXZXZXVXVXVXZXZXVXVXVXVXZXZXVXVXVXVXVXVXVXVXZXVXZXZXVXVXZXZXZXZXVXVXZXZXVXVXVXVXZXVXZXZXZXZXZXZXZXVXVXVXVXVXVXVXZXVXVXVXZXZXZXZXVXVXVXVXZXZXVXVXVXVXZXZXVXVXZXZXZXZXVXVXZXZX",
"ZXZXZXZXZXZXZXZXZXZXZXZXZXZXZXMXBXBXZXZXZXZXZXBXBXMXgXdX6XW 8 % .   .                           . O % . . . & r u > . # # . . O         . O * 7 - - % O .                                                               . . # 7 $ .     O % & & # # $ $ 7 > 0 Z $ $ & v U.S.f 5 8 u ' 4 # # # & & > q ` I T.K.j W Q.[.}.sX8X>.d # . . .   o o   o % a $.G.2.6 = T #.s.1X8X`.'.(.T 8 # .   o & 4 > & r 7 & . . .                                     .               O % # 8 ^ U.Y.~ q = o X o O # . %   o O > 9 } L.m , & o     @ & h 7.9XNXMXZXZXZXZXZXZXZXZXZXVXVXZXZXZXZXVXVXZXZXZXZXVXVXVXVXVXVXVXVXZXZXZXVXZXZXZXZXVXVXVXZXZXZXVXVXVXVXVXVXVXVXZXZXVXVXVXVXVXVXZXZXZXZXVXVXVXVXZXZXZXZXZXZXZXZXZXVXVXZXZXZXVXVXVXZXZXZXVXVXZXZX",
"ZXZXZXZXZXZXZXZXZXZXZXZXZXZXZXZXBXMXZXZXZXZXMXBXBXMXgX9X(.h > %                                 . O O . # & r p & & & # . . .     . . . # & 7 u r r - * . . . . .                                                 o     . . . & .       O % % # . # $ # > $ 0 F $ $ > N (.S.d 8 5 y o.4 . O # & & : a _ H U.0.G W G.{.|.dX9X5.N & . . . .       . & a $.2X7.8 4 ^ 7.v.-XsX|.].4X( q $ O   . & > , > & # # O   O                                   . .       . .     O % % 4 S q.JX2.d = o o + * > $ & . o o 4 , L I.T 8 4 . o + @ # 1 W XXdXgXVXZXZXZXZXZXZXVXVXVXVXZXZXZXZXZXVXZXZXZXZXZXZXVXZXVXVXVXVXZXZXZXVXZXZXZXZXVXVXVXVXZXVXVXVXVXVXVXVXVXVXZXZXZXVXVXVXZXZXZXZXZXZXVXVXVXVXZXZXZXZXZXZXZXZXZXVXVXVXZXZXVXVXVXVXZXZXVXVXVXZX",
"ZXZXZXZXZXZXZXZXZXZXZXZXZXZXZXZXVXVXVXZXZXZXBXBXDXMXNX#X:.q # .                             . o .     * $ 5 r 7 > $ # %           . % > , 9 V  .6 % + o ; * $ 5 $ #     X X . # .                                                       . . . . . . # # # $ u ' $ > 0 N (.y.9 , < Z  .7 O O . # . $ d C J P.0.G K G.-XiXdX,X^.Y &   . . . .   . # > d { JXd.f q { x.|.OXsX,XcXyX,.N > . . # > b n 8 $ %       o               o   o . .         . . . O +   . O   + . . = > 9 _ G.G.J 6 O + # e D 1 , & O o % & 9 D PXd , $ O . X   $ 9 j.0XNXhXVXMXBXBXZXZXVXVXZXZXZXZXZXZXVXVXZXZXZXZXZXZXZXZXVXZXZXZXVXVXVXVXZXZXVXVXZXZXZXZXZXZXZXZXZXZXZXVXVXVXZXZXZXZXZXZXVXVXVXZXZXZXVXVXVXVXVXVXVXZXZXZXZXZXZXZXVXVXVXVXVXVXVXVXZXZXZXZXVXVX",
"ZXZXZXZXZXZXZXZXZXZXZXZXZXZXZXZXVXMXMXZXZXZXBXBXMXmXdX<XT 5 .                             o . . o o o O e , r * $ $ & # . O @     # $ : f ) ) V 4 = O O - = > > $ #   X @   . # .                                                                   . O # $ e ' $ > q E (.y.9 : < g  .6 O     . . $ 9 m C L.i.K K V.-XiXNXsX3X{ 4   . . . .   . > 8 c 8.JXd.j f { R. XiXsX:XzX>Xr.B , . . # > A V 8 $ O                 X     o o o O .       X   O O   o o . O     . # & $ , M C.G.0.q 7 . & 8 ) D 8 > . O . & > q ..A , $ % o   o . 5 / XXdXMXVXMXBXBXZXZXVXVXVXZXZXZXVXVXVXVXZXZXZXZXZXZXZXZXVXZXZXZXVXVXVXVXZXVXVXVXZXZXZXZXZXZXZXZXZXZXZXVXVXVXZXZXZXZXZXZXVXVXZXZXZXZXVXVXVXVXZXVXVXVXZXZXZXZXZXZXVXVXVXZXVXVXVXVXZXZXZXZXVXVX",
"ZXZXZXZXZXZXZXZXZXZXZXZXZXZXZXZXVXMXMXZXZXZXBXBXMXmXdX2Xm > .                           o o . .   * % > 9 ' # % . % O . # & O   O # $ 8 ( P.) 8 & = & y i & 7 . # .     X   . # .                                                                     . # $ 7 u $ > v i.(.y.2 : < e  .5 % o . . . # , v T { u.Q K 2.7XiXNXcXtX{ 5   . .   .   . 6 d N 0.JXl.G M 3.<XuXjXvXsXbXwX^.Y 5 .   . 5 D D 9 $ O o X X           X     o . o o   o o o o   + O   . O O . .   . * 4 > > 9 #.Y.U.J q & & > Z  .y & O - . % $ , D  .q > & .   o   5 h C.-XmXMXMXBXBXMXZXVXVXVXZXVXVXVXVXVXVXVXVXZXZXZXZXVXVXVXVXZXZXVXZXVXVXZXZXVXVXVXVXZXZXVXVXZXZXZXZXZXZXVXVXVXZXVXVXVXVXVXVXVXVXZXZXZXVXZXZXZXZXVXVXVXVXZXZXZXZXVXVXZXZXVXVXVXVXZXZXVXVXVXVX",
"ZXZXZXZXZXZXZXZXZXZXZXZXZXZXZXZXVXVXMXVXZXZXMXBXVXmXsX2Xa & O                             o . . O . , q ' F =   O - O # 5 5 % O % # , ` P.e.m > & = q D y # O   . .     O O . . .                                                       .       o     . . # & > $ : N /.!.V.1 $ : 8  .8 % o O     # : d E ~ S.+.M I 7XfXNXpXtX;.q . . .   .   O 0 v B 9.JXz.K K x.>XdXhXNXvXBXvX6X~ 8 . . # 6 D  .d $ O   X o                 o . .     o . O O   O O . # % . . . . . 4 u e , 1 G U.Y.w.m 0 % = 6 F F & & O O . 4 > d  .D w & O     . > 2 #.1XvXmXMXMXMXMXZXVXVXVXVXVXVXVXVXVXVXVXZXZXZXZXZXVXVXVXVXZXZXZXZXVXVXZXZXVXVXVXVXZXZXVXVXVXVXZXZXZXVXVXVXVXVXVXVXVXVXVXVXVXVXZXZXZXVXZXZXZXZXVXVXVXVXVXZXVXVXVXVXZXZXZXZXVXZXZXZXVXVXVXVX",
"ZXZXZXZXZXZXZXZXZXZXZXZXZXZXZXZXVXMXMXVXZXZXZXMXVXmX,XQ.9 & O                             . . O % $ 3 ..o.# 7 . * % & 0 V d & % # > C P.U.Q a , > 0 [ ) 8 #   X o % # # - r * .         . . . .                                                 o       . # # # # : N ).4XV.1 $ $ 1  .q = . O     # $ d } >.Q.<.h J 2X9XNXpXrX4.v # .     .   # y V B 9.JXb.I W n.wXdXdXgXmXMXbXrX;.8 . . & 0 D X.n > #     o   o o             O .     o O % % . . O & 4 & . . . * . & ' D 5 8 d 8.G.2X+.f % % & 7 F w 4 O - . 7 4 , A X.Z > O o   % $ 3 G G.rXvXMXZXZXMXMXVXVXVXVXVXVXZXZXVXVXVXVXZXZXZXZXVXVXVXVXVXVXZXZXZXZXZXZXZXZXVXVXVXZXVXVXZXZXZXZXVXVXVXVXVXVXVXVXVXZXZXZXZXZXVXVXVXZXZXZXVXVXVXZXVXVXVXVXVXVXZXZXZXZXZXZXZXZXVXVXVXVXVXVX",
"ZXZXZXZXZXZXZXZXZXZXZXZXZXZXZXZXMXMXVXZXZXZXZXVXVXgX=Xl.1 % .                             . . # $ 1 ` X.4 = O & % 4 d ) _ m 4 = > V e.U.q.H 9 5 8 A X.V : &   X   % & > w r *             . . .                                                         . . # # # > N ).6XC.1 # $ : D n 4 % .     # & c 8.V.<Xa.h B G.7XvXaXcX^.B : .         % b N B ,.JXD.+.+.%XcXsXfXaXmXZXBXvX1.9 . . & 0 D L.V > #       o . o           o O       o # & & % # # > w 5 # O O - $ > D ) c 8 q T F.6XD.G 4 O % & w F > & % * * 4 > 1  .D 5 % O   % # < a q.5XcXMXZXZXMXMXVXVXVXVXVXVXZXZXVXVXVXVXZXZXZXZXVXVXVXVXZXVXZXZXZXZXZXZXVXVXVXVXVXVXVXVXZXZXZXZXVXVXVXVXVXVXVXVXZXZXZXZXZXZXVXVXVXZXZXZXVXVXZXZXZXZXVXVXVXVXZXZXZXZXZXZXZXZXVXVXVXVXVXVX",
"ZXZXZXZXZXZXZXZXZXZXZXZXZXZXZXZXMXMXZXZXZXZXVXVXVXvX@X@.8 # .                           . O O $ < a I.2 # - % 5 0 v / q.$.M 0 6 N 9.(.H./ m d a T ) D 8 : & O o o % 8 v Z w .               . .                                                           . . . . > N S.3XZ.8 . # $ A A 4 =     . % % q 8.(.1Xz.f m q.b.-XaXsX5XR , .       . & v B J ;.JXF.#.#.+XcX=X=XdXmXZXMXNXa.d # # > c | ..v > #     o o . o           o .       . % & 4 4 > > 5 y e 4 % % 4 5 8 b ) _ v q N C.0X6X+.y O % % 5 Z 0 5 # % % 7 8 1 n  .e 4 % o . # $ < T Q.9XmXZXZXMXMXVXVXVXVXZXZXZXZXVXVXVXVXVXZXZXVXVXVXZXZXZXZXZXZXVXVXVXVXVXVXVXVXVXZXVXZXZXZXVXVXVXVXVXVXVXVXZXZXZXZXZXZXVXVXVXVXZXZXVXVXVXVXZXZXZXZXZXZXVXVXVXVXVXVXVXVXZXZXZXVXZXZXZXZX",
"ZXZXZXZXZXZXZXZXZXZXZXZXZXZXZXZXMXMXZXZXZXZXVXVXVXvXN.W 8 O o                   o   o . O # # $ 9 [ a e = # 0 f R :.G.D.@.J N v i.G.7XB.~ v f m L...5 & 5 # O O % > f ) [ w . o             . .                                                             . . . > m y.3XD.8 . # # b D 4 -       O # 0 { KX{.z.s d ! 1.].vX:XtXQ 1 O     o . & N B J ;.5X<X%.#.+X,X[.[.-XaXZXMXDXg.m $ # , N L.| f > % .   o . .               .       . % > 5 8 q 1 1 c Z w & 7 & e d 9 | P.J 0 N 2.KX1Xl.m & % % 6 q D 8 $ % - i Z q 2 X.A w % O . & # > d P.8XvXVXZXMXMXVXVXVXZXZXZXZXZXVXVXVXVXVXZXZXZXVXVXZXZXZXZXZXZXZXVXVXVXVXVXVXVXVXZXVXVXZXZXVXVXVXVXZXVXZXZXZXZXZXZXZXZXZXVXVXVXZXZXVXVXVXVXZXZXZXZXZXZXVXVXVXVXVXVXVXVXVXZXZXZXZXZXZXZX",
"ZXZXZXZXZXZXZXZXZXZXZXZXZXZXZXZXMXMXVXVXVXVXVXMXMX-X(.B > O .                 o   O O O % . 7 : D ) g $ & 5 M q.<.!.1X=.;./ M :.W.0X=Xs.W v B _ } d 4 & $ : # & 4 v 0.K.m : O o                                                                             . .   & v 3.0Xz., O . $ e D 4 % O     O . 5 K JX7Xb.f 5 v W c.sXsXtX~ 8 #         & N ! ;.l.4XM.+.%.9X>X1.%.[.vXBXmXiX1XM $ $ , E _._ a > # o o   . .           o o     . . - % 6 F v T m m 1 A b , & 5 [ C 1 B U.,.c d W G.qXF.Y 8 & 4 F q b b 6 # % & ] 8 a f PXd 4 . . # % & 8 ^ W.uXMXMXmXMXDXMXVXVXVXZXZXZXVXVXZXZXZXZXVXVXVXVXZXZXVXVXVXZXZXZXVXVXVXVXVXVXZXZXZXZXVXVXVXZXZXZXZXZXVXVXVXVXVXVXZXZXVXVXVXVXZXZXZXZXZXZXVXVXZXZXZXZXVXVXVXVXVXVXZXZXZXVXVXVXZXZXZXZX",
"ZXZXZXZXZXZXZXZXZXZXZXZXZXZXZXZXMXMXVXVXMXMXMXMXgX9XS.m & .                   o O   . # # 4 $ F X.A 8 > 8 f +.F.N.1X=X[.<.W -.!.9XfX=Xa.G j } I.N q > & e b > > c } P.0.f < #                                                                               .     & v -.5Xz., . . # 0 Z = O O     o o 4 U (.0Xz.d 4 c Y 1.7XcX0X@.9 #         & N { V.F.5Xb.Q #.tX6X@.P s.>XvXxXpX1XJ : : , E _._ 9 > #   o   o .           o       O % 7 = 6 D } ! 0.B d v  .e > 5 ) T a B A.C.E v J y.JXXX;.m : 6 D d q n : > & 4 6 b 1 f ` v 4 % % #   . $ v Q.,XmXVXVXVXMXMXVXVXVXZXZXZXVXVXZXZXZXZXVXVXVXVXZXZXVXVXZXZXZXZXVXVXVXVXVXVXZXZXZXZXZXVXVXZXZXZXZXZXVXVXVXVXVXVXZXZXVXVXVXVXZXZXZXZXZXZXVXVXVXZXZXZXVXVXVXVXZXZXZXZXVXVXVXVXZXZXZXZX",
"ZXZXZXZXZXZXZXZXZXZXZXZXZXZXZXZXMXZXZXZXBXBXVXMXiX0X:.d % o                     O . . # $ 5 , o.' 0 & 1 h #..X9X9X=X#X5X3.Q W.9XdXfX@X4.I Q L.L.0 5 > 8 ) D > 0 E T.).( a , #                                                                                     # d ! 5XV.8 . . . > w O O .     . o 4 B /.6Xz.9 & y N Q M.rX0XQ 9 #     .   & N ,.~.4X5Xa.P @.5XF.K M #.<XGXsX,XJXL < : , R L.) 9 > O   X   o .           o o o   % & = w 6 D 0.+.u.K s 2 [ V 8 1 ) _ B H z.2XS.Y m { !.JXC.Q a d n X.9 q ' > > 4 > ' n d a D > & & .   . # 9 u.3XdXMXZXZXmXZXVXVXVXVXZXZXZXVXVXVXZXZXVXVXVXVXVXVXVXVXVXZXZXZXZXZXZXZXVXZXZXZXZXZXVXVXVXVXZXZXZXZXZXZXZXZXVXZXZXZXZXZXVXVXVXZXZXZXVXVXVXVXZXZXZXZXZXVXZXZXZXZXZXZXZXZXVXVXVXZXZXZX",
"ZXZXZXZXZXZXZXZXZXZXZXZXZXZXZXZXMXZXZXZXBXNXVXMXdX0XJ 6 %                     . . % % $ > : ' ' 5 > $ 2 Q <XGXdXsX9X<XM.3.l.tX-XdX9Xb.#.1.A.i.B 0 > 1 C } C , n i.).P.M 1 > #   .                                                                                 # q Y JXV.8 . . . & & o   .     . o & v e.JXV.9 & 6 q M 7.8X<XQ 8 #   . .   & v >.!.0X3X1.G W G.C.B f ~ D.tX+X1X(.` < $ , N K.) 8 $ .   X   o             . .     # & 4 F y B u.C.G.V.G m ) ..d 3 C } 0.W p.<X(.;.M J 5.JX2X7.k 9 8 X.q :  .8 > > 5 F X.d a ) y & # .   . # , ( W.sXiXZXZXmXDXVXVXVXZXZXZXZXZXVXVXZXZXZXVXZXZXVXVXVXVXVXZXZXZXZXZXZXZXZXZXZXZXZXZXVXVXVXVXZXZXZXZXZXZXZXZXZXZXZXZXZXZXVXVXZXZXZXZXVXVXVXVXZXZXZXZXVXVXZXZXZXZXZXZXZXZXVXVXVXZXZXZX",
"ZXZXZXZXZXZXZXZXZXZXZXZXZXZXZXZXZXZXZXZXBXNXMXmXdX2Xf & .     .               . O # & > , e  .e # 4 , h z.lXdXiXsXrX~.#.<.4X9X,X9X6X#.Q H.(./ v 0 5 T 0.^ f 9 B /.(./ a , & # . . . .       X                                           . .                       . 0 U JXy.8 . .   # . o   . .   . o & 9 ( (.u.d # % 4 9 ~ 5X2XQ 1 .   . .   & d -.6X0X8X1.j K C.V.m a J y.0Xv.d.u.` < $ > v } D 1 $ .   X   o   o         . .   . . # 4 o.S B #.H.H.!.+.z h L.T s h _ P.+.&.F.5Xz.Q B ! U.KXH.H 2 q q F e 8 ' 8 > > 7 o.Z q n  .6 $ # .   . > m S.rXiXMXZXMXMXZXZXZXZXVXVXVXZXVXVXVXVXZXZXZXZXVXVXZXZXVXVXVXVXVXZXZXZXZXZXZXZXZXZXVXVXVXVXVXZXZXZXZXZXZXZXZXZXVXVXVXZXZXZXZXZXZXVXVXVXZXZXZXZXZXZXZXZXZXVXVXVXVXVXVXVXZXZXZXVXZXVX",
"ZXZXZXZXZXZXZXZXZXZXZXZXZXZXZXZXZXZXZXZXBXvXNXNXkXz.d O o     .               . % # $ 5 8 X.D , & 4 8 P 6XdXuXSXsX8Xl.P <.2X{.LXD.3.+.<.JXV.J N 9 N L.i.J f m J (.V.U 8 & # # # # . . . .     X                                           . .                     . 0 B (.5.8 . .   O   @ X O .     . % , M U.e.q % . % , Y !.JX( 1 .   . #   % 9 @.<X9X0X1.j J S.S.f 1 f @.4Xa.Q } ` 1 # & q | D , # .   X     o .         . .   O . # 6  ...K #.W.5XJX(.Q j K.K.T f J P.>.#.b.0X1X6.J N 9.JX6X2.h 9 5 ] u 8 ' D e # % p ' q 9 X.0 $ % . . . > 9 u.0XaXMXZXMXBXZXZXZXZXVXVXVXZXVXVXVXVXZXZXZXZXVXVXZXZXVXVXVXVXVXVXZXZXZXZXZXZXZXZXVXVXVXVXZXZXZXZXZXZXZXZXVXVXVXVXVXVXZXZXZXZXVXVXVXVXZXVXZXZXZXZXZXZXZXZXVXVXVXVXVXVXZXZXZXVXVXVX",
"ZXZXZXZXZXZXZXZXZXZXZXZXZXZXZXZXZXZXZXZXSXvXNXNX-X#.q . o X   .               . # # > y D X.a < > 4 m 2.8XsXdXHXcX$X;.K p.1X#X<XW U ;.!.!.2.J M M 8.P./ m m J @.2X4.U 0 % O & r # # # # # .   X                                           .                       . 0 S (.,.8 .     O   @ X . .       % > f U.0.9 %   O > m C.JX( 1 .   # #   % 9 @.1X9X7X<.h B y.u.f < 9 W (.4.B ) ) 1 # % 6 | D , # o   X                 . O . #   O 5 V P.@.Q k.6X.X2X#.G K L._ f h y.<.+.z.,X9XW.! v U M.1XS.H < 5 7 & e 8  .b # * - p 5 8 X.5 $ # . . # > 8 { 6XvXVXZXZXBXZXZXVXVXVXVXZXZXZXZXVXZXZXZXVXVXVXVXZXZXZXZXVXVXVXVXVXVXZXZXZXZXVXVXVXVXVXVXVXVXZXZXVXZXVXVXVXVXVXVXVXZXZXZXZXZXZXVXVXVXVXVXVXVXZXVXZXZXVXVXVXVXVXVXZXZXZXZXVXVXVXVX",
"ZXZXZXZXZXZXZXZXZXZXZXZXZXZXZXZXZXZXZXZXBXvXNXvX[.H 0 . @ o   .             . . . 5 8 A X.g 1 , > 8 Y l.{.dXHXsXrX<X! K p.2XJX+.m m 6.4Xf.#.R f ( P.e.J m B P S.D.<.T b & # r p # # # # # .                                                                       . 6 N ).>.8 .     @   @ X O . .     % > a P._ 9 >   O & 9 2.Y.` , # . # #   % 9 $.6XqX1X%.f N q.e.d , 9 R (.<.h ) [ 9 $ # > F F , # .   X                 . . . %   . 4 9 P.7.%.n.0X9X7XB.+.G >./ f a q.#.Q V.7XkX6X;.f h 1.2XY.*.9 $ % r $ 8 F , % *   * $ 5 ' > # O   . # # , B z.FXCXVXZXBXZXZXZXVXVXVXZXZXZXZXZXZXZXVXVXVXVXVXZXZXZXZXZXVXVXVXVXVXVXVXZXVXVXVXVXVXVXVXVXVXZXZXVXVXVXVXVXVXVXVXVXZXZXZXMXMXZXVXZXVXZXMXMXMXVXVXZXZXVXVXVXVXVXVXVXZXZXZXVXVXVXVX",
"ZXZXZXZXZXZXZXZXZXZXZXZXZXZXZXZXZXVXVXZXZXBXgX9X5.v & O O   . .     X     . O # & : ` I.) 1 > > 8 | } <.GXiXiXkX5XS.J j /.).^ f d { F.qXXX2.v 8 } _ R B v U +.!.U.K.s 9 8 8 ' 6 & % O     o o       O # .     X * %   * # .   X                                   O > v T.8.8 O       X           . o O > 9 L K.f > * * # 9 Q T.D , # # # .   # 8 _ G.0X6X%.f a $.0.8 & , T ).Q h b ' u $ $ & F u > # .     o o                 . . O   # q 8.!.g.}.:XcXvX=X4.K K ( v q _ P.K @.[.{.0X~.K j z e.U.P.a 5 % % = & 4 u % O   . # # % % O   @   # # # q V.qXNXmXIXZXZXZXZXZXZXZXZXVXVXVXZXZXZXZXZXZXZXZXVXVXVXVXZXZXZXZXZXZXVXVXVXVXVXVXZXZXZXZXVXVXZXZXZXVXVXVXZXZXMXZXVXVXZXBXvXvXBXBXMXVXZXBXbXbXBXMXMXMXMXZXZXZXZXZXVXVXVXVXVXVXZXZX",
"ZXZXZXZXZXZXZXZXZXZXZXZXZXZXZXZXVXVXVXZXZXMXgX9X^ 0 # .     o             . # & 5 g ) I.9 8 $ $ V C Y D.|.iXdX1XS.W f B L._ d q v >.2X7XJ.I 9 8 ) T j _ N m z.!.P.C s a m ) n 8 & % % O o o         . # O o   o # 7 . # # #   X                                   . & d P._ , .                 o o o . $ 8 C L.V , % . # 8 R I.D , $ # O O   % > V 2.H.F.#.a 9 ( _ 5 % 5 A I.( a 8 Z w : > $ u u & # .     o X                 . .   . . 8 $.!.'.*XzXvXmXvX<X5.5.8.A d J 8.W H z.1X3XW.2.j s R P.U.f 5 % % = % * r r O . . . . . . o o @ o # # . 5 >.1XdXmXIXZXZXZXZXZXZXZXZXZXVXVXZXZXZXZXZXZXZXZXVXVXVXVXZXZXZXZXVXVXZXZXVXVXVXVXZXZXZXZXVXVXZXZXZXZXVXVXZXZXmXMXVXVXZXBXvXvXBXVXVXVXBXxXxXBXBXMXBXMXMXMXZXZXZXZXVXVXVXVXZXZXZXZX",
"ZXZXZXZXZXZXZXZXZXZXZXZXZXZXZXZXVXMXVXVXZXBXgX0XB > # .                   . % > e V I.C 8 8 > y ' m Q KX]. X0X!.~ f f | | v 1 9 U y.JXXX#.h 9 b Z 9 T ^ M W Q.(.} a 9 f  .X.d 5 4 4 * O . o     o   . . . o O & q F 7 O . %                                       . > d e.*., .         .             o # > C I.D 5 % o O > N ..A > $ # . .   O # 9 I j.A.Q 8 8 R ) 4 % 4 b K.J 9 > 7 * $ & # r r & . .                         . .     . , W G.%X&XsXxXaXsX+Xs.#.P B f h } U.Q <.!.6X2X(.j 2 a 0.P.v > % % % % % % p % . . . . .   o o o . O . . > P F.sXNXMXZXZXZXZXZXZXZXZXVXVXVXVXVXVXVXZXVXZXZXZXZXVXVXVXZXVXVXVXVXZXZXZXZXVXZXZXZXVXVXVXVXZXZXZXVXVXVXVXVXBXVXVXVXVXVXBXBXVXVXZXZXVXMXVXZXMXMXBXMXMXMXMXMXZXZXZXVXZXZXZXZXZXZX",
"ZXZXZXZXZXZXZXZXZXZXZXZXZXZXZXZXVXMXVXVXMXNXvX2Xm > # O               .     # > 9 X.' q > 8 8  .y d 2.F.XXp.C.u.f q N  .b 8 1 9 / A.JXj.J 9 8 Z 4 5 ..J H u.(.S.m 9 9 C ..) 9 , w 7 * .     o             O & 8 ) ..r . O %                                       . > a 0.0., .                 o     o % $ b X.) 5 % . . $ 9 C A , $ # .     . % , j >.P.L , , ` ` & O % 6 T m 5 $ * O # & # - 7 # . .                       . .       . : J S.3X,XcXvXvXvX:Xv.&.#.^ m d J U.+.I r.W.4X(.K 9 , C } v : % O O O # # r - # . .   O     % . O O . . > j V.=XNXBXZXZXZXZXZXZXZXZXVXVXVXVXVXVXVXVXVXZXZXZXZXVXVXZXZXVXVXVXVXZXZXZXZXVXVXZXZXVXVXVXVXZXZXZXVXVXVXVXMXMXMXZXVXVXMXBXMXMXMXMXMXmXmXMXMXMXBXBXMXMXMXMXMXZXZXZXVXZXZXZXZXZXZX",
"ZXZXZXZXZXZXZXZXZXZXZXZXZXZXZXZXVXMXVXVXmXvXcXD.d & # O             . .     $ 1 v PX> 7 > : D D , d w.F.Z.#./ T , 5 b D > > 1 s w.(.U.! 9 > 4 7 & Z n h >.S.).Y a d n A D a 1 e w 4 % .                 o # q B u.K.4 o O O . #                                 @ o & 9 _ 0., O o               @     o O # q [ [ 8 % O . # 5 Z F , $ # . o     % > s _ K.C & = ) D & o O & b g > O O   . O . * * . . .                       . .     . . : B y.0X>X*X:XsXvXSXsX].2Xu.J d f q.;.K ~ ~.JX7./ q > 9 A b > & # . o . % & 7 # . +   O   . - 7 & O   . $ 9 >.{.SXBXZXZXZXZXZXZXZXVXVXVXVXVXVXVXVXVXVXVXVXVXZXZXZXZXZXVXVXZXZXVXVXZXZXVXVXVXVXVXZXZXZXVXVXVXVXZXZXZXMXNXNXMXMXmXmXvXvXHXvXsX>X>X,XdXmXmXBXMXMXMXMXMXMXZXZXZXZXZXVXVXVXVXVX",
"ZXZXZXZXZXZXZXZXZXZXZXZXZXZXZXZXCXhXVXZXmXvX9X6.9 $ . O             . O     > e [ e & & 6 b [ q 5 d w.Y.Q } D 8 4 = 0 y % # 1 J /.(.0.v > % % % 7 e 1 j A.(./ f 8 8 D d 1 9 9 [ 5 > # O . o             . , B >.(.u.5 O * % . #                                 o o & 8 L ..> . o           . . o       @ # , V  .8 # O . O 7 Z Z > $ . . O     . & 9 T ..n % & D A & o O & w 0 # o           O O .   .     o               . . .     . # , M ,.6X&X:X:X>XcXmXgX*X0XG.W d d 9./.! K l.!.#.( 6 % 5 b b 5 & # O   . * # 7 # . @       * 7 ] 7 O   . # , K N.GXMXZXVXVXZXZXZXZXVXVXVXVXVXVXVXVXZXZXVXVXVXVXZXZXZXVXZXVXZXZXVXVXZXVXZXVXVXVXZXZXZXZXVXVXVXVXZXZXZXMXNXvXmXmXvXvXsX,X+X[.k.1.<.k.#XvXNXBXMXMXMXMXMXMXZXZXZXZXZXZXVXVXVXVX",
"ZXZXZXZXZXZXZXZXZXZXZXZXZXZXZXZXDXgXVXZXmXGX6X@.9 # .                 o   . 0 Z Z : & w , X.8 8 5 V 8.$.s v 5 # = = 4 & - # d 0.(.S.S 5 % O o O w , d R Y.A.a 8 6 8 y 8 < d A [ 8 > # # O .           o & d @.C.JXy.0 = & % # .                                 @ o % , M ..> . o o         . .           . > e  .8 $ # . . - p u & # .   O       # 8 C ) b % % D A =   O % > 4 .               .           o               . .     o . $ 1 M @.1X,XGXGXtX>XdXiXNX,X6X5.d d Y u.i.W #.Z.6.K 5 O & 4 u 5 & O +   o % # > & #   X     * * o.6 .   . # > f z.kXNXVXVXZXZXZXVXVXVXVXVXVXZXVXZXZXZXZXVXVXVXZXZXZXVXVXZXZXZXZXVXVXVXVXZXZXVXVXVXZXZXZXVXVXZXZXZXZXVXMXNXNXNXNXGX9X[.c.+.@.! B h K p.=XvXMXMXMXMXMXMXMXZXVXZXZXVXVXVXVXVXVX",
"ZXZXZXZXZXZXZXZXZXZXZXZXZXZXZXZXDXgXVXCXmXGX!.Y 8 #         @ o O .       O t ' $ w > , D F > & 5  .K.s q > O - . - * O - , B T.U./ 8 % O o o % $ 9 f I.T.! 9 4 w u > 5 , 9 [ e Z w & # .       O     O 8 J p.1X[.<.9 4 & > # .                                 @ o % , m ..> O             . O o @ X     . > e  .8 > & .   . r r # .     o     o * 8 A ) e # % A A = o o O # . o X   X o   o         o   o o   o           . .   o o . : 9 G +.@X-XzX;Xc.c.&XNXSX&X9XQ.m d N } _.~ I V.(.G , % % O r 4 $ . ;   o . 7 # 7 %   @     O . o.6 . o   # % 8 w.8XNXMXVXVXZXZXVXVXVXVXVXVXZXZXZXZXZXZXVXVXVXZXZXZXVXVXZXZXZXZXVXVXVXVXZXZXVXVXVXZXZXZXVXZXZXZXZXZXVXVXMXmXmXNXsX[.a.#.Q :...) v B 4.9XvXMXMXMXMXMXMXMXVXVXZXZXVXVXVXVXVXVX",
"ZXZXZXZXZXZXZXZXZXZXZXZXZXZXZXZXmXDXVXDXNXrX(.f , # .           % O       % 7 u $ > 9 ) A , = # 8 X.n < > # * . O *   % 4 1 8.T.0.m & . o   O & > 1 8.P.R d $ = 7 i > > F F e b Z w & # . .         O & h 7.{.9X8X3.c 5 q Z O o                                   o O 4 f ..> # .       o O O . O     X o . & 8 [ e $ # % o o + % # .             . 6 D D e # % b e & o     . .                                             . . o o   # Z s j <.v.&XHX;XM.<.v.9X*XHX&XKXW d q | ).@.Q Q /.K 8 % . O 4 r 4 .   @   . # & & * o       . % 5 4 O X O . O 5 K 2X,XNXBXMXVXVXMXMXZXZXZXZXVXVXVXVXVXVXVXZXZXZXZXZXVXVXVXZXZXZXVXVXVXVXZXZXZXZXZXZXZXVXVXVXVXVXZXVXVXVXVXMXhXgX*Xv.a.4.S.T.L.S M @.[.dXmXBXBXMXMXMXMXZXVXVXZXZXZXZXZXZXVXVX",
"ZXZXZXZXZXZXZXZXZXZXZXZXZXZXZXZXmXDXVXVXvX0Xu.q > #             . #     # * - 7 > : C ..n & O % e ' 4 # & O o   O O o % 5 m P.e.h 8 % o o   # > 8 V 0.8.n > % % O % 7 w 0 , e F 5 & # . . .   . % . # 8 ~ W.,XsX8Xl.N q v D %                                   o o O > d X.> # . .   o o O O . O       o . & 5 ' e > # #     o # O             . . > Z n 8 $ & e w & o       o                                               . o o . & ' h j #.`.&XvXwXW.#.1.<X=X,X|..XP.v 0 b P.V.I Q >.0.q & . . * r 7 O   o   . # # & % o       . # > & O   .   o & m V.8XdXBXMXVXVXMXMXZXZXZXZXVXZXVXVXVXVXVXVXZXZXZXZXVXVXVXZXZXZXVXVXVXVXZXZXZXZXVXVXZXVXVXVXZXZXZXVXVXVXVXZXIXCX|.g.s.G.(.u.Y J @.D.sXdXmXBXBXMXMXMXMXZXVXVXZXZXZXZXVXZXVXVX",
"ZXZXZXZXZXZXZXZXZXZXZXZXZXZXZXZXBXMXVXMXvX5X! 8 $ .             . . O # & - ; * , 2 .._ 5 % o * w 6 O   % O     . . * & 8 } P.( 2 > O     O > 5 q _ 8.J , O O . O # r t > w F u $ # . . . . . O * # 5 B l.rXdXpX$XZ.B c m  .*                                   o   o & d  .> # # O   o o O O . O       . . # > Z w > # . .   o O .         . . O . $ w g , $ & 6 5 # . o                                                       X o . > ' C j +.v.|.sXFX4X+.P 3.6X#X`.g./.C 6 > / ).-.P K I.n 4 O   # 7 7 %     o   . . O O o       . # & % O       o % a ~ 6XsXmXBXMXMXMXMXZXZXZXZXZXZXZXZXVXVXVXVXVXVXZXZXVXVXVXVXZXZXVXZXVXVXVXVXVXVXZXVXZXZXZXZXZXVXZXVXVXVXhXhXhXMXsX$X<X(.l.#.Q <.F.9XhXhXMXBXBXBXMXMXMXZXVXVXVXZXVXVXVXVXZXVX",
"ZXZXZXZXZXZXZXZXZXZXZXZXZXZXZXZXMXMXZXMXvX5Xm 4 # .             . . . . & - ; * , ` K.m $ * o . 7 # O o . .   @ . # O 5 d I.0.m 8 &     O & 4 8 V ..L 9 # o o o - * r 7 & u ] & $ # . O O . . # # , N :.[.sXaXvX>X~.U N m D &                                   o     % e [ 4 # # O   o o o O . .     . . . # & w 7 & # . . o . . .       . . .     & t e , $ $ > & # . o               .                                       o O . $ u g h I c.&X*X,X5X#.h K Z.5Xv.=.>.D 7 & B P.U.K J .. .w #   . * - %             . .           . O O .         O , M !.9XvXBXMXMXMXMXZXZXZXZXZXZXZXZXZXZXVXVXVXVXZXZXVXVXVXVXZXZXZXZXVXVXVXVXVXVXZXZXZXZXZXZXVXVXZXVXVXVXIXZXhXmXGX8Xc.p.&.&.s.1XrXsXhXVXMXBXBXBXMXMXMXZXVXVXVXZXVXVXVXVXZXZX",
"ZXZXZXZXZXZXZXZXZXZXZXZXZXZXZXVXBXMXVXMXvXJXd 4 # .             o . . # # & * & b L.) 1 & O @   % O - . . O   @ o O # , ) L.T 9 > .   @ = & > 8 ) [ 8 $ # . o   O % * & & $ $ & # . . .       # $ d 8.Z.=XsXiXNXcX<XU V c Z # O . .                             o     % e D 4 # # #     o o . .       . . . . # - - % . . . . . O .     o . # .     % 7 r > # # # % O   .           . .                                         o o . # > 8 a K x.8XsXsXtXz.M f :.(.G.#.H f & = 9 R )./ M C ..e $ . . O O O . .             .       . . o o . .   . . . > 9 V.6XvXBXMXMXMXMXZXZXZXZXZXZXZXZXZXZXZXZXZXVXVXVXVXVXVXVXVXVXZXZXZXZXVXVXZXZXZXZXVXVXZXZXVXVXVXVXVXMXmXmXmXaX|.g.&.&.[.].;XsXvXmXMXVXMXBXBXMXMXMXVXZXVXVXVXVXVXVXZXZXZXZX",
"ZXZXZXZXZXZXZXZXZXZXZXZXZXZXZXZXBXMXVXVXvXJXq & # .       . o   o   . # # # > 8  .X.q : 7 .   @ + o % O . *     @   > 9 I._ v 0 & . X + % $ 8 A  .A & O % O . o . - % . # # . % O .         . # 5 B y.1X,XaXpXvXvX@XY c q 5 # # . .                             o o   O w Z > # # #         . .       . . . . O * + O         . % O X   o O # .       % & # . . . O .   o           . .                                           O . % & 7 9 M 6.5XsXdXkX<XJ 9 B 9.).Q j 3 & % > v L.i.m f D d > # .       . O       X     . .     . .     . . . O . . % 1 $.<XcXBXMXMXMXMXZXZXZXZXZXVXZXZXVXZXZXZXZXVXVXVXVXVXVXVXZXVXZXZXZXZXVXVXZXZXZXZXVXVXZXZXVXVXZXVXVXMXbXSXIXDXsX=X8XtX9XvXNXaXaXmXMXMXMXBXBXMXMXMXMXVXVXVXVXVXVXVXZXZXZXZX",
"ZXZXZXZXZXZXZXZXZXZXZXZXZXZXZXZXBXDXMXDXxX4Xq % # .         o   o     O # $ 9 C ..A > # = O   o @   # $ & *     X o 8 T I.m 0 6 % O . o . > C ..D 5 % . # # . O O - % . # - % . O       . . . & q E D.=XuXvXaXvXaX#XY 0 6 & : # . .                             o o X . 6 e & # # #     X   . .       . . . .   @ X           . % O       . # . o       . . .     o o   o           . .                                           % . % O r 0 v ~ W.,XNXdX1XE q d J P.*.h 3 $ # # 6 R u.T f d V , $ .       . .       X     . .     . . X   . O . . . . O 5 H F.cXBXBXBXMXMXMXVXZXZXVXVXVXVXVXVXZXZXZXZXVXVXZXZXZXZXZXZXZXZXZXZXVXZXZXZXZXZXZXVXVXVXVXVXZXVXVXMXBXmXMXhXaXpX-X,XuXgXMXVXmXbXbXBXBXBXBXMXMXMXVXZXVXVXVXVXZXZXZXZXZXZX",
"ZXZXZXZXZXZXZXZXZXZXZXZXZXZXZXZXBXZXMXDX,X(.y . . .             @     O # : m K. .8 & . O - O   X o % & & .   @ X - 1 I.) q 4 = O . . . % w ) ..e # o o   O . % - . . O . . . % O       O . . $ d / 2X=X&XpXpXvXaX>X! 6 r = 7 # O .                               o o   4 6 & # # O   o o O . .       . . .     @       o   . O % O       . . . X       .         @ o   o     X                                                 . O   . O r q v J r.=XHXiX=X/ c 9 f } I.k a $ % o & m } ..b 8 F 5 $ . . @ @ .   .           . O     . o     o .   O . . O 6 a S.9XvXNXMXVXVXVXVXMXVXVXVXVXVXZXZXZXZXZXVXVXVXZXZXZXZXZXZXZXZXZXZXMXMXMXMXMXMXZXVXVXVXZXVXZXVXVXMXBXMXZXVXVXmXvXdXNXhXhXMXZXDXBXBXBXMXMXMXVXVXVXZXZXZXVXZXZXZXZXZXZXZX",
"ZXZXZXZXZXZXZXZXZXZXZXZXZXZXZXZXZXIXaXGX.X>.0     . # .         @   O & , a C I.q 5 % . . o o         . . . O # # > A X.8 > & O     * & > b X.d $ .   X       . . .         . . . .       O % , T q.!.@X'.;XcXvXvX'.,.d 4 & w # O                               .     . % 7 r % % O       . O O .   .                                                                                                                                 o # : D d f P.KX XNX{.(.m 5 9 L P.( h : .   - > e [ Z & 7 * % .   o o O O . O o o                               . # $ 9 R 4X,XNXDXVXZXZXMXMXMXMXVXVXZXZXZXZXZXZXZXZXZXVXVXZXZXZXZXZXVXMXMXmXbXvXvXmXmXVXVXVXVXZXZXZXMXBXBXMXVXVXZXVXVXMXMXVXVXVXZXZXZXMXMXVXVXVXVXVXVXVXVXVXVXZXZXVXVXVXVXZXZX",
"ZXZXZXZXZXZXZXZXZXZXZXZXZXZXZXZXZXMXxX9XJXK 5     . # .         X X O > 9 a X.[ 8 & O           o       o   . $ > , ' 0 > & . *   @ O > e  .A 8 $ .   X       . O O           . # # O o O O & 1 J #.S.JX0XrXcXcXcX%Xt.N 6 & 6 & O                                   . . # - r % .         . O O O . . o                                                                                                                               o & , D v 8 ^ G.{.lX`./.B , 5 m K.K.m 5 % o + O > u w O - % O       o O . . . . .                               . # # , m Q.9XxXMXZXZXVXVXNXmXNXVXVXZXZXZXZXZXZXZXVXVXVXVXZXZXZXZXZXVXMXMXMXBXMXBXNXMXVXVXVXVXVXMXmXBXMXZXVXVXVXZXZXZXZXZXVXVXVXZXZXZXZXZXVXVXVXVXVXVXVXVXZXVXZXZXVXVXVXVXVXVX",
"ZXZXZXZXZXZXZXZXZXZXZXZXZXZXZXZXIXgXSX9X(.h >       # .         X + O > 9 C I.g > $ .                   o   . $ , F ' > 6 > . * . O # > D X.8 > # .           . O .           . . .     . % 6 v K H P #.c.#XsXsXcX1Xr.B c 6 5 > .                                   . . . * * O           . O # O . . O o                                                               .                                                             . & > F b , m w.XX7Xs.i.N 4 > 9 R I.S 8 % . . O # > & . O O .       o     O . .                                 . # # : f V.8XsXmXZXZXMXDXMXmXMXVXVXZXZXZXZXZXVXVXVXVXVXVXVXVXZXZXZXVXMXVXMXMXVXVXMXMXMXVXZXZXVXMXBXBXZXZXZXZXVXVXZXZXZXZXZXVXZXZXVXVXZXZXVXVXVXVXVXVXZXZXZXZXZXZXZXZXVXVXVXVX",
"ZXZXZXZXZXZXZXZXZXZXZXZXZXZXZXZXIXmXSX8XS.l &       . .         X   % , 1 PXD 8 : # .     o o .       o o . # & 6 o.5 5 > $ & # = $ > 6 o.F > $ # .             . .           . .     O % 4 Z | i.$.P I %.v.*XvXrX5Xy.J N n 6 > .                                   . . . # % . .       . . # % . . . . o                                                                                                                             . . $ y q 5 9 { (.6X&.E q > & < d L. .5 $ O . % % # % # . .           o . O O . . .                             . # # > v #.$XcXmXZXZXMXDXMXmXMXVXVXZXZXZXZXZXZXVXZXVXZXVXVXZXZXZXZXMXMXVXVXVXZXVXVXMXVXMXMXVXMXSXBXBXZXZXZXZXVXVXVXVXZXZXVXVXZXZXZXVXZXZXVXVXVXVXZXZXZXZXZXZXZXZXZXVXVXVXVXVX",
"ZXZXZXZXZXZXZXZXZXZXZXZXZXZXZXZXZXBXNX8X$.1 #                       & > g PX1 , $ # . o o o . .     o o . . # & o.o.5 w 4 7 p u 5 , 8 F ' 4 & # O O             o o             O   o . % , v R 0.P.P.,.&.s.}.|.'.4XE.~ R ) 8 & O .                                   . . . O . .       . . * 7 . . .                                                           + O O                                                                 . . . 7 w 4 , C P.G.+.m > & $ > < D X.8 > # O % % O % % .             O O O . # O .                             . # # > v P <XGXaXVXZXVXDXMXNXMXVXVXZXZXZXZXZXVXVXVXVXVXVXVXVXZXZXZXMXMXMXVXVXVXMXMXgXxXcXpXxXvXNXBXMXZXZXZXZXZXZXVXVXVXVXVXVXVXVXVXVXVXZXZXZXVXVXVXVXZXZXZXZXVXVXZXZXZXZXVXVX",
"ZXZXZXZXZXZXZXZXZXZXZXZXZXZXZXZXMXDXvX1XG , #           . .       O # $ ' ' , $ # O o X       . o     o . . % 7 ] > 5 $ $ & 7 5 1 a g X.u # % % . . .           o                     % > q m J W $.8.>.a.m.].`.s.D.(.i.R ) 8 > # .                                     . . O             O - i . . . .                                                         + o o                                                               . O   . & t 4 > c } Y.>.f > % # & > w X.Z 6 & # O O o . % O .           . O % O . . .                               . # $ d H M.FXxXBXZXZXDXMXNXMXVXVXZXZXZXZXZXVXVXVXVXVXVXVXVXZXZXMXMXMXBXmXmXMXhXdX,XtXtXtXrXFXGXvXMXZXZXZXZXZXZXVXVXVXVXVXVXZXZXVXVXZXZXZXZXVXVXVXVXZXZXZXZXZXVXZXZXZXZXVXVX",
"ZXZXZXZXZXZXZXZXZXZXZXZXZXZXZXMXMXSX,X2Xf $ .           . . .   . % # > ] 5 5 # .           . . . . . . . O * r r # 7 # & & # > d L D ' 4 % . . o . . .                           o * 7 n ) 0.>.,.~ P Q l.5X0X{.s.1.y.0.J D , & O         .                     X         . .   .     . . . * i . . . .                                                       . O O                                                                 . #   @ % i = 4 5 S U.u.v 4 # . # & & F ' w > # . o     O % .   o       . O r * . . .                               . . # 9 P k.8XcXBXZXZXMXMXMXVXVXVXZXZXZXZXZXZXZXVXVXVXVXVXVXVXZXMXMXMXNXvXFXrX8X1XW.Q.E.E.!.8XFXSXVXZXZXZXVXZXZXVXVXZXZXZXZXZXVXVXVXVXVXZXZXZXZXVXVXVXZXZXZXVXVXVXVXZXZXVXVX",
"ZXZXZXZXZXZXZXZXZXZXZXZXZXZXZXMXMXvX=XG.a # .           . # .   O # # t t > > . .     X X o O O . o o . . O - r # * # & # & $ 5 L _ X.8 & O     o . O . . .                   o o O % 5 V L.U.S./.y.@.+.&.s.N.1XN.#.+.! m A > & O         .                     @         . O   O   . O . . % r O O O O .                                                     o                                                                     . #   @ . i % & $ q P.U.v > # . . * . & o.8 > & . o @   . O . o         . O p r . . O                               O . # 8 / 4.[.cXNXMXZXMXMXMXMXVXVXZXZXZXZXZXZXZXZXZXVXZXVXVXVXMXMXBXBXvX,X1XN.f.<.+.P J Y -.x.>XNXDXZXZXZXVXVXZXVXVXVXZXZXZXZXZXVXVXVXVXZXZXZXZXVXVXZXZXZXZXVXVXVXVXVXVXVXZX",
"ZXZXZXZXZXZXZXZXZXZXZXZXZXZXZXMXDXpX3X#.9 #   @         . #     . # > ] $ & # .             . . . . . . . O O % . % % . # & > , T K.D > % O   @   o . O O .       X o     . . . * % $ c m >.A.G.S.4.&.1.b.M.c.a.M.z.2.K f 8 > # .                                                       . . . O # O O O .     O                       o O O O o                                                                                     . .   X O * = # & 8 ( T.v 5 & O     . * 6 w : $ O o X X . .             . O i % # % .                                   O > } ;.<XrXvXZXZXZXMXMXMXVXVXZXZXZXZXVXVXVXVXVXZXZXZXZXMXMXMXMXBXpX0Xs.+.I +.I H j d 9 Q 6XdXMXDXMXVXVXZXVXZXVXVXVXVXVXVXVXVXVXZXZXZXZXZXZXVXVXVXVXZXZXVXVXVXZXZXZXZXZX",
"ZXZXZXZXZXZXZXZXZXZXZXZXZXZXZXMXBXwX4XW , O             . .     . . & u # # . .             . . .     . % * % O . O % # # & > , _ _ d $ % +   X   o . O O .       X o       . . O & c T J I %.1.<.<.s.<XKX4Xx.1.s.p.7.8.V , # % .                                                         . . O . # * - %                                                                                                                           . .     O % = # & > J P.) 0 & .     o % > , $ # . X X     .             . O - & . # .   o                               O > ..+.p.>XvXDXMXMXMXMXVXVXVXZXZXMXZXVXVXVXVXVXZXZXZXZXMXMXMXBXmXpX=.&.+.&.H.Y.U._ q , J D.dXhXCXMXVXVXZXZXVXVXVXZXVXVXVXVXZXVXZXZXVXZXZXZXVXVXVXVXZXZXVXVXZXZXZXZXZXZX",
"ZXZXZXZXZXZXZXZXZXZXZXZXZXZXZXMXvXrX(.M > O .           . .     . . . r . # . .             . . o     . * - * . O . O % # # $ 8  .V , $ % o   X     . . . .     X X       . . O 4 8 _ P.V.1.s.s.p.s.`.=X3X<XD.z.a.&.#.@.S q > & . .                                                         . O . % - r * .                           . . O O O                                                                                     .       O # 7 & & $ s ....y & .       . # $ $ #           .             . O # r # # .   o                               O >  .@.+.8XvXNXBXMXMXMXVXVXVXVXZXMXZXZXZXZXZXZXZXZXZXZXMXMXMXBXaX*X].7XqXqXqX7XH.*.q : M Z.kXhXMXVXVXVXVXZXZXZXVXVXVXVXZXZXZXZXZXZXVXVXZXZXVXVXVXVXVXVXVXVXVXZXZXZXZXZX",
"ZXZXZXZXZXZXZXZXZXZXZXZXZXZXZXBXvXtXS.d > . +           . .           * . . . .             . . o     . * - O   O   . % # # , Z F 8 > & .     o         . .   o         . . O % > 9 0.S.W.N.5X3X<X%X].].`.v.M.4X5X<Xa.Q M d , # O .                                                         . O # % * - % .                     . . O O O O O O                                                                                     .       . # 7 4 % # 1 A X.e & O o X X   . # # #                         . O # i # # .                                   . & A 8.I 1XsXxXBXZXMXMXVXVXVXVXMXMXZXZXZXZXZXZXZXZXZXZXMXBXBXmXaXpX].,XdXuXOXlX2Xe.9 9 W G.kXhXMXVXVXVXZXZXZXVXVXVXZXZXZXZXZXZXZXZXVXVXZXZXZXZXVXZXVXVXVXVXVXZXZXZXZXZX",
"ZXZXZXZXZXZXZXZXZXZXZXZXZXZXZXBXvX1X:.8 & . .           . .           O   .                     o     . O O .         % # > Z o.6 & & = o   o               . .       . . . O & : h U.b.g.v.3X8X9X,XuX*X].v.c.n.3XKX5Xd.W m 9 & # . .                                                       . O % # # % % O                           . . . . .                                                                                             . # 7 * # # > , ' 5 & O o       . . . . o X                     . . % r # & #                                   . & d K.I n.:XvXIXMXMXMXVXVXVXZXMXMXVXZXZXZXZXZXZXZXZXZXMXBXBXmXmXxXNXvXgXiXiXqXC.P s K l.3XsXmXMXMXZXZXVXVXZXZXZXZXZXZXZXZXZXZXZXZXVXVXVXVXZXZXZXZXVXVXZXZXVXVXVXVXZXZX",
"ZXZXZXZXZXZXZXZXZXZXZXZXZXZXZXBXnX6XU 5 & .           .       X           .                         o . .             O # > Z ' & . O O . O +                         .     O > 9 K (.[.h.].%X%X;XuXvXvXsX+Xv.c.v.v.N.XXA.8.v 5 # . . .                                                     . . # . . % * % .                         .                                                                                                     . O * # . % # # 7 & # .                 o o o                   . . # & 7 & % .                                 . $ 9 L.Q p.;XSXDXmXMXMXVXVXVXVXMXMXVXVXZXZXZXZXZXZXZXMXMXBXBXBXBXBXzXmXZXCXvX<X#.M H 4.3XsXvXNXMXMXZXZXZXVXZXZXZXZXZXVXZXZXZXZXZXZXVXVXVXVXZXZXZXZXVXVXVXZXVXVXVXVXZXZX",
"ZXZXZXZXZXZXZXZXZXZXZXZXZXZXZXBXnX4Xv 4 # .         . . o X X X                                       o     o o X @ o . & w e 0 %   o . O O O         o                   . = w m P F.{.}.,X'.v.sXpXpXvXvXsX;X+X#Xv.h.[.2XS.B > #                                                             . . . O % * % .                   . . . . . .                                                                                         .   . . . . # O   +     . # # .                                         . . # # p & O .                                 . $ 9 I.#.p.,XSXMXmXMXMXVXVXVXVXMXMXVXVXVXVXZXZXZXZXVXMXMXMXBXNXBXBXzXmXIXMX%X;.B J 4.#XdXMXBXBXBXMXZXZXVXVXVXVXZXZXVXVXVXVXZXVXZXZXZXZXZXZXZXZXVXVXVXVXZXZXZXZXVXVXVXVX",
"MXMXZXZXZXZXZXZXZXZXZXZXZXZXMXNXFXJXd & . +               X X X                                           o o o   O O # 7 F Z > * o o . o   . O     o o                   O r D J #.3XFX|.cX+X,XvXpX:XpXvXSXvXcX,X+Xh.g.B.G.0.v & O . .             . .   o                                   . O O # % & # O O .               . . . . .                                                                                             . . . . . . #   @   o   # . .     o                                   . . # $ o.& . . o                         X     . # 8 I.y.p.>X:XvXDXMXMXVXVXVXZXMXMXVXVXVXVXVXVXZXZXMXVXZXDXMXBXNXmXUXbXBXxX%X4.q./.3XsXhXhXZXBXBXDXZXZXVXVXVXMXMXMXNXNXNXNXNXNXNXNXNXNXNXMXZXZXZXZXZXZXZXZXZXZXVXVXVXVX",
"BXBXZXZXZXZXZXMXMXMXZXZXZXZXBXvX{.j.9 # o   . .             o o                                 . . o X X X     . & $ & t ] & &                 . . . .   O o   +   X     = V P.4.s.>XcXvXvXpXzXcX&X].zXxXBXaXSXvXvX].h.s.A.U.R q $ % %     o   . . # # % O     o                               o . % # w ] > # O           o . O # # O O O O O                                                                                           . . . % - ; O                                                       . . > u 4 # . o                                 # 6 L.(.&.c.8XnXbXBXMXZXZXZXVXMXMXVXVXVXVXVXZXZXZXZXZXVXVXMXMXMXBXxXpXpXpXpXwXrXrXvXNXMXVXVXVXZXZXVXZXVXMXmXmXvXcXsX,X9X9X,X,X,XsX-XkXGXvXaXMXIXZXZXZXZXZXVXVXVXVXVXVX",
"SXBXZXZXZXZXZXMXBXMXZXZXZXZXBXcXXX$.1 O @   o O .     X     o o                                 . .   X X X     . # $ > F w 4 O .               . . . .         .       O 0 U S.c.`.,XvXcXvXvXNXnXzX*XvXxXaXuXiXmXvX&X`.s.a.A.i.v > & % o   o   . # # # O .                                       o O # w Z w > # .         o . - * * % O .                                                                                                 . . % * * .                                         . .             # & w u # .                                   O 4 | Y.p.p.6XcXvXBXMXZXZXZXVXMXMXVXVXZXVXVXVXZXZXZXZXVXVXVXVXMXMXNXxXpXaXxXNXBXBXMXMXMXZXVXVXVXVXMXVXVXMXSXSXvX,XtX3XN.k.s.s.s.g.6X<X=XFXHXDXZXgXZXZXZXZXVXVXVXVXVXVX",
"BXBXZXZXZXZXZXMXBXBXZXZXZXZXBXcX6XI 1 O   X o . o     X     o o                                 . .           . & > > Z ] & = . .               . . . .         # # # % 5 v W D.1X].sXsX*XuXuXiXiXiXuXmXpXdXpXxXvXvXcX,Xv.s.b.S.S 8 & % . o X   . . # # .       o                                 o . & 6 u u > # .         o . # % # O O .                                                                                                 . . O % + .                                         .             . # # > ] # #                                   O > m G.g.<.<X:XSXNXMXZXZXZXVXVXMXZXZXZXZXVXVXVXVXZXZXVXVXVXVXMXMXDXBXmXmXNXMXBXBXMXMXMXZXZXZXZXZXVXVXVXMXNXzX&Xv.+.Q I Q Q Q Q Q I +.s.#X,XpXmXIXZXZXZXZXVXVXVXVXVXVX",
"BXMXZXZXZXZXMXBXBXBXZXZXZXZXMXcX2Xz , O   o o . o     X     o o                                               O $ > 5 ' u & # O .               . . .         . & 5 > , v J #.2X{.}.7X7X#X1X{.-XlXGXsXlX-XsX*X*XsXsXcXGX>Xc.k.3.^ v 8 > % o o o   . # # O . o o                                 o o . & > 5 u > # .         o .     .   . . . o                                                                                             . . . O O .                                                       . # # $ ] # #                                   . & f G.N.+.!.sXDXNXBXZXZXZXZXMXMXZXZXZXZXVXVXVXVXZXZXVXVXVXVXMXMXMXBXBXBXBXMXBXMXMXMXZXZXZXZXZXZXZXZXVXMXmXpX].g.&.<.4.Z.Q.(.Q.A.;.Q +.p.>XGXBXBXZXZXZXZXVXVXVXVXVXVX",
"BXMXZXZXZXZXMXBXNXBXZXZXZXZXMXcX(.k > O   X o . o   X X     o                                             o . # # > u Z > & . O .                             O 4 0 8 f / 2.s.1XqX{.2XD.w.q.>.2.Y.Y.H.F.[.qX,XsXaXiX*XcXrX@XM.;.{ T v q 7 % o o   . . # O .         .                           X o . % $ : u 5 # O             O O . .                                                                                                         . . . .                                                         # . & r & . O                                 . $ a (..XQ ~.cXNXmXBXZXZXZXZXMXMXZXZXVXVXVXZXVXVXZXZXVXVXVXVXMXMXMXBXMXMXMXMXMXMXMXZXZXZXZXVXZXZXMXBXBXBXNXNXpX|.,X=X>X=X9XkXkX8X(.9.P +.v.GXvXaXMXZXZXZXZXZXVXVXVXVX",
"MXZXZXZXZXZXMXBXNXBXZXZXZXZXMXFXV.s & o     o .           o o                                   o o       . # $ > w ' 6 & # . .                           o O % 7 0 8 S P./.G.b.F.7.:.K h f a s j G H Q #.D.<X0XFX,X].+X%XR.R.<.-./ T V b 4 . o . . . . . .     O O . . .                             # # $ w u % O o           O O o                                                                                                           . . . .                                                         O . & $ 7 . o                                 . # 9 (.XXQ x.sXmXvXNXZXZXZXZXMXMXZXZXVXVXZXZXZXZXZXZXVXVXVXVXMXMXMXMXMXVXZXZXZXZXZXZXZXZXVXVXZXZXMXNXNXNXMXDXNXaXHXvXsXsXdXjXgX9XA.0.P I s.>XvXSXMXZXZXZXZXZXVXVXVXVX",
"MXZXZXZXVXVXBXBXNXBXVXVXVXVXNX9X$.a # o X   o             o                                     o       . O # & w ] ' > & # O   O .                       O O O - 6 6 D X.K.0.E m 9 q 8 , 8 8 9 1 9 2 f f J W -.V.Z.z.W.c.g.v.c.1.#.W U A 0 # O - + . . . .     + % O . .                           O . # & 7 ] & % . o     o                                                                                                                                                                                   . . # . r O o                                 . O 9 G.XX~ ;.,XmXvXvXZXZXZXZXMXMXVXVXVXVXZXZXZXZXZXZXVXVXVXVXMXMXVXZXZXZXZXZXZXDXZXZXZXZXVXVXVXZXMXMXMXmXmXNXmXaXuX*X,XsXGXvXdX8X(.q.I +.1XGXpXaXMXZXZXZXZXZXMXZXVXVX",
"ZXZXZXZXZXVXBXBXNXMXVXVXVXMXNX8XK 8 . @ @   o           o o                                     o       . # & > 6 ' w $ # % O o + O .                       . O . = w A C m M a f 9 c c v m m m f f f v a a a m m E i.).C.p.`.{.s.1.Q J S c > 4 i - O . . O .   * * % O .     o                     * . # & > ] & % O . o o o                                                                                                                         . .                                                       . . # . i O   o                               . O 1 S.XX-.+.-XmXxXvXZXZXZXZXMXMXVXVXVXVXZXZXZXZXZXZXVXVXVXVXMXMXZXZXVXVXVXVXVXZXZXZXZXZXVXVXVXVXMXDXZXMXmXNXNXvXGXrX>X>X>X=X+Xm.#.#.#.s.9XsXuXDXVXZXZXZXZXZXZXZXVXVX",
"ZXZXZXZXZXZXBXBXNXDXhXVXDXmXxX3XM , O       o     X                                           o   X     O . $ > F w > $ % O . o O .   . . .               . O # # & , a M P I I ~ -.y.A.!.5X0X5X(.S.q.>.! B f d q 8 q B >.C..XoXB.f.%.Q G f 9 5 u u * . . .       . . . . .                         o . # # & > u # O   o o   o                                                                                                                                                                                 . . . O O O                                     . q y.Y.9.+.;XSXvXvXZXZXVXVXMXMXZXZXZXZXVXVXVXVXZXZXVXVXZXZXZXZXZXZXZXZXZXZXVXVXVXVXZXZXZXVXVXVXVXZXZXZXMXxXpX:X%X%XR.n.a.4.1.<.1.a.B.7XdXSXMXhXVXVXVXVXZXZXZXZXZXZX",
"ZXZXZXZXZXZXMXNXBXDXMXVXDXxXcX4Xh &         o     X                                             X @ o . # # & w Z 6 $ # # . o @ o   . . . .               . # # # $ 1 j $.D..X.X<X1X8X9XcXdXmXsXtX5X<X4XJXS./ B q , , d J *.w.J.JXF.l.6.~ m 9 5 y i 7 # O O O O   . . O O O O                         . O % & & i * O . . .                                                                                                                                                                                     . . . . O .                                     . 8 $.Y.u.+.#XvXvXvXZXZXVXVXMXMXVXZXZXZXVXVXVXVXVXZXVXVXZXZXZXZXZXZXZXZXZXZXVXVXVXVXVXZXZXVXVXVXVXZXZXZXMXmXpX:X`.c.a.1.1.k.W.KX<X1X,XsXNXNXMXMXVXVXVXVXZXVXZXZXZXVX",
"ZXZXZXZXVXVXMXNXMXDXVXVXNXsXGX(.a #                                                             @ @   . # # 7 ] w > # # O .           . . .         X     . # & # 5 N $.F.lXGXdXNXNXSXNXBXmXmXxXpXzXvXvXdXkX1XA.8.L d 9 1 2 h ( A.D.G./.e.J f a q 6 7 * . . O . . . . O O O O                   o       O % % % r i % . O o                                                                                                                                 .                                                                                                   . > K U.U.+.m.,XcXvXMXZXVXVXZXZXVXVXZXZXVXVXVXVXVXVXVXVXVXVXZXZXVXVXVXVXZXVXVXVXVXVXZXZXZXZXVXVXZXZXVXVXMXMXmXxXpXsXcXcXwX,X,X:XFXsXvXgXMXVXVXVXZXZXZXVXZXZXZXZXZXZX",
"MXZXZXZXVXZXMXMXMXDXVXVXmXsXtXS.8 #   X     .                                                   o     . # & 7 ] 4 & . . . o           . . .           o . # : , 8 T u.JX9XdXgXgXMXMXMXMXMXMXBXBXBXVXMXiXOXuX=X2XY.K.[ A e , , a W 2.U./.P.! M v q 8 w 7 # . O   .   . . O O o                   o     o . % % # 7 p * . *                                                                                                                               . . .                                                                                                     & h P./.+.k.8XcXNXZXZXVXVXZXZXVXVXZXZXZXZXVXZXVXVXVXVXVXZXZXZXVXVXVXVXVXVXVXVXVXVXZXZXZXZXVXVXMXMXMXVXVXMXMXBXNXSXSXHXSXNXvXvXxXvXBXVXVXVXVXVXZXZXZXZXZXZXZXZXZXZX",
"MXMXZXZXZXZXMXMXMXVXMXMXvXrX3X-.1 .   @   . .           .                                       @ o O . # & & i & # O . . o o o     . . . .           o O $ : a $.b.0XsXiXgXMXDXBXMXVXVXVXMXmXmXVXMXmXiXsX9X.Xd.$._ ) [ ' e , 1 s J _ 0.K.0.Y f v q b y & # # . .       o .                         o o o O # % 4 u * . %                                                                                                                               . . O .                                                                                                   & q K.).+.4.3XcXBXZXZXVXMXZXZXVXVXVXVXZXZXZXZXVXVXZXZXVXVXVXVXZXVXVXVXVXVXVXVXVXVXZXZXZXZXZXVXMXMXMXMXVXVXVXMXmXaXaXaXxXNXBXDXBXMXZXZXZXZXVXVXVXZXZXVXZXZXZXZXZXZX",
"MXMXZXZXZXZXVXVXVXVXMXMXdXrXW.Y , .   @   . O           .                                       o   O . % 7 # = # O . . . o o o     . . . .     X       # $ < h W.,XaXgXMXVXDXNXvXNXMXZXVXmXaXaXiXiXsX8XW.V.,.W h f f f d 8 > > 1 9 a M } L.} m m v c y 5 & # . .       o .                       X X o   . O % % 7 & . O                                                                                                                               . O O O                                                                                                   # 8 ) /.%.;.~.cXBXZXZXMXMXZXZXVXVXVXVXZXZXZXZXVXVXVXZXVXVXVXVXZXZXVXVXVXVXVXVXVXVXZXZXZXZXVXVXMXBXMXMXVXVXVXMXBXBXSXDXMXBXmXmXZXZXZXZXZXZXZXZXVXZXMXVXZXZXZXZXZXZX",
"BXZXZXZXZXZXVXVXVXVXMXMXsXtX~.B > .   O . . .           . .                                         O . = u & % O . . . o o o o       . . .             # : g ^ 3XzXmXBXZXZXbX:XzXzXmXBXmXxXsX,X9X1XZ.,.B d 0 q 9 d f a a 9 8 5 , > , 9 N } } ^ B m d q w > # # .                                       o . # % & # & # O .                                                                               . O O                                         o . . .                                                                                                   . 4 m A.p.@.~.cXBXZXZXMXMXZXZXZXZXZXZXZXZXVXVXVXVXZXZXZXZXVXVXZXZXZXZXVXVXVXVXZXZXZXZXZXZXZXZXBXBXMXZXZXZXVXVXMXBXmXmXmXMXVXZXMXMXMXMXMXZXZXZXMXMXMXMXVXVXVXVXVXVX",
"ZXMXZXZXZXZXZXZXVXVXVXMXsXtXE.f &     o   . .           .                                     . . . * . - p % . . . o o               . . .         o O # , C P.$XnXBXBXMXBXSXnXnXnXvXvXmXdX8X2XZ.,.Y N c 0 0 q d J :.>.{ ! Y m d d d 9 a m _ K.T T v q e 5 # % .                         . .   X       o O % % 4 # 4 % . o                                                                             . O O O                                 o         o                                                                                                     o   & a S.f.Q Z.cXBXZXZXBXMXZXZXZXZXZXZXZXZXVXVXVXVXZXZXZXZXZXZXZXZXZXZXZXZXVXZXZXZXZXZXZXZXZXZXMXBXMXZXZXZXVXVXMXMXVXZXZXZXVXVXMXZXZXZXZXZXZXBXMXMXMXMXVXVXVXVXVXZX",
"ZXZXZXMXMXZXZXZXZXMXZXVXNXqX8.8 #     O .                                                     . # * . % 7 r # .                       . .       . . O & 4 v ^ (.+XNXmXaXBXBXxXmXBXuXcXvXgXdX!.i.T d a a h K ;.3.E.~.9X,X3X4X4X4Xx.t.;.W m f m U } ) C v q 4 % O . .     o               . O % O           O % & 4 4 & % .     X o o o o                                                                     o o                                                                                                                                                 O . & a j.H.P E.cXMXMXMXBXMXVXVXZXZXVXVXVXZXZXZXZXZXZXVXVXVXZXZXZXZXVXVXVXVXVXVXZXZXZXZXZXZXVXVXZXZXZXZXZXVXVXVXVXVXVXZXZXZXVXVXZXZXZXZXZXZXZXVXVXVXVXZXZXZXVXVXVXVX",
"ZXZXVXMXNXMXZXZXIXBXZXVXhX7XR > O     O O                                                     . # # # # r - %                                     % # > 0 T :.Q.v.sXvXvXBXbXaXmXmXxXcX,XgX-X#.B 9 9 m Y #.f.N.@X3XwXBXMXcXwXwXwX>X$X<X^.;.M f N ) ) ) V d 6 % . . . . .                   . O O           . % % 7 7 = % .       o o o o                                                                       o                                                                                                                                                 o . # a w.Y.I A.cXMXBXBXMXMXVXVXZXZXVXVXVXZXZXZXZXZXZXZXVXVXZXZXZXZXVXVXVXVXZXZXZXZXZXZXVXZXVXVXZXZXZXZXVXVXVXVXVXVXZXZXZXZXVXVXVXVXZXZXZXZXVXVXVXVXVXZXZXZXVXVXVXVX",
"ZXZXVXMXMXMXZXZXIXBXZXVXhX7XJ $ O     O o                                                     . # # & r 7 % .                                     O # > q | ^ ,.s.+XcXcXnXxXpXxXaXSXFX&X-Xc.M d f Y 8.w.<X8X8XrXwXcXMXVXNXvXxXzXcX:X;X3X~.;.M a d V ) ) m 9 , & O . O O . . . .               . . .     o o O O - - = # . . .   . . . o o o                     . . . . o                                                                                                                                                                                       @   # 9 2.JXI S.cXBXBXBXMXMXVXVXZXVXVXVXZXZXZXZXZXZXZXVXVXVXVXVXZXZXZXVXZXZXZXZXZXZXVXVXVXVXVXVXZXZXZXZXZXZXVXVXVXVXVXVXZXZXZXVXVXZXZXZXZXZXVXVXVXVXVXVXZXZXZXVXVXVX",
"ZXZXVXMXMXMXZXZXDXBXZXVXhX6Xm # O     . o                                                     . # & & ] # -   .                             .       # > d | B K 4.c.#X;XcX:X:X:XpXsXrX#Xb.#.f f $.S.S.H.7X9X,X,XsXdXMXMXMXNXxXaXxXvXsX&X8X(.9.B f a m ) _ B d q & # # # % # .                   . # .       o O * - % O . % % . . . . . o o                     . . . .                                                                                                                                                                                         o   # 2 $.Y.I S.sXBXBXMXMXZXVXVXVXVXVXVXVXZXZXZXZXZXZXVXVXVXVXVXZXZXVXVXZXZXZXZXVXVXVXVXVXVXVXVXZXZXZXZXZXVXVXVXVXVXVXVXZXZXZXVXVXVXZXZXZXZXVXVXVXVXVXZXZXZXZXZXVXVX",
"ZXZXVXMXMXZXZXZXZXBXZXCXdX1Xf # .     o o                                                     . # & & p . *   .                 . .       . . . @   # > d ) f m @.1.N.#X>X`.&X,X;X`.=X<X#.M d m S.F.b.h.&XsX=X,XsXaXgXMXMXmXmXaXuXNXNXuX&X1XG.q.8.B s B 0.L._ m 9 5 & $ & % .                   . # . .       o . O % # # & % # O . . . . o                                                                                                                                                                                                                         # 1 P U.P S.,XmXBXMXZXZXVXVXVXVXZXZXVXVXVXVXVXVXVXVXZXZXVXVXZXZXZXZXZXVXVXVXVXVXVXVXVXVXVXVXZXZXVXVXZXZXZXZXZXZXZXZXVXVXVXZXZXZXVXVXVXZXZXZXZXZXZXZXVXVXZXZXZXVX",
"ZXZXZXMXMXZXZXZXZXMXZXMXdXJXa # .     .                                                       . . # - - O . .                   . .       . . . O   & , d ) 9 f J @.4X1X[.p.`.>X%Xh.1XG.J 9 q B A.B.g.v.*XdX>X>X:XpXaXmXMXmXmXaXiXuX*X-X7X.XD.U.:.R m a B K.L.8.R m 8 > # O O                   . . . .     o   . % & & & % % % % # O . . .                                                                                                                                                                                                                       o $ 1 z U.K V.,XmXBXMXZXZXVXVXVXZXZXZXVXVXVXVXVXVXVXVXZXZXVXVXZXZXZXZXZXZXVXVXVXZXVXVXVXVXVXVXZXZXZXVXZXZXZXZXZXZXZXZXVXVXVXZXZXZXVXVXVXVXZXZXZXZXZXZXVXVXVXZXZXVX",
"ZXZXZXVXVXZXZXZXZXZXZXmXfXJX2 # .                                                             . % - * . O . .                   . .         . O O % w 8 9 D 1 9 T @.2X<Xb.%.n.6Xn.b.F.2.m 9 c ^ A.s.s.[.=X&Xm.c.+X*X:XpXaXaXaXsXvX=XN.D.A.u.q.i.M N b 5 8 N 0.U.w.>.J d 4 O o o                             . . # & 7 r 7 % % = = & # O . .                                                                                                                                                                                                                       O & 9 j P.H 3.>XvXBXMXZXZXVXVXVXVXZXZXZXZXVXVXVXVXZXZXZXZXVXVXZXVXZXZXVXVXVXVXZXZXZXZXZXZXVXVXZXZXVXVXVXVXZXZXZXZXVXVXVXVXZXZXZXZXVXVXVXVXZXZXZXZXVXVXVXVXZXZXZXZX",
"ZXZXVXVXVXVXZXMXBXZXVXmX-X(.< # .                                                             . - i % .   *                     . .         . O & w F q q ' 5 8 | ~ B.v.l.#.D.W.s.H.j.H a q m i.S.1.a.N.}.v.4.<.m.+X+X;XuXpX:X,X].[.V.@.K J K K G f q 0 0 a W A.G.D.5.Y q & O         . . . .               . . # & w u r & & 7 7 & % # O O .                                                                                                                                                                                                                   X O > 9 h P.G ;.8XxXBXMXZXZXVXVXVXVXZXZXZXZXVXVXVXZXZXZXZXZXVXVXVXVXZXZXVXVXVXVXZXZXZXZXZXZXVXVXZXZXVXVXVXVXVXVXZXZXZXVXVXVXZXZXZXZXVXZXVXVXVXVXZXZXVXVXVXVXZXZXZXZX",
"ZXZXZXZXVXVXMXBXBXMXVXNX=X>.8 .                                                               . - * % . .   o o                       o o o O % 8 D X.g 8 Z 7 w v Q .XXX+.Q V.1.a.S.@.j 9 m ( e.>.+.1.F.N.s.@.#.@Xm.@XrX,XsXrXN.b.#.H B J P #.p.%.#.W B v v M I .X6XG.S.} c 5 % O O % % # # $ & +     o @ O . # & & w F Z 5 & & 7 w & # # O . .                                                                   o @ o                                                               o o                                                                       @   : A s K.J #.9XvXBXZXZXZXMXMXVXVXVXVXZXZXZXZXZXZXZXZXZXVXVXVXVXVXVXVXVXVXVXZXZXZXZXZXZXZXZXVXZXZXVXVXVXVXVXVXVXVXVXZXZXZXZXZXZXZXZXVXVXVXVXVXVXVXVXVXZXZXZXZXZXZX",
"ZXZXZXZXVXVXMXBXDXBXVXaX1X~ , .                                                               . % # O .                               o o   O = V } L.m , 5 # > 2 H h..XP J q.#.&.U.K f m T Q S.Q I <.Z.b.4.;.3.W.n.N.3X,X=X[.p.&.+.Q :.u.A.<X#X{.6X!.(.U.9.~ +.p.{.2X!.y./ B 8 5 4 4 4 > > , 5 # * *     O * . % # 4 u Z q 5 > w w 7 # % * O                                                                       o o                                                               o o                                                                       @   , ) f } J ;.8XxXBXZXZXVXMXMXVXVXZXZXVXVXZXZXZXZXVXZXZXZXVXVXVXVXVXVXVXVXVXZXZXZXZXZXZXZXZXZXZXZXVXVXVXVXVXVXVXVXZXZXZXVXZXZXZXZXVXVXVXZXVXVXVXVXZXZXVXVXZXZXZXZX",
"ZXZXVXZXVXVXMXBXDXmXVXdX2XK , .                                                               . . . .                               o o o o % 0 h W u.( 9 6 & > 9 K J.H.K B 0.$.%.U.m d T ^ +.Y.W W r.D.k.1.<.l.<Xc.c.N.=X#Xs.%.+.&.f.b.M..X1X=X-XfX-X-X8X[.s.&.%.k.@X5X5XF.V.~ m d 8 5 8 c S | c q , & % O O * - & 4 y A A f 1 8 u u 7 # % %                                                                       O O .                                                                                                                                         . 8 ..f _ J 6.8XxXBXZXZXVXMXMXZXZXZXZXVXVXVXVXVXVXVXVXZXZXZXZXZXZXVXVXVXVXVXVXVXVXZXZXZXZXZXVXVXVXVXVXZXZXZXZXZXZXZXZXVXVXVXVXVXVXVXVXZXZXZXZXZXZXZXZXVXVXVXVXZXZX",
"ZXZXZXZXVXVXBXBXDXmXVXdXJXM >                                                                           o                             . o O 6 c ~ <.(.u.m 5 # # 0 C w.j.G f ( Q q.P.v d T ( %.Y.P Q Z.!.k.1.4.M.<Xc.p.c.1XN.1.#.1.H.5X1X}.}.{.-XGXdXiXiXSXvX,X1X1.1.s.#X9X7X6X~.y.8.E N v B ! 8.0.J d 9 5 & % * % & > 8 V T M 2 1 e F u & . # .                                                                     . O O .                                                                                                                                       # 9 X.v T G V.8XvXBXZXZXVXMXMXZXZXZXZXVXVXVXVXVXVXVXVXZXZXZXZXZXZXZXZXVXVXVXZXVXVXVXZXZXZXZXVXVXVXVXVXZXZXZXZXZXZXZXZXVXVXVXVXVXVXVXVXZXZXZXZXZXZXZXZXVXVXVXVXVXZX",
"ZXZXZXZXVXVXBXBXBXmXVXdXJXf &                                                                   .                                     . O % 0 B A.N.KXG.K 8 & & 4 b _ 0.J h Y P q.e.v b m K 2.A.H W C.G.d.4.k.<XM.a.p.f.F.f.Q W u.V.D.1XqX,X;X&X;X:XuXuXdXsX&X[.M.a.&.h.&X&X-X#X4X!.E.y.-.~ ;.<.V.V.@.B d q 5 $ > 5 8 d S _ R M 9 0 Z ] 7 # O .                                                                     O * * O .                                                                                                                                     # 9 I.f m G Z.9XvXBXZXZXVXMXMXZXZXVXVXZXZXVXVXVXVXZXZXZXVXZXZXZXZXVXVXVXVXZXZXVXVXZXZXZXZXVXVXVXZXVXVXVXVXZXZXZXZXVXZXZXZXVXVXVXVXZXVXVXVXZXZXZXZXVXVXZXZXVXVXVXVX",
"ZXZXZXZXVXVXBXSXBXMXVXvX(.a &                                                                   .                               . .   o O 4 v W F.#X8X<X;.m 5 = % 6 D ..) J R W $.0.q y d M 2.S.J W C.D.<.<.s..Xa.1.1.C.d.Q B m J Q 4..X=X].`.'.>XrX,XsXvXcX:X$X@XN.s.g.].;X,X&X+X$X3X<XM.n.^.<X[.<XQ.w.! m d q q d f f B L K m g 5 w u u & .                                                                 . . . % - - % .                                                                                                                                   . & a I.d f G Z.9XvXBXZXZXVXMXMXVXZXVXVXZXZXVXZXVXVXZXZXVXVXVXVXZXZXVXVXVXVXZXZXVXVXZXZXZXZXVXVXZXZXZXZXVXVXZXZXVXVXVXVXZXZXVXVXZXZXZXZXVXVXZXZXVXZXVXVXZXZXVXZXVXVX",
"MXMXZXZXVXVXBXNXmXDXhXvXS.a #                                                                                                   # .     % y Y t.1X,XsX8XZ.Y 4 O o % 6 A B m J H Q e.q 0 c m @.w.J ^ S.z.+.+.p..X1.#.6.S.~ h a d j @.G..Xv.h.v.m.R.R.R.%X>XcXsXsX&X>X%Xv.m.v.>X>XsXsXaXpX*X;X8XtX>X=X1XJXS.@.K R ) _ _ ) ) _ ) ) d 8 , 6 r = . .                                                               . . . % 7 r * # .                                                                                                                                 . > a I.d f G V.9XvXBXZXZXVXMXNXVXVXVXVXZXZXZXZXZXZXZXZXVXVXVXVXZXVXVXVXZXZXZXZXVXVXZXZXZXVXVXVXZXZXZXZXVXVXVXZXVXVXVXVXZXZXZXZXZXZXZXZXVXVXVXVXVXVXVXVXZXZXZXZXVXVX",
"MXMXZXZXZXVXBXNXmXIXgXkXw.9 #                                                                           X X                           . 4 V i.JXrXGXuX-XF.~ q = O O % 6 q a f j W I.a 8 V m W 0.B R S.d.P I p.2X7.#.w.u.B 3 8 v Y w.G.z.s.s.k.x.3.4.4.n.$XwX*XuXsXsX=X1Xk.#.4.W.{.&XuXdXcXrX3X6X@X1X@X[.N.D.6.Q H J J B M m C A < 5 > $ & # . O .         . . .                                             . .   . & r t 4 # .                                                                                                                                   > a I.d c B V.8XvXMXZXZXZXMXMXVXVXVXVXZXZXZXZXZXZXZXZXVXVXVXVXZXZXVXVXZXZXZXZXVXVXZXZXVXVXVXVXZXZXZXZXVXVXVXVXVXVXVXVXZXZXZXZXZXZXZXZXVXVXVXVXVXVXVXVXZXZXZXZXVXVX",
"MXMXZXZXZXZXBXBXDXMXaXrXK 0 O X                                                                                         . . . .   @   4 c L.).5XFXNXiXuXB.y.V > # # % & 4 > 8 D ) T f f D C f C d J y.w.G P z.l.>.Q #.P.f , q f ! w.V.<.<.V.5.W ~ -.;.x.^.p.FXfXfX X|..X>.j h E U.F.{.{.B.z.V.y.! ~ 1.v.{.].a.@.K M m f d 9 $ > : $ # # # # # % O     O # # # .   o o o       X     o   . . . .           . . o   O # : ' 5 = . . .     .           X       o o                                                                                                   & a L.b 8 m U.8XdXVXVXZXMXZXMXVXVXVXVXZXZXZXVXZXZXZXZXVXVXVXVXVXVXVXVXZXZXZXZXZXZXZXZXVXVXVXVXZXZXZXZXVXVXVXVXZXVXVXVXZXZXZXZXVXVXZXZXZXVXVXVXZXZXZXVXVXVXZXZXVXVX",
"NXMXZXZXZXZXBXBXDXBXaX0XJ 6 o                                                                                         . . . . o @ + O $ d } /.!.'.sXMXiX7XA._ 9 5 $ . # & & 6 F b v a a C n q b 9 f 0.u.J J 7.V.~ K ,.P.d 4 8 f :.A.d.%.V.q.Y ! Q r.A.;.#.z.#X].9X{.b.6.^ v 0 q _ >.d.1.+.I W K Y ~ a.].fXdX8XW.S.i.0.R S g $ $ > > 5 0 q 9 5 > % O % % # # % .   . o o             o o o . .             . .     o & , D e & . . . . . . .       X X X     o o                                                                                                   & a K.b 8 v U.8XdXMXVXZXMXZXZXZXVXVXVXZXZXZXVXZXZXZXZXVXVXVXZXVXVXVXVXZXZXZXZXVXZXZXZXVXVXVXVXVXZXZXZXVXVXVXVXZXVXVXVXZXZXZXZXVXVXVXZXZXVXVXVXZXZXZXVXVXZXZXZXVXVX",
"NXMXZXZXZXZXBXBXBXBXvX0XM 4 o                                                                                           . . . o   o & : 9 M Y K 4.%XGX|.].f.$.f 8 > # # % % 4 u 8 q 9 8 g d 5 8 8 9 L ( f f ,.U.K j :.K.0 4 5 m P.d.p.a.l.7.;.;.k.k.p.%.<.Z.k.V.9.^ B d 8 > % # 5 d J K I +.6.l.x.N.=XsXiXiXsX9X0X<XD.,.( m > & 7 q B / $.@.J d 5 4 5 > # . o X   . . O . . . .                           . o   X   & 5 A A > # O . . . . o                   o                                                                                                   % a K.d 8 m S.8XdXMXVXZXMXZXZXZXVXZXVXZXZXVXVXZXZXZXZXVXVXZXZXZXZXVXVXZXZXZXZXVXVXZXZXVXVXVXVXVXVXZXZXVXVXVXVXZXZXVXVXZXVXZXZXVXVXZXZXZXZXVXVXZXZXVXVXVXVXZXZXVXVX",
"MXMXZXZXZXZXBXBXBXNXvX5Xh > o                                                                                                 . . . > : 9 a J Q x.3XrX].v.s.&.K 9 5 & & % . % 7 > w 8 8 e w 4 > $ q _ } v B 0.P.B s / | > & > C U.&.=.c.d.r.V.l.6Xs.+.C.V.5.5.{ S b 0 5 > 5 6 6 > 5 v ^ q.Z.JX0X{.-XsXsXpXuXpXvX*X&XB.1.Q m 5 4 6 N >.M..XF.5.^ m f v v 5 % X X   . . O O . . .                                 X   % 5 v D 5 & O . . o . o                                                                                                                       % a L.q 8 m S.0XaXMXVXZXMXZXZXZXVXZXZXZXZXVXVXVXZXVXVXVXVXZXZXZXZXVXVXVXZXVXVXVXVXZXZXZXZXVXZXVXVXZXZXZXZXVXZXZXZXVXVXVXVXZXZXVXVXZXZXZXZXVXVXZXZXVXVXVXVXZXZXZXZX",
"MXMXZXZXZXZXBXBXBXSXvX4Xf & o X                                                                                               . & $ 8 g L G q.(.yXtX>XrX%X].`.l.j q > $ % O O % % 7 7 5 7 7 4 & & q ) _ v v } P.J f _ _ 4 & > C u.z.s.s.S.y.<.D.B.s.1.A.@.:.0.N q 5 5 0 v m B B q , v 0.(.1X-X XfXuX,X>X;X;XsXvXaXpX|.p.+.J 0 6 6 U k.=XsX-XW.V.5.@.+.:.T 0 % o . . . # O . . . . .                             X   # 5 9 [ b 4 % . o o o o                                                                                                                       # a L.q 9 J Z.9XaXMXVXVXMXZXZXZXZXZXZXVXVXVXVXVXVXVXVXZXZXZXZXZXZXZXZXVXVXVXVXVXVXVXVXZXZXZXZXVXVXVXVXZXZXZXZXZXZXZXZXVXVXVXVXVXVXZXZXZXZXZXVXZXVXVXVXVXVXZXZXZXZX",
"MXMXZXZXZXZXBXBXBXSXsX!.d & o                                                                                                 . # $ 8 D ) K 2.JXR.R.n.$X#X>X].F./ C 1 $ % * O o O % = = = 7 = & 7 5 f m 9 1 J L.T M _ } 0 > > m q.a.v.M.w./ +.<.b.#.y.8.K { B 8 y 0 y ) i.S.V.u.B 9 9 T V.<X-XfXGXFXtX5X~.4X>XwXpXpX&Xs.+.U q 0 8 Y n.;X*X&X@XW.5Xc.v.D.q.T 0 & # # . . O O . .                               X X   # > 8 [ D 8 % . . o o o                                                                                                                       # a L.q a W !.9XgXVXVXVXMXZXZXZXZXZXZXVXZXVXVXVXVXVXVXZXZXZXZXZXZXZXZXVXVXVXVXVXVXVXVXZXZXZXZXVXVXVXVXZXZXZXZXZXZXVXZXVXVXVXVXVXVXZXZXZXZXVXVXZXZXVXVXVXVXZXZXZXZX",
"MXVXZXZXZXZXBXBXBXNX,XQ.9 %                                                                                                   . - % > d h J #.W.c.c.c.m.@X@Xc.4.e._ v , & % O o . . O % % % * % & > d T V q m ^ J B Y ) e > , f u.%.B.2XW B / @.V.P ^ B U T a d d f m E w.G..XD.S.E f f K 6.F..Xc.k.6.5.i.u.E.~.R.#X#Xp.+.T q 0 q ! Z.W.[.[.W.<X9X*XuXfX[.6.! v > # . . . .                                 X X     O > , ) ..q % O O O o o                                                                                                                       # a L.q f @.2XsXgXVXVXVXZXZXZXZXZXZXZXZXZXZXZXZXZXVXVXVXVXVXVXVXVXZXVXVXVXZXZXZXZXZXZXZXZXVXVXZXZXZXZXZXZXVXVXVXVXVXVXVXVXZXZXZXZXZXZXZXZXZXZXVXVXVXVXVXVXVXVXZXZX",
"VXVXZXZXZXZXZXBXBXvX=XA.8 %                                                                                                 . O O & 5 A R >.6.F.3X;X;X+XrX6XM.<.w.e.^ d 5 % . o +   . % % O % % # $ 9 v b d v M B m h S 5 $ , d } ,.s.d.! h Y P.Q / S q B s d C J / :.@.1.B.7X1X!.w.K s h ^ e.2.I P H M m B Y ! Z.!.W.4.~ T 0 6 d ) P.U.A.A.Q.2X=XdXNXgXsX8Xb.Q 8 & # # O . o           . . . . .           X X     . & , D X.d & O O . o o       o                                                                                                               # 9 L.d f ;.0XsXmXVXVXZXZXZXZXZXZXZXZXZXZXZXZXZXZXVXVXVXVXVXVXVXVXVXVXVXZXZXZXZXZXZXZXZXZXVXVXZXZXZXZXZXZXVXVXVXVXVXVXVXVXVXZXZXZXZXZXZXZXZXZXVXVXVXVXVXVXVXVXZXZX",
"VXVXZXZXZXZXZXBXNXpX8X;.9 .                                                                                           o     # & & q f I.T.S.7.s.8XGXpXaXuX%XW.4.+.y.i.) 8 4 O O . . . . O % % % . % , 8 8 8 c V m m m b 7 $ $ 8 | ! 6.G.K B { P.~ } D q a h B ^ K u.+.+.1..X#X=X#XF.,.m 8 0 q 9 s G K K J J N v J i.).w.W M y 5 8 A ` m j J ~ y.~.1XsXdXgXNX9X~.J 8 5 > # O +   X       . . # # .               @   O & $ g ) ) > & % . o + o   o                                                                                                                 & 1 I.d h G.tXvXNXVXZXZXZXZXZXVXVXZXZXZXZXZXZXVXVXVXZXZXZXVXVXVXVXZXZXZXVXVXVXZXZXZXZXZXZXVXVXZXZXVXVXVXZXZXZXVXVXVXVXVXVXZXZXZXVXZXZXZXZXZXZXVXVXVXVXVXVXZXVXZXZX",
"VXVXZXZXZXZXZXBXSXuX0X@.5 .                                                                                             . # # > v ..B / 0.T.S.&.[.=XsX*X;X3Xx.#.1.#.#.L.X.Z % O O . . . O % % O . O & , 4 5 y A n b q w & . # > b B 2.A.K J :.u.Q ^ n 8 h L R ( >.6.+.d.F.N.'.-X*X7XZ./ q $ & 5 m ^ q.j.y.i.{ B v U { / J h e 5 : 8 8 1 2 s h B W 5.<X-XuXiX:X<X/.T a 8 > & *   X X X o O O . . .                   o % $ e ) | 8 > % % O O @   o o                                                                                                               & 1 I.d M F.FXvXBXVXZXZXZXZXZXVXVXZXZXZXZXZXZXVXVXVXZXZXZXVXVXVXVXZXZXZXZXVXVXVXVXZXZXZXZXVXVXZXZXVXVXVXZXZXZXVXZXVXVXVXVXZXZXVXVXVXVXZXZXZXZXVXVXVXVXZXZXZXZXVXZX",
"VXVXZXZXZXZXMXBXSXsX5XP >   .                                                                                     @     # $ : 9 } P.f s a B P +.!.N.5X<XW.!.<.<.5Xc.<.W | F u r O . . O % % O . X o # % % & 7 u Z y 6 7 * @ O - = y { u.K H $.y.+./ N 9 m R W P S.<.&.!.F.s.`.&XiXfX1Xy.N & # w } u.H..XXX2XS.8.B f J K._ C g 8 $ $ < 2 s j h a q S u.W.>XsX=XM.w.Q J B v 5 $ O . o o o o o         .           o     O # 5 C ..A 8 & & .                                                                                                                         & 8 X.d J <XvXNXMXVXZXZXZXZXZXVXVXVXVXVXVXZXVXVXVXVXVXZXZXZXVXVXZXZXZXVXVXVXVXVXVXVXVXZXVXVXVXZXVXVXVXZXZXZXZXZXZXZXZXVXZXZXZXVXVXVXVXVXVXZXZXVXVXZXZXZXZXZXZXVXVX",
"VXVXMXMXZXZXMXBXNXFX4XH &   .                                                                                     @     $ $ < B U.U.B 9 9 f k Q 2.+.;.3.3.3.1.M.%X1XD.W m c w # # . . # % % O       . % % % % & 7 4 & O X     o O 5 T e.H G +.S.+./ ` m M G K Q q.2.C.D.1.k.3X-XdXuX{.C.R 8 & 8 K.S.[.}. X X.XS.^ f m ) ) m 9 < > : a ` *.0.8.T q y B -.F.5Xm.&.+.+.$.i.K.) q 5 & % O . . O o       .           o O     . $ d ....d , > O   X                                                                                                                     & e ..c ! #XvXNXMXZXZXZXZXZXZXVXVXVXVXVXVXVXVXVXVXVXZXZXZXZXZXVXZXZXZXVXVXVXVXVXVXVXVXZXZXVXVXVXVXVXVXVXZXZXZXZXZXZXZXVXZXZXZXVXVXVXVXVXVXVXZXVXZXZXZXZXZXZXZXVXVX",
"VXVXMXMXZXZXMXBXxXFX4XB & o                                                                                       X     $ : 2 0.G.JXi.f A I.G G @.$.U B M P f.[.].8X4Xu.m 1 $ # # . . # % % % .     . # % % % % $ $ # .         O & v } J j P P.P K T D T B R 0.! / y.6.<.W.LX$X,X=X[.1.K 9 > , R 6.{. XOXOX|.M.S.Y f d 9 9 1 , 8 d ( u.G.G.Q.u.E N d m :.A.V.#.I P H Q i.i.J a 9 , > $ # O . .     . .           o     @ # 9 ..L.C 1 > # o @ X                                                                                                                 . $ e ) v :.=XmXMXVXZXZXZXZXZXZXVXVXVXVXVXVXVXVXZXZXZXZXVXVXZXZXZXVXVXVXZXZXZXZXZXZXZXVXVXVXVXVXVXVXZXZXVXVXVXVXVXVXZXZXZXZXZXZXVXVXVXVXVXVXVXVXZXZXZXZXZXZXZXZXVXVX",
"VXZXMXMXZXZXZXBXaXFX!.M &                                                                                             . : < j U.G.2XP.s f X.h s _ L.D d f Q H.h.{.=XW.S.j 9 , > $ # # # % % % O o O # # # & % % > > & % o X   O O # , A f d m  .B h f A A m J K.^ K :.;.x.~.6Xc.m.N.z.%.P j 9 1 m -.F.&XOXiXuX#X!.8.m 1 , , > 8 m ! V.!.1X$X$X<XA.:.B d B 8.e.y.Q P P Q q.U.u.$.j s 9 1 > & # O . . . .       o . .     o . 1 ` L._ f , # o                                                                                                                     . # 0 V v u.>XmXVXZXZXZXZXZXZXZXVXVXVXVXVXVXZXZXZXZXZXZXVXVXVXZXZXVXVXVXZXZXZXZXZXZXVXVXVXVXVXVXVXZXZXZXVXVXVXVXVXVXZXZXZXZXZXZXVXVXVXZXVXVXVXVXZXZXZXZXVXZXZXZXVXVX",
"ZXZXMXMXZXZXZXMXvXFXG.j &                                                                                             # : 2 ` T.U.S.q.H k a 2 b 0 y y 8 B P.U.p.f.`.<Xr.G v e # & # # # % % % O % & > , 5 w w 6 e 8 > # .   . . . # $ 6 > 5 7 u e 8 8 q y 9 m } ^ J W +.R.R.a.1.x.r.4.<.#./ M 9 q E V.[. XiXiX-XM.u.N 5 > & $ q -.R.3X>X:XpXiXiX*XN.@.m 9 h *.e.J B Y ~ @.6.S.j.+.I K J V q 5 % O . . .     o . % O X X X o , f 0.L.) 8 & .                                                                                                                     . # 8 q v S.kXMXVXZXZXZXZXZXZXZXVXVXZXVXZXZXZXZXZXZXVXVXVXVXZXZXZXZXVXVXVXVXZXZXZXZXZXZXVXVXZXVXVXVXZXZXZXZXVXVXVXVXVXVXZXZXZXZXVXVXZXZXZXZXZXZXVXVXVXVXVXVXZXZXVXVX",
"ZXZXMXZXZXZXZXMXmX9XS.f &                                                                                             . $ d *.U.3.3.+.Q P k f d 8 & 5 0 ) I.$.+.v.'.KXl./ Y ) b 8 , $ $ % % % # # > 0 b F ' ] F D V 6 & # # # .   % # # . % O * # & > 5 4 , d  .T J W I W.n.&.3.(.y.<.a.G.S.R 9 , S i.W.*XiXaX*X$XE.E 8 4 & , T x.rXFX:XzXxXgXhXgXsXG.! 9 9 L 0...U Y / #.d.F.F.g.g.C.S.0.) m q > & & # .   o . .     X X o > a K P._ 8 > %   @     . .                                                                                                         . . 5 8 m (.FXMXMXMXMXZXZXZXZXZXZXVXZXZXZXZXZXZXZXZXVXVXVXVXZXZXZXZXVXVXVXZXZXZXZXZXZXZXVXVXZXZXVXVXZXZXZXZXVXVXVXVXVXVXVXZXVXVXVXVXZXZXZXZXZXZXVXVXVXVXVXVXZXZXVXVX",
"VXVXZXZXZXZXMXMXNX=Xe.9 #                                                                             o o o o @ + @   O & 9 ~ %.1.n.$X$X@XM.V.y./ m 1 , n ..e.f.[.1X<Xz.4.7.w.u.$.B 9 5 4 & % # & , 0 e Z b y q c q 5 > # O O .     o O . . . O # # # & > > 8 b C R B W y.3.@.y.u.,.k.6X1X~.9.v 0 c ( G.-XOXiXBXwX4X:.2 5 8 E S.yXwXxXvXvXvXiXiXgXvX5X5.f , d C ..} ~ +.#.&.s.}.uXiXsX=XW.A.l.,.J d 5 & * + . . . O     X . & 9 I %.L.C > %   . . # # # .   X X X                                         . . . . o           X                           . . . . O # 9 W <XvXMXNXBXBXMXZXZXZXZXZXZXZXZXZXZXZXZXZXZXVXZXZXZXZXZXZXZXZXZXZXZXVXVXVXZXZXZXZXZXZXZXVXVXVXVXZXZXZXZXZXZXVXVXVXVXZXZXVXVXVXVXZXZXVXVXVXVXVXVXVXVXVXZXZXZX",
"VXVXZXZXZXBXMXMXMX{.0.8 #                                                                             o o o o o     . % > d +.k.tX>XwXGXtX%Xc.s.f.w.Y 2 1 S 0.j.C.D.Q.Z.V.V.V.S.w.i.} ) b 4 & & # $ , 0 y e 0 0 b y 0 5 & % . o o o     o . . . . # # # # # $ , 8 d f C 0.:.! u.{ ~ a.3X>X@XV.! q q J y.7XfXxXbXeX6Xq.h q d -.W.;X:XaXaXiXpXpXpXmXxX3Xr.N 5 5 8 V R @.<.4.s.v.&XdXgXiX*X=X$X#XR.E.8.N 0 & . . % . .   + ; O . , j $.P.C < > # . . # # # .               o o                               o . . . o         X X                           . # .   . & d @.3XvXMXNXNXNXMXZXZXIXIXZXZXZXZXZXZXZXZXVXVXVXVXZXZXZXZXZXZXZXZXZXZXVXVXVXZXZXZXZXZXZXZXVXVXZXZXVXVXZXZXZXZXVXVXVXVXZXZXVXVXVXVXZXZXVXZXVXVXVXVXVXVXVXZXZXZX",
"VXVXZXZXIXBXZXMXMX{.^ , #                                                                             o o O o . * . & & d 0.Z.8XcXdX9X1XM.k.v.].=X{.M.2.J s f T / 9.u.u.u.P.P.P.P.P.L... .F w # & 7 t Z Z Z u u y y w 7 = % o   % O     o . . . * & # # % * O . % & & w n B Y L.^ ! 7.F.{.&X=Xb.m 8 9 R C.1X;X;X>X<XS.H f M x.$X;XsXxXaXpXuXaXvXmXaX>Xx.U q , : 1 m ! >.4.k.m.#X,XsX:X;X>X,XcX>X!.S.:.m < $ . . . O . O * % O = q ) I.} B d > %     . . . .             . o o             . . .                 o o                                         . . . # y v <.9XmXVXNXNXNXMXZXZXZXZXZXZXZXZXZXZXVXVXVXVXVXVXVXVXZXZXVXVXVXVXZXVXVXVXZXZXZXZXZXZXVXVXZXZXZXZXVXVXVXVXZXVXVXVXZXZXZXZXVXVXZXZXZXZXZXZXZXZXVXVXVXVXVXVXZXZX",
"VXVXZXZXIXBXBXBXNX{.K : #                                                                             o . . . . . # $ < M U.KX>XfXfX[.a.4.k.;XcXsXfX9X5XZ.K a 9 a d f f f f a a d a s h ) ' u % . . & > 4 4 4 4 7 7 4 & * % . . # # . . o o O % # & 4 & % O X   + o o % > 1 f T ) B W 6.[.,XsX[.{ d 3 h q.!.yX>XrX@XS.P s K W.wX:XsXxXaXpXpXaXvXmXxXrX^.! v 8 > 8 v E -.a.N.8X,X:X,X,X,XwXcXzX*X[.(.U.! f 1 & . . & # # & > & 4 6 v { u.9.G 1 & o X     . .             o o               . . . .               o                       . . .               . . . > A M k.FXmXVXMXNXNXMXZXZXZXZXZXZXZXZXZXVXVXVXVXVXVXVXVXVXZXZXVXVXVXVXVXVXVXVXVXZXZXZXVXVXVXVXZXZXZXZXVXVXVXVXZXZXVXVXZXZXZXZXVXVXVXZXZXZXZXZXZXZXZXZXVXVXVXZXZXZX",
"VXVXZXZXIXBXBXBXNX7XM $ #                                                                               . O . . . $ 8 M Q s.0X>XkXoXs.a.R.9XvXxXpXvXFX#X@XW.6.J 9 5 , 1 , , > > > 5 8 < , & .   o o O * % & & = & % O . . . . # # # # O o o O & 7 F ' F w % ; ; @   X + # $ < < , < a W C.6X7X.XS.K l s W V.6X>XcX{.H.Q j Q 3X,X:XpXpXiXuXpXpXaXmXxXwXM./ m q 5 6 q N ! a.1XsXsXpXpXzXzXvXvXaX&X#X2XG.>.H 2 # o # $ > 8 d 9 6 0 c N @.Q.!.#.f > O X X X o . .                                   . .                       . # #         . . . .               . # 0 V H n.GXVXZXVXMXMXMXZXZXZXZXZXVXZXZXZXZXVXVXVXVXVXZXVXVXVXVXZXVXVXVXVXVXVXVXVXVXZXZXZXZXVXVXZXZXVXVXZXZXVXVXZXZXZXZXZXVXVXVXZXZXZXZXVXVXZXZXZXZXVXVXVXVXZXZXZXZX",
"VXVXZXZXIXBXBXmXNX7Xh $ #                                                                               . . . . . : f u.2X}.rXFX{.g.1.D.KXrXpXmXxXvXsX&X&X8X!.e.q > $ $ $ $ # % . # & $ # # + ; o       o . # # % O       . # # # $ * * O . # > 0 b V n 0 4 % O * . . O # # $ # # $ < f P 2.Z.(.A.$.k l k Q k.$XsX&X.X+.G ~ 3X;XcXpXpXaXiXaXaXaXxXaX,XN.@.M d 0 > 6 c E V.1X,XuXpXsXpXaXmXmXxX:Xv.1.2.e.^ 2 . O 4 : 8 ) K.W m E { 9.x.<X0XH./ q - o X X o . . o       X                     X   . .         . . .         . $ $ .       . . . . .             . & e m P @XvXVXVXZXVXVXVXZXZXZXZXZXVXZXZXZXZXVXVXVXVXVXZXVXVXVXVXZXZXVXVXVXVXVXVXVXVXZXZXZXZXVXVXVXZXVXVXZXZXVXZXVXZXZXZXVXVXVXVXZXZXZXZXVXZXZXZXZXZXVXVXVXVXZXZXZXZX",
"VXVXZXZXZXBXBXNXdX0Xs # O                                                                               . . . . # < J G.FXsXzX:X`.g.p.k.m.$XzXbXBXpXpXsX,X}.b.u.D r * . . . . . O             . O O     o O # # # .       . # $ > > 7 > & & > 1 V v f v n b 0 4 6 5 > $ # # # + . % : < a m T L.S.e.` f a H 4.$X*X&X.X+.j ~ 6X;XeXzXxXxXaXaXvXmXxXaXsX%X<.J v 8 6 0 b | P.!.$X&X,X:XpXpXaXxXsX#X1.I Y } | q O ; Z d d } (.C.4.V.x.W.'.].{.F.e.m 5 %     o o o o           o . . . . . . .   o o             . . .   X X     # #           . . . .               # Z f +.$XvXVXZXZXZXVXVXZXZXBXBXZXVXVXZXZXZXVXVXVXVXZXZXZXZXVXZXZXZXZXZXVXVXVXVXVXVXVXVXZXZXZXVXVXVXVXVXZXZXZXZXVXVXZXZXZXVXVXVXZXZXVXVXVXVXZXZXZXVXVXVXZXZXZXZXZXVX",
"VXVXZXZXZXBXBXNXdX5Xa # O                                                                                 . . # $ a P.2X*XNXpX:X9X7Xg.&.p.wXUXzXbXxXxXsX8XF.w.} y - . . . . # # .     @ + % $ > & # . . O O # # .     X X . # $ 7 7 4 5 5 8 q e V C C N d 9 9 c q c q 1 , $ .     . & , 8 8 0 v >.e.) e , 9 ~ ^.'.#XD.H k W <XwX:XpXxXxXiXiXxXNXBXbXvX>Xa.W v 8 5 8 y D } >.4.s.<X1X>X,XsXuX;Xn.#.G d q q 6 + O ' C f K b.0X0X8XtXrX&X=X#XH.U...0 & .   o   o O . . . O O O O . . . . . . O O O .         . # # .     X     . .                                 % F f <.9XxXMXZXZXZXVXVXZXZXZXZXZXVXVXVXZXZXVXVXVXVXZXZXZXZXZXZXZXZXZXZXZXZXVXZXVXVXVXVXZXZXVXVXVXVXVXVXZXZXZXZXVXVXZXZXZXVXVXVXVXVXVXVXVXVXZXZXZXZXVXVXZXZXZXZXVXVX",
"VXVXZXZXIXBXBXvXdXKX9 #                                                                           X       . . $ < j /.7XuXDX:X&X-XsXsX,X:XeXnXbXUXiXsX8X4.W M < > & # # $ $ : , $ # o % & , a h f d 8 > > & # # O .   @ @ @ . . # # & , , 8 g n [  .) v d f M Y ! Y Y M d 5 & # . * w y b v c a j H Z r % & N i.E.G.u.G M ! @X:XzXvXNXxXiXiXaXNXaXbXxX,XW.@.d > , , 5 > 1 d j M Y -.5.M.8X7Xv.a.Q v 4 & & % X O [ _ h K b.=X-XkXsX,X=X@XD.d.$.R d 6 # o @   . % & & = & % % % O O . . . # & 4 & # # O o   % 4 $ # O @ X   X     X                           o O = 5 Y Z.>XvXDXMXVXVXVXVXVXZXMXMXZXVXVXVXZXZXZXZXVXVXZXZXVXVXVXVXVXVXVXVXVXVXZXZXZXZXZXVXVXVXZXZXVXVXVXVXZXZXZXVXVXVXZXZXZXZXZXVXZXZXZXVXVXVXZXZXVXVXVXVXZXZXZXZXVXVX",
"VXVXZXZXIXBXBXvXdXJX9 #                                                                           X       . . : 9 0.!.9XmXiX*X*X`.*XvXSXvXvXzXzXpXpX=Xs.P s a 9 , 8 1 1 s f d g e 5 & > 9 M Q 2.:./ K m d 8 & % O . . . .     o + * & > > , , 0 0 e q d M ! u.(.Z.Z.E.U.i.| n 0 4 & 0 ' X.| U K H j , % - = y S i.u.K.j f W @XzXzXxXxXaXaXaXaXxXxXxXxXsX@X;.d > , , > 5 q v f a 9 v J >.G.2Xg.#.J q % O % O X % v L s M z.1X=X-X9X8X<Xz.<.I G k s 1 #   O . $ 8 d v v c q 0 4 & . . $ 5 0 d v v d , & & & 4 5 , e 5 & # % ; o   o o X X X               .   . O 7 8 W W.wXvXBXBXMXVXVXVXVXVXMXMXZXVXVXVXZXZXZXZXZXVXZXZXVXVXVXVXVXVXVXVXVXVXZXZXZXZXZXVXVXZXZXZXVXVXVXVXZXZXZXVXVXVXZXZXZXZXVXVXZXZXZXZXVXVXZXZXVXVXVXVXZXZXZXZXVXVX",
"MXVXZXZXIXBXBXvXsX!.9 %                                                                           @       . # < f ).<XFXNX|.:X>Xc.'.pXMXMXxX:X+X8X5Xa.I H H ( K.G K I $.u.U.K...a 9 d B ~ 6.D.<XJX!.C.6.8.) y 7 O & 5 8 5 & @ @ X   o O % # & > 7 w 0 f Y 2.D.5X9X9X8X5X!.y.:.E d 8 6 b  .L.V.p.%.Q a > > > 6 c E } } a a W #XxXbXxXpXaXaXaXaXaXbXxXaXsX$X2.f > > > 8 m R / W J m v d M >.G.Z.#.M 8 % + O o X % 9 L 9 f q.H.N.<XH.6.@.K G G H K J v 4 % % & 8 L >.d.V.u.q.^ m 8 , 0 F ..L.y.D.F.(.8.m d 8 8 A  ._ R L M d 4 % O O . o X X X           . . . O # 7 q @.6XFXxXvXBXMXVXVXVXVXZXZXZXZXZXVXVXZXZXZXZXZXZXZXZXZXZXVXVXZXVXZXZXZXZXZXZXZXZXVXVXVXVXZXZXVXVXZXVXZXZXVXVXVXVXZXZXVXVXVXVXZXZXZXVXVXVXVXVXVXVXVXVXZXZXVXVXVXVX",
"MXVXZXZXIXBXBXvXFXD.9 O                                                                           @       . $ 2 W JX#XsXpX`.=X8X3X$XpXgXmXdX>X@XJX4.P H @.y.A.Y.C.D.b.H.JXY.$.H s j Q w.!.3X1X$X0X7X[.D.U.} b 4 4 5 2 2 3 , % o ; + O % % # # # = 7 8 v :.C..X&XvXdX*X;X#X<XW.E.! B 6 > c } D..Xb.C.*.B f d m U U { ) a a W %XpXxXzXpXaXaXaXxXxXbXxXaXaX=X7.v 5 8 v _ P.U.G.G./.i.} B h K u.U.q.M 0 % O O o   O 8 ) b d 8.w.<.5.~ G f h Y :.r.V.y.} V 6 > , d _ D.1X0X5X2XV.W f 3 1 V K.U.F.=XsX7Xf.<.Q m a m J e.S.G.d.@.B y 4 & # . . X X           . . . . # 4 m 4.9XNXmXbXSXBXVXVXVXVXVXVXZXZXZXVXVXVXVXZXVXZXZXZXZXZXVXVXVXZXZXZXZXZXZXZXZXZXZXVXVXVXVXZXZXVXVXZXZXZXZXVXVXVXVXZXZXVXVXVXVXZXZXZXVXVXVXVXVXZXZXVXZXZXZXVXVXVXVX",
"MXVXZXZXZXZXBXvXFXd.8 .       .                                                                   o       . , h Z.8XFXcX].`.7X7XKXtX,X*X|.v.z.Z.S.I P 1.F.0X9X].,X9X-X=X1Xf.I k Q >.C.W.1X>X>X=X-X-X1XD.,.J 8 , d M P Q Q U c 5 = = = & % # # O % & , f 8.G..X|.sXiXiXaXdXcX,X8X^.-.v 0 0 m #.F.<X<XZ.j.j.4.3.3.5.u.} a a W @X*XpXxXxXaXaXaXxXbXvXxXaXaX=X6.v 5 q U 5.D.}.].|.=X5XG.q.Y J 8.u.8.N 0 & O . O o . > F b d T U m m a 9 N | P.(.4X1X4XE.0.S q 1 a P F.#X=X{.#X<XV./ s 2 f _ U.1XsXNXdX,X9X5XZ.5./ K <.H.1X{..XD.,.N 9 < $ # .             . . . . # < W F.sXBXMXBXBXBXVXVXVXVXVXZXVXZXZXZXZXVXVXVXVXZXZXVXVXZXZXZXZXZXZXZXZXZXZXZXZXZXVXVXVXVXVXZXZXZXZXZXZXVXVXVXVXVXVXVXVXVXZXZXZXVXVXVXVXZXZXVXVXZXZXZXZXVXVXVXVXVXZX",
"MXVXZXZXZXZXBXcXkX<.8 o       .                                                                   o       # 9 W 5X,XHXvX+X[.7X5X<X1X8X=X`.=.1.w.:.P <.5X9XdXHXiXiXdX,X8XW.4.I P y.D.6X7X;X-X:XsXuXkX1X7.J d d B 8.w.D.2XJX(.u.! B B m c q 5 & % % & > 9 W w.b.[.=X:XdXaXaXaXaXpXwX^.{ v 5 1 j #.D.!.F..X7X7X%X%XW.S.8.l a Y R.,XzXxXxXaXaXaXxXvXzXvXmXaX=X4.v 6 T ,.M.=XfXiXiXdX,X1XD.@.M J { _ c 6 & # # O O # & u 8 1 d 9 8 , > 8 D L.).4X>XcXwXtX^.i.Y f 2 j Z.#X=X*XsX9X<XV.J a 2 J 6.N.*XiXvXdXuX|.@X2XS.Q Q f.=X-X-X8X~.5.G a 1 $ # .             . . . & d 5.9XmXVXZXBXbXBXVXVXVXVXVXZXZXZXZXZXZXVXVXVXVXZXZXZXVXZXZXZXZXVXVXZXZXZXZXZXZXZXZXVXVXVXVXZXZXZXZXZXZXVXZXVXVXVXVXVXVXVXZXZXZXVXVXVXVXZXZXVXVXZXZXZXZXVXVXVXVXVXZX",
"MXVXZXZXZXZXBXcX9X#.8         .                                                                 .     O O # v y.tXxXvXsX#XB.h..XB.c.[.7X7XB.f.j.P +.b.8X*XuXxXvXmXzX>X~.y.W J Q z.F.=X,XsXaXxXaXuX&X4.J 0 0 S i.(.6X{.].{.8XtX8X8X3X!.y._ C 8 # # & > 8 m W >.V.Z.W.=XsXaXmXBXBXvXrXZ.Y 9 , 2 a ! u.Z.N. XuXpXcX#Xb.$.l l J D.rXvXxXxXxXmXmXbXvXzXvXmXaX=X1.c 0 { x.#X*XuXgXgXiXdX=XW.3.h f T S 0 6 4 & % . O # - 7 < 1 q q y 5 > 8 N :.^.;XbXZXBXmXwX!.u.J a s ;.n.,XsXaXdX&Xg.w.K s G 7.W.:XpX:X:XpXuX,XKXS.! M -.W.9X-X&X+X4Xq.` f 1 $ .           . . O O > T D.dXhXVXZXBXBXBXVXVXVXVXVXVXVXVXVXVXVXVXVXZXZXZXZXVXVXVXVXZXZXVXVXVXVXZXVXZXZXVXVXVXVXVXVXVXVXVXVXZXZXZXZXZXZXZXZXVXVXZXZXZXZXVXVXZXZXZXZXVXVXVXVXZXZXZXVXZXZXZXZX",
"MXVXZXZXZXZXBXcX8XQ 5         .                                                                 O     O O & B (.wXUXxX:X$Xs.=.=.s.&.&.b.JXXXj.2.I d.1X,XNXBXpX*XpX:X@XE.} B W l.N.+X-X*XpXaXaXiXsXN.W d 0 N 8.(.m.=X-X*XuXvXvXiXgXNXkX<Xq.) b , 0 b v f h j B Y W ;.l.W.$X:XpXmXNXcX8XQ.8.v , 5 8 S :.b.-XdXiXuX&XB.2.h 9 B Z.rXNXmXaXaXNXNXvXbXzXnXxXsX#X<.d 8 ;.$XGXvXpXaXmXxXmXuX8XV.B d N c 5 7 r 7 & # # & , 8 s R } | ) c 9 1 a W M.,XmXZXVXMXzX0XQ./ f a W l.8XsXiXdX,X1XY.~ f m -.F.>X:X>X>X,X=X#X<XZ.:.h J 3.6XwX*X:X9X2Xw.K a > # o           . % & 8 q.3XaXhXZXZXBXDXMXZXVXVXVXVXVXVXVXVXVXVXVXVXZXZXZXZXVXVXVXVXVXVXVXVXVXVXVXVXZXZXVXVXVXVXVXVXVXVXVXZXZXZXZXZXZXZXZXZXVXVXVXZXZXZXVXZXZXZXZXZXVXVXVXVXVXZXZXZXZXZXZXZX",
"ZXZXMXZXZXMXmXuXJXG , . .                               . O                                     . .   o O 5 M KXwXBXUXnXeX:XiXdXv.a.I I C./.0.K <.N.sXNXmXNXmXaXaXsX<XE.m f #.[.,XsXaXaXpXpXiXfX1X(.h d v ! F.8X,X*XvXvXpXvXNXuXDXiXuX1X,.m d d { i.y.4.+.I B m f f m T / d.{.,XsXsXcX,XR.5.N = = 5 N ,..XfXfX*X&X[.q.v 6 v d.-XhXhXaXdXsXxXbXbXbXzXsX9Xf.P 9 a V.}.*XaXmXmXxXxXZXaX>X!.Y 9 q 6 4 * % % & > 8 c B @.z.N.W.~.W.S.L 2 9 m V.@X*XmXmXNXwX5X~.U.B 9 M @.6X].].].[.z.w.8.f a / D.8X-X#Xc.l.d.f.XXXX2.G s ! (.#X&XmXmXGX$XZ.W , & *   @   @   O = > Y 5XcXmXMXVXZXMXMXZXZXZXVXVXVXVXVXZXZXZXVXVXVXZXZXZXZXZXZXZXVXVXVXVXVXZXZXZXZXZXVXVXVXVXVXVXVXZXVXVXVXZXZXZXZXZXZXVXVXVXVXVXVXZXZXZXVXVXVXVXVXVXVXVXVXZXVXVXVXVXVXVXVX",
"ZXZXZXZXMXMXhXsX(.m , # .   o                           O O .                               . .       O & d K <XsXmXmXbXnXvXMXmX>X@X1.#.1.w.J B G.9XaXiXuXaXmXmXdX-XN.+.v f l.{.sXvXmXmXvXdXsX,XG.q.f d J r.$XsXdXxXxXxXaXxXxXiXgXiXsXN.~ m m Y V.~.yXtXtX<Xy.! K M v d a G %.b.5X8X,XwX9XW.{ n 4 > 9 J 7.B.1XqX|.[.u.v 4 q 7. XiXjXiXsXsXzXbXbXzXzXrXF.+.k a J H.|.uXiXxXvXbXmXVXmXsX<XW q b u # . # 4 q m Y :.E.<X;X*X;X>X:X$X$.s 1 a q.W.,XGXvX&Xn.4X!.y.j d a W !.`.m.k.p.%.,.R 9 8 B ,.M.h.g.<.~ ! #.j.J.j.h f J u.5XsXiXMXNXsX#X6.m 5 % o O   @   O 5 v 7.wXBXBXBXMXVXVXVXZXZXZXZXVXVXVXVXZXZXVXVXVXVXZXZXZXZXVXZXZXZXVXVXVXVXZXZXZXZXVXVXVXVXVXVXZXZXZXZXVXVXZXZXZXZXVXZXVXVXVXVXVXVXZXZXVXVXVXVXVXVXVXVXZXZXZXZXVXVXVXVXVXVX",
"ZXZXMXZXMXMXMXsX/.m , # .   o                   o       O O o                               . . . . @ * 8 Y p.-XMXVXMXBXNXNXBXmXNXGX,X'.h.C.K W M.-XaXaXaXxXvXvXsX9Xk.G m W 2X=XpXpXpXpXpX:X*X{.d.W m N ! E.3XsXxXNXpXpXxXvXaXaXiXsX1X3.J f W r.4X3X;X;X,XrX4XF.1Xb.q.} m a a f E :.V.!.5X2XZ.q.m 8 < 9 B >.G.0X|.7XV.m 5 q <.7X&XuXpXpXpXzXxXaXxXcX<X3.G s B >..X-XfXuX,XeXcXbXVXVXNX1X~ d b u 7 & & 9 K 6.Q.KXKX9XsXpXcXcXNX,XH.H 9 9 :.D.%X#X#Xn.4.r.C.S.M d 9 J C.a.p.1.4.2.! m 4 & 0 T q.#.#.W M m J K @.9.M h B w.<XkXuXaXmXsX,X<X>.f > & . . O % & q ~ F.cXBXBXBXMXVXVXVXZXZXZXZXZXVXVXVXZXZXZXZXVXVXVXZXVXVXVXVXZXZXZXZXVXVXZXZXVXVXVXVXVXVXZXZXZXZXZXZXVXVXVXZXVXVXVXVXZXVXZXZXZXZXZXZXZXVXVXVXVXVXZXZXZXZXZXZXZXZXVXVXVXVX",
"ZXZXMXMXMXMXMXsX/.f < # .   o                           . O                                 . . # . o & f w.7XaXMXVXMXbX:X;X:XaXaXdXvXqX[.C.z I g.|.sXNXNXNXvXsX:XtX;.K K S.5X=XcXxXzXzXpXsXuX#X@.j J U ~ Q.#X,XsXNXpXpXvXvXiXaXsX9Xl.Y m J 3.4X#X,XcXsXpXsX,X-XfX|.!./...V d 9 d m Y :.j.G.XXA.*.m 5 > 8 N :.C.oX1XV.h 5 8 +..X=X:X:XpXpXpXaXaXsX$Xl.Y f m Q l.=XuXuX:XeXeXwXnXmXDXNX8X@.h d 8 & & 8 ) S.JX2X#X=X,XpXsXcXvXvX:X2XQ d 9 -.l.c.c.k.a.#.+.&.S.C 8 9 J V.4.4.1.a.6.W f > = 4 V L.@.~ ! N d v f j K } a M u.1.[.9X&XsXsXsXqXG.( 9 > # % % > 8 M 6.#XvXBXBXMXMXMXVXZXZXZXZXZXZXVXVXVXZXZXZXZXVXVXVXZXVXVXVXVXZXZXZXZXVXVXZXZXVXVXVXVXVXZXZXZXZXZXZXZXVXVXVXZXVXVXVXVXZXZXZXZXZXZXZXZXZXVXVXVXVXZXZXZXZXZXZXZXZXZXVXVXVXZX",
"ZXVXMXMXMXMXMXsXU.f , .     o o                                                             . . $ # . > K 2XGXgXgXNXxX*Xn.k.%XtXcX:X,X7XF.V.k H [.-XsXaXxXaXzX:X,X6XW J -.!.#X&XvXxXzX:XsXsX:X6XW a T Y ,.!.N.].:XvXpXuXGXvXiXaXcX<X-.B U ,.N.9X:XxXNXbXaXaXgXhXvX=X!.u.J a a h ^ K j h K >.j.S.P.) w % % 4 v P z.F.q.s 4 , K d.yXeX:X:XpXaXiXuX=XF.8.v 9 h <..X,XpXaXxXzXzXzXbXiXaX,X6X5.M d , > > b ) u.G..X[.8XcXvXsX,X,XwX>XF.W d 9 -.b.`.].h.p.+.+.%.9.g 5 8 U /.x.x.4.1.<.$.m 4 = 4 A I.:.:.8.T c c c d v ..a f 0.Q #.d.b.3X=X|.=XJXu.m > # % & 5 d W F.-XvXBXBXMXMXZXZXZXZXZXVXVXZXZXZXZXVXVXVXVXZXZXZXVXVXVXZXZXZXVXZXZXVXVXVXVXVXZXZXZXZXZXZXZXZXZXZXZXVXVXVXVXVXVXZXZXZXZXZXZXZXZXZXZXZXZXVXVXVXVXZXZXZXZXZXVXZXZXZXZXZXZX",
"ZXZXMXMXMXMXNXkXS.d > .     . .                                                             . # $ $ & 8 >.LXvXiXiXvXcX&Xc.k.@XrXGX&X&X[.Q.>.j P <X,XsXpXxXaXpX:XwXR.U m Z.@X=XfXzXpX:X;X:X:X*XW.E 9 B K y.(.c.h.&X:X:XsXcXsXpXdXsXN.! N 8.!.=XiXaXaXxXpXaXgXMXhX|.`.l.~ h s W e.V.6.@.H j j I Q _ C 7 % . % 5 f >.S.8.a 4 > m 2.yXeXeX:XpXpXuX-X5Xy.B q d W k.=XsXpXxXxXbXbXbXbXaXsX>X2Xi.M a 1 5 8 q d B W 5.Q.M.<XtXrX8X8X>X1XH.W d q ,.R.;XsX}.`.p.&.&.e.b , q Y S.l.l.4.p.1.>.m > & > S L.@.:.{ U v c b b b A d 9 m _ J G ,.D.c.v.`.2XU.) , & & 4 8 j <.0XdXmXMXMXMXZXZXZXZXZXZXVXVXZXZXZXZXVXVXVXVXZXZXZXVXVXVXZXZXVXVXVXVXVXVXVXVXVXZXZXZXZXZXZXZXVXZXZXZXVXVXVXVXVXVXZXZXVXVXZXZXZXZXZXZXZXZXVXVXVXVXZXZXZXZXZXVXZXZXZXZXZXZX",
"ZXVXMXMXMXMXNX9Xu.9 > . o   . .                                                             . . $ $ > q S.0XdXdXsXdXdX*X+X+XpXvX;X`.`.k.u.J m W @X:XcXvXMXBXaXsXrXR.B m !.=XfXNXvXzXeXwXcXcX,XW.N 8 m P S.!.s.s.&X|.*X,X;X&XuXpX-XM.Y B y.1XOXiXiXaXbXUXUXBXgXiXFX<X5.K f M >.C.B.[.F.d.~ H z j m 9 & # O % & 6 C ..) 8 4 & d 8.yXeXeXzXaXiXfX{.A.E 9 q ! V.$X:XsXzXxXxXmXBXBXBXmXvX3X!.9.m f v 8 5 5 6 5 8 q N B ! 3.l.b.N.{..XA.Y d d ,.<X,XdXuXdX1Xb.s.S.m 1 m ! S.t.t.4.a.d.2.B , > 8 R u.+.-.W U B c q q w 8 5 , , D d d U u.<.1.s.7.0.D 4 = & n N P F.kXdXNXMXMXMXZXZXZXZXZXZXVXVXVXVXZXZXVXVXZXZXZXZXVXVXZXZXZXZXVXVXVXVXZXZXVXVXZXZXZXZXVXVXVXVXVXVXZXZXVXVXVXVXZXZXZXZXVXVXVXVXZXVXZXZXZXZXZXVXVXVXZXZXZXZXVXVXVXVXZXVXZXZX",
"ZXZXMXMXMXMXNX9Xi.9 & . @   O O                                                             . . # # & 9 V.1X-XGX,X-X-X&X#X=XpXiX*X+X>XN.U.j B @.8XsXcXvXmXMXxXcX>XW.m J F.GX XNXpXpX;XeXcXzX:XD.q 5 m P A.C.1.p.].].;X>X'.}.*X*X|.c.U m <.}.OXjXaXbXvXzX:X:XpXvX9Xs.K a f _ G.1XFX,X$X6X(.E.#.j f 8 > & % # O % 4 F F > * # q 0.tXbXzXzXvXdX7XG.W f 8 m 3.@X,XvXvXzXxXxXmXBXMXMXaXcX=X!.,.j N  .X.D c q q 0 8 5 6 q d m K +.d.S.0.m 8 9 q.2X,XdXhXiX|.0XF.2.f f Y ;.Q.Z.V.3.1.<.q.J , , f } U.2.{ K Y R m 8 5 > > $ > : Z q m v 0.~ +.#.Q Y n 4 4 , _ / <.0XsXiXMXMXVXVXZXZXZXZXZXZXVXVXVXVXVXZXVXVXVXZXZXZXVXVXZXZXZXZXVXVXVXVXZXZXVXVXVXZXZXZXVXVXVXVXVXVXZXZXZXZXVXZXZXZXZXZXVXVXVXVXVXVXZXZXZXZXZXZXVXVXZXZXZXZXVXVXVXVXVXVXZXZX",
"ZXZXZXZXMXMXmX9X/ 8 #     @ . .                                                           . . .   % # V @.k.@X1X[.KX<X!.1.1.}.pXpXpXGX0Xy.K z (.,XdXzXzXmXVXNX:XrXW.Y J [. XNXiXuX:X;X;XeX*XGXz.8 & f 8.w.<.4.&.v.'.'.$X6Xm.].,Xv.!.Y B 1.h. XOXpXzXzXzXnXwX:X,X1X4.f d v 0.H.}.,X,X,X;X$XtX6X6.K s , , > % . o O % = # . & 9 $.;XmXbXpXuX9XF.>.f 9 f W k.>XzXxXbXbXzXzXzXxXmXBXgXsX-XN.>.B d n ) ..P.P.8.K h d , & 7 & & 0 9 9 e 0 > q 0.!.7XdXjXhXlX3Xa.Q J Y 3.z.^.x.r.S.r.@.} v 5 5 m 8.w.@.! E J } m n , > > $ $ 5 y 9 T m E B @.~ ^ N y 0 1 C :.d.N.,XvXmXMXZXZXZXVXVXVXVXZXZXVXVXVXZXZXZXVXVXZXZXZXZXVXVXZXZXZXZXVXVXVXVXZXZXZXZXZXZXZXVXVXVXVXVXVXVXVXZXZXZXZXZXZXZXZXVXVXVXVXVXVXVXVXVXZXZXZXZXVXVXVXVXZXZXVXVXZXZXZXZXZXZX",
"ZXZXZXZXMXMXNX8X! 5 #     o . .                                                             . . + - V _.Q.k.1.&.c.D.#.Q K -.N.,XxX*X,X<X2.H K Q.,XiXzXvXgXmXvX:XwX~.{ J B.-XdXiXvXcXeX;XwX:XcXz.q > d } 9.>.<.#.6X[.m.3XN.s.=X+Xv.!.{ Y z.}.|.*X+X;XeXeXeXeXwXtXF.>.9 8 v 0.F.`.].;XUXUXzXzXrX3XA.*.f , > % O   @ o % . . & a >.wXxXaXsXkX2X,.B 9 9 J 4.#XsXxXmXMXBXbXzXzXpXiXuXuXfX7XD.@.m 8 8 m H +.j.G.H.7.Q m > % o O & $ > # & > d 0.U.F.7XiXdX#Xk.;.-.{ -.k.%X1XR.x.r.r.9._ d 8 8 B 8.,.~ ! E Y } J C e 6 & # & 6 q v R B T m R R ) b 8 8 m :.z.'.,XvXNXVXZXZXZXZXVXVXVXVXZXZXVXVXVXZXZXZXVXVXZXZXZXZXVXVXVXZXZXZXVXVXVXVXZXZXZXZXZXZXVXVXVXVXVXVXVXVXVXZXZXZXZXZXZXZXZXZXVXVXVXVXVXVXVXVXVXZXZXZXVXVXVXVXVXZXVXVXZXZXZXZXZXZX",
"ZXZXZXZXMXMXNX8XJ > O       . .                                                           . . . # < ( !.8X:XcXGX1Xz.H h M 8.Q.3X,X&X3X!.:.m B w.=XuXsXvXaXiXxXsXrXW.,.K 1.7XsXdXdXcX;X%XcX,XcXF.d > d _ 8.@.<.#.N.c.s.<Xk.a.8Xv.a.V.0.! d.F.h.].v.%XeX:X;X;X@X^.V.^ 8 5 f 9.F.h.%X%XwXnXzXbXzX,X1XY.0.n > % o   @     . O > h 7.>X:XpXkX5Xw.B 8 8 h #.<XFXvXxXMXMXMXxXxXvXvXaXfX].<XD.2.J d 4 & 1 h +.f.XX7X{.H.w.M 9 w w , : , $ : : 1 L 8.q.G.6X1Xl.~ W :.,.<.].*XsX>Xc.4.<.>.T 9 8 d K ;.@.~ Y K K K M h q > # # > 0 d T R R ) m B B n q 8 d :.D.=XfXvXMXZXZXZXVXZXZXVXVXZXVXZXVXVXVXZXZXZXZXVXVXVXVXZXZXZXVXVXVXZXZXVXVXVXVXVXVXZXVXZXZXZXZXZXZXVXVXVXVXVXVXVXVXZXZXZXZXZXVXZXZXVXVXVXVXZXZXVXVXZXZXVXVXVXVXVXVXVXVXVXVXZXZXVXVX",
"ZXZXZXZXZXBXNX0XM & .       . #                                                           . . # > d U.1X:XsXcX,X1X<.h a B :.r.s.>X9X!.U.} v m P.<X|.:X:X*X&XpXsXrXR.y.K Q M.=X*X&X;X%Xm.>X;X,X<Xh 1 9 D ^ / 5.1.s.c.a.W.M.a.1Xm.<.;.{ W >.C.p.g.s.m.>X>X+X%Xn.<.8.T 8 5 m >.D.p.n.k.R.;X:XpXpX:X}.H.K.F 7 % o X o   . . # > h 2.N.=X,X1X6.J 8 , 2 K C.qXFXvXmXBXZXVXxXpXpXuX*X].F.V.:.J f q 6 0 f W a.[.{. X XqXf.I J ..X.) 2 < 9 f a l h B B ^ 5.5.! N B { 6.s.-XiXvXsX%Xk.4.,.B a a B +.7.;.;.,.>.q./ ( L A w # # 5 q m } T T _ m m v c 8 8 B z.8XvXgXMXZXZXZXVXVXZXZXVXVXZXZXVXVXVXVXVXZXZXZXVXVXVXVXZXZXVXVXVXVXZXZXZXZXVXZXVXVXVXVXZXZXZXZXZXZXZXZXVXVXVXZXVXVXVXZXZXZXZXVXZXZXVXVXVXVXVXZXVXVXZXZXZXZXVXZXVXVXVXVXVXZXZXZXVXVX",
"ZXZXZXZXZXMXNX0Xm $ O X     . #                                                             . . . < q.c.+XwXcX=Xb.H l f / 2.1.p.%X<X-.J D q q L.2X=X=X;X].].:X,X>Xn.V.W G 6.[.=X`.'.%Xc.%X'.]..XG 2 1 n S ( y.z.s.<Xk.F.<Xg.'.@X1.+.@.W @.w.7.p.p.k.@X@X[.N.z.@.^ C 0 8 v R q.+.~ -.x.6X;X&X>X8X2X2.C w = O o o o   # . O & a 8.V.G.H.<.G 9 > , 9 ~ F.=X*XdXvXaXBXxXuX:X:X-X{.M.u.R m d d d c S 5.s.`.|.-X,X-X#X2X#.B J / 8./ P I $.$.Q W B 9 q v c 6 0 v Q C.1X|.fXdXfX;X[.a.@.j s H $.b.n.d.r.<.%.q.W W M n > # % 8 v Y i.U U T M m m b q 9 K N.sXmXhXMXZXZXZXZXVXVXVXZXZXZXZXVXVXZXZXVXVXVXVXZXZXZXVXVXVXVXVXVXVXVXVXZXZXZXZXVXVXZXZXZXZXVXVXZXZXVXVXVXVXZXZXVXVXZXZXZXZXVXVXZXZXVXVXVXVXZXZXVXVXVXVXZXZXZXZXVXVXZXZXVXVXVXVXVXVX",
"ZXZXZXZXZXBXNX0Xf # o X     . #                                                             . . & 1 I =.%X;X:X$XV.j 2 C S.XX@X=X].N.P m D q , U !.=X>X+Xm.[.>X>X`.s.V.,.B / H.1Xg.g.m.k.R.[.].XXI s 1 q f U V.D.s.<Xk.k.6Xn.v.5Xk.1.<.Q ! 8.w.4.k.k.b.M.k.l.w.W B c 8 8 d M / W W ~ t.~.W.F.D.d.>.J 0 = % O . *   . % O . % 5 A 0.0.^ M 8 , > , m ,..X=X*XvXvXxXsX:X>X3X3XF.C.q.T d 9 d B J B ! E.@X*XpXsXcXsX+X<X7.J G @.w.q.I %.z.G.S.C.2.Y S v 8 & 4 9 j $.H.N.=X,X,X$XN.1.P k j / d.{.#Xa.t.<.%.9.( R m n , % 4 d Y 2.y.! U B C v d q q f ;.{.dXmXmXBXZXZXZXZXVXVXVXZXZXZXZXVXZXZXZXVXVXVXVXZXZXZXZXVXVXVXZXVXVXVXVXZXZXZXZXVXVXZXZXVXZXVXVXZXZXVXVXVXVXZXZXVXVXZXZXZXZXVXVXZXZXVXVXVXVXZXZXVXVXVXVXZXZXZXZXVXVXVXZXVXVXVXVXVXVX",
"ZXZXZXZXZXBXNX0Xf #   X     . #                                                             . # < G &.`.FXGXzX8Xy.f 8 h H.qXsXdXgXsXd.i.} f 9 h H.{.#Xv.k.n.@Xv.c.p.a.u.m B C.6Xs.p.R.n.R.[.{.[.&.H 9 8 9 M V.F.s.c.k.s.N.@Xc.#X[.c.a.<.Y W q.<.k.p.d.r.;.;.:.T v 0 8 8 9 d _ / ,.#.<.6.q.:.L f 5 4 = % % # # *     % . o o O 7 A v 9 , > > 5 9 ^ q.<X9XdXdXsX,XrX3XE.u.:.Y B f 9 9 m ! 2.<.#.@.t.^.wXvXxXaXaXpXtXZ.U v Y q.S.+.<.Z.~.W.8X=X[.G.>.M 5 & , 3 s G 9.Z.4X5X!.l.@.H j R q.J.=X=X4.3.;.@.^ C v q 0 > & w B >.F.s.;./ B A g 8 5 c J S.=XdXNXxXnXbXBXZXZXZXZXZXZXZXVXVXVXVXZXZXZXZXVXVXZXZXZXVXVXVXZXZXZXZXZXZXZXZXVXVXVXZXZXZXVXVXVXVXZXVXVXVXZXZXZXZXVXVXZXZXZXVXVXVXZXZXZXVXVXZXZXZXZXZXZXZXZXZXVXVXVXVXZXZXZXZXVXVXVXVX",
"ZXZXZXMXMXNXvX5Xf O       o . O                                                           . . # 2 T.XXsXcXnXzX9XQ.B 9 f J.fXiXiXMXdX6X(.W a f j f.`.}.g.1.a.c.s.c.p.1.u.f f y.JXb.p.R.n.N.N.m.g.C.*.f 8 5 v q.Q.b.p.k.k.b.<Xs.s.1X[.c.a.K B 0.:.;.+.;.5.~ Q ^ S c 0 q 8 8 9 ) ..*.$.>.Q j a 1 > % O O o # & %       O     +   O > $ # % * & 8 v K.q.D.5X0X'.n.M.4.;.E N c q 8 9 9 B ;.C.6X6Xx.3.! t.$XzXBXMXMXxX>Xx.U N ! u./.+.<.^.W.%XdXdXuX=Xa.P 9 5 8 , < 1 d B :.u.y.@.K G ! e.G.N.-X&Xa.4.<.+.T n 0 5 4 & 4 b Y 6.6Xs.7.8.f A b 0 8 N W W.,XNXvXxXnXnXmXZXZXZXZXZXVXVXVXVXVXVXZXZXZXZXVXVXZXZXZXVXVXVXZXZXZXZXZXZXZXZXVXVXVXZXZXZXVXVXVXVXZXZXVXVXZXZXZXZXVXVXZXZXVXVXVXVXZXZXVXVXVXZXZXZXZXZXZXZXZXZXVXVXVXVXZXZXZXZXZXZXVXVX",
"VXZXBXBXBXNXNXF.9 O     o   . .                                                             . & a ).7XuXSXbXzX,X5Xw.a a &.9XsXmXNXvX:X5X-.a 9 M G.B.v.m.z.x.n.m.m.a.~.y.M M @.U.C.&.B.[.B.s.c.&.F.S.B 8 0 0 m P.C.s.&.a.a.Q.a.<.W.6X#Xa.Y N S } Y ^ Y E $.! M N a m D Z 0 , 8 n m h s a 2 1 , $ % O O . O . .             . O # # # # . # & e ) L.i.w.5.,.{ U N a 2 1 , > 4 0 c Y d.#X:X:XtX~.y.-.<.n.:XBXMXMXNX,XM.U N W 5.E.;.1.M.3X,XaXgXuX-Xc.;.J q D Z > 5 > , d C J G P #.Q.W.[.;X:X;X%Xv.v.l.R y 4 = 4 6 c m { S.#.#.P.J f g Z y 8 Y W.cXBXZXmXbXvXvXVXVXZXZXZXZXZXZXVXVXVXVXZXZXZXZXZXZXVXVXVXVXVXVXZXZXZXVXVXVXVXVXVXVXVXVXVXZXZXZXVXVXZXZXZXZXVXVXZXZXVXVXVXVXZXZXVXVXZXZXZXZXVXVXZXZXZXZXZXVXVXVXVXVXVXVXZXZXZXVXVXVXZXVX",
"VXDXBXBXBXNXdXM.8 @     o . .                                                           .   O > s ).9XiXDXbXzXrX{.7.2 9 +.2X>X:XpXzXsX>X5.h v M Z..Xv.s.4.4.a.k.$Xn.<.y.8.h J 9.2.p.s.g.B.g.a.p.6XV.Y c 6 4 q R q.j.&.&.%.V.6.<.d.W.8XB.W f q n D V m m J J m N L _  .D q , 1 d f j j G G m a 1 > $ # # # . .             . # # # . . . . # w V C B M j f q 4 & # $ > : & 5 c U l.#XaXaXpXeX$X^.t.<.p.+XxXmXaXaX,XM.J N / V.A.#.a.@X>X:XaXiXuX;X@X<.Y B  .D 5 & # # & 5 9 f W w.F.[.&X;X:X:X:X;X}.F.} b = = 6 q E J q.U.#.+.^ L d g Z q f ;.8XxXZXZXBXbXvXNXVXVXZXZXVXVXZXZXVXVXVXVXZXZXZXZXVXVXVXZXVXVXVXVXZXZXZXZXVXVXVXVXVXVXVXVXVXZXZXVXVXVXZXZXZXVXVXVXZXZXVXVXVXZXZXZXVXVXZXZXZXZXVXVXVXZXZXZXVXVXVXZXVXVXVXVXZXZXZXZXVXVXZXZX",
"VXZXBXBXBXvXsXf.8 o     o . o                                                           .   . > k Y.{.uXDXxX:X#XF.2.a < d { V.yXrXcXvX#Xl.J U K G.F.c.z.r.;.<.n.R.4X<.;.i.B h J 9.w.#.p.JXW.p.W.B.f.:.V 4 4 0 9 ^ e.w.#.+.<.6.7.;.C.1X1X7.K d q y w 0 q f m S T ....| B v M K Q <.f.b.F.!.D.6.@.M d 5 & # O O . .           . . .         . & 7 8 1 1 , > & % O . # # $ , v :.Z.8XcXmXmXaXpXzXtXE.;.#.k.wXcXzX,X8Xz.B N :.S.S.%.n.$XwX:XsXzX:X>X6X3.W ^ | ) q > O   . # > q R P.Z.F.#X;X*X:X:X:X{.G.0.c 5 0 m U :.@.S.C.%.#.K B a e e q J V.rXbXZXZXBXbXvXNXVXVXZXVXVXVXZXZXZXZXVXVXVXZXVXVXVXVXZXZXZXZXVXZXZXZXVXVXVXVXZXVXZXZXVXVXZXZXZXZXVXVXZXZXVXVXVXVXZXZXVXVXZXZXZXZXVXVXZXZXVXVXVXVXZXZXVXVXVXVXZXZXZXZXVXZXZXZXVXVXVXVXZXZX",
"VXVXBXSXNXvXsX1.8 o       . o o                                                         .   . > j Y.6X-XvX;XR.l.2.Q a 1 , V :.^.rX:XsX`.C.~ } { 2.z.f.4.y.,.<.c.k.R.x.@.9.} a f ^ 0.Q +.Z.!.a.c.s.p.9.| y 5 5 1 m _ i.$.P Q 2.y.Q #.f.b.j.$.v , 4 & & 7 6 d V B B M h j W y.Q.W.=X,XsXGXGXrX$XW.y.8.C 9 & . O % .                           O # $ $ $ $ # O O O % & > 0 B 9.Q.0X,X*X:XsXsX*XuX=X(.;.Q p.$XrX,X>X1Xd.J M #.d.d.a.%XeXwX:XcXcX,X3XW.r.~ ^ B T v 8 #   O % & 5 n } i.V.D.<X#X$X>X#X.XS.R q 9 f W ,.#.6.G.1.#.$.Y h 8 0 9 f -.!.FXNXZXZXBXmXNXBXVXVXVXVXVXVXZXZXZXZXVXVXZXZXVXVXVXVXZXZXZXZXVXZXZXZXVXVXVXVXZXZXZXZXVXVXZXZXZXZXVXVXZXZXVXVXVXVXZXZXVXVXZXZXZXZXVXVXZXZXVXVXVXVXZXZXVXVXVXVXZXZXZXZXVXZXZXZXVXVXVXVXZXZX",
"VXZXBXMXmXvX,X+.5 o       . o o                                                         .   . & a L.S.l.k.;.{ E j h k m e A @.p.=X].-Xh.C.:.0.} K 2.2.Q $.u.a.1.n.c.z.6.i.0.M f M K.0.Q +.!.F.s.h.p.;.0. .y > 8 2 f ` ) T G ( } ^ ( +.%.2.^ d $ & # % = & 5 d h I +.#.<.z.5XrX*XvXmXmXxXbXzXeX>X7X.Xw.R q % . o                                 . . . . . . . # > q B { V.2X8X=X8X#X<X5X3X#X&X=X2X1.+.a.1X,X-X&X[.&.z z &.f.p.s.+XzXxXpXxXsX+XN.l.5.! K k R ( s $ . O % % & 5 c S W :.y.Q.!.W.Z.u.^ f 9 f J +.d.p.H.d.<.@./ T 9 , , 2 K V.3XvXMXZXZXBXBXBXMXVXVXVXVXZXZXZXVXVXZXVXVXVXVXVXZXZXZXVXVXZXZXZXZXZXZXZXZXVXVXVXVXZXZXVXZXZXZXZXZXVXVXZXVXVXVXVXZXZXZXVXZXZXZXZXVXVXVXZXVXVXVXZXZXZXZXVXVXZXVXVXVXZXZXZXVXVXVXZXZXZXZXZXZX",
"ZXVXMXMXxXvX8XI , o       . o o                                                         .   . & 1 L K I #.@.! m m R $.0.e d I s.1X`.{.h.V./ ) ) L K K ^ } 9.6.f.c.<Xk.l.y.u.0.f f R 0.e.#.6.W.5Xg.s.#.~ .. .v 8 1 < 8 g A g f f n V M M M h 8 > > > 8 8 0 v W +.D.4X0X0X8X,XsXpXMXMXMXBXbXnXnXwX,XqX(.P.D w %                     o o     O .   . . # # $ $ : 8 B { S.W.7X,X,X=Xn.a.3.y.V.C.B..XC.%.+.6.W.3X7X1XD.+.k G j.J.&.p.&XvXxXaXxXsX+Xn.3.;.K H G *.9.j < $ % % % O # > 8 q m E 8.9.:.~ J m 9 d T $.a.B..XF.7.5./ M N 8 , < f >.<X,XvXMXMXMXMXMXMXVXVXVXVXVXZXZXVXVXVXVXVXVXVXVXVXVXZXZXVXVXZXZXZXZXZXZXZXZXVXZXVXVXZXZXVXVXZXZXZXZXVXVXZXVXVXVXVXVXZXZXVXZXZXZXZXZXVXVXVXVXVXVXVXVXZXZXZXZXZXZXVXVXZXZXZXVXVXVXZXZXZXZXZXZX",
"ZXMXMXMXxXGX5XK >       . . o                                                           .   O & d ( +.1.R.R.Z.;.5.A.2Xj.2 < K V.JXb.B.f.$.J q e D a f ) ) ^ w.D.p.W.b.a.a.V.u.K h f Y i.q.+.1.!.s.a.<.Q E ..| d q < > > w > = # # & & & & : > , d H Q @.,.V.[.-X&X=X,X,X-X:XxXSXgXgXxXxXzXwXwXwX>X1X!.u.) y = .                     . . . # # . . # : < 2 f H Q z.1X9XuXpXaX,X$X+.J v f m J Q +.+.I Y { y.S.Z.C.0.B a m K.0.K >.@XcXsXiXgXaX-X[.1.;.W K ( 8.e.P a , > & & % # % # & 5 q v m v f a v m C :.V..X{.7XB.d.>.Y f q 8 , 1 K Z.7XdXMXBXBXMXMXMXVXVXVXVXZXZXZXZXVXVXVXVXVXZXVXVXZXZXZXZXVXVXVXVXZXZXZXZXZXZXZXZXVXVXVXZXZXZXZXZXZXZXZXZXVXVXVXVXVXVXVXVXZXZXZXZXZXZXZXZXZXVXVXVXVXVXVXVXZXZXZXZXVXVXVXVXZXZXVXVXVXVXZXZXZXZX",
"DXMXMXMXaXGX4XH >       . . o                                                           . . O > f u.2XtXFX>X3XN.1X{.oXf.s 8 B / U.<.<.+.J f : 5 0 5 8 1 1 R P.<.#.1.z.p.p.7.+.u.B J R R i.@.#.#.(.#.>.9.J M ) D Z w w # % . O O % % % % > 5 6 d ! d.N.[.5X8XuXgXSXdXdXdXvXsXuX*XsXuX:X;X$X6X<XW.2Xz.<.Q m q = O o   . . .         . . . . # # $ $ , 9 h K #.D.5X,XvXmXaXgXmX:Xm.@.J q 5 5 a h j z z m B Y ! @.W E c 0 e D C d } Z.<X#X|.sXsX-X{.=.<.+.Q { W 9._ d 8 , > = * O . O # & > 5 8 8 8 q )  .) 8.S.F.F.F.d.u.R d q , , , d >.6XdXNXDXgXBXBXMXZXVXVXVXVXZXZXZXZXVXVXVXVXZXZXVXVXZXZXZXZXVXVXVXVXVXZXVXVXZXZXZXZXVXVXVXZXZXZXZXZXZXZXZXZXZXVXVXVXVXVXVXVXVXZXZXZXZXZXZXZXZXVXVXVXVXVXVXVXZXZXZXZXVXVXVXVXZXZXVXVXVXZXZXZXVXVX",
"VXZXDXmXNXkXJXj : .     . . o                                                           . . O > m JX7XsXsXGX*X-X-X|.-Xs.m 6 0 c ..} K M v b 6 # & $ & > 5 d R e.W @.6.V.4.#.#.e./ R C C R } / W W 8.L.0.R m d b F F u 4 # % % & : < , v B T v B V.1XGXdX,X,XaXgXMXMXmXaXsXsX,X9X1X1X2XC.j.w.q.9.{ ! K j M m 6 O . . # $ $ #     o O . . # # $ 7 e v T ,.F.8XsXiXgXMXmXmXmXxXxX,Xn.-.v 5 4 8 j K Q K U U J K Y j 9 , $ & 4 > > q } :.#.d.F.5X0X7Xg.p.7.5.! J U ) V 8 > > % * ;   . # & & > 8 g n A A V v B ) / W J E D y 4 > > : 8 ^ Q.8XgXMXMXDXMXMXZXZXZXZXVXVXZXZXZXZXVXVXZXZXZXZXVXVXVXVXVXVXZXZXZXZXZXZXVXVXVXVXZXZXZXVXVXVXVXVXZXZXZXZXZXZXVXVXVXVXVXZXVXVXVXVXZXZXZXZXZXZXVXVXVXVXZXZXVXVXZXZXZXZXVXVXVXVXZXZXVXVXVXVXZXZXVXVX",
"MXZXDXmXNX9X(.f > .     . . o                                                             . O & v ).6XFXcXcX*X*XsX*XdXm.! N 8 5 n b d 9 b Z w 4 & $ # % & , d ) T R / i.u.>.Q H _ ) V d 9 d N T v N S S v q 8 0 5 5 , , , 5 8 8 8 f U 0.u.u.U J 3.N.uXiX-X,XsXdXpXiXpX,X=X#XF.D.G.S.>.I z k k s m m G W { _ y % o . # # $ # O .   O O . # $ & w [ .._.(.3X:XmXVXMXMXmXxXbXxXaXpXtXZ.! c 5 q ) L.T.U./.P.y.r.3.Q U V q > & & , 9 f h M J ! >.w.C.z.f.d.7.{ U S D n q 5 4 % * * O O % % $ > , 5 0 8 q 9 1 9 v m f f d y r % O # 5 v ,.6XsXMXMXVXZXMXMXZXZXZXZXVXVXZXZXZXVXVXVXZXZXZXZXVXVXVXVXZXVXZXZXZXZXZXZXVXVXVXVXVXZXZXVXVXVXVXVXZXVXZXZXZXZXVXVXVXVXZXZXZXZXVXVXZXZXZXZXZXZXVXVXVXVXZXZXVXZXZXZXZXZXVXVXVXZXZXZXVXVXVXVXZXZXVXVX",
"MXMXZXMXSX9XU.d $ .     . . o o                                                           . O & y } V.R.R.R.%X+XGXFXFX8XQ.0.N 6 & & > 0 q 0 5 > > $ # # # # & 6 Z y c B _ _ R B m V b 5 $ $ 5 0 4 5 6 5 4 & & & 4 , 9 h J K K B d S q.!.4X!.{ U ,.Z.8X,X>X3X3X3X1X6X<X!.Q.S.q.:.! H h k s k k j W Q ,.S.P._ w O X X o O # % % % . # # O # % % 7 b | _.(.0X:XaXgXmXmXaXaXaXmXmXmXvX$Xl./ h 9 f _ j..X<X<X8X9X=X[.C.u./ h 9 d J K h s 9 , 5 8 v B 8.q.7.5.9.E N D D A q , > & % * * % # # & $ $ $ & > 8 9 f J Y K W J n 6 % o % 8 ! Z.0XdXMXVXVXVXMXMXZXZXZXZXVXVXZXZXVXVXVXVXZXZXZXZXZXVXZXZXZXZXVXVXVXVXZXVXVXVXVXVXZXZXZXZXVXVXVXVXVXVXVXVXZXZXVXVXZXZXZXZXZXZXVXVXVXVXVXVXZXVXVXVXZXZXZXZXZXZXZXZXZXZXVXVXZXZXZXVXVXVXZXZXZXZXVXVX",
"BXMXZXVXSX9Xi.q $ .     . . o o                                                           . O % 4 c ! <.4.k.$XwXcXcXzX>X5XA.B 8 4 7 u F Z w 5 5 > & # % O . . O = & & , q v V D 8 5 4 & % # . O % % % # O O % & 4 q J @.V.D.Q.S.N E z.7X-X3X3.Y ! :.V.Z.x.l.r.r.~ ! W W Y U B j j k k j z z x I S.G.(.(.0.m & @ @ X X . % % % % 5 w 5 & # O O & > c { S.4XtXcXcXsXsXuXuXpXxXBXBXaXsX8X!.:.j 9 f 7.1X7X&XsXaXiXdX1XJXA.Q m T u.A.q.( f , # O % > v R W ~ 8.E v n  .) g < , > $ & * & # # . . O % & 5 q n A ) } / i._ n 5 % % & 9 w.6XkXaXVXVXVXVXMXMXZXZXZXZXVXMXZXZXVXVXVXVXZXZXZXZXZXVXZXZXZXZXVXVXVXVXVXVXVXVXVXVXZXZXZXZXVXVXVXVXVXVXVXVXVXVXVXVXZXZXZXZXZXZXVXVXVXVXVXVXVXVXVXVXVXZXZXZXZXZXVXZXVXVXVXVXZXZXZXZXVXVXZXZXZXZXVXVX",
"BXMXZXVXmX0X8.8 $ .     . . o o                                                             . % % 4 J <.k.`.,XvXvXNXvXpXkXN.J 8 > > 5 w w 5 > & & % % * * * O o o . % & & > 6 w > & # . O O o   O O % O O O - 7 ' L.U.F.[.#X[.k.Y ~ #XfXiX,XM.,.m v N N N B B m c q q c N B U K K P +.6.C.H.XXLX{.6X!.q.J 1 & O X   X @ O # % > C ) V 6 & % O % 4 8 v U -.V.^.~.W.1X=X*XpXxXvXvXxXsXsX7Xz.~ v f @.F.0X:XaXgXgXdX|.1XF.%.m U C.5X.XC.{ V 6 % O O & q d m T N q c S ) n 8 , > > w 4 4 & # . . + - u F ' ' o.o.' D A v 0 w 7 > 1 G F.9XdXgXMXVXVXVXMXMXZXZXZXZXMXMXZXVXVXVXVXZXZXZXZXZXZXZXZXZXVXVXZXVXVXVXVXVXVXVXVXVXZXZXZXZXZXVXVXVXVXVXVXVXVXVXZXZXZXZXVXZXZXZXVXVXVXVXVXVXVXVXZXZXZXZXVXVXZXZXVXVXVXVXZXZXZXZXZXZXZXZXZXVXVXVXVXVX",
"BXMXZXVXmX0XE 5 $ .     . . o                                                               . O # > S P.F.0X+X&XpXaXSXmXNX=X+.m m d 8 , 6 w 7 & % O O % * * O O . . O O # # # % % # # . .     @   . O O O % = 0 S i.!.#X&XsXrXW.~ #.-XhXgXsX3Xx.Y N 5 > , 9 s s N N B U ! -.5.6.D.D.W.<X[.}.}.{.{.B.2.H a , > & & O o o O # & 8 8.e.} d > % O % # > , 9 f m U ! w.Z.<X1X>XwXwXeXsXpXuX&XN.7.Y v m @.N.,XvXmXgXgX-X=X.X<.m B z.7X|.#XQ.i.D 0 & % % > > , 9 8 , 8 8 n Z e , > , w u u w 4 # . O * 5 8 d y w 7 5 8 a 2 d ' Z < l >.#XdXmXgXMXVXMXZXZXZXZXZXZXZXMXMXZXVXVXVXVXVXZXZXZXZXZXZXZXZXVXVXZXZXVXVXVXVXVXVXVXVXZXZXZXZXVXVXVXVXVXVXVXVXZXVXZXZXZXZXVXZXZXZXVXVXVXVXVXVXZXZXZXZXZXZXVXZXZXZXVXVXVXVXZXZXZXZXVXZXZXZXVXVXVXVXVXZX",
"BXMXVXVXgX0XJ > # .     . O                                                                 . O # > n K.C.6Xp.s.'.].cXaXiXfXf.+.Q R m 1 & % O       o O % % # # # O     . . O O . . # * # .         O # # & > 9 Y 6.1X-X*X:X$XR.;.#.-XNXdXfXsX[.V.! 0 4 c L Q +.Z.F.<X<X$X>X9XFXwXwXrXtXrXrXtX$Xz.@.m 9 , , 9 v C d > $ # % 6 N l.!.y.J 9 > # # . $ > , 8 8 9 d J / ,.6.x.^.$X$XwXvXvX:X$XF.2.J v U t.$XcXxXaXpXkX#XN.;.d B b.-XuXsX9X4XV.! f , 5 > $ # $ $ $ $ & 5 u w 7 6 w 8 Z Z b e 5 > $ # $ > , 8 5 8 d M P I _ ..n < h S.=XmXmXgXMXMXBXZXZXZXZXZXZXZXMXMXVXVXVXVXVXVXVXVXZXZXZXZXVXVXVXVXZXZXZXZXVXVXVXVXZXZXZXZXZXZXZXZXVXVXZXZXZXZXZXZXVXZXVXVXVXVXZXZXZXZXZXVXZXZXZXZXZXZXVXVXVXVXZXZXZXZXVXVXVXVXVXVXVXVXZXZXZXVXVXVXZXZX",
"BXMXVXVXaX5XM > # .     . O                                                                 . . . # > C W j.I +.4X@XrXsXiXdX{.f.p.C.i.J 8 & O   X   o O # # . . . . O . .       % . . . # # . . O # # # # & > 1 M +.c.=X:X,X>X1X<.#.7XkXsX*XsX=Xx.! d c ^ u.H.B.{.,XdXdXsXpXpXaXNXvXzX>XtXyXR.3.W s < > > 8 R P.0.L 9 : # & c ! R.tX!./ d 5 & & > > : > 8 q q d a h M B Y ,.Z.^.W.3X,X{.N.G.e.E y q ! x.@X,XdXdX9X[.f.W a U M.-XNXaX*X>X4XS.W s 9 5 5 , > $ $ . % # # = 7 Z ] w 8 8 9 e e e 8 5 , , 1 9 f m W >.S.U.e.L 1 1 K C.,XMXBXmXmXmXmXMXMXZXZXZXZXMXMXMXZXVXVXVXVXVXVXVXVXVXZXVXVXVXVXVXZXZXZXZXZXZXVXZXZXZXZXZXZXZXZXZXZXZXZXZXZXZXZXZXVXVXVXVXVXVXZXZXZXMXMXMXZXZXZXZXVXVXVXVXVXVXZXZXZXZXVXVXVXVXVXVXVXVXZXZXZXVXVXVXZXZX",
"mXMXZXMXvX5Xf $ # .       . o                                                                       # > 1 a R i.E.D.g.].&XvX-X,X,X8XJXy.J 8 & O .   # & * O     . . .       o o   O % % & & & & r t 4 # # # & 0 v J @.p.[.FXsX,Xs.%.F.3X+XwX,X@X3.B M / !.5XR.tX;X:XiXaXzXeX;X:XmXaX:X$XF.5.J f f 2 , > 8 R z.k.E.^ 8 $ > 9 Y ^.wXwX<X,.c > , d n d q y D ..0./ Y U N d 9 d B Y ^ 9.Z.b.d.8.S q q c v J #.B. X-X0Xl.-.Y J @.M.-X*XsX-Xv.#.q.P.M v ) / Y m q 5 & # . # & $ & u ] Z Z 0 6 n N N B v N Y W Q #.V.A.G.U._ 9 6 1 Q <XsXNXmXNXBXBXNXMXMXMXMXMXMXMXMXVXVXVXVXVXVXVXZXZXZXVXVXVXVXVXVXVXVXVXZXZXZXVXVXVXVXVXVXZXZXZXVXZXBXBXZXZXZXZXVXVXVXVXVXVXVXVXZXZXNXNXNXNXNXMXMXVXZXVXVXVXZXZXMXZXZXZXZXZXVXVXVXVXZXZXZXZXZXZXVXVXVXVX",
"mXMXZXMXdX2Xf # # .         o o                                                                       . $ 5 V K.P.;.%.c.v.=XsX:XcX:X$XW.5.R q $ > $ # # # . @ + O # O O . . O O . * & & 4 4 5 w 4 4 & # % % 7 u y d J +.k.8X=X=Xh.&.D.yX;XcX,X%X~ J @.C.8XcX;XeX:XpXgXaXeX;XeXpXxXsX#Xz.#.G a 1 a 1 : < m q.tXGXE.! , $ , m 3.tXzXcX$X3.v 5 f J 0.^ N v E u.!.W.E.y.:.Y m s s s q v K P H M d d U B c d G $.J.H.d.@.Y U W 4.1X=X].-X=Xs.~ 0.P.Y m { Z.D.u.{ N 0 > # . # # $ = 7 0 0 4 6 V U E 8.} :.y.Z.z.M.Q.Y.j.9.m > = 5 2.8XvXBXBXMXMXMXMXMXMXMXMXMXVXVXVXVXVXZXVXVXVXVXZXZXZXZXVXVXVXVXVXVXVXVXZXZXVXVXVXVXVXVXVXZXZXZXVXZXBXBXZXZXZXZXVXVXVXVXVXVXVXZXZXZXMXNXNXNXMXMXVXVXZXZXVXVXZXMXMXMXZXZXZXZXVXVXVXVXVXVXZXZXZXZXVXVXVXVX",
"mXMXVXMXdX!.d # # .         o o                                                                       . . & 0 V _ G Q Q.M.8X9X+X>X].+X8X5XA.*.m , > & & & % O . . . . . . . O O . # $ $ , 5 8 e 4 = # . O O % r y q m K -.l.b.<Xv.p.n.8XpXaX:X%XI W V.6XfXgXaXpXpXaXmXBXzXeXpXpXcX$Xl.! M s a f R m , 1 L j.#X,X~.{ 8 > a Q M.FXzXvX,Xa.N q J >.S.y.~ Y { E.5X9XcX,X%Xz.%.I z s 8 4 8 d f h H Q V.5.U d q V ) _ B B B Y ;.W.8X].h.[.<X#.W R K.Y m :.D.<X2XQ.y.^ 9 $ . . $ & & & > 5 6 Z ) T Y :./ ;.V.Q.Q.Q.U.u.Q B 8 # O 6 y.9XmXVXVXVXZXZXZXZXZXZXZXZXZXZXZXZXZXZXZXZXVXZXZXZXVXVXVXVXZXVXZXZXZXZXZXZXZXVXVXVXVXVXVXVXZXZXZXZXZXZXZXZXZXZXVXVXVXVXVXVXZXZXZXZXZXVXVXVXZXZXZXZXZXZXVXVXVXMXMXMXZXZXZXZXZXZXVXVXVXVXVXVXZXVXVXVXZXZX",
"mXMXZXMXsXG.d # O .         o o                                                                 .   . . . . $ > 8 9 B U.A.D.s.s.@Xn.v.v.k.6.i.I.v b 9 , , 5 6 = . o o o o   . . % & > 5 y Z n Z 4 - O . . . . & w 0 V B K ~ 5.(.b.p.g.#XzXaX*X%XQ Q G.0XOXgXmXaXaXmXmXmXsX:X*X;X1Xx.! m f j T _ { J 1 a 8.F.;X:X<X~ 9 9 J 6.1XcXxXvXsXc.J d Y S.F.W.x.<.;.x.=XfXiXiXuX7XF.C.%.P q 5 4 5 q B $.b.1X@X,.m 8 5 0 q 9 v U -.Z.0X,X`.g.k.z.+.^ C ) M j :.B.}.#X1X<XA.B w % # , , > 4 > 4 w Z A C J ! 9.9.S.S.y.,.^ B s 3 > O . 0 S.9XmXVXVXVXZXZXZXZXZXZXZXZXZXZXZXZXZXZXZXZXVXZXZXZXVXVXVXVXZXZXZXZXZXZXZXZXZXVXVXVXVXVXVXZXZXZXZXZXZXZXZXZXZXZXVXVXVXVXMXMXMXMXZXZXZXZXZXZXZXZXZXZXVXZXVXVXVXVXVXVXZXZXZXZXZXZXZXZXVXVXVXVXZXZXVXVXZXZX",
"mXBXVXmXsXH.9 # . .       . o o                                                                         O . O % $ 8 c } i.>.I 1.M.k.4.;.K m T ....} _ Y B v 6 % o o X o X o o . . # # > w e e w % O     O O # 4 6 8 b v f B W u.6.1.1.c.cXsX:X#X#.Q V.5XuXjXMXmXSXmXiXuX&X+X#XF.5.W v d J :.u.P.e.L 1 h S.qXdXsXn.I a h $..XsXpXxXvXsXm.J d P Z.3X9X#Xs.<.a.&XvXaXaX,X=X2XG.F.C.! S y 5 0 U l.7X*X>Xz.W q > 4 0 m Y ;.n.0XrX*X].@Xk.4.@.} V ) m h >.XX X*X:X:X@Xq.C 4 4 n f 1 5 4 4 4 4 8 v T ^ _ ^ _ } R B d , , $ & % O q D.,XmXMXVXVXVXZXZXZXZXMXBXBXMXZXZXZXVXVXZXZXZXZXZXZXZXZXVXVXVXVXZXZXZXZXVXVXZXZXZXZXZXZXZXZXVXVXZXZXZXZXZXZXZXVXVXVXMXMXMXBXMXZXZXZXZXZXZXZXZXZXZXZXZXZXZXZXZXZXZXZXZXZXZXZXZXZXZXZXZXZXZXVXVXVXVXVXZXZX",
"mXBXVXmX,XC.8 # .         . o                                                                   .         o @ o O 7 5 n ) T J P.<.3.r.y./ B v v m J / 0.L.X.o.] + o o X o o o O - - & 7 u u w 7 O .   . % % & 7 u 0 e d f m m J / -.W <.#X,X=X1X3.Q <.<XdXhXgXgXaXdXdXuX=X.Xz.5.J d 8 v ;.A.Q.A.U.W a J b.-X*X-Xc.P m ^ J.-XvXpXzXcXsXm.K s I D.=XsX,Xv.1.1.].GXvX,X`.a.1.V..X6XA.u.{ N d Y b.lXuXuX@X7.B 8 0 V 0.V.m.>XcX:X&X&XtXk.4.@.| N D m k >.2X=X*XpXxX,XG.! 5 0 _ / m 9 5 & % # # 8 n V a 9 d d q 8 4 & & # * # # d F.dXvXBXVXVXZXVXZXZXMXBXBXBXBXZXZXZXVXVXZXZXZXZXVXZXZXZXVXZXVXVXZXZXZXZXVXVXZXZXZXZXZXZXZXZXVXVXVXZXZXZXZXZXVXVXMXMXMXMXMXMXMXZXZXZXZXZXZXZXZXZXZXZXZXZXZXZXZXZXZXZXZXZXZXZXZXZXVXZXZXZXVXVXVXVXVXVXZXZX",
"mXBXVXmX-XS.8 # .           o                                                                   O .           X   O O > 5 9 d _ Y @.V.(.G.V.$.J N v 9 9 8 5 = % % O . . O % * - & & & & > > : $ O O . . # # $ 5 F n V f m B f f U ^ m K b.#X=X@Xl.+.+.a.7XdXuXpX*X,X,X8XD.5.! M q , 8 J z.7X3XD.q.G h ~ [.fXdX>Xa.K K u.{.fXaXpXcX,X-Xm.Y f Q !.|.fXsX$Xa.<.h.>X3XR.4.P M W z.1X1X<Xx.-.J K p.=X,X,X8XD.! v v T S.3XsXpXxX:X&X&X,Xv.a.,.J v A f s $.H.[.&XsXnXnX{.<.d d q.H.>.R q > & % O % 4 > 8 , 5 4 & % O   O O % # > m #XNXvXNXMXVXVXZXVXMXBXBXBXBXBXMXZXZXVXVXVXVXZXZXZXZXZXZXZXZXVXVXVXZXZXZXVXVXVXVXZXZXZXZXVXVXVXVXZXZXZXVXVXVXVXMXMXMXMXZXZXZXZXZXZXZXZXZXZXZXZXZXMXMXMXMXZXZXZXZXZXZXZXZXVXVXVXVXVXVXZXZXZXZXVXVXZXVXZXZX",
"mXBXCXNX7XS.5 O .                                                                                       X X     @ o . * # $ > q ) R >.w.C.Y./.P.} R B m v q 0 6 & & & & & 4 7 7 4 7 4 > > $ $ $ . o   . # # $ , F A D C C T B M S | f B V.<X7X1XD.#.Q +.D.0X=X=X=X#XN.d.+.K h a 5 , 9 Y b.9X9X<X>.G K V.7XfX-X#X@.j W G.-XiXaXxXwX>X&Xm.Y f @.JXkXdXvX>Xk.<.s.3X6XR.3.M q N >.M.=X,XrX<X;.P &.1X>X:X=XF.$.f q B 3.#XpXiXNXNX:X:X&X].M.6.M f A 2 s *.A.F.$XwXzX:X+XD.J f 1.XXG.U.T 5 & * o o % # $ # % % O . @     . % % 6 J #XgXmXBXBXBXMXMXMXMXMXBXBXBXBXBXMXMXMXVXVXVXVXZXZXZXZXZXZXZXVXVXVXZXZXZXVXVXVXVXVXZXZXZXVXVXVXVXZXZXVXVXVXVXVXMXMXMXZXZXZXZXZXZXZXZXZXBXBXBXBXBXBXBXMXMXZXZXZXZXZXZXZXZXVXVXVXVXVXVXZXZXZXZXVXVXZXZXZXZX",
"mXBXgXHX7X+.8 . .                                                                                                     .   . . # $ : a R 8.q.e.S.Y.Y.H.C.j.$.K M n y 8 , 8 8 > > $ > , > > $ $ # . X     O # $ : < 3 a f L ) R T } } U G #..XqX-X.Xl.W G ;.Z.D.M.W.z.+.P M s H J f d v M H.8X&X1X>.j @.4X,X-X=Xa.J m 7.1XfXgXuXsXwX,X,X[.! m >.5XsXaXdX;XW.d.<.W.>X$Xx.Y y 6 B 5.#X,XsX+XZ.;.+.k.>X,X=Xb.! d 6 c :.n.sXmXxXzXsXsX].,XN.#.W m 9 a s ( u.l.p.m.rXeX].!.B m s.}.[.Y.*.a 5 # O   . # $ #     . o @         % 4 E N.NXDXVXMXBXNXSXNXmXVXVXVXVXMXmXmXxXmXMXZXMXMXZXZXZXVXVXZXZXVXVXVXVXZXZXZXVXVXVXVXVXVXVXVXVXZXZXZXZXVXVXVXVXMXMXMXZXVXZXZXMXMXVXVXMXBXBXBXBXBXBXBXmXMXMXZXZXZXZXZXZXZXVXVXVXVXVXVXVXZXVXVXVXZXZXZXZXVXVX",
"bXNXgXNX1XQ 5                                                                                                   . .             + # $ < l s j H $.j.J.J.H.Y.T.L... .D n b q , , 5 > $ $ > > & O     @ o O # $ $ < < 2 a f N C B J E J G +.f.oX{.1XZ.! B M Y :.5.-.! j M J W 9.9._ m v B A.5X[.M.W j <.3X>X;X#X4.m m l.,XiXgXpXcXcX:XsX[.W B <.5XfXgXmXsX1Xd.+.a.8X=Xa.Y y 6 N ~ W.,XsX*X<X6.+.f.$X>X6XC.T 8 & 0 { M.,XmXaXxXcXcXsX,Xz.<.{ J a 9 s G i.r.1.k.m.>X@XC.N m s. X{.XXw.M 9 $ * * & $ $ # o o o o           % 5 { <XvXVXZXVXBXmXxXxXgXmXgXgXgXgXvXvXxXmXBXMXMXMXVXVXVXVXVXZXZXZXVXVXVXZXZXVXVXVXZXVXVXVXVXZXZXVXVXZXZXVXVXVXVXMXMXZXZXVXZXZXVXMXVXVXMXZXMXBXmXBXMXZXZXZXZXZXZXZXZXZXZXVXVXVXVXVXVXVXVXZXZXZXZXZXZXZXZXVXZX",
"mXNXmXvX1XI 4                                                                                               . . . .           X     . # : , 8 9 2 a j G G ( _ C d e 8 < 8 5 , 5 5 8 w y w 7 4 % o o O O . . # # $ , 0 8 9 9 n T Y / Y B H +.f.2X!.S.} S q 8 d v v m B W 2.S.(.G.e.J v B u.Q.l.<.M H s.>X;X$XW.;.f J M.sXgXmXzXsXxXaXvX'.Q H 1.7XsXgXMXaX>Xk.+.%.8X=Xa.P c n U W k.'.*X*X1XC.+.&.1X=XF.q.m > % 5 ! z.sXmXaXvXcX,X9Xm.4.9.} U f a h / /.5.4.@Xm.3X~.,.N N d.qX7X2XS.K a > 6 Z v 9 : # X @ @         . . & 8 0.1XvXmXBXMXBXmXmXxXdXuXsXFX9X-X=X,XcXvXmXmXBXMXBXMXVXVXVXZXZXZXZXVXVXVXVXVXVXZXZXZXZXZXZXZXZXVXVXVXVXVXVXZXMXMXMXZXZXVXZXVXVXMXVXmXgXmXMXMXVXVXVXVXVXVXVXVXZXZXZXMXMXZXVXVXVXZXZXVXVXVXZXZXZXZXZXVXVXVXVX",
"BXBXNXGX6XK 4           .                                                                                     . . .           X     & > 5 1 , , q < a m s s h 9 8 5 > > 8 8 0 c Z D ' ' F y y 0 & % % O O # # # & t ] u 0 e F  .} 0.| C M j Q S.y.-.E S q 0 8 , 6 V 0.S.G.F..XH.2.H v m ( 9./ K j Q m.wXeX3XZ.~ h ~ #XxXmXmXzXsXxXaXsX[.Q K p.=XvXMXVXmXsXN.#.+.<X6Xl.P m T { @.<.c.,X=X2XV.Q Q <XM.6.W 9 $ # 5 B 6.9XdXuXpX,X=X@Xk.5.9.^ B v j K ,.P.@.<.M.n.R.6.W V N ,.XXB.XXC.P a > q ) _ R 9 &   @ + o   O   . # > q u.8XvXxXvXBXMXVXMXvXsX$XN.z.z.f.b..X9XcXxXxXmXBXMXMXZXVXVXZXZXZXZXVXVXVXVXVXVXZXZXZXZXZXZXZXZXVXVXVXVXVXVXZXMXMXMXZXZXZXZXVXVXMXmXdXdXvXmXmXNXVXMXMXMXVXVXZXZXZXMXMXMXZXVXVXVXZXZXVXZXVXZXZXZXVXVXVXVXVXVX",
"SXNXmXFX2XH >                                                                                                                 . # , a m H K J U N a M E K J L h Z u w w b n V D ) ) N N N N N v v q 8 8 6 7 & # . # & & # $ 5 y D | ) D b 9 a C J M M B N S V 0 6 D P.G.H.b.s.a.#.P J m M E B h P a.>XzXwX3X6.K K 6.>XvXmXmXxXpXmXaX,Xn.Q P s.9XvXmXVXMXvX$X;.W y.S.u.K h ( w.1.#.d.5X6XZ.,.H H 6.>.K f , $ $ , a @.<X-X&X*X>X#X5XA.q.{ J M B J 2.7.~ ,.x.1.c.W.Q B n c Y 2.&.C.A.! q > q } w.w.C 0 O o O o   O   . # > f A.kXmXGXGXNXBXVXCXdX+Xk.@.j h G Q 6.F.wXxXxXvXNXBXMXZXVXVXVXZXZXZXZXVXVXVXZXVXVXVXZXZXZXZXVXVXZXZXVXVXZXZXZXMXMXMXZXZXZXVXMXMXNXdX9X9XrX9XsXsXdXmXMXVXVXVXVXZXZXZXZXMXZXZXVXVXVXVXZXZXVXVXZXZXZXZXVXVXVXVX",
"BXxXmXsX2XM &           .                                                                                                   . # $ , B 0.U.Q.Q.Q.5.5.u.S.u.P.P.) 8 5 > , q v m J Y Y W Q ~ -.,.,.W K B B A Z 6 # & # O # = 7 7 5 y c y 0 5 $ $ 0 9 M ~ 5.u.i._ V b V @.&.1.a.a.k.<.;.! J M J f h 2..XcXzXeXR.@.G #.F.,XbXmXbXxXiXaXdX>Xk.W W k.9XcXxXZXMXmX>X;.J { i.K.L k Q C.C.Q @.t.5./ B a s J M a , > $ $ : 8 U y.W.#X>X8X5X2XV.! J J Y Y ! Z.Z.@.5.l.1.F.C.H B n c B K I 2.U.( q 4 q 8.z.H.9.V 4 O O O         # : f /.,XNXSXSXBXmXMXNX:Xv.#.W J j s s H <.$XzXvXvXbXmXBXMXVXVXZXZXZXZXZXVXZXZXZXZXVXVXZXZXVXZXVXVXZXZXVXZXZXZXZXMXZXMXZXZXZXVXMXmXvX9X<XF.z.M.W.3X9XcXvXmXVXVXVXZXZXZXZXZXZXZXVXVXZXZXZXZXZXVXZXZXZXZXVXVXVXVX",
"BXxXNX,X2Xj &           .                                                                                                 . # % O > B P.KX0X=X,X,X9X8X1X(.U.} v 1 8 1 a M J H I <.z.W.3X6X8X8XtXKX(.U.U.I...' Z & # . . * 7 4 & 6 0 5 > $ . . 7 c :.W.8XqX2X7.P M h P Q ! 5.3.x.k.a.-.{ ^ R s H J.7XcXzXeXn.W H f.7X,XbXBXmXmXaXaX,X6X3.J Y k.8X,XsXZXMXgX9X5.J J R } J k *.Y.C.! N B B c 9 , , q 8 > % $ % # # = y S 9.z.[.[.N.p.+.J U :.-.{ 5.k.M.,.@.#.d.H.#.I _ V v T M G ~ P.T 6 4 q 8.b..XG.:.v > & % .   X   . & d /.>XSXZXZXZXMXmXvX=Xv.&.d.U.u.K l l H c.:XGXvXvXBXMXmXZXZXZXZXZXZXZXZXZXZXZXZXVXVXVXVXVXVXVXVXZXZXZXZXZXZXZXZXMXMXZXZXZXMXMXNX,XN.1.@.K Y -.r.D.<X>XsXmXMXVXZXZXZXZXZXZXZXZXZXZXVXVXZXVXVXVXVXZXZXZXVXZXVX",
"SXxXNX,XJXj &                                                                                   .                         . # % O % v q.5XsXaXMXNXdX,X3X(.q.B a d m J ~ y.A.H..X0X8X=X7X9X8X#XN.G.j.>./ R N q 5 # # # O O % & 4 6 y d d 8 & % 5 _ S.1X|.-X7Xs.+.j s W Q ! { @.t.M.k.@.0.0._ h $.B.-XpX:X>Xk.P Q b.kX:XbXIXBXMXmXaXsX<X3.B J a.0XwXsXBXgXiX9XV.E a f A v s *.G.D.,.B c c d d 8 0 6 4 % # # $ & * % % 6 N { <.1.&.+.I K ,.E.t.;.E.k.a.6.<.&.d.w.+.Q 0.M m ) m h J K.N 4 4 q 9.B.=X1Xd.J 8 > % O   X     $ d U.$XSXMXZXZXVXNXFX3XN..X<X2XY.q.J a f <.%XcXvXmXDXDXMXZXZXZXZXZXZXZXZXZXZXZXZXVXVXVXVXVXVXVXVXZXZXZXZXZXZXZXZXZXZXZXZXZXMXmXkX<X1.I j f a f m Y 5.<XFXvXmXVXZXZXZXZXZXZXZXZXZXVXVXVXZXVXVXVXVXZXZXVXVXZXVX",
"SXmXNXkX(.f >                                                                                   . .             . % .         O o = d Q <XGXvXmXSXcX3XQ.9.Y M j { t.R.3X3X1X=X-X&X>X8X3XW.C.,.L C a 2 2 q 6 5 4 %   * % . % 4 c B ! 5.@.C 1 9 m U.D.s.g.=X1Xf.>.a a G Q @.@.;.3.x.l.-.! E B K 7.{.|.*XrXN.#.~ 5.!.8XzXmXZXZXBXmXmXpXW.-.f G D.=XcXpXzXzXpX,XF.Q 1 $ & , s *.F.@XN.<.U S 9.i.^ C q q > & > > q D y 5 4 6 9 s G P +.<.Z.4X<Xv.c.R.s.k.b.s.s.j.$.z 2.q.W ( ) f d a C d 8 5 f @.{.kX7XF.w.f 5 % . o       > h A.8XvXmXIXMXmXdX9X4.Z.#XkXsX-X<X>.m a J 4.9XvXgXVXIXZXZXZXZXZXZXVXMXMXVXVXVXVXZXZXZXZXVXVXZXZXZXVXVXVXVXMXBXBXZXZXZXZXBXpXdXkXV.K j J B f 9 8 $ c >.<X,XvXBXMXZXIXZXZXZXZXZXZXVXVXVXVXVXVXVXVXZXZXZXZXZXZX",
"BXmXNX9X/.f > .                                                                                 . .           . # # .       . % # 0 Y 1.].sXvXSXcX$XM.,.J M W 5.~.yXeX:X,X,X-X=XtX4XV.,.Q H a < : $ : , 6 6 8 6 > & 7 > & 0 S 0.E.~.5XD.8.h h K S.F.M.a.s.<XQ.@.d 8 f H ~ >.7.6.a.6.,.^ J M Q z.9XcX,X1X1.I @.Z.4XwXbXMXMXMXmXNXmXuXF.~ a M f.=XxXzXnXnXpX,XF.Q < . # > 9 ~ F.=X#Xs.Y U ;.w.:.J 9 q 0 0 q q m } | d 5 6 y v J Q ~.6X#X%X;XwX>X'.v.m.h.B.JX%.P e.S.I >.e.R m d v A 9 > : q ^ H.{.[.W.S.m & O O         > M G.qXvXmXIXmXmXfX}.+.7.8XsXiXuX9XD.Y d f Q .XkXgXMXZXMXZXZXZXZXZXVXMXMXVXVXVXVXZXZXZXZXVXZXZXZXZXVXVXVXMXMXBXMXZXZXZXMXxXvXfX7X@.s Y 0.0.Y a 5 O 4 K f.{.sXNXZXZXZXZXZXZXZXZXZXVXVXVXVXVXVXVXVXZXZXZXZXZXZX",
"DXmXNX9X/.s > .                                                                                 . .           . . .     O . . > > B l.=XuXiXvX,X>Xa.Q K K @.C.F.tXwXpX*X-X=X{.c.V.{ V y q 9 8 < $ $ > , 8 v U E M S a 2 m Q l.W.!.~.8XM.0.f a J A.F.F.a.1.Q.(.{ 5 > 8 v R 9.7.&.f.l.u.8.B G 2.2X&XcX3XZ.Q G ;.W.>XvXVXVXmXxXzXvXzX>XV.U d M p.-XxXxXbXnXzX,XD.W 1 # $ 5 d ! W.tX9Xn.-.Y ~ q.i.T q c b n C M K e.P.J 9 c ) K.U.G.$XeXzXpXpXzXzX*X*X;X[.F.S.W K P.W ~ 9.W K _ J C C 9 & % 6 F } w.6.V.P.) 4 % .       . , K 2XsXmXBXMXmXNXsXh.I 6.8XuXuXuX,X4X9.m a J d.qXdXhXVXMXZXZXZXZXZXVXVXMXZXZXVXVXZXZXZXZXZXZXZXVXZXVXVXVXMXMXVXZXZXZXZXMXxXHX-XN.P s i.).(.q.J 8 & 5 W 1.`.pXBXZXMXMXZXZXZXZXZXZXVXVXZXZXVXZXVXVXZXZXVXZXZXZX",
"DXmXNX9XU.s : .                                                                                               .       o O # : 9 B ;.1XdXiXdXcX%Xk.#.P Q 6.!.5X#X,XsXdX-X1XG.d.@.J y = % 4 , 1 1 8 < 1 d U 8.S./.S.P.f s $.M.=X&X@XR.-X[.0.a 9 C /.b.s.4.<.r.y.{ 8 & > 0 S } ,.%.&.>.8.E m J w.2X].8XZ.:.M j 2.6XfXgXVXVXmXxXzXcX,X6X9.v 0 m p.9XxXbXbXbXbXwXD.W 8 $ > 6 d { W.rXwX@XS.{ Y 8.L.T c n V T ^ W +.C.(.@.m d N { S..X#X:XaXBXNXxXzXvX:XwX4X5.J Y 8.~ ! 0.Y W $.P ( _ a 5 & O % 7 n B ( ! K.X.6 O o O     . , Q 1XdXMXBXBXNXSXsXs.I Z.7XsXmXdX&X<Xy.Y d f +.<XkXgXMXZXMXZXZXZXZXZXZXZXZXZXVXVXVXZXVXVXVXZXZXVXVXVXVXVXNXMXVXZXZXZXMXBXgXNX=Xa.H Y E.(.JXQ.i.a & q >.p.].pXSXMXmXBXMXZXVXVXZXVXVXVXZXZXZXZXVXVXZXZXVXVXZXZX",
"DXmXMX-XU.a $ .                                                                                             . .     X o O > d R S.[.*XiXuX,X1Xk.#.#.a.M.@X8XrXsXsXdXqXH.0.) m d 8 5 4 0 N J K G L l s { S.!.4X6X2XS.f s d.7XdX X%X#XsX{.0.9 5 v U.f.&.#.,.:.W Y D w & 4 y S 8.u.~ Y B N v R 9.V.F.Q.{ N q B V.8XdXgXmXxXzXzXsX:X>X^.E 0 4 v 4.8XeXbXbXbXbXwXz.E 8 & > 8 q { <XsXpX:X~.3.J U | B N B J / 9.;.1.F.2Xz.~ h a J 2.b.8X>X&XpXvXmXaXsX$XE.i.S v { 9.K { Y U { W H *.G v 8 & * = r y q v d D  .7 O . O     . 1 >.8XmXZXZXmXmXvX=X&.P Z.>XdXSXaX&X#XZ.{ d 9 K C.qXdXmXDXMXZXZXZXZXZXZXZXZXZXZXZXVXVXVXVXVXVXVXVXZXVXVXVXNXMXVXZXZXZXmXNXmXdX5X+.H 5.!.1X#X6XA.B , d q.B.=XsXvXmXmXNXMXBXVXVXVXVXZXZXZXZXZXZXZXZXVXVXVXVXZXZX",
"ZXmXMX-XU.a $ .                                                                                             .   o   X   O 0 ) w.5X,XiXaX,X#Xx.;.<.k.$X9X;X:XcXsXsX{.f.Q d > > , 8 d S } u.U.Y.S.8.j H V.4X0X,X=Xv.%.s m z.-XdXpX`.`.*XoX0.9 > q 9.C.1.+.-.8.Y M D e & = 5 q C | ) n 0 0 c J W Q #.-.N 0 0 C V.{.iXgXaXzXcXcXsX:XtXr.S 6 4 N r.3XwXzXbXzXxX>X6.B 5 4 0 q q { 3XdXiXdX8Xl.J v m v _ R Q 2.V.<.<.M.#X{.l.W a f / 2.f.F.2XF.[.7X=Xv.4.@.B v U E W ~ K K } K K 8.P j D 0 & & r Z Z 6 5 4 q w # % O .     # 8 5.8XmXZXZXmXSXsX1X#.P E.>XdXgXiXpX,XW.5.v 1 B S.0XdXmXMXMXZXZXZXZXZXZXZXZXZXZXZXVXVXVXVXVXVXVXVXZXZXVXVXNXMXVXZXZXMXbXvXgXsX!.P P Q.#X,X-X=X!.$.q 9 #.1X9XvXvXxXmXSXMXmXVXVXVXVXZXZXZXZXZXZXZXZXVXVXVXVXVXZX",
"ZXmXNX=XU.a $   .     o                                                                                   . .   X   X   $ v 8.d.#XsXvXFX1Xk.;.;.F.#XdXgXaXxXcX>X6Xd.I f 4 % 5 c Y ,.z.n.{.-X{.J.$.P &.<XwXeXvX,Xg.P d S Z.8X:XcX`.`.|.v.0.d 6 q ( y.l.+.~ 0.{ B h 9 5 = 4 > 5 0 6 4 % > f B H I Q Y q 5 0 N w.`.fXiXdXsX,X:XiX*X@X{ y 4 6 T D.=X:XvXxXaXxX#X-.d 5 u A c q { 3XaXhXhXsXM.Y d d m { @.&.z.A.3.<.M.9X=X<X,.f , 1 a G *.L...} 0.q.#.P H G W $.+.Q #.#.+./ { L./ j } d > $ > 0 b y & % # 4 # O O O       % 8 V.9XmXZXVXgXSX,X2X+.Q !.,XvXaXiXxXcX$XZ.T 9 m u.0XvXNXDXMXZXZXZXZXZXZXZXVXVXZXVXVXVXZXZXZXZXZXZXZXZXZXZXMXVXVXZXZXMXvXvXaX9Xy.H #.6X-XdXiX*X<X5.d 2 +.7XFXvXvXxXmXMXMXMXVXZXVXVXVXZXVXVXVXVXZXZXVXVXZXZXVXVX",
"ZXBXNX=XU.9 $   .   o o                                                                                 . . .       @ O > C 2.=.].,X,X+Xk.#.-.E.0XsXhXhXaXcXrX<Xy.K l 2 , 5 q M V.3XFXsXiXjX9XH.z z s.FXwXzXvX,XD.G c _ Q.rX*XwX].}.}.f.8.d 5 , M / w.>.P { 0.T h d 6 & # & & % O % = q Y @.<.C.Z.u.N 8 , v w.1X*XiXdXsX,X-XuX=Xa.M 4 & 8 R H.{.fXvXaXpX,XF.Y 8 6 F  .V 0 E <XfXjXiX XD.^ y 9 m ( #.p.N.!.a.3.!.9X-X1XG.) 6 & & 9 l 2 9 d f h k H H 2.C.&.7.j.+.=.p.@.8.W J _ m , > 5 q d b q & O   & # = . . .     % q A.rXmXZXVXgXSX9X(.Q I F.,XNXmXaXmXpX;X4X^ a f >.1XdXMXDXMXZXZXZXZXZXZXZXZXVXVXVXVXZXZXZXZXVXZXZXZXZXZXZXVXZXZXZXZXMXNXvXdX1X~ K b.9XpXaXiXdX@X6.f f #.1XsXvXmXmXmXMXCXVXVXZXVXZXVXVXVXVXVXVXVXVXZXZXZXZXVXVX",
"ZXMXmX9Xe.q #       o o . .                                                                             . . . O   @ o O q ^ Z.1X8X>X;Xv.a.<.3.z.qXdXhXiXGX9XW.t.N 9 s k K / @.Z.#X,XpXmXgXdX0X7.j G k.GXrXwXvX>X;.m v { <XsXsX:X,X`.n.7.} v 8 5 3 M 9.y.Q K } } ` f , > 5 > & % O % 9 ( D.1X1X8X8X<Xq.B 9 f @.H.-XfXvXvX;X=X7Xc.I d & # 9 P J.lXfXdXiXsX1X2.v 6 8 )  .n 0 B 6.6X7X7X.X2.V 6 5 9 B #.[.=X[.k.4.D.9X|.=X!.} y = % , a h C T M M ~ d.b.XX1XH.1.%.p.h.{.V.W J _ ) 9 > & 5 b A b 4 O X X # # # O .       % 9 (.,XBXZXMXNXdXqXr.P ;.<XFXaXaXxXmXvXcX3Xe.j h Q #XdXCXVXZXZXZXZXZXZXZXMXZXVXZXZXZXVXVXVXZXZXZXZXZXVXZXZXVXZXZXMXVXMXmXsX=X2XG ~ [.uXNXaXmXsX@XZ.d s 1.0XsXvXmXMXVXMXVXVXVXZXVXVXVXVXVXVXZXZXVXVXVXVXZXZXVXVX",
"ZXMXmXqX0.9 #       o . . .                                                                             . . . O X @ + % 9 P g.=XtXtX%Xs.1.4.a.s.sXdXgXfX1Xx.,.U 0 q W <.G.D.s.#X,XcXpXmXaX*XW.@.f Y b.rXwXwXcX#XY f f >.{.aXpXcX&X[.#.@.8.a d e , d / u.:.K J L _ T v q 9 8 > & & 8 K V.7XsX-X-X*X=XD.>.B f P j.B.}.#X#XN.D.d.+.k 1 & # , k +.f.[.{.{..XC./ q 5 N _  .v , 9 ( A.H.D.7.W w & & , C >.{.-X|.v.a.W.8X&X=XM.{ v 4 & 4 n } u.S.V.C.!.@X#X=X=X[.k.k.F.7X[.7.:.} ) n 5 > > 8 c n b 7 + X   # # # O .       & 9 Q.,XmXZXMXmXdX0X>.J <.6XvXmXxXNXmXxXzX8XV.G j Q #XdXCXVXZXZXZXZXZXMXZXMXVXVXZXZXZXZXVXVXZXZXZXZXVXVXVXVXVXZXMXBXZXZXmXsX6Xd.G 5.>XgXmXaXaXsX1XS.f f a.7XsXmXMXVXVXVXVXVXVXZXVXVXVXVXZXZXZXZXVXVXVXVXZXZXVXVX",
"ZXMXmX0X/ 8 O       o o . .                                                                               . . . O o O 6 U 7.[.&X,X>X'.s.a.M.R.`.dXjXdX7Xl.! v q q U l.1X0X#Xg.%XtXwXzXvXpX+Xl.Y m 8.N.,XwXwXcXR.M d s 2.-XaXpXGX>XR.Q K 0.M 9 e > 5 m } i.^ M B M T ( R _ ) C 9 1 B 6.1XdXaXpX*XpX*X1XD.#.z G ~ 2.V.Z.y.u.:.Y m a 8 - * & 1 m R 8.q.w.2.^ m 8 9 P $._ V 8 , a J 8./ K f > % & , v / [.-X X}.s.n.$X=X}.g.,.Y d 8 6 S y.4X,XvXvXsXcXsX:X&X+X%X$X3X5Xd.@.^ ) v 8 6 > 5 9 d q w - X X   # $ # .       . & a Q.rXSXMXZXmXvX8X! M 4.8XdXmXxXbXxXpXpX>XH.I j W #XgXDXVXMXZXZXZXZXMXMXZXVXZXZXZXVXVXVXVXZXZXVXVXVXVXVXVXZXVXBXBXZXVXvX,X4X+.P Q.sXmXmXxXxXsX5X5.m h Z.=XdXmXVXVXVXVXVXVXVXZXVXVXZXZXZXZXZXZXZXZXVXVXVXZXVXVX",
"ZXMXaX8XW , O       o o . .                                                                               . . # O O # 0 ^ Z.>XsXzXsX&Xv.n.R.$X:XiXNX-X<XQ f , q { y.<X-X=Xv.s.R.yXwXcXzXuX%X5.J B P.<X=XrXwX>Xx.v 8 a +.qXsX*XrX3Xa.,.H *.K.a , & > 9 B } _ C L J ! >.u.P.0.M 3 h / F.qXfXaXpXpXNXpX=X1Xz.#.H G H ^ { U B f 9 9 g 8 & % & > > 5 v C J B f d d B j.w.J 9 1 8 9 a M m f 9 5 5 q d 9 Y H.=X*X].s.s.m.<Xn.p.5./ B f 0 c :.M.&XaXmXiXxXzX:X&X;XwXtXyXS.,.Y M v v c q 0 q d d q > O X     # $ O .       # > f ~.FXSXBXZXgXNX3XJ m x.9XdXaXpXzXpX:XpX-X2X+.j K #XgXDXVXMXZXZXZXZXMXZXZXVXZXZXZXVXVXVXVXZXZXVXVXVXVXVXVXZXMXBXDXZXmXdX8XA.H #.5XsXMXmXmXSXwX5X@.f h !.9XdXMXVXVXVXVXVXVXZXZXVXVXZXZXZXZXZXZXZXZXVXVXZXZXVXVX",
"ZXMXaX0XJ > .       o o                                                                                   . . # # & 4 8 M 1.:XSXmXvXcX>XR.n.%XsXiXdX#Xl.m 9 8 S E.5X,X-X@Xa.x.yXyXwXcXpXsX[.@.M H (.N.'.FX,X%X<.c > 3 j 2X#X+X$Xk.<.u.I P P.C , & & , 9 V V f m W @.w.S.e.( k l K q.2XqX:XpXzXzXnXcX:X=X{.b.%.P h m c 8 0 8 9 d n g e y y 6 = = > 8 a l a m ( y.Y.S.J 8 d N N h M M M m N T ! ! a J V.1X9X|.g.c.k.F.l.#.$.^ G f q 6 N { x.%X,XcX,XcXcXsXzXcX8XM.8.R M m Y ..) b b d v n e > # %     # # .         # 1 G N.FXSXBXMXgXHX3XB m ^.,XmXaXpXzXzXzXsX,X6X#.h J #XdXVXVXBXBXZXZXZXZXZXZXZXVXVXVXZXZXZXZXVXVXVXVXZXZXZXZXZXMXDXDXMXmXcX5X;.z f.qXuXmXBXbXvX,X4XQ f f 4X9XaXMXVXZXZXVXVXVXZXZXZXZXZXVXVXVXVXVXVXZXZXZXZXZXZXZX",
"ZXMXaX0XM & o       o o                                                                                     . # # > 8 f W k.:XmXaXpXsXwX+Xv.].cXdX,Xb.~ a 2 M 0.2XFX-X,XW.<.a.yXtXcXNXiXfXB.P j Q G.a.c.rX+Xb.W q & > s G.<X<XR.<.y.S.q.x I [ w % & > , 8 q 9 a J -.S.U.$.h l s ( w.2X0XwXzXbXbXbXvXcX:X=X{.B.7.W B q 8 q f f s f m T ) U v y y c N G G J / V.2XH.j.) c U } :.~ ;.;.;.5.y.V.Z.V.J J >.Z.1X'.g.c.a.r.-.K J L j a q > 5 n Y -.d.M.4X5X5X<X[.c.1.Q B m K @.9.0.) V v d b b e > $ &   o # # .   X   . # 9 W <XvXSXBXMXmXSX<XB B W.sXmXiX:X:XcXcXsX-X1X#.m B <XvXMXMXBXBXZXZXZXVXVXVXZXVXVXVXZXZXZXZXVXVXVXVXZXZXZXZXZXmXZXZXmXmXrXW.H H .XkXdXNXBXbXsX>X4X~ f h !.,XaXMXVXZXZXZXZXZXZXZXZXZXZXZXVXVXVXVXVXVXZXZXZXVXZXZX",
"ZXMXdX0Xh $         o o                                                                                     . # & > q } /.yXcXxXuX*X:XcX:X*XpXSXcX<Xq.m 2 l *.H.=XsX&X9XN.#.p.9XvXMXMXiXfXb.M s #.D.@.t.1Xm.r.J 0 & $ d >.!.^.a.;.y.6.A.+.z ` Z 7 % & > & > q f R } P.0.m < : 1 B @.z.1XwXvXBXMXmXmXbXzXfX-X=X1Xz.<.W Y K K P H R / u.S.Z.V.u.u.r.z.s.s.V.D.#X=XD.:.c 8 Y y.Q.4X%X#X$X3X0X9X,X#X>.K P ,.Q.M.p.a.l.-.U v d b g 2 8 , : : , 9 f G } _ _ ) L B j j B W 4.b.f.#.K B v n b w 4 > , & . o # #   X X     # a $.1XvXNXMXZXBXvXm.N B W.sXgXaXpXeXwX:X:X=X<X#.v B <XvXBXMXNXBXZXZXZXVXVXVXZXZXVXVXVXVXZXZXZXVXZXZXZXZXZXZXBXbXZXZXmXNX8X4.G #.7XfXvXvXbXbXpX=X4X@.f j W.sXaXMXZXZXZXMXMXMXZXVXZXZXVXVXVXVXVXVXVXZXZXZXVXVXZXZX",
"MXBXsXKXf #           o .                                                                                   . # > < B u.JX=X:XSXcX,X,X,XcXxXmXvXFXF.} 8 1 k &.XX,XvX*X9XF.+.p.GXgXMXMXiX-XJ.j d e.V.W 5.2Xc.y.B 5 & # e K A.a.#.-.Q +.S.%.H s ' F 5 4 5 % & e V N S S d , , q v f J @.l.<X,XxXMXBXaXiXaXvXdXfXfXkX1X2X(.Z.S.U.P.J K Q <.z.M.M.M.1X9X-X=XJXJX[.v.#.M > 8 / D.<X>XcXcXcXcXvXxXpX|.b.I B { /.D.1.1.Z.~ N q 0 Z Z 9 8 e , $ # # $ , 9 9 9 9 a f z P w.Z.<X}.g.<.W m N D Z 4 & 7 7 $ . . # O   X       # f 2.7XvXmXDXZXNX,Xk.N U <XdXmXmXcXcXcX:X:X9X.X>.m B 6XvXBXMXSXBXZXZXVXVXVXVXZXZXVXVXVXZXZXZXZXZXZXZXZXZXZXMXIXmXZXZXgXvX<X+.Q C.fXOXNXpXpXvXcX>X2X+.a h F.FXvXMXZXZXMXBXMXMXVXVXZXZXVXVXVXVXVXVXVXZXZXZXVXVXZXZX",
"BXNX,X!.d #           o . .                                                                                 . % # a I XX-XdXcX:XcX;Xv.m.=X,X*X*XkXD.N 4 4 m G.=X:XvXvX=XA.I a.9XNXMXbXzXkXH.a 8 R u.J Q JXF.7.( e & # 5 R 6.l.a.7.>.Q *.P.8.M j T C n q 4 5 8 8 8 , > > 5 c T } J B m Y 9.G.7XfXHXjXgXhXvXaXxXSXiXdXdXkX,X<XZ.i.B m j j W <.z.[.qX-X-X7XM.V.5.Q j m 8 9 :.~.&XsXiXvXxXpXaXvXvX*X{.&.m B V.4Xb.&.l.>.R q > 6 y e 8 Z F 5 # $ & $ w q v J Q 7.M.6X8X9X+Xv.s.4.-.U D b 5 = = % # # . . .             & a Y.7XvXmXDXVXmX3X;.f ! 7XNXdXsXeXeXzXpX:X=X!.+.j -.3XvXMXMXNXNXVXVXVXVXVXVXZXZXVXVXVXVXZXZXVXVXVXMXMXMXMXMXDXDXmXDXhXfXG.I 1.1XfXiXgXuXsXwXrX3XW.+.a h F.FXvXBXIXIXZXMXVXMXVXZXVXVXVXVXVXVXVXZXZXZXZXZXVXVXVXVX",
"BXvX9XA.d #             . .                                                                                   O & q Q JXsX*X&X+X+Xv.s.k.}.}.oX}.9XG.v = 4 m !.>XcXnXsX=XV.K 1.8XaXmXbXzX,XD.a 5 S L.J H C.J.%.G 1 > & 6 m ~ 7.d.2.>.K G } L./ j G ^ X.X.b , 9 b > $ & 5 d B / y.u./ m d J >.b.oX}.fXdXsX*XsXaXpXSXmXgXiXdX>Xx.{ N V f s M W <.z.c.v.[.B.7.@.K h B C q d >.W.*XaXaXaXsXpXpXpXuX&X-X1.v c -.Q.F.1.V.w.} m 5 6 e 8 , b ' Z 7 $ % & u F ..I./.4X8X9X;X:X+Xm.c.l.,.E V y 4 % * O . O . .         . .   & s G.8XvXxXMXZXaX4X~ f :.-XgXuX:X;XeXxXzXpX>XG.I M 3.8XvXMXVXNXMXMXMXVXVXVXVXZXZXVXVXVXVXZXZXVXVXZXMXMXMXMXMXBXDXBXMXhX X1.P M.qXsXiXiXuX-X=X>X3XF.P 3 s F.kXvXBXIXIXZXZXMXMXVXZXVXVXVXVXVXVXVXVXZXZXZXZXVXVXVXVX",
"NXvX8Xr.9 #             . .                                                                                   O   & m /.2X@X@XtX>X>X@X#X&X`.h.h.{.C.d 4 8 B !.+XcXzXuX7XV.I p.8XpXmXmXvX,XH.s 8 V L.Y G 1.C.7.K d 5 & > v } q.>.Q W J B _ K.0.W G M T ) D v S ) > $ > d Y @.4.k.z.l.3.@.Q +.%.&.&.b.W.<X>XGXGX,X9X,XfXfXdX#X4.W T V f f C } 0.P.@.-.>.Q z j K R | ) v m 3.1XiXgXaXpX:X,X:X:X*X&X7X#.d 6 B u.S.<.>.q.i.Y q 0 y w > 8 Z ] r # . * O & y S } u.A.W.8XrX0X5X!.S.9._ d 6 & % O . . . . .           . O & h H.8XvXxXMXDXdX4XW f u.-XiXsX:X;XeXbXbXzX9XG.P H 6.9XvXBXDXNXMXMXMXVXVXVXVXZXVXVXVXZXZXZXZXVXVXVXVXMXMXMXMXmXZXZXmXvX[.+.Q <X9X*XsXsX&X#X$X;X8X(.G 3 s XXsXvXBXIXIXZXZXMXMXVXZXZXVXZXZXZXZXVXVXVXVXZXZXVXVXVXVX",
"NXcX3X>.8 #             . .                                                                     .             o @ * 0 } ,.1.a.n.'.+X$X$X=X].}.7X1X6.d > q ^ !.#XwX;X=X<X2.P 1.5XcXxXvXzX=XC.s < c ..E H #.d.w./ D 0 # $ b ..0./ / K B m f M } _.0.H s f C D C n 4 > 9 W V.N.m.v.s.c.W.W.Z.a.&.#.+.Q Q 3.R.3X3X<Xz.W.8XqX7XB.<.Y C v 8 9 V ) ) ) B B B j k K 0.P.) D c M 3.8XiXgXxXpX:X>X>X}.v.v.2XQ 0 = q } y.#.K :.u./ v q y y 5 & & 7 7 # . . O % & 5 d B { q.d.z.l.6.,./ B d , & # . . . . . . .         . . . & M D.9XNXmXMXVXpXJXK m U.-XjXsX:X;X:XxXxXzX8XG.H K l.9XNXBXZXMXMXMXMXVXVXVXVXZXZXVXVXZXZXZXZXVXVXVXVXMXMXMXBXBXBXVXgX9Xf.P V.5X9X*X:X:X`.v.}.&X8X(.M 9 s XXdXNXBXIXIXZXZXMXMXVXZXZXZXZXZXZXZXVXVXVXVXZXZXVXVXZXVX",
"NXcX3XQ , #             . .                                                                                 . O @ O & v J #.p.s.'.;X$X[.}.}.#XLXLX<.d > q 0.F.7X$X#Xn.1.P z Q G.3X*X:X>XN.j.s , 5 F S J Q +.:.( T c 4 & 6 b ) 0.$.K B B f a J 0.P./ L C A Z y > 4 q Y l.1X,X&X].+Xv.g.h.[.6XD.l.6.Q G Y d.W.D.t.{ 8.V.D.z.6./ U V b 5 > 6 0 8 9 d f B W 8.i.L.} y 6 6 v <.#XiXgXMXaX:X>X%Xa.<.;.U.T 6 = 4 D e.#.G ( e.{ v 9 0 w 7 & # # # O . O   o . O $ > 5 9 f v v v d q 5 $ # O .   . . . . . . .       . .   > K F.sXDXmXMXMXuXJXK M U.=XjXpX:X:X:XpXaXpX8XA.z I x.,XNXmXVXMXMXMXMXVXVXZXZXZXZXZXZXZXVXVXVXZXZXZXVXVXVXMXBXBXBXVXgX2X+.H (.3X9X;X>X'.p.p.s.;X1Xu.f 8 f .XdXmXBXIXIXZXZXMXMXVXZXZXZXZXZXZXVXZXZXZXVXVXVXVXVXZXZX",
"NXsX4XK , %             . .                                                                               . . .   . $ N Q z.5X8XFXrX@Xk.s.B.N.XX2X#.d > y 0.D.v.n.F.4.I z G K U.Z.n.#X@Xl.e.f , & w V U W @.:.{ E N 0 4 $ , m } *.! B m m N B J ( ( ) A e w 7 > q E V.1XsXuX:X:XGX*X}.`.].>X6X~.A.,.B m ~ V.y.W B B P Q +.Q J f q 0 0 8 8 8 9 f m J } L.0.} K d 4 % 4 c / M.,XiXaXaX,X$XM.3.-.^ _ v 6 & & b 8.9.B J _ _ m 9 8 5 & = * # . . O O       O % % & & & & & & & & % O         . O # # O . .       . .   > ~ .XsXDXMXMXBXFX(.K J S.=XiXdXpX:XzXxXaXsX8Xj.z +.F.,XSXmXMXMXVXVXMXVXVXZXZXVXZXZXZXVXVXVXVXZXVXZXVXVXVXMXBXmXmXVXsXl.K I JX7XkX:X>X%Xs.s.h.,X<X/ 9 8 J 1XNXBXZXIXIXZXZXVXMXVXZXZXZXZXZXVXVXZXZXZXVXVXVXVXVXZXZX",
"mX,X(.M > %             .                                                                                 . O . % 7 d 0.C.8XFXkX:X+X1.Q <.Q.2XH.b.>.8 = y T z.=.p.S.:.B B T m } 8.3.M.Z.:.| e 4 % & v J ! 0.i.8.{ S q 4 & > 9 m } } M 2 d V S ) L M v q > & > 8 E l.8XsXiXmXzX:XeXcXvXvXaX:X+XN.4.:.N 9 f Y Y h B U Q +.+.I H M 9 q f M P Q +.>.:.8.K.} S m m c 6 & = 0 B :.F.#X-X,X>XN.d.:.T V q 9 q q 8 a R i.T m B D V q 8 5 % % % % # . . . @ X         o o o o o o o               . # # # O o           . . , >.1XdXDXMXMXNXGXA.K W A.-XiXaXpXzXbXmXxXzX8X#.z 6.5X,XSXmXMXMXMXVXVXVXVXZXZXVXVXZXZXZXVXVXVXZXZXZXVXVXMXMXMXmXNXaX#X@.H <.4X=XcX:X,X3Xm.[.#X,X5XY 8 q 8.0XNXMXMXZXIXZXZXMXMXVXZXZXZXVXVXVXVXZXZXZXZXVXVXZXZXZXZX",
"vX,X(.f > %                                                                                               . O . O > m U.6X7X-X-XGX=X%.H ;.).(.d.H.P.> % 4 d Y.p.<.P.} m L ) < c S E y.5.J A 4 & # $ d M Y 0.0.! ! Y v 5 # # , 1 f ) ) V b q 9 V d 1 5 8 , , d T Z.3XcXiXgXDXNX;XeXeXvXBXMXNXpX+X4.:.Y v d d v m } P.(.(.V.w.>.8.} | ^ >.A.G.F.JX(.q.W B B )  .[ y 7 4 6 q B :.l.!.5X2Xd.~ B q > : q S T m a J L.} m d A F y 8 : = O . % = * # .         o o o o o o o o . . . O         . % % . . o             O 8 w.=XgXVXmXMXmXrXr.Y @.W.kXiXpX:X:XpXaXaX:X1XI z Z.tXuXMXBXDXMXMXVXVXVXZXZXZXMXMXZXZXZXVXVXVXZXVXZXVXVXMXMXMXmXvX>Xk.H K !.8X>XcXuXpX>X#X=X=X|.2XU 0 v P.9XiXMXZXZXZXZXZXMXMXVXZXVXVXVXVXVXVXZXZXZXVXVXVXZXZXZXZX",
"dXrXu.d 5 . .                                                                                           . O O O # 1 K G.qXlX}.h.9X@X+.H Y 9.u.+.7.*.6 % = b e.6.@.W | d f m 8 5 b v Y Y v y y $ # 0 v j J { 0.{ Y U N 0 4 & > , 8 d Z y 8 > > 4 4 & & 5 9 h Q C.8XsXvXBXMXBXzXzXcXzXzXbXmXBXBXsX@X(.q.R 8 , q C P.S.G.Q.G.A.S.P.0.8.8.9.y.d.z.JXF.p.%.#.>.0.E f 2 3 g n 8 8 q v Y 8.i.^ m 9 8 , , v 8.u.Q j B | P.B 9 8 i u w & = O % = 7 & # # . # O O O . O * & > 5 5 , > & $ # .   . . . . .               . . 8 A.9XNXVXZXMXvX#XZ.K 3.KX-XiXpXpXpXvXaXaXFX<XH z !.9XvXNXMXMXMXVXVXVXVXVXZXZXMXMXVXVXZXZXZXZXZXZXZXVXMXMXMXNXaXsXM.@.K ;.N.9X;X:XaXaX:X=X;X=XqXD.v q m /.kXDXZXZXZXZXZXVXMXMXVXVXVXVXVXVXVXVXVXZXZXZXZXZXZXZXZXZX",
"aX8X8.8 > . .                                                                                           . . o . O , H Y.1X1X&.#.4XM.I j h J J j W R 6 % & q 0.P.@.W } B m d > > 5 c m m V F u 4 $ : 2 m B J ^ L.! Y m q 0 6 , < 1 1 , 4 4 & % % % = 4 8 m #.M.=XsXxXmXmXBXmXbXzXzXzXzXzXmXBXMXxX>X3Xf.Q 1 > 8 C 6.s.s.a.p.1.%.#.#.<.<.#.+.+.%.D.F.D.D.7.Q P Y J j l G ) C d 6 6 0 c v g 8 , : : 9 R S.Y.w.K v S P.P a , 7 r 4 & % = = 4 & > > > > 7 & # & 7 7 w e g g 9 9 q 8 : $ # . . . .         .           . 8 G.sXMXVXZXBXvX=Xt.K l.5X*XuXxXxXzXvXaXpX,XM.H z .XkXNXMXMXMXMXVXVXVXVXVXZXZXMXMXZXZXZXZXZXZXZXZXZXZXMXBXBXmXdXtXV.K I l.0XsXwXzXgXaXpX*X&X|.{.V.f 9 K !.sXMXZXZXZXZXZXVXVXMXVXVXVXVXVXVXVXVXVXVXZXZXZXZXZXZXZXZX",
"dX3X^ , & . # .         o                                                                             . .   X   o > j Y.H.C.W H (.(.;.W P B m N B ) 0 > > , D K.{ Y } _ ) f > 4 , V M f N n q 5 & # > d v v B } { W J M f f m L J L Z r * o o + % 4 q m -.D.7XfXxXmXxXxXxXmXmXmXmXbXzXzXbXmXBXmXdXkX`.&.9 > 9 ^ f.h.g.s.1.1.%.1.h.}.'.c.p.%.#.6.;.@.~ Q I Q @.W K k I e.0.J 9 , > > > & & # $ : s @.D.JXG.Q d c P.>.J 9 & % . * % 7 r 4 > > > : , w 5 > 0 Z b d 9 f m v C A b : : $ % # . . .         .         . 8 H.dXVXZXMXBXvX>X@.P M.=X*XuXxXbXzXvXaXpX>Xz.z G .XdXNXMXMXMXMXVXVXVXVXVXZXZXMXMXZXZXVXZXVXVXVXVXZXDXMXBXmXpX,X6X-.j +.<XdXaXcXzXgXmXxXpXfX=XXXq.f d 3.0XcXMXZXZXZXZXZXVXZXZXVXVXVXVXVXVXZXZXZXZXZXZXVXZXVXVXVXVX",
"dX1XB & # . # .         o                                                                               .   X     % d L.>.8.v v i.U.y.@.q.J V b v D w 5 5 : 8 A _ J R ) } V 5 > 5 D ) J v d 9 8 > % & 4 y Z n f ^ W K K K W 8.P.P.L. .u ; o o = 6 q J 5.Q.1X;XuXxXxXxXxXxXmXmXmXBXmXxXzXzXxXmXmXvXsX`.%.a , 9 8.5XFXwXwX3X5X6X0XsXuX&X[.F.4.Q I Q I Q #.r.Q.Q.5.K j #.H.G.w.Y m c 8 > & & # : 8 j #.f..X2X>.d q 0.u.0.h > #   % & 6 w w e q 8 , > 5 , 8 d n d a 9 f m C ) ) n , : $ # # O . . .     . .         . 8 D.dXVXVXMXBXvX9XQ ~ <X|.*XuXpXxXzXvXxXsX8Xl.j K {.dXmXZXBXMXZXZXVXVXZXZXZXZXZXZXZXZXVXVXVXVXVXVXVXMXMXBXxXpX0Xz.J j a.qXdXaXxXzXBXZXNXiX*X=XY.*.f M !.rXvXDXZXZXZXMXVXVXZXZXZXVXVXVXZXZXZXZXZXZXZXZXVXVXVXVXVXVX",
"dX5Xv % # . #                                                                                           . .     o O 5 D m m 6 0 R u.y.2.q.R b 7 8 d , , e 6 > 8 C h B N T v 6 & > e ) } L m m v > & % % 7 Z Z a T H H @.y.U.U.U.e.*.V 6 - - 4 8 E -.l.4XtX>X;XsXxXxXaXaXxXmXMXhXmXmXxXpXpXpXaXaXcX>Xs.P 9 8 9 :.<XpXzXzXeX,X-XfXSXpX+X<XE.,.W W 4.k.N.#X<X5X4XS.B m 2..X{.6Xb.3.@.Y m d 8 5 0 V W 7.d.H.5Xl.B c Y P.U.J 8 & . # 6 8 0 Z F F Z Z 5 5 8 d v f s f v c d v v d 8 , > $ # O .           . .         . 8 F.dXVXZXBXbXvX9X+.<.0X XfXaXpXxXzXzXvXsX3X6.h W {.mXmXZXBXMXZXZXVXVXZXZXZXZXZXZXZXZXZXZXVXVXZXVXMXBXBXBXvXcX5X#.j W 2XkXiXmXmXmXmXBXgXuX|..XU.K f P tXsXaXDXZXZXZXMXVXVXZXZXZXZXVXVXVXVXZXZXVXVXZXZXZXZXVXVXVXVX",
"dX2Xd % . . % .                                                                                         . O . o o   % 0 8 q 6 0 B P.5.A.>.} w 4 8 8 < , b u = & 8 d N c c 8 4 & & : C ..} ^ ^ B q 8 > & > 5 e g C T _ P./.U.q./ M s 1 $ & 8 m W 6.W.tXwX,XcXvXxXbXxXxXxXxXmXmXgXgXgXxXpXpXpXpXpXFX3X7.G d b a ~ 5XcXBXBXbXvXgXgXgXvXtXW.r.-.;.Z.M.#XsXfX|.{.N.5.v v 4.[.|.sX8X@X<Xz.5./ T C T _ 8.y.4.z.3XF.W v N } P.W 9 , & & Z q q b F F Z Z Z b b V D B B R S N B S B f q q 8 4 & # .           . .         . 9 F.dXVXZXmXnXxX>X#.V.9XuXsXaXxXvXzXcXcX,X<X<.h $.{.NXmXZXBXBXZXZXVXVXZXZXZXZXZXZXZXZXZXZXVXVXZXVXMXBXBXBXvX,XD.P z 6.0XfXuXmXBXBXbXbXaXiX,X6X0.j M <.GXiXaXDXZXZXVXMXMXVXZXZXZXZXVXVXVXVXZXZXVXVXZXVXZXZXVXVXVXVX",
"dX2X8 O . . & .                                                                                         . . # O     O & 0 q b q M :.;.w.Q J y w d 9 8 , 0 t - % > 8 b y y 4 = % % $ 9 T } } { Y ! J c 8 , : < 9 e D ..0.8.! B c & # & > 2 G <..X{.,XcX:XpXmXZXMXmXxXxXxXmXmXmXgXgXgXvXdXaXpXpXzXGX3X3.M N ) h Q 3XeXbXbXzXzXiXiXuX:X%Xa.4.4.M.0XsXiXiXiXuX9XR.;.c c 3.#X&XdXsX,XFX9X1XM.6.>.>.:.{ { -.k.1X1X;.m q V 0.$.m 8 , 5 n n b d q 8 8 6 y Z b V ) T E { / { 9.i.i.0._ ) c 6 & # o o X X     . .         O q F.dXVXZXBXnXxX].;.Q.-XdXdXuXvXvXzXcXsX>XM.+.m 0.=XDXMXZXBXBXZXZXVXVXZXZXZXZXZXZXZXZXZXVXVXVXZXVXMXBXBXvXxX>X#.G +.G.0X-XaXgXMXMXzXeXxXvX9XG.K f W Z.dXhXNXBXVXVXMXMXMXVXVXZXZXZXZXZXVXVXVXZXVXVXVXVXZXZXZXVXVXVX",
"9X(.8 O . . > $                                                                                           . # . O   * % w y b 8 m J / W ( s ) D h f q > $ 5 4 & 4 5 y Z F 6 4 % % , < a ) } E / ,./ B d 1 1 < : > w e a d v q > = O # < M 2.[.kXNXiXpXvXBXmXMXZXBXxXxXvXNXvXaXaXgXmXmXmXaXaXxXxXzX@X;.M R K.G Q 3XeXbXbXzXzXaXdX,X$Xc.&.s.3XrX,XaXhXMXhXsX0XZ.! 0 q 3.3XsXvXzXvXpXzX,X'.z.6.#.W U J ! 6.6X5Xy.M 6 8 _ K.L 9 1 9 q n n q 5 > > & & 7 w e V S C U W / 8.{ 0...| D q 4 # . o o X       . .         O q W.dXVXZXmXzXsXv.<.!.=XNXdX*XxXvXxXzX,X1Xz.Q K S.-XDXmXDXMXMXZXZXZXVXZXZXZXZXZXZXZXVXVXVXVXVXZXMXMXMXBXvX>XM.H H V.KX=XsXHXaXMXMXzXeXxXsXN.%.j j ;.6XiXMXDXxXVXVXMXMXMXVXVXVXZXZXZXZXVXVXZXZXVXVXVXVXZXZXZXVXVXVX",
"5X2.5 * . $ Z < .                                                                           o X                 . . O # > 6 6 , d B ) ) v N 8.U.$.G d , , 8 8 8 4 5 6 y Z F y , 8 < 2 a h B C R 9.:.! J v 9 , $ & . # & > > > 5 q b q d / A.>XsXmXmXmXxXxXzXbXSXBXmXaXiXiXpXpXuXmXaXgXmXmXmXmXxXsX@X~ M e.e.z +.#X:XzXvXzXpXpX,X6Xa.&.s.+X>X>X:XxXmXMXgXsX<X,.S 4 q ~ b.,XxXzXzXeXeX;Xm.k.3.~ E N B Y @.6.(.P.m 5 , 9 ) ..C a 9 5 5 4 & % # # # % % % & > 6 e e d 9 8 q b b 0 > $ # O .             . .       o = v R.vXmXDXaXvX8Xp.c.@XrXsXxXxXbXaXmXmX=XW.5.H #.m.FXvXmXMXDXMXZXZXZXZXZXZXZXZXMXZXVXVXMXMXMXmXNXBXMXMXDX-X(.K K <.W.8X,XdXdXaXBXmXMXxXsX8X(.I z <.W.9XmXMXMXZXZXZXVXMXZXZXVXVXVXVXVXVXZXZXVXVXZXZXZXZXVXVXVXZXVXZX",
"(.*., O . & D 1 .   . .                                                                       o                   . . # & 4 5 5 n N n n q 9 Y S.2.Q f 1 9 A c 0 4 4 4 4 w u y y 1 d ) C f 9 9 C L.i.} ) V e 5 &     . % % > y A ..) m j ;.W.,XvXmXmXmXvX:X;X;X:X:X:X:X,X,X,X,X,XsXsXiXaXaXxXmXNXcX<XW M u.q.H #.1X:XpXpXcXcXsX=Xz.<.p.v.:XcXcXcXbXBXMXmX,Xz.E q & 5 Y D.kXaXpXvXwXwX%Xc.4.3.{ E N m J Q ,.U.L.v 6 , 8 d ) _ L 2 : & $ & * * O . . . . . # # & > > > $ & 4 7 & . . . .           X   .     X   O 4 m @XvXmXDXaXcXN.&.[.7XrX:XxXmXmXxXMXgX=Xz.Q z s.;XGXvXxXMXDXVXZXZXZXZXZXZXZXZXMXZXVXMXhXhXhXmXvXBXBXMXhX7X9.j @.k.3X,XdXaXvXxXvXxXmXxX=XM.q.H Q k.3XsXmXMXVXZXZXZXZXZXZXZXVXVXVXVXVXVXZXZXZXVXZXZXZXZXVXVXVXZXZXZX",
"(.K , . O > [ 1 .   .                                                                                             . . # & > 5 6 A D n c 0 5 m 0.P.0.m d C X.Z 6 4 = & & & & 7 w , q D D F d , 9 D S n e 6 & # . . . # $ : 8 S L.I._ H +.M.8X,XsXpXaXcXcX,X#X#X<Xk.k.x.b.Z.M.M.R.1X>X,XsXzXaXbXSXcXR.J N i.$.P <.8X,XpXpXxXvX,Xm.<.<.s.].,XcXcXcXvXmXMXgX=X4.B 5 & > B z.9XiXiXvX:X>XR.a.<.;.-.Y S N J W :.0.) d 5 6 8 8 m K.K.m 1 > $ > 7 r - O . . . . . O # # # # # # # % . . . .             X   .     X   O 5 B 6XvXxXDXxXkXp.%.[.qXrX:XmXBXbXNXmXdX1X<.G H @XwXGXNXNXMXVXZXVXZXZXVXZXZXZXZXMXZXVXMXMXhXhXmXmXBXmXMXdX6XW j z.#XsXdXgXgXmXvXxXvXpXrXF.#.K z 1.@X9XsXmXMXVXZXZXZXMXMXZXZXZXZXVXVXZXZXZXZXVXVXZXZXVXZXVXVXZXZXZXZX",
").j > o % 7  .1 .   .     X                                                                                       . O # # & > 6 b | T d 8 8 d J P.P.K W 8._.n 5 4 & & = % O # & 4 > w u Z u > & 5 5 5 & # # . O O # & , 8 v } I.} Y I p.8XkXuXuXsX:X;X#XN.k.d.t.~ ! ! ~ { @.@.#.a.c.%X>X,XpXsXvXsXN.N n } Y W 4.1XsXxXaXaXcX%Xp.+.<.c.&XsXsXzXzXbXxXmXpXv.@.v 6 = & f >.{.fXuXiX*X%Xc.4.;.-.@.W R N M J K J v 8 > 6 y 9 a _ P.8.n 6 > > 7 r - O . o o o . . O O O # # . . . . .                     . .       # 6 Y 3XvXaXSXvX9X+.I N.9XFXsXBXMXbXSXxXsX6X#.j @.3XcXvXNXNXmXVXVXVXZXZXZXZXZXZXZXZXZXVXMXMXMXmXmXMXmXBXNX,XB.H I #XsXaXgXhXhXmXaXaXvX&X5X5.G h P D.8X9XsXmXMXVXZXZXZXMXMXZXZXZXZXVXVXZXZXZXZXVXVXZXZXVXVXVXVXZXZXZXZX",
"T.s & o % t  .1 #   .                                                                                               . . . # & 8 f { / M d q q m ( ,.+.7.C.U.m 0 5 & = 7 7 % % = & # 4 4 = = . O % & % % . . . O . # 5 d C ^ 0.i.E K #.v.*XdXdXGX,X[.s.1.#.Q J M N N N N B B J K I #.a.@X$X>X:X:XcXn.m c S B Q d.m.,XvXNXaX*Xc.#.+.%.c.&XsXxXzXzXvXvXdX&Xs.W v y % % 8 K f.1X-X*X-Xv.p.1.<.+.+.Q U v f f f d 9 9 0 5 y b a J u.T.) b > $ > = % .         o o o o . . .                                 .     . & 8 ! 3XNXgXSXvX8XI P M.9XcXaXMXBXxXvXsX,X2XQ j q.8XsXxXNXMXMXMXVXVXVXZXZXZXZXZXZXZXZXZXVXMXMXMXMXDXgXMXvX8X1.P 1.,XmXmXMXMXMXmXaXaXvX%XQ.Y f M 5.6X9XsXiXmXMXVXZXZXMXMXMXZXZXZXZXVXZXZXZXVXVXVXVXVXVXVXVXZXZXZXZXZXZX",
"I.a & . & u [ , #   .         o                                                                                 o . . . . . # 5 R q.7.+.Y B N T J +.1.B.[.F.P m y 4 4 6 7 = % = = # & # O O . O . O O . . . . . % > e A _ 8.-.~ G P f.1X-X-X,X6Xz.<.@.W K B h f v n n n v m B Y G I <.b.@X$X>XwXGXm.J d m H ;.z.v.*XvXNXaX&Xs.#.+.<.v.-XxXvXbXbXvXvXsX`.<.Y c w % % 5 f Q C.XX{.[.s.&.%.<.>.2.9.R V d 9 9 9 a m | q q A N M $.T...Z > $ $ % O . o                                               X     .     # 6 9 ! $XNXgXSXGX<XH H M.,XcXaXMXgXxXcX:X7XG.K j u.8XsXvXNXCXVXVXVXVXVXZXZXZXZXZXZXZXZXZXVXMXMXMXMXZXgXDXwXW.+.#.W.sXmXMXVXVXMXmXaXaXGX@X6.m f $.G.8XvXdXiXMXMXMXZXZXMXMXMXZXZXZXZXZXZXZXZXZXZXVXVXVXVXVXVXZXVXZXZXZXZX",
"L.q % . 4 F ' , # . .                                                                                                 . . . # , } V.C.a.,.0.} ^ W <.b.[.{.1X<.Y N q 0 6 4 & & = 4 # $ # % * O * % % % & & & & & 7 w b V T Y W P I &.F.5X.Xb.r./ B N v v m M C C v v m m m C T E Y W @.4.k.[.>XFXvX%X3.U J @.d.n.].*XxXvX:X'.a.<.+.p.[.,XvXxXxXbXzXcX;Xs.+.U y = % % = 8 v R >.S.d.p.&.%.<.y.u.8.) D b 8 9 d B } I.C q F D B Q P.) e > $ & # O . o o o X X X       o o o o                       X     .   . 5 n d :.>XSXgXNXkXk.H K <X,XsXiXMXgXpXcX,X1XV.G j w.=XvXNXBXVXVXVXVXVXVXVXVXZXZXZXZXZXMXMXMXVXMXMXMXMXMXvX>X4.Q d.0XsXmXNXBXMXBXxXdXdXkX.X@.f N A.6XsXvXgXgXVXMXMXZXMXMXMXMXZXZXZXZXVXZXZXZXZXZXZXZXZXZXVXVXVXVXVXVXZXVX",
"..0 # % 5 F F 8 % O .                                                                                                   . . # > R w.D.p.<.U.u.K ;.d.<XB.`..Xd.K m v d q 8 5 5 6 > $ > & & % . & > & > > > > > $ w w q d f M K I f.H.JXA.#.! B 6 = & & 5 8 a h A d f v v m m L R } ~ Q +.1.s.'.,XsX;XW.3.#.Z.M.}.sXsXzXcX;Xv.a.4.#.k.$XcXxXiXaXxXpX,X[.1.~ S w O % % 4 6 8 a C 0.9.y.6.%.2.u.8.B V Z w > q m _ T.P.R d n D m P L.b > # # % O .                 o                       X         X     . . # e ) N 5.9XSXgXdX=X1.M K 2XsXaXiXMXmXpX:X>X2Xw.M j w.=XvXNXmXMXVXVXVXVXVXZXVXZXZXZXZXZXMXBXMXVXVXMXMXgXDXsX3X+.@.F.9XsXvXvXmXmXxXzXsXsX9XF.I d U KX-XiXmXmXMXVXMXMXZXMXMXMXMXZXZXZXZXVXZXZXZXZXZXZXZXZXVXVXVXVXVXVXVXZXVX",
"' 5 % % 5 X.b 0 & O   @   @   .                                                                                             . $ n } 2.#.7.(.Q.1.&.p.k.%.b.d.Q K G h f v v n n c 9 , 8 Z ] u 4 > 7 u u w 0 0 5 , e d d m m M / ,.JXG.w.^ v 6 = O O @ o . # : < 3 1 9 b f f f S ) M R ~ +.1.s.`.&XcX:X>X3XN.n.].|.vXpXpXwX@Xk.s.a.#.b.8XsXxXgXaXxX:X>Xa.+.{ A > % & 6 y q 9 9 q d S L / 9.e.} S c 8 6 4 4 q m >./.U.:.9 8 n d h ) 5 & # . O .                                                     X   + . . > d L.J 5.,XmXNXuX0X+.h 8.F.fXaXaXMXgXzX,X'.F.:.M j y.9XmXmXMXVXVXVXVXZXZXZXMXZXZXZXZXZXMXBXMXVXVXMXmXgXNX-Xc.@.y.1X,XvXxXbXbXbXbXcXuXdXqX1.z a 8.7XaXBXMXVXVXVXVXVXMXMXMXMXMXZXZXZXZXVXVXZXZXZXZXZXZXVXVXVXZXZXZXVXVXVXVX",
"u & % & 9 I.b w & #   O   X   .                                                                                             . # 6 v R @.V.JX1Xh.g.c.l.+.V.u.8.8.W K M j m m v d d a g A F b 5 , w u e , 1 q b Z D D V T B G 0.U.S.>.T d 4 % O o   X X     # $ < : > 8 8 1 9 d m f J W Q <.k.v.&XcXpXaXdX#X].-XuXmXaXcXtXM.4.a.k.p.N.>X*XaXmXmXvX:X@X<.W T b & % 4 b A C m f 8 , 8 9 m T R S y 6 > > & 4 q B 2.(.G.5.f 8 q 8 9 V > % O . . o             o o                                     X   O . # < m L.K l.,XhXNXsX5XQ m 9.<XdXvXgXMXaXpX:X`.D.~ h k q.9XmXmXMXVXVXVXVXZXZXZXMXZXZXZXZXZXMXBXMXZXVXMXmXNXfXqXa.I V.8XcXsXaXbXmXbXbXcXuX-XXX+.j f u.9XgXMXVXVXVXVXVXVXMXMXMXMXZXZXZXZXZXVXVXZXZXZXZXZXZXVXVXVXVXZXZXVXVXVXVX",
"4 . # $ d I.n 8 > &   o   X   .                                                                                             o O % > v 8.U.JX9XuX|.].z.Q -.9.} } 8.0./ R ) ) m v f v V A n q , > > 7 > $ > 8 b F n D A m M _ P.P.( m 5 & . o . O o o         . # . O # $ $ : , 8 d V R / 6.z.v.].:XpXhXgX|.].uXiXMXmXvX3Xd.;.p.k.b.<X>X*XiXgXxXxXrXn.#.Y N 8 & & 6 A 0.>.+.K f 8 5 5 8 q d 8 > % & & & 5 v K <.F.2Xj.B 8 w 6 8 e * O .   o o             o . . .                                 X     . $ 2 J P.K Z.sXgXhXsXJXP M i.7XdXvXaXBXaXzXwX].D./ h k q.9XmXmXMXVXVXVXVXZXZXMXMXZXZXZXZXZXMXMXMXZXZXMXmXNX].5X&.I ^.FXvXdXiXBXMXbXbXvX,X{.F.z s h /.,XmXMXZXZXZXVXVXVXVXMXMXZXZXZXZXZXZXVXVXVXZXVXVXVXVXVXVXVXZXZXZXZXZXVXVX",
"% . % $ f I.g , > 7 .         .                                                                                             o O . % 9 R u.G.9XdX*X#Xz.Q ~ :.Y J *.L.0.} K...V v C D ) D A b 9 5 # # # $ > 8 8 q , d d d m } L.R d , # O o   . O . .   X     . O X     . # # $ $ 5 b A ^ 9.6.s.v.:XpXMXgX].].uXgXhXgXcX$X4.@.&.a.k.@X,XpXaXgXaXpXtXa.~ E b 5 & & 8 ) P.G.b.a.~ B 0 8 5 8 8 5 4 4 > , > 0 N P &.B..Xd.J 8 6 t , > % o o o             o   o o .                                   o     # $ a / /.W Q.sXgXgXkX(.K B u.0XdXvXaXmXpXxXcX+XW.$.h k w.9XmXmXMXVXVXVXVXZXMXMXMXZXZXZXZXMXMXMXZXZXZXMXvXsX{.F.+.1.<XGXaXvXaXMXZXbXbXvX*X[.H.k 2 B (.,XMXMXZXZXZXVXVXVXVXVXVXZXZXZXZXZXZXZXVXVXVXVXVXVXVXVXVXVXZXZXZXZXZXVXVX",
". . % : h I.d > 5 u .         .                                                                                             o O . # , d J >.B.qX=X#Xl.+.#.q.~ H G R T C ) D q q b n n Z b y w 4 # % % & w w 4 > 5 > , b A V N d , $ # % O .   . . . o o . O # #         . O . . # 4 w v R @.<.s.>XaXMXiX}.}.uXgXhXgXzX%X4.@.#.%.p.[.:XpXmXmXxXcXtX3.! ) y 4 & $ 5 T u.2X0X7XN.t.{ E S c 8 8 , 5 q q q c T ~ 1.B.b.7.^ 9 > 7 & # O . o o                 o o                                     X     # : s 9./.I !.sXgXgXkX/.K J S.9XdXiXpXxXpXpXsX|..X*.h k e.9XmXBXMXVXVXVXVXZXMXMXMXZXZXZXZXMXMXMXZXZXZXMXaX=X5X%.I M.=XvXaXdXiXVXZXmXbXxX-XXXj.a a W 4XeXIXMXMXZXMXVXVXVXVXVXVXZXZXZXZXZXZXZXVXVXVXVXVXVXZXZXZXZXZXVXVXZXZXVXZX",
"  . % > M _.d , 0 F O         .                                                                                             . O   # $ > 8 M #.d.!.D.y.;.>.S.$.H h f a 9 d q , 5 > > , > 5 4 > $ * * % & w w 4 & > & 4 y w , 8 > # # # # # # % % % O . O % & & % o       . O .   . % & , d J ~ l.>XzXmXpXm.m.pXgXMXgXzX#X4.@.@.+.s.#X,XpXaXmXxXcXyX3.Y S 0 & & $ , m ,..XkXvX,X$X!.E.i.{ B f d d D A V T / #.1.s.1.6.K.n & - # % O . . o o                                                             # < j y.S.Q !.sXhXdX9Xu.J G Z.kXdXpX:XzX:XpXuX|.XX$.h k e.9XmXBXMXVXVXVXVXMXMXMXMXMXZXZXZXMXMXZXZXZXZXMXvX6X(.I I 6X:XvXvXsXiXMXZXbXzXxX&X2X9.a f ;.3XzXIXZXMXZXMXMXMXVXVXVXVXZXZXZXZXZXZXZXVXVXVXVXVXZXZXZXZXZXZXVXVXZXZXVXVX",
"    % , J _.a 8 b ' *   X     .                                                                                             . O O . # # % 4 c B { { { / #.A.#.G C d 8 5 4 & & & & $ & & & & & * * = % & 7 4 & & % - - * O % 7 .   o # $ < 9 0 5 4 & # & 4 5 5 & % O O # % % O . o o O & 5 d U 5.$X:XpX&Xx.M.pXgXmXxXzX+Xa.@.~ Q c.=X:XuXaXmXxXwX3X3.B c 5 & $ & , d W z.9XdXaXxX:X>X~.r.:./ ^ _ _ ) T ^ 8.;.%.1.1.,.I.V & - . % . . . . o                                                             # 1 R U.1.Q 4XuXNXdX7X9.M H Z.lXdXuX:XzX:XpXvX-X1X>.j k j.9XvXNXNXMXVXVXVXMXMXMXMXMXZXZXZXMXMXZXZXZXMXMXcX6X6.H <.8XdXxXxX-X&XgXMXzXzXpX|.XXI 9 m z.,XBXIXZXBXBXBXBXMXVXVXVXVXZXZXZXZXZXMXZXVXVXVXZXZXZXZXZXZXVXVXVXVXZXZXZXZX",
"  o % 8 W T.a 8 V  .&   X                                                                                                   . O O   . * O . % 5 6 c N R ~ U.$.M ) y 6 5 & # # % % # % & & % & = = = & & = & % % r - O + .   o   X o & < a V n w r 4 & > 8 q 0 5 % % % $ $ # # .   @ o % > , d W ~.>X,X#XM.R.cXNXxXzXwX@X1.@.W W 4.`.&X*XmXMXmX,X3X,.N 0 > & & > > 1 J 6.1XpXiXmXxXcXtX^.3.@.W P J J J W :.#.#.%.<.~ ..e $ - . . . . . . o                                                         o . & a *./.&.#.KXuXSXdX{.$.h G D.dXiXpX:XcX:XpXdX*X1X:.j j S.9XNXNXNXMXVXZXZXZXMXMXMXZXZXZXZXMXMXZXZXZXBXNX,X!.Q I G.9XNXpXpX*X|.aXmXzXeXuX{.Y.z a J 1XvXIXZXZXMXMXMXMXMXVXVXVXVXZXZXZXZXZXZXZXVXZXZXZXZXZXZXZXVXVXVXVXVXZXZXZXZX",
"  o # 8 Q /.a 2 E I.$ O   X                                                                                                         . O # > $ & & 4 5 q V ` C d [ Z 8 > & & & & % 7 6 6 5 4 w > 7 r = % % O . % # . .   o o o o o & w V C v e w y 4 & 5 b A Z y * # # & > $ # % .     o # # : f ,.F.5X[.c.rX:X:XwX$Xk.Z.5.~ :.Q Q 1.}.uXvXgXgXpX5X/ q = 4 & $ & % > f @.N.,XsXxX:X,X>XN.4.@.P K ! W W ~ 5.6.a.&.2.0.V > = % . . . . .                                                               . < s P.U.<.s.wXcXvXsX6XH s I c.vXMXaXpXzXzXvX*XfX{.8.f j G.wXmXBXBXMXVXZXZXZXZXZXZXZXZXZXZXZXMXZXMXMXSX*X0X5.H <.8XsXiXaXsXcX&XxXxXzX&X,XN.w.K k S.9XmXBXIXMXZXZXZXZXZXVXVXVXVXVXVXVXVXZXZXZXZXVXVXVXVXVXVXZXZXZXZXZXZXVXVXZXZX",
"  o # 8 @./.a 2 / P.: .                                                                                                           . . % $ w , > & % % & 8 q w 5 Z w 5 & & & % % 7 u u Z u y b 6 7 7 = % O .   O # # . . . o   o % 6 n A V c 0 6 6 5 5 d A D b 5 & & > 5 8 8 > & * O o O O . $ 1 J ;.Z.N.v.GXwX,X$XM.4.y.,.~ >.Q I %.v.-XdXgXMXvX5X~ 8 & = & & & & > a K d.1X>X*X;X;X+Xc.4.;.+.W ~ ~ @.,.V.V.6.>.! T q % % * O O . .                                                                 # < z U./.%.m.cXzXcXkXF.j s #.'.vXmXxXbXbXzXvXuXOX{.W f j D.cXBXBXBXMXMXZXZXZXZXZXZXZXZXZXZXZXZXZXVXmXdX8XW.W P c.9XsXaXpX*XvX:XpXxX*X;X8X2X@.j z H.dXMXUXBXMXZXVXZXZXZXVXVXVXVXVXVXVXVXZXZXZXZXVXVXVXVXZXZXZXZXZXZXVXZXVXVXZXZX",
"o O . 8 :./.a 2 >.P.> .                                                                                                         . . . % 8 D v 9 > & & & > > % % % % O O + + * % = r w y w w 0 $ = - O . O . . % . . . . # % % & 0 c v v d 1 5 0 0 q d C ) A q > > 5 8 q n A b 6 & % O . . # # > 9 B -.E.s.rX,X>Xc.1.+.,.~ W q.+.@.6.@X,XxXgXhXaX6X~ 5 % 4 & & & 4 8 q m ~ x.@X>XwX>X%Xk.p.4.p.1.4.3.4.7.7.>.W J v 8 & # O % % O . .                                                                 $ 3 I Y./.#.@XcXxXsX9XH.k s l.#XvXxXxXbXbXzXxXdX X1XG a P F.cXBXBXBXMXMXZXZXZXZXZXZXZXZXZXZXMXIXmXVXNXsX5X3.H ;.6XsXuXaXpX:XvXpXpXvX&X:X8X!.K s +..XNXVXBXbXMXZXZXZXZXZXZXZXZXZXZXZXVXVXVXVXZXZXZXVXZXZXZXZXZXZXVXVXVXVXVXVXZXZX",
"o . . 8 q.).a 3 q.i.> . o o                                                                                                       . O & g K.} R v q 8 8 6 & O O # . .     X @ + % > 4 > > > > # # % . . O O . # . O % % % & > 8 V C N v 8 , 5 0 v N J L J v 0 > 8 9 d v C ) A b 5 5 4 % . # # $ 5 q B u.#.@X>X=Xg.%.I -.~ W q.#.,.V.6XrXzXaXgXiX6X~ 8 & = & % & > e n N M W a.1X3X@Xc.1.<.1.f.f.6.7.7.2.@.! U V 8 > 4 7 % % % o .                                                                   > a 2.(./.+.@XcXxXpX9Xz.h s D.>XcXxXzXbXbXxXaXdX-X2Xj s 2.6XcXBXBXMXMXZXZXZXZXZXZXZXZXZXZXZXBXMXmXMXMXsX~.Q P l.9X*XuXaX:XcXdXpXpXNXpXcX1XV.B s y.1XNXVXBXBXMXZXZXZXZXZXZXZXZXZXZXZXVXVXVXVXZXZXVXVXZXZXZXZXVXVXVXVXVXVXVXVXZXZX",
"o . . 1 y.).2 3 u.9.>   . . o                                                                                                     . O > m P.U.S.,.~ J m d , & & > : # .       . # # & $ & - * % % & # # & & # . % * - = & > 8 d _ ^ E S b 0 6 8 C R / Q G d 5 5 d h M T ) T N m v V Z 6 & # O O = 4 q } K a.1X7X`.p.+.>./ W q.#.W <.N.>XzXxXmXdX1X@.9 & = = % & , d A D N M Q d.^.~.Z.5.>.2.7.j.w.q.9.:.^ S n b > 5 b Z 5 & ;   o                                                               X . 5 j C.JXE.@.R.cXMXuX1X6.h s F.,XvXxXzXbXbXxXgXfX9Xb.M s A.8XvXmXBXMXMXZXZXZXZXZXZXZXZXZXZXZXBXxXMXmXNX9X;.J ;.F.kXuXiXaX*XcXvXuXxXxXNXcX<X;.M M G.9XhXVXDXBXZXZXZXZXZXZXZXZXZXZXVXVXVXVXZXVXZXZXZXZXZXVXVXVXVXVXVXVXVXVXVXVXZXZX",
". . . , S./.3 1 u.:.>   . . o                                                                                                     . O > m U.2X1XF.D.V.w./ J d 8 1 < $ # . O O # # $ , > > > % % % > > 5 w 0 > & # * - 7 6 q v L 0.8.R V b q q d M W $.@.K f 0 0 B K _ 0.} T m m B T A c 4 # O o O % = n m +.<X7X0XN.%.,.:.K ~ Q K ;.m.,XcXvXmXxX=X<.d 4 % % % & 5 9 V ..} K K W 3.y.u.0.{ ^ / / _ } ^ T N q 6 , 8 v | ) q 4 ; @ o .                                                             o O 8 ( F.6Xy.@.@XcXDXuX1X#.f j [.,XcXzXzXzXmXgXmXfX0X<.M j !.=XxXBXBXMXZXZXZXZXZXZXZXZXZXZXZXMXMXxXDXmXdX[.K J l.@XsXiXmXaX&XzXSXiXxXpXNX,X~.! h W F.sXgXVXZXZXZXVXZXZXZXZXZXZXZXZXVXVXZXZXZXZXZXZXZXZXZXZXVXVXVXZXVXVXVXVXVXVXZXZX",
"O O # , U./.3 2 U.$.>   O .                                                                                                       o O 4 B A.7XsX*X,X9X0X6Xz.;.W m q 5 & % = = 7 q d C C v b 5 6 > 6 0 c n n 0 4 % % = 6 c V R / 8.! B d 9 0 c N G W $.$.! C b b J Q { } } E J J J Y U v 6 & O @   O O = q J D.1X7X{.&.2.9.K K Y W <.%XcXcXzXxXsX=X1.m 4 % O % & & 5 N } P.5.~ K Y Y U B v q 8 8 8 8 0 0 6 5 6 8 m ^ P.8.f 4 ; @ o .                                                               % d 9.0X7X;.~ $XsXDXdX2XQ h ~ 1XsXcXzXzXzXmXgXmX*X5X+.M W <XsXvXBXBXMXZXZXZXZXZXZXZXZXZXZXZXMXNXSXNXxX9X1.K ,.W.#XsXiXmXaX&XpXNXaXaXiXdX8XV.J M y.#XdXgXVXZXZXZXVXVXVXVXVXZXZXZXVXVXVXZXZXZXZXZXVXZXZXVXVXVXVXZXZXZXZXZXZXVXVXZXVX",
"O % # , U.U.1 9 U./ >   O .                                                                                                       o . 5 B D.-XjXgXgXgXdXsXkX8XF.w./ B d 8 0 q v C J 0._ R S q 0 b b n V ) V 9 , 6 4 4 0 N R Q Q P H j f d d m J ^ $.>.>./ T v v G W W Y Y E ! Y ~ W Y B q & o     . o . 6 f y.M.oX{.&.7.u.W J ^ Y <.'.:XwXzXxXcX-Xp.B 5 % . % % O > m 8.A.G.l.;.K J v 9 , & # O 4 4 & % & 4 8 a P w.U.>.f > ; @ o .                                                               & f S.qX=X@.~ 3X*XNXdXJXK j q.9XdXsX:XzXzXmXgXhX-X!.Q j 5.$XvXmXBXBXMXZXZXZXZXZXZXZXZXZXZXZXMXaXDXiXsX4XQ W E.1X&XuXuXiXaXpXaXxXgXgXSX*X8X5.m J (.-XmXmXMXVXZXVXVXVXVXVXVXZXZXVXVXVXVXZXZXZXZXVXVXZXZXVXVXVXVXZXZXZXZXZXZXVXVXVXVX",
". - . 8 /.w.2 9 ).W 5 . o .                                                                                                         . 4 m A.-XgXVXVXVXMXMXMXmXdX9X.Xz.<.~ Y K J K H P / K m v 8 c d N T R B f d V D D D R / $.+.H M h N S S T E :.i.>.~ E m d m W W Y E E E Y W ~ ~ ( J q & o     . o O % 9 _ Y.B.h.g.H.U./ B } ~ <.n.>X;XeXvXsX9Xz.U 8 & = % . o % a Q D.6X1X2Xr.-.m 8 > #   o & & # & 4 8 f K q.A.U.W 9 4 -   . .                                                             . > h Y.lXqX@.~ 3XfXDX*XG.W G V.,XxXzXeXzXzXgXgXiX].(.W G Q.,XmXBXMXMXMXZXZXZXZXZXZXZXZXZXMXMXBXiXHXgX&X-.J 3.5X&XuXuX:XpXmXmXaXvXSXMXuXkXW.Y m y.<XdXgXaXNXZXZXZXZXZXZXZXZXVXZXVXVXVXVXZXZXVXVXVXVXVXVXVXVXVXZXZXZXZXZXZXZXZXVXVXVX",
"O - . 8 /.2.2 2 ).Y , . o o                                                                                                     . . . & f S.,XmXVXVXVXVXVXMXMXMXmXsX>X#XR.z.d.4.1.%.#.3.@.W Y M B G W @.@.Q W ! B C S ) } i.e.q.{ T m B E } 8.8.i.9.( G B M M Y :./ ! ^ } { Y Y >.:./ T c > . o . .   o . > N >.J..X.XF.w.K m E :.+.1.N.$X;XpXdX7X6.J q 8 > % O   % 8 K b.qX,X=X6XV.! v 6 % . O & 6 y y 8 d K >.U.e._ v > & = O O .                                                           . O , H !.kX9X@.3.8XfXHXqXy.J K D.sXxXzXzXzXzXgXgXiX{.S.Y W W.cXMXMXMXMXZXZXZXZXZXZXZXZXZXMXMXMXBXaXdXdX[.Y Y M.9XuXpX:X:XpXxXmXaXxXxXgXiXqXa.M J Z.>XmXMXxXNXVXVXZXVXZXZXVXVXVXVXVXVXVXZXZXZXVXVXVXVXVXVXVXVXVXZXZXZXZXZXZXZXZXZXVXVX",
"O - . 1 U.$.2 9 _.J , . o                                                                                                     . # . . & d u.8XvXMXZXMXMXVXMXVXMXBXvXvXFXrXtXyX1X$X[.c.m.n.k.k.1.p.a.k.M.c.s.k.V.W B h m B J J J B N m B Y / ~ Q >.:.E B J J G K { :.8.} E U U W ,.$.! B d > O   # . . .   # 8 B 6.F.6Xb.#.z f B 9.+.Q 3.~.tXpXuXn.+.m v N q 4 % o % , M d.7XdXuX,X[.;.B q > $ > q c c v N R $.8.P.) d 5 % # & # O . .                                                         . # 9 @.2X,X9X@.V.7XfXfX7X@.j Q W.sXmXzXzXzXpXgXiXdX1X:.J ;.6XvXMXMXMXZXZXZXZXZXZXZXZXZXZXZXMXMXBXNXuXsXs.B { 3XuXiXuX:X:XsXpXaXaXvX:XdXvX1X+.M :.6XcXMXMXbXNXVXMXVXVXVXVXVXVXVXVXVXVXZXZXZXZXVXVXZXZXVXVXVXVXVXVXVXVXZXZXZXZXZXVXVXVX",
"O * . 1 T.~ 2 f _.B > .                                                                                                       . # .   % q 9.3XvXBXMXBXBXBXMXMXMXMXMXBXmXvXvXcXcXGXwX+X;X>X>XrX=X9X,XsXsX,X&X#X6Xl.@.K M m f f m v B T T Y Q +.+.Q Q ( E E W W Q :.8.8.{ Y B Y ! ~ W K B d > . . . . . . . # > 9 K j.F.s.+.G m m *.$.K Y r.5X,X|.p.I m B R T 0 % . * > a +.N.-XiXuX=Xa.W m 9 9 v ) T B J / i.8.( ` d 4 * % % & # # . .                                                         . # a 6.6X9X3X~ E.,XdX XJXK h <.1XxXmXbXzXzXaXaXiXsX6XK B y.3XNXZXZXMXZXZXZXZXZXZXZXZXZXZXZXMXMXBXNXsX7X%.J u.8XiXgXiX:X,XcXpXaXxXzX*XsX9Xz.P K E.9XNXVXMXmXNXVXMXVXZXVXVXVXVXVXVXVXVXZXZXZXZXVXVXZXZXZXZXVXVXVXZXVXVXVXZXZXZXZXVXVXVX",
"o O # 1 _.W a C _.N > .                                                                                                       . # .   O q { 3XvXBXZXBXBXmXBXBXMXZXZXZXZXZXMXmXvXcXwX+X;X,X,XFXsXNXmXmXmXNXvXsX,X8Xz.;.W B d n ' V T T J K @.2.7.+.Q ( E E ~ ,.w.u.:.W W ! ! W W W Y R ) n 5 # O .   . . O O % > 2 ( A.D.1.;.! M J L v h { A.@X[.a.@.B M ^ _ n & % % & 5 J 5.N.9X=X#Xk.#.K m m J / >.0.{ ~ ( L m 8 > & O O & 7 > O .                                                           . $ f C.1XrX$X~ ^.sXdX7X(.H G z.9XxXmXbXzXzXaXiXuXsX2Xm m E.rXMXZXZXMXZXZXZXZXZXZXZXZXZXZXZXMXMXBXdX9Xb.I @.!.-XgXmXiXpXzXcXpXaXxX:X;X>Xg.Q G +.JXsXmXVXMXMXMXMXMXVXVXVXVXVXVXVXVXVXZXZXZXZXVXVXVXZXZXVXVXVXVXZXZXVXVXZXZXZXZXVXVXVXZX",
"  . # 1 _.Y s [ _.N : #   X                                                                                                   . # .   . q ! 3XvXMXZXBXBXBXBXBXMXMXZXZXZXZXVXBXxXpXwX+X+X,XsXdXaXMXMXmXMXVXMXmXpXcX#Xk.#.G a d V N B m B W #.<.&.%.+.~ ! K W 2.7.5.@.W W ~ ! ~ ! W Y T ) Z > # .     . . . . . % & N u.(.!.Q.y.U d 1 9 v T { 6.~.D.S.{ B K } ) q > & # > d U 5.D.<X1XN.4.@.K B T W ,.u.>.! J v q > & % . . 7 u 7 O .                                                           . : B H.=XtXR.~ ^.fXdX6XV.G K n.sXxXxXxXzXpXaXiXuX9XD.m m Z.rXDXZXZXMXZXZXZXZXZXZXZXZXZXZXZXMXMXmXfX7X<.I x.0X*XNXmXgXaXzXzXzXxXxX:X>X<X#.z K 1.0XaXmXMXVXZXVXNXNXVXZXVXVXVXVXVXVXVXZXZXZXZXZXVXVXZXZXVXVXVXVXZXZXVXVXZXZXZXZXVXVXVXZX",
"  . & 8 _.J h ..PXN : #   X                                                                                                   . . .   . y ! 8XNXZXZXZXZXMXMXZXMXmXmXMXZXZXVXBXmXzXcX].].uXaXgXgXBXBXmXmXBXBXmXiXSXsX=Xc.%.H j f J B B Y { ,.7.1.1.#.@.~ K Q %.%.+.@.+.@.@.@.@.:.! J C V e & . . X   . . # .     % 8 ! V.!.JXE./ 0 $ 8 v c v Y 5.C.Y.u.Y B R } ) 8 > $ $ 4 0 N { y.~.W.D.w./ S T Q #.>.8.} ) b 6 & & > > , t r - O .                                                           # , ^ .X7X0Xk.~ ^.fXOX2X+.M ~ [.sXxXbXbXxXxXaXiX-X7Xz.m v x.FXDXZXZXMXZXZXZXZXZXZXZXZXZXZXZXMXMXmXfX`.Q @.@X,XsXvXaXmXmXaXzXcXbXxXcX9X^.W j :.F.9XgXMXMXZXZXVXmXNXMXZXZXZXZXZXVXVXZXZXZXZXZXZXZXZXZXVXVXVXZXZXZXZXVXVXZXZXZXVXVXVXZXZX",
"o O , 9 _.M j L.PXv : #   X                                                                                                     . .   . y Y 8XmXZXZXZXZXZXZXVXVXBXSXBXBXmXMXZXDXvXcX`.`.sXNXhXgXbXbXbXmXmXMXMXMXmXmXvX9X1Xz.+.K W K J Y Q @.7.C.7.#.Q Q W ;.C.Z.%.#.#.<.6.6.,.@./ K M v w $ . .     . # # . X X O $ a W 6.A.E.8.8 > 9 9 > 4 c m +.y.P.( j J { ..b 5 $ # = % 4 y S { ,.,.8.T c c B J Y T V y 4 $ > : 1 e b u r   . .                                                           # a e.5X9XyX1.Q ~.dXfXJXI H <.$XvXvXNXmXmXmXxXdXsX=Xf.B m d.FXBXZXZXZXZXZXVXVXZXZXZXZXZXZXMXBXBXvXkXg.Q 6.7X*XvXpXgXBXBXxXzXvXmXaXsX1Xr.K K Z.9XsXmXMXZXZXZXVXmXNXMXZXZXZXZXZXVXVXVXZXZXZXZXZXZXZXZXZXVXVXZXZXZXZXVXVXZXZXVXVXVXVXZXZX",
"% & 1 ) I.B h I._.d < #     X                                                                                                         . 4 B 8XmXMXVXZXZXZXVXVXMXBXmXBXBXmXBXVXVXBXzX+Xg.*XdXNXgXMXBXBXBXMXZXMXMXMXmXNXvXcX;X'.s.1.;.+.Q @.+.+.#.+.Q Q @.<.4.l.D.D.f.1.&.a.z.6.;.r.3.~ B 8 % . .                 . % 5 d B ( i.I.N a , > & % & > a B _ 8.L s M  .' u & # # % % & 4 6 0 e q w 6 5 8 8 6 6 7 4 & $ , 8 b [ ' w # .                                               o . .         O , G C.0XtXKX#.+.F.kX,X(.I x F.rXzXxX*XaXaXaXxXpXsX-X.XY M <.1XvXMXBXZXZXVXMXMXMXVXZXIXIXZXUXBXaXvX6X#.%.N.+X:XvXpXaXZXBXpXzXcXaXuX X2XK P a.>XNXNXNXBXZXVXVXVXMXBXMXVXVXVXZXZXVXVXVXVXVXVXVXVXVXZXZXZXVXVXZXZXZXZXVXVXZXZXZXVXVXVXZXZX",
"& > a _ L.m h _._.d < # .   X                                                                                                         . 4 m 3XaXmXMXMXVXVXVXMXMXBXBXBXBXbXmXVXVXMXxX%Xc.&XsXNXgXMXMXMXMXVXVXVXMXMXBXBXNXNXvX:X&Xc.z.z.z.Z.y.,.;.@.+.;.<.4.l.D.W.F.M.k.s.s.f.4.<.k.a.<.Y q % . . . .             . O & > 8 v ) } ..S 8 & % O . O > 8 m ) _ C m v Z w & % # O O # O O % % % % & # & % % % % % & > 8 D  .D 8 & % O                                               o . .     X   # 9 +.F.rXtX4X+.%.H.9X8Xy.P &.{.wXzXcX*XaXaXpXpX:X*X-X{.W M ;.<XvXMXBXZXZXVXMXhXMXMXZXIXIXIXBXvXxX9X1.+.p.$X,X,XcXpXmXBXxXzXcX:XuXfX1Xd.K Q $XpXZXMXSXNXVXVXVXVXMXBXZXZXVXVXZXZXVXZXVXVXVXVXVXVXVXZXZXZXVXVXVXZXZXZXVXVXVXZXZXVXVXVXZXZX",
"% > a L.[ m j _._.d , #     X                                                                                               . .       . = m 3XaXmXMXMXMXVXVXMXMXBXBXBXmXbXmXVXVXMXvX;X'.].sXdXaXNXMXMXMXVXZXVXMXZXBXmXNXBXNXvXcX>X<Xc.a.a.4.#.#.#.<.1.1.1.p.k.c.m.N.<X[.N.B.M.b.n.k.a.-.n > # . . . .           o . O # : 1 d v ) D b w & # # & & > , g D D V d 5 > & & # . . . . . . . . # # # # O . . . O & 5 Z [ [ e $ # %                                                     .     X   # 9 w.1XFXrXM.+.p..X,X0X~ H p. XzXnXcX*XxXaXpXpX*X&X-X.XW m @.<XcXNXBXZXZXVXMXMXVXMXZXIXIXZXmXvX9X@X+.%.m.,XcXxXzXpXmXaXpXvXcX:X*XkXXX+.H 3.rXxXDXBXBXNXVXVXVXVXBXBXMXZXZXZXZXZXZXZXZXZXVXVXVXVXVXVXZXZXVXVXVXVXZXZXVXVXZXZXZXZXVXVXZXVX",
"# $ f I.C f M _.I.d > #                                                                                                     . .       . = v 1XaXmXBXMXMXVXVXMXMXBXBXmXmXmXBXMXMXBXvX;X;X}.,XdXgXBXBXBXMXMXVXVXVXZXMXBXBXBXBXvXcXwX#Xh.p.p.p.1.1.a.z.z.a.p.a.a.p.s.h.B.`.`.v.m.m.'.m.n.5.V 5 # # . . .             o . # % & > , 8 e Z Z w > & & & & & > 8 b b e $ # # # O . . . . . . O # # # # # O . O . % = w ' Z 8 , & % .                                                           X o & f C.#XGXrX3.Q z.0X-X0XH j B.-XzXnXcX*XxXxX:X:X*X&X=XB.! f Q F.sXNXBXZXZXVXVXVXVXMXIXBXIXZXBXvX3Xa.+.z.8X,XvXmXxXxXSXpXpXvXcX:X,X0X7.H P !.rXSXMXMXBXNXVXVXVXVXBXBXMXZXZXZXZXZXZXZXZXZXZXZXVXVXVXZXZXZXVXVXVXVXZXZXVXVXZXZXZXZXVXVXZXZX",
"O $ f _.f a M _.I.q > #                                                                                                     . .       . = v 1XaXmXmXBXMXVXVXMXBXMXBXmXmXmXBXMXBXBXvX:X,Xv.*XdXvXmXBXmXBXMXMXVXMXVXMXMXMXBXNXmXxXzX:X&X+X=X#X@X<XW.6X<XN.N.N.m.c.h.v.`.`.}.].].+X&X+X%XV.) 6 $ # . .                 . . O % % % & > 6 e Z y 5 # . O O O % > , , # # . . . . . . . . . . O O O . O O O O O O = 7 y 5 > 4 & .   +                                                         X . 5 M H.=XnXwX~ P H.qX-XKXM M [.fXNXzX,X&XsXpX:X,X;X+X{.b.^ f P F.,XNXBXMXZXZXVXVXZXZXUXbXZXZXNXkXD.+.<.2X9X*XgXMXaXvXzX:XzXpX:X,X8XD.K j #.5X:XSXDXMXBXNXVXVXVXZXBXBXMXZXZXZXZXZXZXVXZXZXVXVXVXVXZXZXZXZXZXVXVXVXVXZXVXVXZXZXZXZXZXVXVXVX",
"% $ j _.d 9 M _.I.9 > #                                                                                                     .         . = v <XaXmXmXBXMXVXVXBXBXVXMXNXNXMXMXMXBXNXvXvX:Xv.}.sXvXNXBXmXBXMXMXMXMXMXMXMXMXMXBXNXmXxXvXpXpXcX,X=X$X[.[.[.@X#X$X#X%X%X+X+X&X*XdX,X:XpX:X>XZ.) 8 $ # .               X         o + O O % & 5 q y w 7 O o o X O % $ $ & % O . . . . o   o . . O . . . . . . O O . % = & & > & % .   X                                                           # q ! <XsXNX>XW W B.qX-X2XM J {.dXSXzX;X+X:X:X*X:X;X].=Xz.{ m P W.sXSXNXMXZXZXZXZXZXZXUXbXBXMXNX#X>.H 4.1X9XuXNXVXxXzX:X:XpXpX&X,X<X;.d h Z.8XzXaXIXMXMXMXVXVXVXZXBXBXMXVXZXZXZXZXZXVXZXZXVXVXVXVXZXZXZXZXVXVXVXVXVXZXVXVXZXZXZXZXVXVXVXVX",
"- 5 J I.v 9 G T.L.8 > # o                                                                                                   . .       . = v 6XaXmXmXBXMXVXVXBXBXZXMXBXNXZXZXMXBXNXaXSX:Xv.v.,XdXNXmXmXBXBXMXMXmXMXMXMXMXBXBXBXBXBXBXxXpXpX*X].].v.v.`.].#X%X+X%X].+X+X|.*XaXsXpXaXpX,X~._ 8 $ # .               o         X o @   . % $ : , 7 r ; @ X X X . # & % * * % O . .   o o O . . . . . .     o o   . O # # # O O + X                                                           . & v ,.7XvXvX>XQ ~ .XqXqXf.J { =XdXSXxX:X&XpX:X*X,X;X+X=Xb.0.M P W.sXNXMXMXZXZXZXZXIXIXIXBXBXSXkXs.P H z.#X,XdXMXMXxXzX:X*XpXuX X8XZ.U q m 2XsXmXmXZXVXVXVXVXVXVXVXBXBXZXVXVXVXZXVXZXVXZXVXVXVXZXZXZXZXVXVXVXVXVXVXVXVXZXZXZXZXZXZXZXZXVXVX",
"r w K T.m 2 H T.X.8 & # o                                                                                                   . .       . = v 6XaXmXmXBXMXMXMXMXBXZXZXBXBXZXZXMXmXBXaXDXuXv.g.9XsXvXNXmXmXBXBXBXmXMXMXMXmXmXmXmXBXBXZXZXBXNXpX*X*X&X&X=X>X=X].].+X&X;X*X*XuXaXpXpXmXxXwXW._ 5 $ #                     o o o X           . $ & $ .     X @ X   . % O - r r * O     o o         . . O o           . O O O . o     X                                                         . > B V.,XNXsX$X@.3.3X9X0X%.J u.7XiXMXxXcX*XzXpX*XcX,X&XqXb.i.B P <XsXmXMXVXZXZXZXZXIXIXBXSXNXGX1X&.z H .X;XsXvXNXmXxXvX:X&XuXiX*X1Xu.N q R @XHXgXIXBXZXVXVXMXVXVXZXZXBXZXVXZXVXVXVXZXZXZXZXVXVXZXZXZXZXVXVXVXVXVXVXVXZXZXZXZXZXZXZXZXZXVXVX",
"= 8 8.).d d K T.T 5 & .   @                                                                                                       .   O = f 3XaXmXNXBXMXVXVXMXBXZXMXBXBXZXZXMXmXbXaXNXvX+Xs.=X,XvXmXmXmXmXBXBXMXBXBXBXBXmXBXMXMXZXZXZXZXmXvXxXsX:X&X}.`.`.}.`.v.+X&X:XpXaXgXiXpXBXxXwX!.B 6 $ .                                         . . . .               . O O O O O O O                                   . .                                                       X X         . # 8 / !.GXaX,Xn.+.~.8X9X2X+.G /.9XvXmXaX*XpXxXpX:X*X*X&X-XB.:.M #.3XdXMXMXVXZXZXZXZXZXZXZXxXwXKX1.P z w.#XuX:XsXNXxXpXzX&X:XiXiXdX.XU y 8 i.=XgXVXZXZXZXVXVXVXVXVXZXZXZXZXZXZXZXVXVXVXZXZXZXVXVXZXZXZXZXVXVXZXVXVXVXVXVXZXZXZXZXZXZXVXVXVXVX",
"& 8 e.).a d @./.V > % .   @                                                                                                       .   O 4 v 3XNXNXNXBXMXVXVXMXBXMXMXBXMXZXZXMXmXNXxXBXaX&Xs.'.>XzXbXxXxXxXxXmXmXmXmXmXmXBXBXBXMXZXZXZXMXBXmXxXzX:X&X].`.].].].].&X:XpXxXmXgXxXaXBXbXwX~.N 5 # .                                                                   . . O O .                                                                                                 X       O # $ d 2.3XvXaX>Xs.<.R.9X8XG.I H G.9XvXBXgXpXpXxXiXuX*X:X-X-XB.:.G #.1XaXMXMXVXZXMXBXBXZXMXZXvX8XZ.Q j Q H.|.pXpXpXxXpX:X:X*XpXgXOX-XD.B 0 c u.sXhXVXMXBXMXVXVXMXVXVXVXZXMXZXZXZXZXVXVXVXVXZXVXVXVXZXZXZXZXZXZXZXZXVXVXVXVXZXZXZXZXVXZXVXVXVXVX",
"& 9 U.Y.a d q.T.f $ % O   o                                                                                                     . . . % 4 m 3XNXmXBXMXMXVXVXMXBXMXMXMXZXZXZXBXmXBXNXmXaX:Xh.v.>XvXvXbXxXxXxXbXmXmXmXmXmXmXmXBXBXZXZXZXMXBXmXxXxXpX:X*X*X*X:X:X:X:XzXzXvXmXmXxXxXBXvXwXQ.v > .                     . .   . .                         . .                                                                                                                     X       . # , M d.9XvXNX1X1.k.$XrX0Xw.H +..XwXnXBXgXpXdXaXiXuX*X:X-XfX[.@.G <.7XaXVXMXVXZXMXBXBXBXBXmXGXW.@.J k 6.6X&XaXxXzXvX:X:XcX:XdXgX X#XV.v 8 B E.vXMXZXMXMXMXZXVXVXVXVXZXZXZXZXZXZXZXZXVXVXVXZXZXVXVXVXVXZXZXZXZXZXZXZXZXVXVXZXZXVXVXVXVXVXVXZXZX",
"& a (.(.f 9 S.Y.d # % O                                                                                                           . . % > B 3XSXmXMXMXMXVXVXMXBXMXMXZXZXZXZXBXmXNXNXmXmXvX`.c.$XcXvXvXxXxXbXbXmXmXmXmXmXmXBXBXBXMXMXMXMXBXmXmXxXaXaXsXsXsXzXcXnXvXvXvXNXmXmXmXbXBXvXwXZ.c & .                       . . . .             X X         . . .                                                                                                                           . $ 8 Y M.sXmXGXW.%.m.wXGXKX~ z &.7XcXNXNXgXaXdXmXiXpXpX:X*XfX.X~ J 1.=XgXVXMXVXZXZXBXBXBXNXpXFXd.K M H Q.#X:XxXxXxXvXpX:XcXpXpXuX|..Xq.d 9 ~ <XcXMXZXMXSXNXMXVXMXVXVXZXZXZXZXZXZXVXZXZXZXVXZXZXVXVXVXVXZXZXZXZXZXZXZXZXVXVXVXVXVXVXVXVXVXVXZXZX",
"> a JXJXm 9 U.(.d # O o                                                                                                           . . % > R 1XNXBXMXMXVXVXVXMXBXBXMXZXZXZXMXBXmXmXBXmXmXvX+Xs.n.cXxXxXxXxXxXxXxXmXmXmXmXmXBXBXBXBXMXMXBXBXmXmXmXiXpXaXaXzXzXxXvXvXmXNXmXMXmXmXvXNXvX9XV.d & .                                                       . .                                                                                                                             # > f :.1XvXxXcXz.#.%X,XrX5XG k s.kXcXbXxXaXpXdXxXaXpXpX:X&X-X.XQ G d.7XgXVXVXVXVXZXZXBXBXvX-X5XI G M -.4X%X:XpXpXpXvXzX:XpXpX*X-X1XG.! 2 h z.9XcXvXBXmXSXzXNXmXMXMXNXBXZXZXZXVXVXVXVXZXZXZXZXZXZXZXVXVXVXZXZXZXZXVXZXZXZXZXVXVXVXVXVXVXVXVXZXZX",
"> f 2X2XM d Y.(.d # O o                                                                                                         . . . % 4 ^ 1XmXMXMXMXVXVXVXVXBXBXMXZXZXZXMXBXBXBXmXmXmXsX;Xp.p.:XxXxXvXxXxXzXpXbXbXbXmXmXmXBXBXBXBXBXmXBXmXmXmXaXaXaXaXaXxXbXmXBXBXmXmXMXmXxXvXbXcX8XV.d & .   . .                             . .                                                                                                                                               . # , m w.9XvXvXwX1.&.>XcXcX4Xh k B.dXvXbXxXpXpXdXxXaXpXpX:X&X-X.XK B z.8XgXMXVXMXMXZXZXMXmXsX0XC.j j P l.3X;X>X:XpXaXBXbXpXxXxX:X=XF.q.M 2 K 1XGXcXvXSXSXUXnXvXNXMXMXSXBXZXZXZXVXVXVXZXZXZXVXZXZXVXVXVXVXVXVXZXZXZXVXZXZXZXZXVXZXVXVXVXVXVXVXZXZX",
"4 U XX.XM m (.(.d # . X                                                                                                         . . . & 5 } 3XmXMXMXVXVXVXVXVXBXBXMXZXZXZXBXBXBXMXmXNXmXuX,Xa.<.:XxXvXbXvXvXxXzXxXxXxXxXxXxXmXmXmXBXBXmXmXmXmXmXmXmXmXmXmXmXBXBXMXMXmXMXMXmXmXvXaXzX>XV.q $ . . . . .                           . .                                                                                                                                               . # , B V.kXaXNX>X1.f.9XGXwX~.h s .XdXmXBXxX:XsXsXxXaXpXsX:X;X-X.XG M Z.0XgXMXMXMXMXZXZXVXmXsXG.@.k G <.^.$X$X$XwXzXmXBXmXxXNXaXsX1X7.K k k $.=XvXcXFXzX:XFX>X,XsXmXNXnXbXZXZXZXVXVXZXZXZXVXVXVXVXVXVXVXVXZXZXZXZXVXVXVXVXZXVXZXZXZXZXZXZXVXVXZXZX",
"q } 2XH.m M (.Y.q O . o   @                                                                                                     # . . 4 0 i.8XmXMXMXMXVXVXVXVXMXBXMXZXVXMXBXBXBXMXaXvXvX*XFXc.1.;X:XzXxXvXxXaXpXxXxXxXaXxXxXxXxXmXBXmXmXmXmXmXmXMXmXgXmXmXBXBXBXMXMXBXMXMXBXbXvXpXsX$Xr.9 % . . . .                             . . .                                                                                                                                           . # & 8 Y W.GXgXcX%X%.M.rXnX>XD.j k {.iXmXBXcX:XsXdXaXpX:XsXsX*X-XF.j M A.0XmXVXMXMXMXMXVXmXsX8XS.G j P G.@X;X;X$X>XzXxXmXaXaXNXuXkX!.Q h s H S.=XsX8X3Xm.c.n.c.'.].*X,X9XrXvXBXMXVXVXZXZXZXZXVXVXVXVXVXVXVXZXZXZXZXVXVXVXVXVXVXZXZXZXZXZXZXVXVXZXZX",
"h L./.q.f Y JXJ.9 % .   .     X                                                                                                 . # . 4 v /.,XMXMXMXBXMXZXZXZXVXZXMXMXMXMXBXmXmXNXmXxXxXzX:X+Xv.m.>XFX:XpXmXmXgXaXxXvXaXaXvXxXxXmXBXmXBXBXmXmXmXgXmXmXmXmXmXmXxXaXaXxXmXmXmXbXzXpX:X8X<.q %                                                                                                                                                                             X X   . # $ & 9 y.3XvXgXkX=.1.^.rXwX5X#.j I {.NXmXbX;X,XfXdXaXpX:X:XiXsX=XM.J Y Q.tXaXMXVXMXmXgXvXkX<Xd.P M K w.!.$X&XsX;XeXeXzXbXxXgXgXiX9X(.B a a q.Y.2Xb.<.~ W W +.1.g.v.s.#.#.x.7XdXdXmXVXVXZXVXBXmXMXVXVXVXVXZXZXZXZXZXZXZXZXZXZXVXVXVXVXVXVXVXZXVXVXVX",
"H P./.$.f / XXj.8 %     .     X                                                                                                 . # . 5 M !.,XNXMXZXBXZXZXZXZXVXZXMXMXMXBXBXmXmXmXxXzXzXsX:X&X'.c.%X>X,XpXiXmXgXaXxXxXpXaXxXmXxXmXBXmXBXBXBXBXBXBXBXBXBXBXmXBXmXaXaXxXxXmXmXbXzXpX:X8X<.q %                                                                                                                                                                             X X   # $ > 5 N Z.>XvXNXqX=.a.<XrXtX4X+.z +.=XNXBXBX:X:X&XuXaXpX:XpXaXuX=Xz.M m r.yXcXMXgXgXdX9X<Xz.;.W j G ~ r.N.%X&XpX;XeXeX:XzXpXiXgXuX{.P.v c m e.V.#.+.I W W -.4.n.#X1Xz.+.P Q f.7X-XiXhXMXZXZXBXBXMXVXVXMXMXMXZXZXZXZXZXZXZXZXVXVXVXVXVXVXZXZXZXZXVXVX",
"P U.).W m K.H.d.8 O . . .                                                                                                         O . 5 B (.cXBXMXZXBXZXZXZXZXVXZXMXMXBXMXBXmXmXaXaXaXzXsX:X:X+Xc.c.;XcXpXuXmXaXaXaXaXpXaXxXxXaXmXmXmXBXBXBXBXBXmXmXBXmXmXBXmXmXaXaXaXxXmXxXbXvXpX:X8X,.q %                                                                                                                                                                                   # : 8 d / F.FXdXvX{.=.n.yXeXtX!.I H &.kXNXMXMXpX:X*X:XvXzXzXzXaXsX1XS.m 8 ! r.6XFX*X-X.Xd.@.J m f m ~ l.M.'.+X,XeXeXeX;X;X:X:XuXsXqXD.{ 9 0 b R I Q #.1.z.W.1X>XsXdXsX{.1.P j W V.1XsXhXMXVXZXDXBXMXVXVXMXMXMXZXZXZXZXZXZXVXVXVXVXVXVXZXZXZXZXZXZXVXVX",
"Q U./.H M _.Y.q.8 O o . .                                                                                                         O O , J JXcXmXMXZXZXZXZXZXZXZXMXMXMXMXMXBXmXmXaXxXvXxXzXsX:X>Xv.s.+XFXpXuXmXaXaXaXaXaXaXxXxXmXmXmXmXBXmXBXBXBXmXmXmXmXmXmXmXgXxXxXxXxXmXxXbXzXzX:X3X>.q %                                                                                                                                                                         .         # 8 d M w.<XGXdXGXh.&.@XrXeXtXZ.H z j.kXmXmXBXaXpX:XcXnXzXzXzXaXuX8XS.m 8 m K ;.d.b.f.+.H f a v M ~ l.6X$X&X:XcXeXzXzX:X;X,X,X-X=X2Xq.S > 5 8 B K <.k.[.9XkXdXdXiXdXdX=XB.#.j f ( !.,XhXMXVXZXBXBXZXVXVXVXVXMXZXZXZXZXZXZXVXVXVXVXVXZXZXZXZXZXZXZXZXZX",
"#.(./.G B ).Y.2., O     . .                                                                                                       O O , K 4XGXBXZXZXMXMXZXVXVXVXMXMXMXMXBXBXmXmXxXxXvXxXzXpX:X,X%Xc.+XFXuXuXxXiXaXaXaXxXxXxXxXmXmXmXmXBXBXBXBXmXmXBXBXBXBXBXBXmXmXmXxXxXmXxXbXzXzX:X3X;.q %                                                                                                                                                                         .       . & n M P C.=XGXvXkX=.=.>XGXeXtX,.h j y.9XcXzXzXsXzXzXzXzX:XeX:XiXuX9Xz.M v C v f m C m f a f G ~ 5.z.N.=X:XpXxXxXaXpX:X;X;X,X-X{.F.9.S 6 % 4 q W 6.<X=XfXiXiXgXaXdXFX9X=X<XV.K 9 f V.1XdXgXMXZXBXmXZXVXVXVXVXMXZXZXZXVXVXVXVXZXZXZXZXZXZXZXZXZXZXZXZXZX",
"p.(.U.G G T.Y.( > .     . .                                                                                                         % 8 ! 4XvXMXZXZXMXMXMXMXMXMXMXBXMXMXBXBXmXxXxXxXxXpXpXpX:X:X$Xv.'.,XuXpXaXiXxXaXaXxXxXxXmXmXmXmXmXBXBXBXmXmXmXmXmXmXmXmXmXmXmXmXmXmXmXxXzXzXzX:X3X;.q %                                                                                                                                                                         . .     % > C K #.[.-XvXcX=X&.p.,XnXwXyXW s k y.0XwXzX:XsXvXzXbXbXzX:XzXaXdX7X=.j ) X.D v 9 8 q v J $.6.D.<X$X].&X:XxXxXxXpX*X-X=X=X,X{.g.6.m 6 % % 0 m 2.2X9XvXgXgXhXgXdX,X%Xc.g.b.Z./ d 9 @.M.kXmXBXZXIXMXVXVXVXVXVXMXZXZXVXVXVXVXVXZXZXZXZXZXZXZXVXZXZXZXZXZX",
"B.JXu.G H T.).j > .     . .                                                                                                     X   & d >.5XvXMXZXZXMXBXBXmXBXBXMXBXBXMXBXBXmXxXaXaXpXpXzXzXpX:X>X'.`.&XuXpXaXaXmXxXxXmXmXxXmXmXmXmXmXmXBXBXmXmXmXmXmXmXmXmXmXgXmXmXmXmXBXmXbXzXzX:X1X;.q %                                                                                                                                                                         . . o o % 5 T Q s.=XdXdX,Xv.&.h.sXvXwX4XM a j S.1XcXGXpXaXvXaXxXmXmXxXvXgXfXoX#.j D ..) T G J W >.C.<X7X-XsXfXuX*XpXcXcX:X:X&X=X1X.XXXf.+.J 5 % % 4 N ;.M.7XpXaXgXgXgXiX].k.<.#.#.1.l.>.N 9 G 6.0XvXmXZXIXZXVXVXVXVXVXMXZXZXZXZXVXVXZXZXZXZXVXVXVXVXVXVXZXZXZXZX",
"{.5X,.M H U.).s & .   o O . .                                                                                                   X   4 m 6.8XvXBXZXZXMXmXmXmXmXBXBXBXMXBXMXBXmXxXaXpXpXpXxXvXzX:XwX+X`.].sXvXaXxXNXmXmXNXmXxXaXmXmXmXmXmXBXmXmXmXBXBXBXBXBXBXBXmXmXmXNXBXBXmXzXzXzX:X1X;.q %                                                                                                                                                                         . . . O & 8 J +.[.-XdXuX>Xs.1.N.dXmXwX!.s a K G.$XcXHXaXiXgXiXaXmXxXzXsX-X{.p.+.f f G H +.#.Z.D.<X0X9X-XuXiXuXfXsX-X>X>X>X%X#X1XG.S.V.Q k < & % 4 c -.!.5X&XdXxXaXpXaXsX+Xc.#.#.#.&.d.q.S 9 f >.5XcXxXMXZXMXZXVXVXVXVXMXZXZXZXZXVXVXVXZXZXZXVXVXVXVXVXVXZXZXZXZX",
"fX6XW h I U._.a # .       . .                                                                                                     O , j Q.9XpXDXZXZXMXBXmXmXmXBXmXBXBXBXBXmXxXaXaXpXaXxXpXpXxXpX,X>Xv.`.uXsXxXvXaXmXBXmXaXmXmXxXxXxXmXmXmXmXmXBXBXmXBXBXBXBXMXmXmXmXmXmXMXBXbXzXzX:X[.;.q % o                                                                                                                                                                   @     * . % 4 D J <.9XdXdXsXtXp.c.1XaXmX9X3.f a I 2XFXxXSXaXiXiXiX XdXkX@XF.x.%.I Q ( Q %.p.v.=X,X,X;X,XsXuXsX&X=X8X7X1X1X1X#X[.2X7.~ R v 8 , $ # > 9 i.D.<X<Xv.+X:X,X;X*XpXzX;X@Xn.N.k.1.2.} N a H !.9XNXBXIXMXZXVXVXVXVXMXZXZXZXZXZXZXZXZXZXVXVXVXVXVXVXVXVXZXZXZX",
"dX0XK f Q T.I.8 # . o       .                                                                                                 o o & 9 W <X9XaXMXZXZXMXBXmXmXmXBXmXBXBXBXBXmXxXaXxXpXaXxXpXaXvXsXcXsX].].:XsXzXaXmXNXNXmXaXxXmXxXxXxXmXmXmXmXmXBXmXmXBXBXBXBXMXmXmXmXmXmXMXBXbXbXxXsX%X;.q # .                                                                                                                                                                         O # & F ) W s.-XvXsX,Xm.p.N.=XmXaX3X~ a 2 *.JX>X;XeX:XuX X-X}.{.!.q.{ W H +.5.S.G.7X,X:XpXpXaXuXaXxX:X;Xv.c.c.D.D.C.d.&.#.+.G d q > & & % & 8 J A.2X[.k.p.+X>X>X;X:XpXaXpX:X+X>X@Xs.d.9.B a M G.9XvXBXZXZXZXZXVXVXMXMXZXZXZXZXZXZXZXZXVXVXVXVXVXVXVXVXVXZXVXZX",
"dXqXj a $.)..., # .       o o o                                                                                               . . > m 6.1XcXaXBXMXZXMXMXBXmXmXmXmXBXBXBXBXmXxXxXxXaXxXxXaXxXvXaXsXvX&X|.:XuXcXsXvXNXNXmXaXaXxXxXxXxXxXxXmXmXmXmXBXBXBXBXBXBXBXBXmXmXNXBXZXMXmXvXxXcX$X<.q # O                                                                                                                                                             . .     +   . & >  .{ +.@X*XvX,X#Xp.s.=X*XDXsX(.J 9 1 *.A.k.a.n.M.F.H.H.1.#./ V y m J V.F.1X=XfXpX:X:XgXMXgXmXxX:X;Xm.<.+.W K B f a a d 8 0 y w & % # $ a 0.G..Xs.<.a.$X;X$X>X:XpXmXmXmXaXvX9X'.N.z.Q a f V.0XvXmXZXZXZXVXVXVXMXMXZXZXVXVXZXVXZXZXZXZXZXZXVXVXVXVXVXVXVXVX",
"dXLXf 9 $.).A : # . .       o o                                                                                               O # 8 W !.=XvXaXBXMXZXMXMXmXNXmXmXmXBXBXBXBXmXxXxXxXaXxXxXaXxXmXaXdXvX:X&X*X:XvXvXaXmXmXaXaXaXaXpXxXxXxXxXmXmXmXmXBXBXBXBXBXBXBXBXBXmXNXMXZXMXBXvXxXvX>X<.d % # .                                                                                                                                                         . . . .   . @ O > d } { 4.8XuXdXrXm.&.c.,XuXNXwXu.v , 1 _ y.;.@.-.-.-.Q I H M f q c E ,.!..X{.-XuXpXzXzXBXVXaXxXzX:X>X@Xn.<.Q K m 9 8 8 q 0 c Z u 7 # # $ v U.l.s.p.a.<XwX:X;X>X:XpXmXVXMXgXmXcX=X=X#Xd.f a 7.$XvXmXMXZXZXVXVXVXMXMXZXZXVXVXVXVXZXZXZXZXZXZXZXZXVXVXVXZXVXVX",
"dX0Xd 9 q.T.d $ # . .       o o                                                                                           . . O # d #.LX-XmXmXBXMXZXZXMXBXNXmXmXmXBXBXBXBXmXxXxXxXaXxXmXaXxXmXaXaXNXpX*X|.&XvXvXpXaXmXmXxXxXpXpXxXxXxXxXmXmXmXmXBXBXBXBXMXMXMXBXBXmXNXMXVXVXmXbXxXxX>X4.v & #                                                                                                                                                           . . . . .   O # , E { ;.c.9XvX:XtXc.p.'.uXiXaXtX{ 0 $ 1 0.u.t.-.{ U m a a h G J Y :.y.D.f.s.c.#X-X:XcXzXxXxX*X:X>X$XwX>X,X'.c.z.5.Y c q n N M B m 8 $ & > D T.&.p.s.m.tXzXpXpXzXzXpXxXBXVXmXaXpX:X,XdX.Xj l %.{.vXBXZXMXZXVXVXVXMXMXZXZXVXVXZXZXZXZXVXVXZXZXVXVXVXVXZXZXVXVX",
"dX1Xd 0 y.U.9 # # . .         o                                                                                           . . # & m d.kXdXgXNXBXZXZXZXMXBXvXmXMXmXBXBXBXmXmXbXbXxXaXxXmXaXaXmXaXmXmXpX:X].].sXpXpXaXBXmXmXvXzXpXxXxXxXxXmXmXmXmXBXBXBXmXMXMXMXMXBXmXmXMXMXMXBXBXmXaX,XC.B > # .                                                                                                                                                         . . . . . . . & d 0.@.a.#X,XvX*X3Xa.g.=XaXmXsXyXS 5 $ 2 e.(.~.^.r.-.Y h s E 5.6.Z.~.N.N.p.+.#.M.#X&X:X:X:XsX;X,XwX:XwX:XsX&X&X#XW.r./ Y } :.<.%.*.h > & w ) u.&.g.#X#X,XpXxXxXpXpXzXzXxXMXBXaXpXuXuXdX0Xj l %.{.vXBXZXBXZXVXZXVXMXMXZXZXVXVXZXZXVXZXVXVXZXZXVXVXVXVXZXZXVXVX",
"dX.Xd 0 U.U.9 . # . .         o                                                                         o o               . . % , J F.kXgXgXBXmXZXZXZXBXmXvXBXMXmXBXBXBXmXmXbXmXvXxXmXNXaXmXmXgXmXaXiXvX&X}.:XpXaXmXNXmXxXxXzXpXxXxXxXxXmXmXmXmXmXmXmXmXMXMXMXMXBXmXmXmXMXMXmXmXBXpX,XG._ 6 $ .                                                                                                                                                         . . . . # . . 4 D 9.#.n.,XsXvX:Xm.a.'.kXmXNXwX~.c 4 1 k J.7XwXrXeX@XH.7.#.C.#X=X>X=X'.M.A.I P y.<X;XzXxX*XsXfXaXmXgXmXiXaXpX:X>X>X7X$X1X<X1X=X7XG.( , # 8 ) >.s.{.,X*X:XpXaXmXaXpXzXzXzXBXmXiXpXcXsXsX8Xh a 7.#XvXmXZXMXZXZXZXMXMXMXVXVXVXZXZXZXVXVXVXVXZXVXVXVXZXZXZXZXVXVX",
"lXz.q 0 U.U.9 . . . .                                                                           o . O # & & # . . o   . . . O & 9 ~ 5X-XmXgXMXBXZXZXZXBXmXmXmXMXMXBXBXBXmXmXmXmXNXxXNXNXxXmXNXgXmXiXaXSXpX|.sXxXaXmXmXaXaXaXpXpXxXxXxXxXmXmXmXmXmXmXmXmXMXMXMXMXMXmXmXmXMXBXBXmXBXpX,XJX0.d > # O           o                                                                                                                                     . .     .   . # $ # 5 } ;.p.%XcXzXcXrXp.s.{.GXaXsX0Xu.y > a z {.*X:X:X:X*X9X{.1XrX:X*X*X|.`.F.U.M m i.!.>XdXaXsXsXuXiXgXiXhXgXiXaXsX:X*XuXiXaXuXdXuXfX.XQ , & : ) #.`.-X*X*XaXpXmXMXaXpXzXcX:XbXxXaXzXGXcXsX0Xs f C.=XsXaXMXZXZXVXMXNXMXVXZXZXVXZXZXZXVXVXVXVXZXZXVXVXZXZXZXZXVXVX",
"5X2.q q U.T.9 %       . .                                                                         - , 3 M L q # *   O . # % O 5 W a.#XsXvXmXMXMXZXZXZXZXBXmXmXmXmXmXBXBXmXmXmXmXmXxXxXxXxXxXxXaXaXaXaXaXaXaXpXpXvXmXmXxXaXaXaXaXpXpXpXaXxXxXmXmXxXmXmXmXmXmXmXmXmXMXmXxXBXBXmXmXBXaX,X4Xu.J 9 > & O o X X X O O % O . o o     .                                                                                                                 . . . . . o   o . 7 & n P.<.m.cXvXHXwXc.p.B.-XdXpXFX4X! q 8 s 7.7XcX,X:XpXpXuXdX:X:XpXpXfX|.oXH.u.G m } /.@XpXgXpXuXsXsXaXaXaXdXuXpXuXuXuXdXiXiXaXaXiXfX{.#.d & 6 l f.}.*XdXuXpXxXpXgXMXjXfXuX*XmXxXzXzX:X>X,X5Xh h .XsXsXNXMXMXMXhXdXvXMXVXZXZXZXVXVXVXZXZXZXVXZXZXZXZXVXVXVXVXZXZX",
"(.$.9 q U.u.1 O       . . .                                       o o                 o o o o . O # 2 ( e.e.) Z % o O % % & % q 3.'.>XwXzXmXMXZXZXZXZXZXMXBXmXNXmXBXMXBXBXBXmXBXmXmXxXxXxXxXxXaXaXaXaXxXxXaXaXaXNXmXxXxXaXaXaXaXpXpXaXxXxXxXmXmXxXxXmXmXmXmXmXBXgXMXmXmXmXmXmXBXBXxX:X1XZ./ m 1 > # . X X   * 7 # # O O o     o                                                                                                                   . . .       o # 5 8 | q.a.+XzXcXFX%Xs.s.{.sXiXvXGXZ.J 8 8 G D.=XsXeXeXzXpXuXaXpXzXzXpXfX X[.C.$.M f B ;.R.xXgXmXvXvXvXxXpXpXpXpXsXpXuXiXdXdXiXxXmXaXdX9Xz.m > > a D.{.*XfX:XcXzX:XiXiXOX XsXsXxXxXbXzXwX>X8XZ.m m !.9X,XcXaXNXNXaX*XpXMXVXZXMXZXVXVXVXZXZXZXVXZXZXZXZXVXVXVXZXZXZX",
"(.Q 9 d T.8., O       . . .                                                     .           o O 4 9 ) P.P.0.K.X.& O % % & > 8 B N.;X,XsXzXvXBXMXZXZXZXZXMXMXmXBXmXBXBXBXBXmXmXBXmXmXxXxXbXxXxXaXxXmXmXmXxXxXxXaXmXmXxXxXxXaXaXaXxXxXxXxXxXxXmXmXmXmXmXmXmXmXmXBXaXBXmXbXbXbXbXZXBXxXsX>XW.r.W f , # O o     - r > & % O . o   o                                                                                                                       . o o   . % , V L.#.c.,X:XcX>Xn.a.c.>XdXdXdXtX5.m 8 1 Q 2X#X,XeXeXzXpXpXxXbXBXmXaXuX=Xb.2.H j m K <.@XcXaXBXBXBXBXmXmXaXaXaXxXaXpXpXsXsXzXxXNXmXiXsXD.T 6 5 v /.<X=X,X,XwXeX,XkXkX-X7X7X=X,XpXSXxXcX>X<X;.d v P.Q.5X6X@X3X3X=XfXiXhXMXMXMXVXVXZXVXZXZXVXVXZXZXZXZXVXVXZXZXZXZX",
"/.H a m T.( , %       . . .                                                           . . o o % 9 ) P.0.H G _ I.> O % # # , m ,.'.:XsXsXxXNXBXmXMXZXZXZXVXMXMXMXmXBXBXBXBXBXBXBXmXmXxXxXmXxXxXxXmXmXmXmXmXmXmXxXmXmXxXxXxXxXxXxXxXxXxXxXxXbXmXmXmXmXmXmXmXmXBXmXiXvXxXaXbXbXbXBXBXmXxX,X3XF.4.W 9 > # o   o - r y 6 & O . o o o                                                                                                                     o . o O . O & 8 _ u.&.}.,XsXtXm.s.k.+X,XNXgXuX8X/ f 1 9 $.2X{.,X;X;XeXpXpXxXbXUXBXxXsX1X6.P h a M { r.n.+X:XxXmXmXmXmXmXxXxXpXxXzXpX:X:XzXzX:XvXxXpX-XM.E y 6 n S.M.#X>X>X$X$X<X<X2XH.D.C.a.R.@X,XvX;X1Xy.B 8 8 T ! 3.;.@.,.,.C.8XdXhXhXNXDXVXVXZXZXZXZXVXVXVXZXVXVXVXVXZXZXZXZX",
"T.j a T _.C > .         . .                                                         o O O # % 5 J P.e.j l f G K.> O % # # 8 L Y.&XaXaXxXxXvXbXbXBXMXZXZXVXMXMXMXmXmXBXmXmXmXmXmXmXmXmXmXmXmXmXxXmXmXmXmXmXmXmXmXmXmXxXxXxXxXxXxXbXxXxXxXxXbXmXmXmXmXmXmXmXmXBXmXaXaXpXpXvXbXxXmXmXMXNXpX,X$Xn.7.M 1 # . o o # > u 0 > # O o @                                                                                                                       X @ o O O % & c 0.7.h.|.-X9X1Xs.a.m.wXcXmXSXsXW.U q 8 h 6.1X+X:X;X;X:XpXpXvXzXbXzXzX8X!.:.f q q B { 5.l.M.%XwXzXzXzXzXzXzXzXpXzXzXpX:X:XeXeX:XzXsX&X#XZ.T y 0 D /.W.5X@X$XR.d.;.~ W K J T J Y ;.s.tX[.G.Y 8 4 4 0 9 B M f v v E y.<XsXvXvXSXMXZXZXZXVXVXVXVXVXVXVXVXZXZXZXZXZXZX",
"I.M j K._.v & .         . .                                             . .           O # & 8 m e.).e.s 9 9 k I.4 . % O O 5 L G.,XxXxXpXxXbXmXmXBXBXMXMXMXMXMXMXmXmXmXmXmXmXmXmXmXmXmXmXmXmXmXmXmXmXmXmXmXmXmXmXmXmXxXxXxXxXxXmXxXxXxXxXxXbXmXmXmXmXmXmXmXBXBXmXaXdXpXpXvXvXxXmXBXMXMXxXpX:X=XF.*.f : # O o . # 5 , > & % O             . . .                                                                                                       X   o O # & 4 V :.&.{. X7X7Xn.s.c.>XFXxXmXSXFXz.m 5 9 K b.7X&X:X:X:X:XpXpXvXzXzXeX>XR.5.B 8 y F ..L.i.U./.Z.%X+X;XeXeXeXzXzXpXzXzXpXzXzXzX:X:X,X+X%X2Xu.n = 5 D /.Z.z.<.<.3.Q G h m d 9 8 8 8 m I G.D.q.f , 5 8 N N ! Y U f q q B ;.@XFXvXaXMXZXZXZXVXZXVXVXVXVXVXVXZXZXZXZXZXZX",
"..h M I.I.q % . .                                                   . . . .     X X   O > 9 J 8.0.P.I.m , , a I.7   O O o & f >.<X,XcXxXxXBXMXMXBXBXNXBXmXmXMXMXmXmXmXmXmXmXmXmXmXmXmXmXBXBXmXmXmXmXmXmXmXmXmXmXmXmXxXxXxXxXmXmXxXxXxXxXxXxXbXmXmXmXmXmXBXBXBXmXgXgXaXaXvXvXxXmXBXMXMXmXaXaXsX7XS.K 8 $ O o . # $ > 5 & % .           . . . . .                                                                                                         . O & & 0 T Q p.7X7X7Xv.p.c.%XsXvXBXBXvX9X%.d > v 5.[.,X*X:XpXpXzXzXaXxXvXcX>Xm.3.J q > $ 5 b m m J Y P n.R.%X+X>X,XcXsXpXsXsXpXsXsXsX:X,X>X@XD.y.R 0 % & c Q +.#.H K ! @.P Y _ C 8 , 4 5 9 j >.U.Q a f H Q w.5.y.u.S.~ Y f 9 M p.>XNXmXVXZXZXZXZXZXZXZXZXZXVXVXVXVXVXVXZXVX",
"F 9 j I.X.> . . . .                                                 . . . .     X   o & 8 B 2.).H ` ..d $ > d X.-   . O @ % , G l.@X,XvXNXVXVXMXBXmXvXvXxXmXmXMXmXmXNXNXBXmXmXBXmXmXmXmXmXBXmXmXmXmXmXmXmXmXmXmXmXmXxXxXxXxXmXvXxXxXxXxXxXxXmXmXmXmXmXmXBXBXBXmXgXmXmXgXvXxXxXMXBXMXMXVXMXmXaXsX6X$.s , % . . # # 4 7 = O   o O o     . . . . .                                                                                                 X X     O # & > c E P b.{.7X5Xp.&.m.sXvXmXMXBXcX<XI q 5 J A.#XuX&XuXpXaXxXaXiXaXsX,X#Xk.W d , 5 w 5 8 q 9 a m ^ E.!.W.<X6X1X$X=X=X=X=X=X7X8X$X[.6X4X(.u.^ d & = > d z I <.#.i.P.S.q.i.L.) d 8 y b 9 f J P.G s W S.D.F.a.3.u.(.V.q.K a a Q n.cXDXMXZXZXZXZXZXZXZXZXZXVXVXVXVXVXVXVXVX",
"6 9 j _.F & O . .                                                 . # O O .     o O & q m e.).q.f 2 I.q & 4 d X.- + O =   O & 9 J V.KX,XaXVXVXMXMXxXzXzXpXaXgXmXmXmXNXNXmXmXmXBXmXmXmXmXmXmXmXmXaXaXNXMXmXmXmXaXmXaXmXvXaXpXxXaXxXxXxXxXxXxXmXmXmXmXmXmXmXBXMXMXMXhXMXgXmXmXmXBXBXMXMXMXMXMXmXsXkXl.P d > O . O . 7 r - O . O O o   . O . - 7 . .             o                                                                         . . . . @   o O O # 4 8 D N >.G.KX.X&.#.g.8XdXgXVXMXbXwX!.K 8 0 9.W.-XdX*XsXaXmXaXxXxXaXuX=Xb.;.J a 1 0 , Z e < 9 9 g ..:.w.y.w.V.S.V.7.C.A.6.S.A.w.w.@.W B v c q > % - 8 f %.f.f.G.Y.A.w.S.q.~ J l s  .[ f 9 n D m j @.F..X.Xp.W Y q./.Y.S.M f h y.0XcXNXVXMXMXMXVXZXZXVXVXVXZXZXZXVXVXVXVX",
"& 8 j _.e * . . .                                               . . . . . O % % 4 w n | L.P.U.P.9 , PX9 & > d O.= O # & * O % > q ! Z.3XvXgXhXZXMXmXzXzXzXxXmXmXmXmXNXNXmXmXmXBXmXmXmXmXmXmXmXmXmXaXmXNXmXaXNXxXxXaXxXvXpXpXxXxXxXbXbXxXxXxXmXmXmXmXmXmXmXBXMXVXMXMXMXMXMXmXBXBXBXBXBXMXMXMXmXaXsX1X6.B , & % O # - r * . . O . .   . O % r r # . .                                                                                       . . . . O % % & 7 8 q c E U.G.s.1.%.a.N.kXgXMXVXMXnXyX5.h 8 c y.1XpXxXdXvXaXiXiXaXxXsX|..XV.~ B v n Z ' ' u : > , < d a j M j j B M h M M j M M m m f f f d q 9 8 4 & 8 N j.H.H.H.Z.V.2.Q I I z K 8.0.K.f , u Z q J 6..Xv.1XM.@.K K 2.(.Y.*.m d { 5XwXNXMXMXMXMXVXZXZXVXVXVXZXZXZXVXVXVXVX",
"# , L I.: * . .                                                 O .   O O O & 8 d ) L.P.).0.M C > , O.9 > > n O.& . > $ 7 . O # 4 d ! Z.9XiXiXCXBXNXxXzXxXvXBXMXmXmXBXBXmXmXmXBXmXmXmXmXmXmXmXmXBXaXmXmXmXmXmXaXaXpXvXxXpXpXxXvXxXbXmXmXxXxXmXmXBXBXmXmXBXMXMXVXVXVXVXVXVXMXMXBXBXBXBXBXBXBXBXmXiXFX4X-.f 8 > $ $ * * O . O O . .   . # - i r % . . .                                                                                     o . O # & # $ e b y q v } /.4.+.%.p.W.7XvXhXVXVXmXFX!.K 2 d U Q.>XpXmXsXsXiXiXuXuX&X`.c.C.8.M d e e 9 d q , $ & > , > > > > , , , , , , , 5 , , 5 , 9 h W / / $./ C 8 d ) e.q.$.Q I Q W :.;.#.1.a.j.U.P.j > i 7 4 J V.5Xg.#X<Xz.<.z I H.JXC.H d Y 5XcXNXMXMXMXMXMXZXZXVXVXVXVXZXZXZXVXVXVX",
"# : [ L.$ % . .                                                 O . O % % # , d } P.U.P L h 1 5 $ 5 O.8 , $ e ' & # , , 7 % O . % > 9 ~ W.9XsXaXmXmXvXvXvXNXBXMXmXmXBXBXmXmXmXBXmXmXmXmXmXmXmXmXNXaXmXmXaXmXNXaXaXpXxXpX&X*XzXvXbXbXmXmXxXxXmXBXBXBXmXBXBXMXMXZXVXVXVXVXVXVXMXMXBXBXmXBXBXBXBXmXmXxX9XD.-.m 9 1 : $ # O . o O O .   . . - r 7 # . . . .                                                                         o         o O # $ > : 8 F F e c ) 8.7.%.&.c.@X$X,XgXhXVXMXaXtXZ.M 3 B ,.3X:XpXbXpXuXuXuXuX-Xm.k.S.e.T a 8 , < < 2 1 9 8 > : , : > & $ > > $ > , , , q 8 9 d d B ~ d.D.D.F.H.>.M a m K G H P I 2.;.A.~.N.0X#Xv.2Xy.j 5 r % 6 ~ x.5Xs.g.n.<X!.#.I p.XXY.H 9 B tXNXNXMXMXMXMXMXZXZXVXVXVXZXZXZXZXZXVXVX",
"# $ X.[ $ O .                                                   o . O % $ < f R 0.P.0.s a 9 5 & # 4 o.5 > # & 4 # & > w 4 * o o * = , d $.!.8X,XdXaXmXmXmXBXMXMXmXmXBXBXBXmXBXBXmXmXmXmXmXxXxXxXNXaXxXxXaXxXvXpXxXpXpX:X|.&XpXvXxXmXmXmXmXmXmXBXBXBXmXBXBXMXMXZXVXVXVXVXVXVXVXMXmXmXmXmXBXBXBXBXMXxX:X3X~.,.K h 3 : # . o o O O   . . # & 7 & # . O O O                                                                         . o       o O & : < 9 C  .A 5 q E ~ #.1.v.9XrX,XxXgXhXMXgXdX1X7.f 2 ~ x.tX:XzXbXcX,X-X&X=X6XQ.u.P.} m a d f m J ^ R R T f f m v v d d v f d f m M B / ~ @.5.,.V.!.6X1X#X-X XM.6.K K I P +.3.k.5X2Xc.'.,X:XpX,X.X#.k , 4 5 B x.<XR.n.<.1.c.!.A.I +.A.).M 8 v 0XNXNXBXMXBXMXMXZXZXZXZXZXZXVXVXZXZXVXZX",
"# $ [ g & . .         .                                           o O $ 1 m _ L.H K B f D 5 > # # & u > & . O . O & & w & *   + O r 7 , f :.G.8X,XiXgXMXMXMXMXMXmXBXBXBXBXmXBXBXmXmXmXmXbXxXxXxXNXaXxXxXaXxXvXpXxXpXpX:X|.&XpXxXxXxXmXxXmXmXBXBXBXBXBXmXBXMXMXMXMXZXZXVXVXVXMXMXmXmXxXxXmXBXBXMXMXMXbXwX8X4Xd.I h 8 $ .       O   O O # & 4 $ # # # % + O                                                                                   O & < a B ....n > 8 m Q 1.[.,XcXnXvXmXmXMXVXdXkX6X@.a 9 2.@X:XzXbXzX,X,X7X1X[.M.9.{ U m h J { :.>.y.V.6.V.V.6.w.u.9.y.q.5.q.q.5.5.y.l.z.W.W.<X3X3XtXtX>X,XsXgXdX=X2XZ.r.z.k.F.6X'.=X>X;X*XpXaXuX&X5XQ f , > d ;.3XwX+X3Xa.4.4.a.(.<.%.A.T.m 8 v 3XvXNXBXMXBXMXMXZXZXZXZXZXZXVXVXVXZXVXZX",
". # Z < $ . .   X X   .                                         X O & 1 M 8.P.P.M S < > ' & & > # # = % O @ @ @ o . % - % O   o   * * & , f @.!.=XdXhXMXVXMXMXMXmXmXBXBXBXmXmXBXBXNXmXmXbXxXxXxXmXxXNXNXaXaXxXpXzXpXpXpX*X:XzXzXxXxXxXxXmXmXmXBXBXBXBXBXBXBXMXMXBXBXBXMXMXMXBXBXmXxXaXaXmXmXBXMXBXIXmXzXcXFX1Xf.$.M , # o     . . O . # 7 7 $ # # % * * O                                                                       . .   X X o % > 9 L 0.K.) d , 8 M ,.M.9XvXaXMXMXMXVXVXmXfX9X6XI 9 d z.;X:XzXbXeX,X>X{.c.p.+.N c a G ~ 6.~.F.n.@X$X=XsXkX,X9X1X[.9X>X>X>X>X$X3X3XtXtX,XwXzXpXxXpX*X*X:XxXmXgX:X+X#Xv.;X,XwXFXpXpX|.HXvXpXSX:Xv.(.B 8 & 8 Y Z.>XpXgXvX@X^.3.;.Z.b.h.2XT.m q B 3XvXNXBXBXBXBXMXMXZXZXZXVXVXVXVXZXZXZXZX",
". # > $ # # .         .                                       o O = 8 h ^ P.U.L.f  .> > O.5 > 7 # % . .     X @ o   .   *             % & > m w.1XsXgXMXVXVXBXBXmXmXMXMXBXmXmXNXNXNXBXmXmXxXbXxXxXxXNXNXaXaXxXpXpXpXzXzXpXsXzXpXxXxXxXxXxXmXmXBXBXBXBXmXmXBXBXBXBXBXBXBXBXBXBXBXmXgXaXaXgXmXBXBXBXmXmXmXvXuX-X0XG./ d > O o   .   O . # 7 w > $ # % * * O                                                                       O O X @ @ O > 1 N } P.0.j 2 a m >.F.1XFXmXmXIXBXBXMXMXgXuXkXJXP a m D.=X:XzXnX>XtX!.6.+.H z m m W 3.D.<X$X&X;X,X:XdXmXgXiXiXvXHXvXNXvXvXvXvXvXcXcXnXpXNXBXmXZXmXpXzXvXxXgXmXxXsXcX&XxXvXpXaXaXaXaXpXpXpXpXcX5Xu.q 4 > N u.tXcXxXVXiX>XyXx.<.a.[.{.KXT.M q J 3XNXNXBXBXBXBXMXMXZXZXZXVXVXVXVXZXZXZXZX",
"    . . . . .                                   . . . O o     O $ d K.0.P.J M K.v g : 8 X.1 > * . . . .                         O o     . & 8 M (.1XfXmXMXmXbXbXmXmXMXMXMXmXmXxXxXbXBXMXMXBXbXbXbXmXmXNXNXmXxXpXvXvXxXaXxXxXxXxXbXxXxXxXxXxXxXmXmXmXNXNXmXmXNXBXmXmXmXmXmXBXBXBXBXBXmXxXmXmXmXmXbXbXmXgXgXiXuX:X>XN.,.v $ . # .   o # & e b 1 8 5 & r - O . . .         @ . . . o   X       .   X   . # . . .       X     . o . O % ; ; @ % d ) L.K._ B h B ~ a.=XuXsXvXMXZXZXMXbXzXNXmXiXkXC.J f ^ Z.[.=X9X1Xz.~ J f a k P #.1.c.%X#X>X;X:X:X*XpXpXaXaXpXaXxXpXxXxXxXxXxXxXxXxXaXpXaXmXmXmXgXgXaXvXvXxXmXaXaXxXpXaXaXaXvXxXiXaXxXxXuXaXiX-X!.Y 8 & q } !.wXxXmXhXiXsXwX$XR.v.v.7XJXY.h 9 J 0XiXBXBXBXMXMXVXVXVXVXVXZXZXVXVXVXVXVXVX",
"                                          X     # # . . o   . & q | P./ } h j ) a n : 1  .1 > % . . . . .                       . o X X   . > d *.H.rXsXaXBXSXbXxXmXmXmXmXmXaXaXxXxXBXMXMXmXbXbXNXmXmXmXmXmXxXaXxXxXaXaXaXxXxXxXbXxXxXxXxXxXxXmXxXxXbXbXxXxXbXmXmXmXmXmXmXmXBXBXmXmXmXmXmXmXmXxXvXvXgXhXmXaXxXpXvX>XZ.Y 6 # # .   o # > b b 1 9 6 & - - . . . O .   . . o O O O .           .   X   . # # # .           . . o   # O o @ % > A L.8.( B m H @.z.8XiXmXvXNXZXZXZXMXbXcXxXaXdX7X,.h j { U.(.G.d.#.K f d f M Q 7.H.7X+X;X:X:X:XsXzXpXzXpXxXxXaXxXvXaXxXaXpXpXpXpXaXxXxXaXaXxXmXaXaXxXpXaXaXaXxXaXpXaXpXaXaXpXxXxXpXxXxXaXpXvX-XB.q.h 5 > v q.8XvXxXBXgXiXaXcXeX+X+X].{..X(.H d J 0XiXmXBXMXMXVXVXVXVXZXVXZXZXVXVXVXVXVXVX",
"                                  . .     X X   . # . . .   % 4 c I.} M f a B ) s [ $ > ' , $ # . . . . .                       . o         # 1 s 2.5X9XpXmXDXBXNXmXmXmXmXmXxXzXvXbXMXVXMXBXbXxXNXmXaXaXaXmXmXmXNXmXxXxXxXvXvXvXmXxXxXxXxXxXxXbXxXxXxXxXxXxXxXxXmXmXmXmXmXmXBXBXmXmXmXmXBXBXmXxXvXxXmXMXmXmXxXxXvXwX~.{ q # .     o # > b n 9 q w & & % . O O # O . . O % * % # O o         .       . # # # .           . O .   * $ # & > , 9 v f f M ! 6.F.8XFXcXvXNXMXZXVXZXMXSXvXaXiXkXD.T 9 h ! K.K.) m q 1 d M ~ 6.M.1X9XkX:X:X:X:X:XzXzXzXzXpXxXxXaXxXvXaXvXvXxXaXaXxXxXxXvXxXxXxXvXaXaXxXpXaXaXaXmXxXpXzX:XsXpXpXxXsXpXxXmXaXsXtXD.Q m < , 8 K C.FXvXxXBXiXuXpXeXeX;X:X:X,X6X(.H 9 B 1XdXmXBXMXMXVXVXZXZXZXZXZXZXZXVXVXVXVXVX",
"                                . . .     X X     % . . % # 7 w d I.C 9 < 1 T _ h X.$ & u > $ # # O O O O O                     .           . & 1 G 6.5XFXpXgXMXNXNXBXBXmXmXxXzXvXbXBXVXVXMXmXxXmXmXaXaXaXxXmXmXNXmXxXxXvXvXvXvXmXxXxXxXbXxXxXxXxXxXxXxXxXxXxXxXmXmXmXmXmXBXBXBXmXmXmXmXBXBXBXmXvXmXmXmXmXvXvXxXpX:X<X5.c $ .   o o . & e b 9 g e > & % O # O # O . . # & 4 = % % O o             o . # & & .         . . # . . . & 6 8 8 1 8 9 1 f W Z.KXrXsXpXcXcXNXVXVXZXZXMXmXmXiXdX0Xq.c 5 a j m c 8 , 0 v { 5.M.#X>X:X:X:XsXsXsXpX:XpXzXzXzXpXaXxXpXaXxXpXvXvXxXaXaXxXxXvXvXxXzXzXxXpXpXxXpXxXmXmXNXvXsXwX,XcXpXpXxXaXpXxXaXdX9XW.:.v 5 : < j 2.[.sXmXmXxXpXuX:XeXeXeXeXsXkX0X(.K 9 m .XdXmXBXMXMXVXVXZXZXZXZXZXZXZXVXVXVXVXZX",
".                                   . .           @   O % 4 F n m PXv 5 & 5 ) } M O.& + r & : > # O O O O O                     . .           # > 2 K Z.9XsXgXmXxXxXxXmXmXxXzXzXpXaXgXhXMXMXmXxXmXmXaXaXxXxXxXxXxXaXaXaXxXxXaXaXNXxXxXmXmXxXxXxXxXxXxXxXxXxXxXxXmXmXmXmXmXBXBXBXBXmXmXmXmXmXBXBXmXmXgXgXgXvXxXxXbXzX8XV.B > # @     . $ e g 9 n Z , & % # % O # O . . $ 7 w w > 4 % O . .         o # & 7 5 # .     . . # # O . r ] ' n 2 9 q q q J 6.3XFXvXxXNXcXcXmXVXVXZXVXMXgXmXdX7XS.T 4 & > < , , 8 f W 5.F.#X,XsX:X:X:XeXzXpXzXzXpXpXpXpXxXpXxXxXpXaXxXpXxXaXaXpXpXpXaXxXxXzXpXzXsXpXpXpXpXxXBXmXBXxX:XeX:XcXaXgXgXgXiXdX*X9X2X,.N 8 & > 2 Q M.-XuXmXBXxXpX:X:XeXeXeXzXpX*X=X2X@.d m b.kXvXBXMXMXVXVXZXZXZXZXVXVXZXZXZXZXZXZX",
". .                                 . # # .     X o   % . > [ N m X.0 4 % 4 A ) f  .% X + % > w # . . O .                       . .     X X X   # > d Q M.kXNXiXxXxXbXBXmXmXvXzXpXxXgXMXMXMXmXmXgXgXxXxXmXxXxXaXxXaXaXxXxXxXxXaXmXxXxXNXmXxXxXmXaXxXxXxXxXxXxXmXBXmXmXmXmXBXBXBXBXBXmXmXmXmXBXBXBXmXmXgXgXaXvXxXBXvXwXD.Y 8 #       O $ 8 e 9 D F , & & & * # O % # # > e Z y 5 w 4 & % O         O # > u w # . . # % # # # O O % w e 9 d D ' F m { N.sXmXgXBXSXzXzXmXMXZXVXMXBXmXdX-XH./ d $ & $ , 9 v L >.C.<X>XsXpXpXpXzXbXbXzXxXxXvXxXpXpXxXvXaXxXvXaXxXvXaXaXaXaXaXaXaXxXxXxXpXpXzXzXpXpXzXzXbXBXmXMXmXpXcXsXvXmXgXMXhXiXsX8X!.V.K d 5 & 8 H d.qXfXpXNXBXxXzXeX:XeXeXeXzXpXsX-X<X#.a f d.9XvXBXMXMXVXVXZXZXZXZXVXVXZXZXZXZXZXZX",
". . . .                             . # # O   X   O & y $ , ..j f  .5 . O & e f 9 e .   X O > u # . . . .                       . .       X X     % , f +.F.9XfXzXxXmXMXMXBXNXvXxXvXmXMXVXMXmXmXmXmXmXmXmXxXaXaXmXmXmXmXNXmXmXmXmXmXmXBXBXmXmXmXxXxXmXmXxXxXmXmXBXBXBXBXmXBXBXBXBXBXmXmXBXBXBXmXMXMXMXmXmXvXxXxXMXxXcX<X@.d &     o # $ 5 9 g [ F , $ & = - % O % # & , b A b 5 u 6 > & %         % # > Z Z & # % = 4 > # O . O % $ $ : 8 Z y 8 Y l.,XMXVXZXBXmXmXBXBXMXMXBXmXmXNX|.f.@.m 9 1 1 9 m ^ 2.z.{.-X*XsXzXzXzXzXbXmXmXmXxXxXvXvXaXaXvXvXaXxXvXaXxXvXaXpXpXxXxXxXvXxXvXxXaXaXxXxXpXpXzXeXnXbXmXMXmXaXvXsXvXgXhXMXgXpX>XQ.q.Q M v b 1 s w..XkXsXpXvXBXbXnXzXzX:XeXeXzXuXSXsX1X<.2 9 2.7XvXBXMXMXVXMXZXZXZXZXVXVXVXVXZXZXZXZX",
". . . . o                             . # O     . > n [ 8 8 ..f f [ 7 o @ O > < , $         # u O . . . o o o o                 . . .             O & , M 2.F.7X,XpXmXMXMXMXmXvXxXvXmXmXMXgXaXaXNXmXmXmXmXxXxXxXxXxXxXmXmXmXmXaXmXxXmXBXBXmXmXmXmXmXmXmXmXmXmXBXBXBXBXBXmXBXBXBXBXBXBXBXBXBXmXmXZXMXMXmXmXmXvXmXMXmXvXtX6.B 5 O o . % & 5 8 g  .Z > $ & 4 7 % % % # $ , m C n , Z 0 5 > % o   o   % . & Z Z > % & 7 0 , # . . .   . & & $ & 6 v 0.!.FXmXMXZXDXmXZXZXZXMXNXmXmXdX9Xs.Q M a a j h W 5.G.1X-XdXdXiXaXpXzXzXbXmXBXmXBXxXxXxXxXaXaXvXxXaXxXxXpXaXxXpXpXpXpXaXxXxXxXaXxXaXxXNXNXxXaXzX;XeXzXiXmXaXaXvXpXvXgXgXmXdX-X6Xq.J h h T ) h K 2X=X*XsXcXvXxXxXbXnXzX:XeXzXpXuXiXuX=Xd.d a $.<XcXBXMXMXVXMXZXZXZXZXVXVXVXVXVXZXZXZX",
". # .   +                   o     @ ; . o o   O , m P.P.a d X.d d ' & .     & # $ # .       % & O . . .   o             . . . . . O O O .           O > 1 j >.JX$XsXgXmXMXMXBXbXvXvXmXmXmXmXgXvXmXmXmXxXmXmXmXmXmXmXmXmXmXmXmXmXmXmXmXmXmXmXmXmXmXmXmXmXmXmXmXmXmXmXmXmXmXmXBXBXBXBXBXBXBXBXBXBXMXMXMXmXmXmXxXmXBXMXgXcX2X! 5 % . . . & w 0 w F w , $ & r r % . # * > < C ) c 8 6 > q e % .     . . # & Z F > & & t ' 8 $ . . . .   . . . O 4 c L.Q.9XvXBXMXBXBXZXZXZXMXmXaXdX8Xp.W h f J *.w.l.[.#X-XuXiXaXgXaXvXzXzXvXvXxXgXmXgXmXNXxXaXaXaXxXSXxXNXSXvXNXvXpXpX:XpXxXvXxXxXmXmXaXaXmXmXgXmXvXwXrXzXpXaXmXvXsX&XsXsX&XsXrXN.<.G h z :.P.W K 7.1X-XdXvXcXcXmXmXbXbXxXxXzXzXmXmXgXuXFXD.v d I 2XcXBXMXMXVXVXVXVXZXZXVXVXVXZXZXZXZXZX",
". # .   O                       o .     O * + % A *.Y.H.h C X.8 q ' % . o   O . . . .       O % . . . .   o         o . O O O .     . . . . .       o % > 1 N >.W.,XvXmXMXZXMXmXxXxXmXmXmXgXaXdXmXmXmXxXmXmXmXmXmXmXmXmXmXmXmXmXmXmXmXmXmXmXmXmXBXBXBXBXBXBXBXBXmXBXmXmXmXmXBXBXBXBXBXBXBXBXBXBXMXMXMXMXmXmXmXmXBXBXmXvX3X,.d > O O O & w 7 5 w > & # & r r % # . 7 4 , T _ d 8 0 8 n b & .     . O # & n A > & & u [ e & . .             O & 5 m :.!.8X:XpXmXZXVXZXZXMXmXvX9X2XW m f T 9.C..X=X*XpXaXaXgXgXgXgXxXpXpXpXpXpXpXiXaXmXNXmXaXaXaXxXmXaXxXvXxXxXxXpXpX:XpXzXxXaXaXgXmXmXmXmXmXgXgXmX:X:XzXxXmXaXiXpXuXsX-X+X1XW.1.Q P @.>.q.e.K P D.#X*XsXsXzXzXxXmXbXbXmXaXpXsXpXpXiXpXFXW.m d P JXcXBXMXMXVXVXVXVXZXZXVXVXVXZXZXZXZXZX",
"# & # . . o                 . . . * . O # # % 4 ..U.2XXXG ..X.8 9 ] # . .   o     . . .         o   . .               . O O O . o o . . . . . .       . # $ 5 m V.#XcXvXMXZXZXmXmXmXBXmXmXgXaXiXmXmXxXxXxXxXmXmXmXmXmXmXmXmXmXmXmXmXmXmXmXmXmXmXmXmXmXmXmXmXBXBXBXBXBXBXBXBXMXMXBXMXMXMXMXMXMXMXMXMXMXMXMXMXmXmXmXNXBXxX9Xx.B 5 # # . # 7 4 & $ # # # % 7 7 % # O r w 1 _ } d 6 6 5 V n & . o o O # O & n A > & > b  .g > . .             O # $ , d Y y.<XrXNXMXVXZXVXmXgXkXW.5.m f J q.G.{. XsXcXcXnXvXmXmXmXmXmXgXiXsXuX*X-XsXaXmXmXmXaXaXaXxXmXaXxXvXxXxXxXpXcXzXpXxXxXxXmXmXmXmXmXmXBXmXmXMXNXmXmXDXCXgXiXgXsXsX=X[.M.4.#.#.p.z.(.A.@.K ;.4X=XfXsXzXxXbXmXmXmXmXmXaX:X,XsXpXpXsXFXW.U f H JXcXNXMXMXVXVXZXVXZXVXVXVXZXZXZXZXVXVX",
"& > # .                   . . O O = % 4 8 5 & 6 ..q.B.XXG L.I.d 9 ' # . .   X       . .               .                 . . . . + O . . . . . .       o . . # 8 ! x.8XsXxXBXMXmXmXBXBXMXMXmXaXaXxXxXxXaXaXxXmXmXmXmXmXmXmXmXmXmXBXBXBXBXBXBXBXBXmXmXmXmXmXmXBXmXMXMXMXBXMXMXMXMXBXBXmXmXMXMXMXMXMXMXMXVXMXMXmXmXvXBXBXmXvX<X~ d > % . . # % # . . # . # = * . O % p u 9 _ _ 9 6 4 5 m v & .   O % % % & n V , > > Z ..f & . .           . # # $ > > 5 m q.4XkXiXvXNXmXgXdX8X6.J v N { Z.#X*XuXvXcXnXnXbXmXmXmXmXMXmXaXdXuX:X,XsXaXxXmXxXxXaXxXxXNXaXxXvXxXNXNXaXvXxXpXvXxXxXmXmXmXmXmXmXxXxXxXmXMXgXgXgXdXiXiXdXdX-X@XM.k.<.4.F.1X[.JXA.Q @.~.@X>XuXaXxXxXxXmXmXxXxXaXuX=X0X8X=X|.sX,X4X^ f z JXcXNXMXMXVXVXZXZXVXVXVXVXVXZXZXZXVXVX",
"w > $ . .   o             . . # # 4 5 b ) ..q 5 ) P &.J.G ..L.f a ' # . .   X       . .   X           o             . O O O O O * O . . . . .             . . & f ~ D.8XsXxXmXmXmXBXMXMXMXmXxXaXxXxXxXaXaXxXmXmXmXmXmXmXmXmXmXmXBXBXBXBXBXBXBXBXBXBXBXBXBXBXBXBXMXMXMXMXMXMXMXMXBXBXBXBXMXMXMXBXBXBXMXMXhXhXmXxXxXvXBXmXNX9Xr.B , % # . . . O   . . . . % O . # % p u 9 R ^ 8 y w 0 C V > O   . % % % = n V , > 5 A ..f & o O   o     . # # # & # O % 5 v Q b.7X>X,XvXdX9XW.{ f m ! l.[.-XaXmXmXzXzXzXzXxXaXaXaXxXpXpXsXsXpXpXdXaXxXxXxXxXxXxXxXxXpXaXxXxXmXNXaXvXaXpXaXxXaXaXaXxXxXxXxXzXsXsXpXhXhXdX,X9X9X9X=X{.B.s.a.l.a.c.0X-XqX!.4.+.l.5X#X:XpXpXpXaXxXxXpXzXuX*X&X.XF.c.g.`.>X>X5X{ h H 2XcXNXMXMXZXZXZXZXVXVXZXZXVXVXVXVXVXVX",
"Z 5 $ # . . o             . . & > d A T 8.I.8 5 A j &.C.H ..K.j a ' #   .   X       . .               o               . O O O . ; * . o o o     o           . # , M ,.W.,XzXvXBXbXmXBXMXMXmXxXaXxXmXxXxXxXxXmXmXmXmXmXmXmXmXmXmXBXBXBXBXBXBXBXBXBXBXBXBXBXBXBXBXMXMXMXMXMXMXMXMXmXmXBXBXMXMXMXBXmXBXMXhXhXhXmXxXzXzXmXBXmXFXW.! 8 $ % % . o o     o     . . . % # r w 9 R R 8 w w w S C 4 % . O % & * = n V , > 6 A ..f & o o   o   . # $ $ $ $   o o % > a I 7.~.3XFXFX1X6.U f K 4.#X,XsXNXBXaXaXaXaXpXpXpXsXzXcXsXpXxXxXaXaXvXxXxXxXxXxXxXxXxXvXaXaXxXxXNXNXaXvXaXaXxXxXaXaXaXpXzXcXcXcXFXrXwXfXkX1XD.V.V.a.1.&.#.Q @.V.!.{.|.|.GXb.+.d.^.'.cXpXpXpXpXxXzXzXpXwX-X=X1XH.1.%.%.v.>X>XKX{ j I XXcXNXMXMXZXZXZXZXVXZXZXZXVXVXVXVXVXVX",
"' 7 # # .   o           . . # > v ) K.R I P., 0 D G z.J.K ..L.f f ' #       X     . # .       . . .   .                 . . . . * O o o   o     o         . . . & 8 J l.3XwXzXBXbXmXBXMXMXmXmXxXmXmXxXmXmXmXmXmXmXmXmXmXmXmXmXmXMXMXMXBXBXMXMXMXmXmXmXmXBXmXmXmXBXBXBXBXMXMXMXMXmXmXBXBXBXBXMXBXBXNXMXhXhXhXMXxXeX:XmXMXmXvX3X9.d & # * o   X           O . . % # & > 9 R R 0 7 7 6 S S > % O * & & - 7 n V , > 6 D K.m & o O       . # > t r $ .     . & , a M 5.D.8X6Xd.W B J 4.[.sXvXxXnXmXgXMXhXgXiXsX:XcXcXxXxXmXBXBXmXbXvXxXpXaXxXxXvXvXxXNXaXxXxXxXNXNXxXmXmXmXBXNXmXxXxXpXzXcXwXwXtX$X@Xp.<./ U N v M G W W B B -.D.=X*X|.1X4.#.^.@X|.SXmXxXbXzXxXzXzX:X>X].[.F.7.Q I #.W.tX>XyX~ j #.XXvXBXMXMXZXZXVXVXVXVXZXZXZXZXVXVXVXVX",
"o.7 # # O   o   o     O & & , 9 } ..K.j H ).9 Z ) K G.C.K K.L.s j [ $       X       . .       O . .   o                 O O O O % . o     X X         . . . . . % & d :.!.9XsXNXmXmXmXBXBXBXmXmXNXmXmXmXmXmXmXmXNXNXBXBXBXBXBXBXMXMXMXBXBXBXMXMXMXMXMXMXMXMXMXBXBXBXBXBXBXBXBXBXmXmXmXBXBXBXMXBXBXNXMXMXhXhXmXxXzX:XbXMXgXNXrXZ.T > . .     X   X X     o . . # * # & 8 R R 8 4 w q ) T > . . % & 4 - 7 n V , 4 8 D L.m & O O     O O # w ' Z : #     % 6 9 9 s J -.V.V.~ M J ;.N.-XaXmXxXbXmXMXMXhXgXiXpX:X:XsXpXaXxXmXmXxXxXxXxXpXpXxXxXvXxXzXxXpXaXaXaXxXvXpXmXgXxXvXvXdXsXsX,X8X3X~.x.t.3.+.I H M v c c B { 9.9.E h H 1.{.9XtXp.%.x.R.;XxXmXmXxXxXaXpXpX:X;X'.c.h.f.I j K 1.3XtX,X5XW j 7.7XvXMXMXMXVXVXVXVXVXVXZXZXZXZXVXVXVXVX",
"] & # * .   o   +   O 4 8 a Y L.I.N Z d K P.h ) ^ G U.$.K I._ h j ..# O   X     .   . . . o     .   o o   .   . .   o     O % % * O     o                       . % > v 5.0XdXiXmXxXxXxXxXaXiXaXxXxXxXbXmXmXmXmXBXBXBXBXBXBXmXmXMXMXMXMXMXMXMXBXmXmXBXBXmXmXmXmXxXxXxXxXxXmXmXmXmXBXmXmXBXBXmXBXmXmXBXmXMXMXmXmXbXxXxXmXmXmXxX3XQ 9 % X   . # .     @ + @   . # . # # > ) R 8 5 8 V P.K , # . 7 & 4 5 < C v 6 > 8  ._ f 4 . . .     o % 8  .) 8 . O O > L 0.,.@.K M m v f J 3.F.8XuXaXaXmXBXmXmXMXMXmXmXaXxXxXbXxXaXxXmXNXbXxXvXzXpXNXvXvXvXpXzXvXpXpXaXaXaXpXpXaXmXvXcX;X>X9X0X2XV.:.J m v d m h W <.4.x.Z.x.x.~.E.u.K K +.F.<Xz.#.%.n.3X;X;XzXbXmXmXgXgXaX*X'.c.k.h.l._ v W ~.9X XfXXXG h z.,XvXMXMXVXMXVXZXVXVXVXZXZXZXVXVXVXZXVX",
"i & . O     o   O = 5 8 m / S./._ 9 y 0 K S.G } _ G e.W G I.^ h J ..& o       . .   . . . O   X O . o     O . . .   X     O & w * O .                             o % 0 E D.,XjXmXmXvXvXNXNXmXmXxXxXxXbXmXmXmXmXBXBXBXBXBXBXmXmXMXMXMXMXMXMXMXBXMXMXMXBXBXBXBXmXxXxXxXxXxXbXbXbXxXNXmXxXBXBXmXBXmXmXBXBXBXBXmXmXmXmXmXxXmXmXmX,X<.f % X   . # # . o o + @   . # . # . > ) ) 8 5 9 T T.( 8 & # 7 7 7 8 1 C f 6 > , [ ) d > O O O     o % 8 ..) 9 O O # 5 ! Z.^.x.@.B q q v ! M.>X,XsXpXaXgXmXxXxXmXBXBXBXmXmXmXxXxXxXxXvXvXxXxXvXzXpXNXxXaXvX:XcXcX:XiXmXaXaXsX:XDXpX&X9X5XH.1.+.I K f < c 8 8 v ! 6.M.'.>X,X>X>XtX<XQ.Q z @.(.Z.I Q 1.[.>X:XeXnXvXmXMXMXgXaX*X].<XN.B.%.v N t.@X=X9XXXj.f a a.cXBXMXVXVXVXVXZXVXVXVXZXVXVXVXVXVXZXZX",
"% % O     o O . & , 2 G u.(.2XJXM 1 6 8 Q A.K K.} m 0.K M I.) f ^ ..> O       . .   O . . .     O . o     O         X   . % 5 ] & O .                             o % 5 v ~ N.GXdXxXmXmXvXNXxXxXxXxXxXmXBXBXmXmXBXBXmXmXBXBXmXmXMXBXBXBXBXBXBXmXBXmXBXBXBXmXmXmXxXaXaXaXxXxXxXxXxXNXmXxXBXBXmXBXmXBXBXBXBXBXBXmXBXmXmXmXmXmXmXsXz.J & o   . # #   o o + +   . # . . . & ) ) 8 5 8 D P.L 8 & # & & 5 8 1 C v w 6 8  .) a > O . .     o % 8 ..) 9 # O # 8 / Q.4XW.U.( v v ! V.3X,XcXxXxXxXmXBXvXvXxXmXBXBXBXmXmXxXmXxXxXmXmXxXxXbXpXpXvXaXaXvXsXcXsX*XiXmXaXaXsX:XvX*X@X~.5.K h a 3 8 : : D 9 m W V.<X8X>XcXvXxXvXsX+XKX<.I V.(.;.M / C.{.&XpXcXvXvXBXMXBXxXvX,X;X*X{.G.$.s K [.|.3X!.9.C , 9 k.SXBXMXVXVXVXVXZXZXZXZXZXVXVXVXVXVXZXZX",
"# % O       . & < f H 9.JXJXH.(.h 1 y q %.H.I I...v } M M I.) f ^ ..> .             O   . O     O O * o   O   .         O % 0 X.& . .                               # > 5 m ,.4X,XaXmXgXxXxXxXaXmXxXxXmXBXBXmXmXBXBXBXmXBXBXBXmXBXBXBXBXBXBXBXmXmXmXmXmXmXmXmXxXxXxXxXaXxXxXxXxXxXNXmXxXBXBXmXMXBXBXMXBXBXBXBXBXBXmXmXmXBXBXBXsX<XW , . . . . .     . O o   . . . . o * n A 5 4 5 D I.J , # # $ $ 5 9 2 C n y w e  .) 9 & . .       o % 8 ..) 9 # O # 8 @.!.3X<X(.@.B ! y.4X9XpXvXxXxXxXmXNXvXvXxXmXmXmXmXmXxXxXmXxXxXmXmXxXxXbXxXpXNXgXgXNXzXvXzXpXaXgXaXaXcX:X=X1XQ.:.f 1 , > & 4 > Z  .M :.d.[.7X8X>XpXmXgXMXiX=X5X&.#./.u.K m _ C.{.*XdXdXpXxXmXmXbXbXzXzX:XuX}.J./ j Q #X,X4X9.m 8 % q n.vXBXMXVXVXVXVXZXZXZXZXZXZXZXVXZXZXZXZX",
"$ & O   X   O 5 a K.).Y.Y.y.@.W s q b f j.H.I I.[ q  .h M _.A d R ) > .         o       O - .   O % - o   o   .         O & q O.& . .   .                           # & & 6 S 5.3XvXMXMXmXvXvXxXmXmXmXBXBXBXmXmXBXBXmXmXBXBXBXBXBXBXBXmXBXBXBXmXBXBXBXBXmXmXmXxXNXvXmXbXxXxXxXxXmXNXmXxXBXBXmXBXBXBXMXBXBXBXBXBXMXBXmXmXBXBXBXxX7X#.q # .     . . . O O .   . # . . o % w e & & 4 F L.C , # $ & > t b 9 V g 0 5 8 [ C 1 & . .         % 8 ..) d # O # 9 #.W.3X<X(.Q H 2.2X8XsXgXaXaXpXpXaXaXaXpXbXxXxXxXxXxXmXmXBXmXmXmXmXmXmXmXxXaXBXmXmXNXzXvXzXpXiXgXiXiXcX>X5XV.W d > % *   o * 7 o.T P C.[.|.sX>X;XzXmXMXVXdXkXb.+.w.).^ m 9 m $.b.7XkXsX:XaXmXmXbXbXnXbXpXdXoX+.z I w.1XtX5.v a e # q ~.vXBXMXVXVXVXVXVXVXZXZXVXVXZXZXZXZXZXZX",
"> # O . o . & 8 _ K.u.e.0.( f 9 8 d Z f H.B.I I.F 5  .f G I.n 9 R C > . o   .   @       * r * . # * r +   .         X   % > v X.& . .   .                       X   O # O % 0 B Z.>XmXMXmXNXNXxXmXBXmXBXBXBXBXmXBXBXmXmXBXBXBXBXNXmXmXmXmXBXmXmXmXmXmXmXmXmXmXxXbXxXxXxXxXxXxXxXmXBXmXxXBXBXmXMXBXMXMXMXMXMXMXBXMXBXmXBXBXBXBXxX,Xf.m > O       O O % % O . . # O . @ . > > # % & Z [ v > # & > 4 u Z 9 n d 8 5 q  .A 1 % o .         # 8 ..) 9 # # $ a >.<X>X$X(.+.Q z.1X&XiXgXgXaXpXpXpXxXaXaXxXxXxXxXxXxXmXmXNXmXmXmXBXmXmXmXxXaXBXmXgXmXpXzXxXaXgXiXuXsXkX6XG.W a , % @ @ X @ . 7 X.m +.XX|.uXsX>X;XzXmXVXVXuXtX1.@.P.L.v d m j P %.g.{.>X,XpXvXvXvXnXbXBXxX9XJ.I z 9.).W.d.J 9 S [ & d yXnXBXMXVXVXVXVXVXVXZXZXZXVXZXZXZXZXZXZX",
"& # % % % 7 y 9  .M s M S q & & > e u a Y.B.I I.y &  .f G I.d 8 _ C > . o   .   o   X   * r * . # % - O . * .       X o O 5 N X.& .     .                           . . o O & 0 @.c.dXgXmXmXBXmXBXBXBXBXBXBXBXmXBXBXBXBXBXBXBXmXNXmXmXxXmXmXmXxXxXxXxXxXxXxXxXaXxXxXxXxXxXxXxXxXmXBXmXmXMXMXmXMXMXMXVXVXVXMXMXMXMXBXmXBXMXMXMXmXsX<X! 8 % o     . O % = * O . . .   @   # & . O O 7 b 8 & # > > > t Z 8 b q 0 8 d ..D 8 % o     .     # 8 ..) 9 & # $ a ;.<X>X3XG.#.%.m.-XuXiXhXmXxXxXzXxXxXxXaXxXxXxXxXxXxXmXmXNXmXmXBXBXmXmXBXmXaXMXmXgXxXpXsXpXpXgXgXuX*X8XF.*.s , & .     o O # w D j %.1X-XuXaXeXeXnXmXmXNX|.2X+.8.L.T d m e.2.+.Q #.4.m.#X;X,XcXcXvXNXBXsXD.+.H *.P.U.,.K M J e.0.1 f 4XnXBXMXMXVXVXVXZXVXZXZXVXVXVXVXZXVXZXZX",
"% O & & & Z D 9 f 9 1 , & & % % & i u 9 Y.B.I I.6 #  .f H P.9 8 ..C > . O   . .     X   O - % . # # * . % r # .     X o # 5 C  .& .     .                                 o O 4 B 7.7XdXmXVXMXBXBXBXBXBXBXBXBXmXBXBXBXBXBXBXBXmXNXmXxXxXmXmXmXxXmXmXmXmXmXbXmXmXNXNXmXmXmXmXBXBXmXBXmXmXMXMXmXMXMXMXVXVXVXVXMXMXMXMXBXBXMXMXMXmXmX9X2.d & o       . % - - O . . .   X   . %     o # > $ * # 4 4 & w e < q 8 8 9 a  .D 5 % o           # 8 ..) 9 & % $ a #.[.>X3X<.+.&.v.fXgXMXhXmXaXpXzXzXxXaXaXaXxXxXbXbXbXxXxXNXmXmXBXBXmXBXBXmXmXDXMXmXmXpXpXpXpXaXiX*X=X1XS.h 1 $ .   @ + . & > e v M <.<X-XsXvXzXzXNXbXxXcX8X!.H _ T a M :.H.2XA.<.+.#.p.s.R.$X>X,XsXdXsX1XS.B K P.K.E U B W 6.Y.%.2 m 6XSXBXMXMXVXVXVXZXVXZXZXVXVXVXZXVXVXVXVX",
"O % # 5  . .9 1 8 7 7 O % % # & % i 7 9 Y.f.I I.w & b f z P.9 , ) v & . o     .         O . . . . # O . % i . . .     o # , L  .> . .   .                                   O & 1 ^ !.9XiXMXMXBXBXBXBXBXBXBXBXBXBXBXBXBXBXBXBXmXxXxXbXxXxXxXxXbXxXxXbXmXmXmXmXmXxXxXxXxXmXmXBXBXBXBXBXBXMXMXMXMXMXVXVXVXMXMXMXMXMXMXMXMXMXMXMXBXNXsXZ.U > . @   . . % 7 - O               .       . # # O % 4 w > t Z 8 , , n d f ..A 6 O           . & 9 .._ d & . > 3 #.2X8Xc.I Q k.9XsXgXMXgXmXmXxXzXzXxXxXaXbXvXxXpXmXNXmXMXBXBXBXMXMXMXMXBXmXBXMXmXmXmXxXpXvXuXiXuX|.8XD.P 2 : .       . # $ , q S M w.JXv.cXpXpXbXxXpX:XrXF.+.K S f h +.M.8XFX<XM.W.R.s.1.#.<.M.1X-X-X[.d.J m M M j m U { z.1XXX&.a f tXBXMXMXMXMXVXVXVXVXZXZXVXVXVXZXZXZXVXVX",
"4 5 b D ) C 2 : > r o   % i & & % i - 9 U.d.I I., & Z f P P.9 > ) b & O o   . #         O O . . . . O . * p # #       @ # 8 ) ..> . .   .                                 . . # > v 9.<XdXgXmXmXBXBXBXBXBXBXBXBXBXBXBXBXBXmXmXmXxXxXxXxXxXxXxXxXxXxXxXmXmXmXmXmXBXmXmXmXmXmXBXBXBXBXBXBXMXMXMXMXMXMXVXMXMXMXMXMXMXMXMXMXMXMXBXBXBXcXN.Q 5 . @   . . % - - O                         . . . % 7 w > t Z 8 5 5 Z f m ..b 4 O o         . $ 9 .._ d & . & 1 $.!.6Xs.W @.M.9XiXgXMXgXBXmXxXxXxXxXmXgXxXbXpXpXxXmXmXBXBXBXMXMXMXMXMXmXmXNXMXMXBXBXbXxXxXpXdXdX#XF.5.j < # .       . # # $ q  .m K w.Q.<X,XvXvXvXcX3X!.y.W v a a P b.8XzXvXwXwXwX=Xm.x.9.G #.F.oXF.A.W m v h j G W ,.Z.}.=XXX#.a B tXmXMXMXMXMXVXVXVXVXZXZXVXVXZXZXZXZXVXVX",
"j j 0.I.L 9 , $ * r . O & ] > & % - % 8 T.$.H I.8 6 F f *.P.q , A 0 % o o   O # .     o O O . . . . . O - p $ # .     o # 8 _  .> . .   .                               . . # # # 5 B 6.8XdXaXaXmXmXBXBXBXBXBXmXBXBXBXBXmXxXxXxXxXxXxXxXxXxXxXxXmXmXmXmXmXmXmXmXBXBXBXmXmXBXBXBXmXmXMXMXMXMXMXMXMXMXMXMXMXMXMXMXBXBXMXMXBXBXmXmXBXvX$X;.9 # o   . . O * * .                               % 7 w & 7 w , > > n v B ..e & O . o         $ 9 .._ d & . $ < / Y.Z.<.~ 3.<XcXaXmXNXmXBXBXmXbXbXbXmXmXxXbXaXpXxXxXmXBXBXBXBXMXMXMXMXmXmXNXMXMXBXBXNXxXxXaXdX,X.X6.K 9 $ .     X X o O % % > ' V m Y >.3.M.=X&X#X<XS.:.U v 8 1 m 5.8XsXzXbXmXMXmXiX=XQ.0.m G w.G.7.J d h M H Q 5.z.R.$X&X|.2XI a ^ tXmXMXMXMXMXVXVXZXZXVXVXVXVXVXZXZXZXVXVX",
"&.7.).).C , 5 # = r # & & ] > & % - O 5 _.P j I.8 y b 9 _ K.8 > y 4 O     . # # .     o O O . . . . . % - u $ $ O       O , ) ) > . .   .                                 . # # . # 9 W D.9XsXpXmXmXBXBXBXmXmXmXmXmXmXmXmXxXxXxXxXxXxXxXxXxXxXxXmXmXmXmXmXmXmXBXBXBXmXmXmXBXBXBXmXBXMXMXMXMXMXMXMXMXMXMXMXMXMXMXMXMXMXMXMXBXmXmXmXvX>X1.d #     . . o O O .                               O 4 7 % & 5 : & > V m L ..e & O . o       . $ 9 K._ d & . # , R U.w.Q ~ l.8XcXaXNXSXbXMXMXBXmXbXmXmXmXmXmXaXpXxXxXmXBXBXBXBXBXMXMXMXmXaXmXmXmXBXBXmXxXvXvXsX#XC.~ d > # .   X X X o . * = O w y n v h J :.a.a.p.5.^ v 8 5 , d ^ E.9XpXnXxXMXVXhXgX8XV.J m H q.U.Q 9 d Y @.7.H.6X8X>X;X:X{.(.H f i.tXmXMXMXMXMXVXVXZXZXVXVXVXVXVXZXZXZXVXVX",
"#XKX(.i.V 5 4 # 4 7 : : & r O * % 7 # 5 I.G j I.d D e 9 ` ..5 & 4 %   X   . # # .     o O . o o .   . % & u $ > #   X   O > | V & . . . .                                   . . . # > f -.!.9X:XaXmXmXmXmXmXxXxXxXxXxXxXxXxXxXxXxXxXxXxXxXxXxXxXmXmXmXmXmXBXBXBXmXmXmXmXmXBXMXMXMXMXMXMXMXMXMXMXMXMXMXMXMXMXMXBXMXMXMXBXBXBXmXmXbXzX,Xa.f $ O O . .   o . .     o             . .         . & 4 % & > : & & V m R K.y & O . .         $ a K._ a & . . > C K./ K @.M.rXsXaXNXSXvXMXZXMXBXmXmXmXmXmXNXxXaXmXmXmXMXBXBXBXBXBXMXBXmXaXxXmXmXBXBXmXxXNXxX,X@X6.B > % # O o X X X O O O = O % & 6 8 9 q N Y Q Q Y b 5 7 & 5 S y.W.>XGXnXbXVXMXhXdXN.+.h f 0.P.Q M B U y.^.@X=XfXdXzXzXcX@X(.z j S.tXvXBXMXVXVXVXVXZXZXVXVXZXZXVXVXVXVXVXVX",
"b.Q.@.T V 5 4 $ 6 w , , > w # 7 & u & 5 I.M B L.f [ e e A  .4 & % O   X o . # # .     o O .     o   O % & t : r #   X   % > ..v & . . . O                       o o             . # $ , M y.6X,XaXmXmXmXmXxXxXxXaXaXxXxXxXxXxXxXxXxXbXxXxXxXxXxXmXmXmXmXBXBXBXBXmXmXmXmXmXBXMXMXMXMXMXMXMXMXMXMXMXMXMXMXMXMXBXBXMXMXMXBXBXBXmXbXbXzXsXc.M > # O . .   X o . . . o o         . . .           % & O O & $ & & V m K K.e & # . . .     . & d K._ a & O . $ f ..R G #.N.sXaXmXNXvXvXBXMXVXMXBXmXmXmXNXBXmXxXBXNXBXMXBXBXmXmXBXMXMXmXaXxXmXBXBXBXBXmXaXsX,X.X-.d % o O O o @ o O % & & 7 % & # # $ > & > d m M f 6 & % & d 8.JX$X;XnXzXxXmXgXfX{.&.z G _ P.0.G j ! y.~.$XuXiXiXgXxXzXFX1X/.z G V.rXBXBXMXVXVXVXVXZXZXVXVXZXZXVXVXVXVXVXZX",
"J R f N A 8 5 , e Z 1 0 , F > w , Z 6 , I.j M ..s ` 8 > 8 e # . O o X X   . # # # .   @ O .         . % $ 7 $ w #   X   % 4 X.d & . . . O                       o o o           . # # $ 9 Y z.>XpXxXxXxXxXxXxXxXaXaXxXxXxXxXxXxXxXbXbXbXxXxXmXmXmXmXBXBXBXBXMXmXBXmXmXmXmXBXMXMXMXMXMXMXMXMXMXMXMXMXMXBXBXBXBXBXBXBXBXBXBXmXmXxXbXzXcX[.Y , # . .   X X o . .     o         . . .   X       # # . . $ & - & n m H } 8 & # O . .     . & f L._ a & O   # 9 [ C M <.%XaXgXBXNXpXzXBXVXVXVXmXmXvXbXmXBXmXmXBXBXmXBXBXmXmXmXmXBXBXBXxXxXmXmXBXBXBXmXxX:X,XD.K 8 O   O O O O O & 4 8 b y > 7 % & & # % & , a f a , & . w J 6.qXcX:XzXpXpXiX,X<X2.K j *.U.u.K K W 1.8X;X:XgXhXhXgXxX:XcX0X/.H H a.,XNXMXMXMXMXVXVXVXVXVXVXZXZXZXZXVXVXZXZX",
"y q 0  .D 8 8 , 8 Z , e , o.0 w 5 ' e < I.f h ) f ) w $ > $ % . . o X X     # # # . . o O .         o . . & # 7 .   X   % > X.8 & . . . O                         o o           . . . # : d :.!.:XaXxXxXmXmXmXxXxXzXzXxXxXaXxXpXxXbXbXmXmXxXmXmXmXmXBXBXMXBXmXmXMXBXBXmXmXBXBXBXBXBXMXMXMXMXMXMXVXVXMXMXBXBXBXBXBXBXBXBXmXmXmXxXbXnXvX#X~ 9 #           o . .               . .             . . O . & & 7 4 Z m j ) , % # O .       O 4 m P.} 9 % O   # 8 [ V m <.%XiXgXMXvX:XzXBXMXMXMXmXmXvXxXmXBXmXmXMXBXmXBXBXmXmXmXmXBXBXNXpXxXbXmXmXmXmXaXNX*X1X6.f : O   o O O O & > 8 d c V e q , q c 8 q q f h m h 9 > & Z T +.v.,X,X:XvXaXfX7XG.Q M R P.q.$.K K 3.#XcXzXvXhXhXhXmXzX:XzXrXU.G z 1.,XMXMXMXMXMXVXVXVXVXVXVXZXZXZXZXZXVXZXZX",
"6 y q D [ 9 , > w F 5 1 e ' 6 > 5 5 w e I.f f V d o.$ & # # # O . o           . % . % i .   .             . O O   % . . # > ' 6 # O . . .                                         . . # $ , D U.9XaXaXxXmXMXmXmXnXzXzXvXgXmXNXxXNXNXmXmXmXmXBXBXBXBXmXmXmXmXmXBXMXBXBXBXBXBXBXNXmXmXBXmXmXBXBXZXVXVXVXVXmXvXvXNXNXMXVXVXVXVXZXZXMXIXSX>X5.f $ O         . # . o                               . o . % * * & 5 8 b e 4 % O . o   o   % 5 ( P.T q % .   * $ e w q 3.$XaXmXNXxXvXbXaXgXaXaXaXaXaXaXvXmXmXmXmXmXmXmXxXmXxXxXBXmXxXxXxXxXmXmXbXbXxXxXNX-XC.B w % # % + o - 7 > , q d N S | ..0.0.q.q.,.5.S.3.;.W U q 6 ] X.) K 1.6X9X*XNXfX{..X#.I P.P.R j Q l.@X:XNX:XzXhXjXiXpXeXeXpX>XS.k j 2.GXxXBXMXMXMXVXVXZXZXZXVXVXVXVXVXVXVXVXVX",
"4 w 8 F D 5 > > 7 u , , 8 F > & > > 8 9 X.f 2 d e o.$ # . O O O .               O . % p . O .               o O   % # # $ & ] > # O . . .                                           O # # $ e ) 6XsXxXxXMXMXMXmXzXeXzXxXaXgXmXaXxXxXmXmXmXmXmXmXBXBXmXmXmXmXmXmXMXBXBXBXmXmXmXmXxXbXmXmXmXmXBXMXVXVXVXMXmXvXvXNXBXMXVXVXVXVXZXZXZXZXmXrXD.Y , .       . . O . o                                 o o % % % & & > w 7 & # O . o       % 8 $.U.T 0 % .   % # 7 7 q y.>XxXmXbXzXvXxXmXmXaXaXaXgXvXvXvXmXNXmXmXmXmXmXxXNXxXxXBXNXxXNXaXxXxXbXbXbXxXaXiX{.w.f 4 # & $ . # 4 q d f M J J Y W @.#.<.p.p.M.M.<Xc.F.S.8.v 8 y F A B W 7.b.}.&X{..XC.q.0.K.J j H <.@X>XpXbXbXzXiXiXiXsXeXeXpX=X2.k j y.GXxXBXMXMXMXVXVXZXZXZXZXVXVXVXVXVXVXVXVX",
"= 7 5 F Z > & & 4 u 6 6 8 F & & > w q d I.v 3 9 e ' $ # . . . . .               . . * p . #                       O # # $ > Z & # . . . .                                           . # # # > f V.$XcXmXMXMXmXxXcXzXxXbXaXaXmXaXbXmXmXmXmXmXBXBXmXmXBXBXmXmXmXmXBXBXBXmXmXbXxXxXxXbXmXmXmXmXmXBXSXvXvXmXmXBXBXMXMXMXMXMXMXMXBXBXMXBXmXvX8X#.a $ .         . o                                   o O % % # # # & & & # O O . .       # 8 >.U.S 6 % . . # # & & q y.tXxXmXxXpXzXzXxXxXpXpXiXaXaXvXvXmXmXmXmXmXmXmXxXmXxXaXmXmXxXmXaXaXxXbXbXbXmXgXdX7Xw.f 6 7 w 8 9 V ` _ 0.q.6.V.d.d.d.z.D..X<X1Xc.[.1Xm.N.D.V.Y d q y n m J W +.C.3.y.9.R _ | m l j @.D.8XsXaXmXbXzXuXuXiXdXeXeXpX'.I s G U.GXxXMXMXVXVXVXVXZXZXVXVXVXVXZXVXZXZXZXZX",
"% = 4 F y > > & 7 i w 8 5 F & & 5 F q n I.f 9 9 e ] # #     o o                   . % p . %                       . # # & w u > O . . . .                                       o     . . # : 9 / z.9XNXhXMXmXzXvXzXbXmXaXxXvXaXmXmXmXmXmXBXBXBXmXmXBXBXBXmXmXmXBXMXBXBXBXmXxXxXxXbXmXmXmXmXBXBXvXcXvXmXBXVXVXVXVXMXMXBXBXBXBXBXmXBXBXdX=X1.j < #                                               o O % % O O # # # # . . . . . o     # 8 q./.N 4 % O O & > $ & q y.tXmXMXxXpXzXpXxXxXpXpXaXgXaXvXmXmXmXmXmXmXmXmXxXmXxXaXxXxXxXmXgXgXmXmXbXmXBXgXfX7X$.a , w b a s L ( *.q.6.a.z.s.s.c.B.N.N.N.B.v.[.1X[.B.F.(.u.h d q q d V C h U B S S c V S f j Q z.<X-XpXaXBXbXzXuXuXuXdXzX:XcXm.j l H (.GXBXMXMXVXVXVXVXZXZXVXVXVXVXZXZXZXZXZXZX",
"O % 4 ' w > 4 & w w 8 8 , F & & 5  .9 V ..9 g 8 0 u # .                           O % i . O   .                   . # # & u w & . . . .                                         o     . . # & 5 c :.1XvXgXgXvXxXvXaXmXmXpXpXaXpXxXmXmXmXmXmXmXmXmXmXBXBXBXBXmXmXZXZXVXMXMXBXBXBXBXBXMXBXMXMXZXMXnXcXNXMXZXZXZXZXZXBXBXBXBXBXNXBXmXDXNXdX-Xb.H 3 $ .   X                                         O O % O O . . O . . . . . . . .     # 9 u./.m 4 % . # > e 5 & q r.9XmXMXmXpXzXpXbXxXxXxXmXmXmXmXmXmXmXmXmXmXmXmXNXBXxXxXNXNXmXNXmXmXBXBXBXBXMXgXfX1XI 2 1 b D B j ( ( ~ >.,.;.4.4.s.k.k.s.p.1.1.s.p.=.s.p.z.C.y.M a 8 5 5 6 0 5 0 0 0 6 6 q m K <.n.=X-X*XpXsXxXvXzXpXuXpXaXaXpXcXz.s 9 I 2XvXZXMXMXMXVXVXVXZXZXZXZXVXVXVXVXZXZXZXZX",
"O % 7 o.e , w , Z 0 9 9 8 ' 4 > 8 X.8 n A < b 5 4 7 O .                         . . # - . .                     . . O # & u > # . . .                                                 O O # # $ 4 S l.-XdXgXaXvXNXmXBXBXaXzXvXaXbXmXmXmXmXmXBXBXmXmXBXBXBXBXmXmXZXZXVXMXMXMXMXMXBXBXMXMXMXMXZXZXbXbXBXVXZXZXZXZXZXBXBXbXBXNXBXMXmXNXaXsX0XG.K < $ .                                             . O O O . . o o o o . . . . . .   . & a S.).v 4 % O & w F q > q y.8XmXVXNXxXvXpXxXxXxXbXmXmXmXgXmXmXmXmXmXmXmXmXmXBXxXxXNXNXxXBXmXmXBXBXBXBXMXgXkX2XH a 9 A } / / >.9.,.5.5.3.4.k.c.N.m.c.c.k.b.!.D.D.D.1.1.6.S.~ m d 0 4 % % = 4 6 5 5 d m W k.%X,XvXaXpXsXsXsXzXxXxXiXpXiXgXaX9Xd.a 9 #.6XvXZXMXMXVXVXVXVXZXZXZXZXVXZXVXVXZXZXZXZX",
"% % w X.q 1 d 8 D d f f f X.0 5 w ' 5 q 8 , w > & % .                         o . . # # O                   o O O   O . & p # # .                                                     o . . . # % 0 ~ B.sXdXaXmXMXMXMXMXxXvXNXxXBXBXBXBXNXBXBXBXmXmXmXmXmXmXmXBXMXMXMXmXBXBXBXBXBXBXMXBXMXMXZXZXMXMXVXVXZXZXZXZXMXBXBXBXMXVXVXVXMXvXsX7X(.9.m , # .                                           o . O O .       X         . . O .   # > d S./.v 4 % O > e [ d > q r.8XmXVXNXxXvXvXbXbXzXzXgXmXmXmXmXmXmXmXmXmXmXmXxXNXxXxXmXmXxXmXmXmXmXBXBXBXmXaX=XH.k 2 q S 8.@.#.#.<.5.3.;.3.4.s.c.`.`.`.v.m.N.V.S.S.y.Q Q +.5.9.W B N q 4 = 4 , a f B @.r.R.GXsXmXmXmXaXsX,X,XxXxXaXpXpXaXgXaX8X2.d d V.9XmXZXMXMXMXMXVXVXZXZXZXZXZXZXVXVXVXZXZXZX",
"% & w X.9 8 b 9 D f f m m X.e 5 w u > > $ 4 & # # O                           o . . % . %                   O O O   O . * p # % .                                                         . . # % 4 m 6.6XsXiXMXVXMXMXBXaXxXNXxXBXBXBXBXmXmXmXmXBXmXmXmXmXmXmXBXBXmXxXxXxXbXmXBXbXmXmXmXBXBXMXMXZXVXVXVXZXZXZXZXBXBXBXBXMXVXVXMXdX,X8X2Xy.B 8 6 # O       . .                                   . . .                     . O O   # > d U./.v 4 % # 5 b  .d : q u.0XvXMXNXxXSXvXBXbXzXzXmXmXMXMXmXmXmXmXmXmXmXmXmXBXmXmXBXNXxXmXmXmXmXmXBXmXgXsX1XS.s d v ) e.<.k.p.x.Q.x.x.M.n.%X+X&X;X=X#X[.M.<.>.~ ~ H @.>.2.#.+.~ K B S A v K Q 2.V.F.3X,X*XmXmXmXmXvXdXsXsXNXmXaXpXpXaXgXdX2X:.d f Q.kXMXVXVXMXMXMXVXVXZXZXZXZXZXZXVXVXVXZXZXZX",
"% 4 5 X.1 9 n 9 [ v v N m ..8 8 4 & & # % O % O . . .                             . . O .                   O + % . . O - 7 & .                                                           . O % % = 8 J C.qXgXhXhXMXBXNXBXmXBXBXmXmXmXmXmXmXmXxXBXBXBXBXBXBXmXxXxX:X*XpXzXvXzXzXxXvXvXvXSXbXNXNXBXMXBXBXmXmXmXmXmXBXIXZXiXmXDXdX8X5XQ.5.J d 8 5 & . . .     .                                   . . .                       . . . . > f S.S.V & % % 5 D ) d > 0 { m.dXMXBXxXpXpXbXxXpXpXxXmXmXmXxXxXxXaXaXxXxXxXxXmXbXbXxXxXmXmXxXaXxXvXmXBXaXsX4XQ a < v ) Q 1.s.v.m.n.k.c.%X,X:X*X*XsXrX1Xk.#.;.@.Q Q @.,.y.V.1.D.D.z.A.y.:.w.H..X7XqXsXdXxXxXxXbXvXxXvXmXiXgXmXNXvXpXzXxXiX*X(.K v B KXuXVXMXZXZXZXZXZXVXZXZXVXVXVXVXZXZXZXZXVXVX",
". * > ' , 8 y 5 F q d m V X.0 5 & & # O O o o @ o o                                 . . .                   O O O .   O % * # .                                                             O # O % & q :.<XdXgXhXMXmXxXmXmXmXmXBXmXmXmXmXmXmXxXxXxXxXmXmXmXxXxXpX*X:XpXzXvXcXvXcXxXvXxXvXvXbXmXBXBXmXvXvXnXbXmXmXxXmXSXxXcXrX@Xx.5.~ J M M N V 5 % . o     .                                   . .                         . . . . , m S.w.v & O # , ` ..v , 8 ! M.cXmXNXNXxXxXbXxXzXzXmXmXMXMXxXxXxXaXaXxXxXmXmXmXmXbXxXxXmXmXxXxXxXvXmXmXgX,X(.J 8 5 A } #.k.m.%X#X#X%X+X:XzXvXvXsX;Xm.k.;.Q @.@.~ @.:.,.3.4.p.n.m.v.[.c.s.v. XfXfXiXjXgXmXxXxXzXvXzXvXmXiXgXgXaXxXvXzXpXiX7Xw.M f { 5XvXVXVXVXZXZXZXVXVXVXVXVXVXVXVXZXZXZXZXVXZX",
"  O % u > & 7 = i 5 8 q b o.7 & & 7 O O o   o X                 . .                 . . .                     O   . . . O . . .                                                             . O . % % 4 T S.9XjXhXmXvXxXmXmXmXBXBXBXmXmXmXmXmXxXmXxXxXxXxXmXmXxXxXaXxXvXvXxXaXaXvXaXaXiXaXmXNXBXmXmXmXvXvXvXbXbXBXzXzXrX1XZ.r.-.Y B j M W ;.9.0.v 5 O       . .                                 . .                         . . . # 8 J S.@.q % . # , ) ..m 5 6 U x.cXaXaXmXxXxXmXbXzXxXmXMXMXMXxXxXxXxXxXxXxXmXmXmXmXbXxXxXxXmXxXxXvXvXmXmXaX8XU.m > 4 V _ #.s.c.m.m.+X;X:XsXsXpX:X#Xk.;.Y B B W Q W ~ -.5.l.z.a.m.}.].;X|.].-XfXfXiXiXgXgXmXNXzXzXcXzXxXgXiXjXgXiXbXbXzX:X-X.XW s j S.$XHXMXVXVXZXVXVXVXVXVXVXVXVXVXVXZXZXVXVXVXVX",
"  @ . = & # - % - & 4 5 5 F > # 4 u & O o   X                   . .                 . .                             . . . . . .                                                             . . # % o % c :.F.kXdXaXvXxXmXmXMXMXBXBXmXmXmXmXxXxXBXNXmXxXmXbXxXxXNXmXxXmXxXiXpXuXxXiXuXuXiXgXMXMXmXmXmXmXvXvXmXbXbXcXrX@X3.W B N d f M Q l.!.!.S.W q %       .                                                                 . . # 8 R U.Q 0 % . # 1 ) ..M 5 5 N r.rXiXiXmXmXxXmXbXzXbXmXBXMXBXxXxXxXxXxXxXxXmXNXNXNXmXxXxXxXxXxXvXzXvXmXmXaX8Xw.d > & c / %.s.c.v.`.+X:XpXaXaXcXwX@Xd.-.U S S / @.@.@.;.<.4.a.k.`.].&XsXpXpXdXsXfXiXiXgXgXmXmXzXzXcXsXxXxXuXiXgXiXbXbXpX,X7Xd.j a K 4X>XSXMXMXVXVXVXVXVXVXVXVXZXZXVXZXZXZXVXVXVXVX",
"o @ . O % O O O O % 4 > $ w & & w ' 4 & .   X X                 . .                 . .                         . . .   . . .                                                               . . . .   . 4 v ;.6X;XpXpXaXxXmXmXmXBXmXmXmXmXmXxXxXmXbXxXxXxXxXbXxXvXiXiXiXaXdXdXaXaXuXuXuXiXgXgXhXNXmXmXmXBXBXBXmXpXGX3X4.W B v v m Y -.d.@X8X=X[.7.M > o                                                                           # , _ /.Q 0 % o % 8 ` _ j 5 5 v y.tXdXaXNXBXmXBXmXxXbXmXBXBXBXmXxXxXxXxXxXmXmXNXNXmXmXxXxXxXxXmXxXvXvXmXmXaX8XQ 8 = % d 0.b.}.=X>X:XsXaXaXaXaXvX>Xm.4.#.~ ! ! Q ;.4.l.l.k.a.s.v.].+X*XsXpXxXvXsX:XpXaXgXmXmXmXaXaXvXpXxXxX*XpXiXiXbXbXzXGX2XQ a s %.8XeXvXVXMXVXVXVXVXZXZXVXVXZXZXZXZXVXVXVXVXVXVX",
"+ o O # % O o o o O 4 > $ 5 > 6 b  .5 & O O @ @                   .                 . .                         O .     . . .                                                               . . . .   o % > M r.#X:XaXxXbXxXxXmXmXmXxXmXmXmXxXxXmXbXxXxXmXNXBXvXHXsX:XsXcXcXsXsXsXsXuXuXpXdXdXdXdXiXgXmXMXMXBXxXzXFXR.<.#.>.8./ 5.l.^.@X=X-XdX9XD.W 8 %   X                                                                       # 1 } (.W 0 O o * 9 ` _ j 5 4 c 9.3XsXaXmXBXBXBXmXbXbXmXBXmXmXmXxXxXxXmXmXmXmXmXNXmXmXxXxXxXmXmXaXxXvXmXmXaX7XK 5 = % d u.6X,X,XwXcXxXxXaXaXsX*X`.s.&.<.4.d.d.1.a.c.@X1X>X>X>X;X:X:XzXzXxXmXxXzXzXzXxXvXmXmXmXgXgXmXaXxXzX*XsXiXiXbXbXbXGXA.G 2 h c.,XcXzXDXVXVXVXVXVXZXZXVXVXZXZXZXZXVXVXVXVXVXVX",
"O . # & # * O O O % 4 5 , , 5 y f X.8 5 # O o @                                                                 . .                                                                         . . .     . O % 0 Y W.:XxXmXvXbXbXbXmXmXmXmXmXmXmXxXNXmXmXmXNXNXvXzX9X@Xm.[.@X@Xm.m.m.%X#X#X#X%X#X=X&X*XuXaXmXmXmXxXvXwXv.p.g..XF.B.7X9X9X,XfXsXdXsX1X@.d 4 O                                                                         & 8 ..(.W 0 O o * 9 _ 8.B 5 4 0 { R.*XaXmXmXMXMXBXbXvXmXBXmXmXxXxXbXbXmXmXmXmXmXmXmXmXxXxXxXmXgXgXxXxXMXMXiX1X! 5 = % d u.1X-X*X:XpXpXpXpX:X&X'.m.c.c.'.=X9XkX9X9XsXdXsXiXvXvXvXzXxXvXbXmXBXmXBXmXbXxXxXzXxXdXaXaXmXiXxXvX:XcXiXiXbXbXUXtX>.s 1 L #XsXnXzXDXVXVXVXZXZXZXZXVXVXVXVXZXZXZXVXZXZXZXVX",
"O . # & . * * o O # > 4 5 > 5 y d X.8 4 # O o                   . . .                                               . o                                                                     . .         o O = d V.%X:XaXbXbXbXbXmXmXbXmXmXmXBXmXBXBXmXmXxXzXpX;Xc.4.1.p.k.k.p.1.1.a.c.c.c.c.v.}.].|.&XpXaXmXmXxXsX:Xh.s.`.{.|.*XuXuXpXsXdXaXgXuX9X<.v 5 % o                                                                       & f i.(.K 0 . O & d _ 0.L 8 & 8 ! n.:XvXmXBXMXMXMXvXvXNXBXBXmXxXxXbXbXmXmXmXbXmXmXmXbXxXxXxXmXgXgXaXxXmXgXiX1X9.8 = & f u..X|.,X:XsXzXzX:X+X`.v.%X$X>X:XsXiXiXuXsXmXmXMXgXgXmXxXaXxXvXxXxXBXmXMXBXmXxXpXpXsXsXaXaXmXiXaXvXpXvXvXxXxXnXGXN.K l a 8.9XNXnXGXVXMXVXZXZXZXZXZXVXVXVXVXVXZXZXZXZXZXZXVX",
". . . . . . . . * % # # # & > 7 6 F w # * +   X         . . . # # # . . .                                                                                                                         o . o o . % 8 E (.=XiXmXgXBXbXDXBXmXBXBXbXmXBXZXZXBXxXzXzX:X%Xm.k.n.R.@XN.n.c.c.c.N.[.{.{.|.|.&XpXsX,XsXsXaXiXsX:X+X%X+X;XsXpXaXgXgXgXaXaXgXiX,Xz.B > & .                                                                     X # W Z./.J , # # > _ 0.0.m 5 & 5 U W.cXpXmXmXBXBXBXmXmXmXBXxXxXvXxXmXxXxXxXmXvXNXvXNXvXNXvXNXBXMXhXmXmXNXNXcX1XS.B & 4 f U.b.[.8X9X>X'.v.`.].&X:X:XzXxXvXmXmXBXNXNXBXBXmXmXmXBXNXNXNXxXxXxXxXmXNXmXmXNXNXmXaXmXiXaXvXxXaXxXpXpXbXbXNXuX1X+.s s I z.sXmXnXNXVXVXZXZXVXVXVXVXZXVXZXZXZXVXVXVXZXZXZXZX",
"# # . . . . . .   . O % & & # & & i = . O O   X           . . . . . . .                                                                                                                         o . . . o . % 4 N 9.6XsXmXMXmXmXmXbXbXmXBXBXBXIXZXZXMXmXvXvXwX>XtX3X<X3X3X@Xn.c.c.c.v.'.'.].}.}.:X:X;X+X].].&X*X*X*X:X;X:XzXbXbXmXmXmXmXxXxXmXgX,XM.J , & #                                                                     @ & @.W./.B , # # < ^ 0.} N , $ > B F.cXaXmXbXmXmXmXxXaXgXgXxXxXxXaXaXaXaXaXaXxXxXxXxXxXxXxXxXaXgXgXmXmXxXxX,X8XJXW > 5 f u.C..X1X#X'.v.v.].:XvXpXxXmXBXBXBXBXMXMXMXMXMXmXmXmXBXmXxXxXaXaXaXaXaXaXpXiXaXgXiXiXgXiXdXvXxXpXpXxXxXBXbXxX9Xf.H l j 7.{.dXxXvXBXVXZXZXZXVXVXVXVXZXZXZXZXVXVXVXVXZXZXZXZX",
"$ $ # # O . . o O O O . # # # $ # & # . . .   o X X                                                                                                                                               o . . o   O & 8 J D.8XuXNXpXxXBXmXmXmXmXbXmXMXMXMXMXgXaXuX-X].v.s.p.p.s.k.k.s.c.c.c.v.m.M.k.s.v.%X$X%X[.v.v.`.].-XsXxXxXmXMXMXMXMXMXBXNXmXMXmXcXN.W 9 > #                                                                     o 4 ;.2X(.B > # $ , ^ 8.} N > # 4 N M.sXaXmXbXmXmXxXxXxXmXmXbXxXxXxXxXxXxXxXxXxXaXaXaXxXxXxXxXaXaXmXNXNXmXxXvXFXF.@.9 5 a u.A.2Xv.`.}.].&X,XcXxXaXmXBXMXMXMXMXMXMXMXMXBXmXmXmXmXmXmXmXxXxXaXaXaXxXaXaXxXmXgXgXmXaXvXvXaXaXxXxXxXmXbX,X6XP k j $.B.,XvXxXBXZXVXZXVXZXVXVXZXZXZXZXZXZXZXZXVXVXVXZXZXZX",
"v c q 0 6 4 & # * % . . . . # # # # # # . . .   o o X X X X X   X X                                                                                                                                 o .     o # > a >.F.#X,X:XsXmXgXgXgXmXaXxXmXMXCXNXhXdXdX-X=X#Xv.p.p.a.z.z.z.W.N.N.N.W.W.Q.~.N.6X5X5X6XW.N.N.'.-XdXmXMXVXZXVXMXMXBXmXBXMXMXmXvX<X:.f > O                                                                     o 6 7.5X(.C > # $ < R :.} v > # > m z.sXxXmXbXbXmXmXxXmXmXmXbXbXxXxXxXxXxXxXxXxXaXxXxXxXxXxXmXvXxXvXvXmXmXmXNXvXv.2.d , a P.S.f.s.`.&X,XcXvXvXpXmXmXBXMXMXMXMXMXMXMXMXBXmXmXmXmXNXNXvXxXaXaXaXaXvXaXaXxXmXmXmXNXxXvXvXaXaXxXxXmXxXcX3XV.k k +.H.=XGXvXxXZXZXVXVXZXZXVXZXZXZXZXZXZXZXZXZXVXVXVXZXZXZX",
"r.t.-.{ { U v 8 > $ # # . .     # . . # . . # . # O O o     X X X X                                                                                                                                 o         . & 5 M w.F.#XGX,XiXiXiXjXgXgXgXNXgXiXiXiXuX*X-X=Xh.s.&.&.<.3.3.;.+.#.#.#.%.&.1.a.p.a.p.1.%.#.#.<.N.=XmXMXMXMXMXMXmXmXmXmXMXMXMXmXvX8XV.J > .                                                                     . q l.5X).C , # $ < ^ { { c > # > v k.,XvXBXbXxXxXaXaXaXgXgXxXxXaXaXaXaXaXaXaXaXaXaXaXaXxXxXxXxXsXpXpXaXmXmXmXdX=XV.9 , f 0.>.#.v.|.:X:XsXxXNXNXmXmXMXMXMXMXMXMXMXMXMXBXmXgXmXmXBXmXaXaXpXaXaXaXaXaXaXaXxXaXxXNXxXmXmXaXaXmXmXmXmX,X(.W a B D.9XdXNXvXbXZXZXBXNXZXZXZXZXZXVXVXVXVXVXVXVXZXZXZXVXZXZX",
"tXyX$X<XW.^.3.! m f 9 5 & O     .   . . . # # # # % O O o o o                                                                                                                                                   . & 1 Y 5.z.5X+XsXfXfXsX9X,X-X,XFX9X-X=X=X{.[.F.1.1.7.6.l.V.6.<.,.5.7.<.1.p.c.n.n.m.c.k.4.<.;.;.M.=XgXhXhXMXmXmXmXmXvXmXMXVXMXmXvX9X!.! , . o                                                                 . O d z.5X/.N > # $ < _ { E d & # > v z.,XxXvXbXbXxXaXaXaXmXmXxXxXaXxXxXxXxXxXxXaXxXxXxXxXmXmXmXvXcX:XpXaXmXMXmXiXkXC.a q a K Q f.+XuXsXpXpXaXmXNXmXmXmXMXMXMXMXMXMXMXMXmXmXgXmXmXNXmXaXaXaXaXaXvXaXaXaXxXxXxXxXmXxXmXmXaXaXmXmXaXdX#Xi.m m ~ 8XdXxXNXmXBXZXZXmXNXMXZXZXZXZXVXVXVXVXVXVXVXZXZXZXVXVXZX",
"GXcXcXvXGXFX>X@Xb.6./ U c 5 & % . O . . O % % # % # # O O O . .                                                                                                                                                   O $ 9 Y <.p.a.D.z.C.C.l.r.3.3.<.;.#.#.#.Q I K 0.0.i.q.w.V.d.1.V.V.Z.Z.Z.D.F.6X1X1X1X4XQ.y.;.;.M.#XdXhXhXmXvXvXmXmXvXmXVXVXVXmXvXkX6X>.8 % o                                                                 . # v M.5Xu.v > # $ 1 } 8.E c > # > v z.kXvXbXzXbXxXxXxXaXmXmXxXvXmXmXmXmXmXmXmXmXmXmXmXmXNXNXmXvXsXsXzXxXBXMXmXdX=XZ.d q a K <.5X;XsXvXvXvXmXxXiXmXmXmXmXMXMXMXBXBXMXMXmXgXgXmXmXmXmXxXxXxXvXxXxXxXxXxXvXvXbXbXmXxXBXBXmXgXmXmXdX,Xz.J d ! Z.,XaXmXMXMXZXZXVXmXMXVXVXZXZXVXVXVXVXVXVXZXZXZXZXVXVXVXVX",
"wXcXcXvXvXvXdXsXkX8X2XS.8.R v 8 > 4 & # % % % % # O O . . . . . . . . . . . . . .                                                                                                                       . .       o & > m ~ Q #.#.+.+.#.@.Q Q W Q W W ~ @.Q P K J J K W +.2.d.z.1.1.4.a.d.d.f.s.}.`.c.l.6.-.Q Q n.+XdXgXmXmXvXxXBXBXvXNXVXVXVXMXNXcX8X<.d & *                                                                 . > M D.5Xu.v & # $ 9 0.0.E c > & & v z.kXvXxXzXbXaXaXaXiXgXgXxXxXxXxXxXaXaXxXxXmXxXxXxXxXxXxXxXaXpXsXxXmXmXgXgXsX=XG.9 , h w.D.@X,XdXsXaXvXSXmXaXBXmXmXmXBXBXBXBXBXMXBXmXgXgXmXmXiXaXaXaXaXaXaXpXmXxXbXvXbXbXbXbXmXBXBXmXaXaXvX,X1X2.a m 5.LXzXmXMXZXZXZXZXMXmXDXVXVXZXZXZXVXVXVXVXVXVXZXZXZXVXVXVXVX",
"JXJX5X8X,XsXdXdXdXdXkX9X3X^.l.,.U v q 6 6 4 = % % O . O O o     O O .     . . .                                                                                                                         . .       o * & q } U.6.b.c.s.s.c.c.n.R.c.n.M.M.M.M.z.d.6.@.H z P >.y.V.C.D.D.b.D.z.C.F.[.v.z.V.-.H P %.#X,XdXmXNXNXvXNXmXmXvXmXZXVXVXmXgXsXkXM.B 4 O                                                               o # , J F.4Xi.c $ # $ V 0.:.U c > & & d l.9XpXxXzXzXxXaXpXaXmXmXxXxXxXxXxXxXxXxXxXmXaXaXxXxXxXxXxXxXaXaXxXxXxXxXvXcX3XV.v q K S..X9X*XsXxXaXaXxXxXaXmXmXmXmXmXmXmXmXBXMXBXBXmXmXmXaXaXxXpXaXxXpXvXxXuXaXvXxXzXbXbXbXaXMXBXaXvXsX*X8XG.H j -.N.wXSXMXZXZXZXZXZXMXVXVXVXVXVXVXZXZXZXZXZXZXZXVXVXVXVXVXVXVX",
"J ! q.A.JX5X=X|.sXsXuX:X:X;X>X1XQ.u.9.! N d q 0 > & O .             o . o o @ o                                                                                                                         . .     @ X o # 5 S K.A.5X>X=X>X,X,X:XwX>X>X>X>X>X>X=X#X0XF.1.I z K ~ ,.+.%.%.&.1.&.&.&.g.B.V.@.G J ;.n.>XsXaXmXNXNXmXmXMXmXvXmXVXVXMXBXMXgXvX<XW 8 % o                                                             o # 8 ( <X4X{ q $ $ , 3 Y 0.U c 6 # & a a.,XpXpXzXpXpXpXpXpXaXaXpXpXxXxXxXxXxXxXxXxXxXxXxXxXxXxXxXmXaXaXaXaXxXxXzX9X<Xw.d q W D.#XsX:XsXxXpXpXaXaXaXNXNXmXxXmXxXxXxXBXBXBXBXmXmXmXxXmXNXaXvXxXpXxXpXiXxXvXxXxXxXbXmXxXmXaXaXcX,X>X2XQ G Q M.wXNXDXBXZXZXZXZXZXZXZXZXVXVXZXVXZXZXZXZXZXZXVXVXVXZXVXVXVXVX",
"9 9 a f J ~ 5.C.F.1X9XFXcXvXvXvX;X>X8X3XW.r.! B a 8 > # . .     o       X X X X             . o                                                                                                           . .   @ X     & 9 ) U.0XcXcXvXSXSXNXmXBXBXvXvXxXvXaXaXuXdXkX1Xk.;.W K W ~ @.<.D.F.c.g.H.A.P.9.Y K <.8XsXvXmXBXMXMXVXVXMXBXBXBXMXZXMXBXMXgXNX1X-.d & o                                                             o $ 9 8.<XJXY 0 # $ < D 8./ E v > $ & d l.9XsXzXzXzXxXaXpXpXgXgXxXaXxXxXxXxXxXxXxXvXxXvXvXvXaXaXxXmXgXgXaXaXpXpX:X9XN.,.d q ~ F.&XdXpXpXzXpXpXaXaXpXNXvXmXxXvXvXxXxXmXBXBXBXmXmXmXmXxXNXiXaXaXpXaXpXxXaXxXvXxXaXbXBXBXmXaXpX:X#X[.a.k G s.9XNXBXZXZXZXZXMXZXZXZXZXZXZXZXZXZXVXVXVXVXVXVXVXVXZXZXZXZXVXVX",
"$ $ $ : , 9 f B ~ <.x.<X3X>X,XsXvXaXpX,XrX0X!.S.Q Y M d 8 , & # % O o   o     X             . .                                                                                                             . .   o     % : f >.<X,XsXdXmXmXMXmXMXMXBXmXmXmXmXhXhXgXgXdX9X6Xx.5.,.;.@.#.4.s.s.s.1.@.{ { ! ~ k.GXvXmXMXMXMXVXVXVXMXBXBXBXBXBXBXBXVXgXgX9X6.m > .                                                             O & 9 9.2X4XB 5 # $ : [ i.~ E V , > & d d.9X:XzXzXzXvXdXpXiXgXgXvXxXxXxXxXxXvXxXvXvXxXvXvXxXpXpXxXvXmXgXxXaXzXzXwX9Xn.;.d d ;.N.&XiXpXpXpXpXpXaXaXaXmXxXxXvXNXNXNXNXmXmXBXBXmXmXmXmXxXxXpXaXaXpXvXaXmXaXaXvXxXpXxXBXMXgXxXsX=X6Xz.Q h Q {.NXBXMXZXZXZXBXNXMXZXZXZXZXZXZXZXZXVXVXVXVXVXVXVXVXZXZXZXZXVXVX",
"# # # $ & & > , 8 d B Y ~ ,.l.F.rXGXGXsX-X-X9XtX6XF.V.q./ J m 9 > & & = % O o o             . .                                                                                                             . .   o X   # $ 1 G D.$X,X:XpXmXMXMXBXBXmXmXmXmXmXmXDXmXiXiXaXvXsX8XW.x.<.+.#.#.&.1.>./ W H Q d.3XcXvXBXMXVXZXVXZXZXMXMXMXMXBXBXmXBXZXMXmXlXF.W 6 %                                                             O & a e.2X!.N 4 . $ 1 s $.,.Y N b > & q d.8X:XpX:X:XpXpXpXuXiXaXaXpXxXzXxXzXxXxXxXxXxXxXxXpXpXpXpXxXaXaXaXpXpXpXeX>XN.#.d f 7.[. XiXpXpXpXpXxXxXxXxXxXxXxXmXNXNXNXNXmXmXBXBXmXmXmXmXxXNXaXxXxXaXNXvXgXiXaXvXxXpXaXMXmXgXvXsX1XJXy.H K 6.sXMXMXVXZXDXBXNXmXMXVXZXZXZXZXZXZXZXZXZXVXVXVXVXZXVXVXVXZXZXZXZX",
"# # . . . O % & # & > 5 9 f B Y ;.a.F.0XtXFXkX-XlXkX9X5XW.l.3.{ B f 9 5 > % O O                                                                                                                             . .   o X     # , s 6.@X9X,XpXxXMXMXmXmXmXmXBXBXmXmXmXmXMXZXZXMXgXpX,X8X<XM.Z.l.4.5.:.W K I <.R.>XsXxXmXMXZXZXZXMXMXBXMXZXMXbXbXbXBXVXMXgXsX<X@.0 %                                                               $ f e.4XA.v 4 . $ 1 C q.,.J m d > & q d.8X:XpX:X:XpXpXpXuXiXiXaXpXpXpXpXpXpXpXpXpXpXpXpXpXpXpXpXpXpXiXpXpXpXpX:X>X@X#.f m V.#XuXiXaXpXpXaXxXxXxXmXmXmXmXmXmXmXmXmXmXBXBXBXmXmXmXxXxXvXpXaXpXpXvXaXaXiXaXaXaXaXmXBXgXgXvX,XF.V.@.z >.F.vXMXZXZXZXDXNXNXNXMXVXZXZXZXZXZXVXVXZXZXVXVXZXZXZXZXVXVXZXZXZXZX",
". . O O O O     . . O % % & & 4 q c m ! r.W.8X,XdXdXvXcXrXtX$XR.Z.2.~ J v 8 > & O o                                                                       o                                                 o . O     X   O > 1 Q k.3X>X:XxXMXMXmXmXmXmXmXmXmXmXMXBXBXBXBXmXMXDXiXvXFX9X5Xx.#.Q J G I p.[.>X,XvXxXmXMXZXMXBXvXvXmXMXZXZXbXnXbXBXMXVXgXdX1X<.q %                                                             o $ m u.4Xl.c = % # 1 ..U.;.J N b > & 9 6.0X:XsXzXpXpXpXpXsXaXmXxXzXpXpXpXpXpXpXzXzXzXpXpXpXpXzXpXpXsXsXsXpXzXpXpX,X#X%.m m A.1XfXiXvXaXpXaXxXxXmXmXmXmXmXmXmXmXmXmXBXBXBXBXmXmXaXxXxXvXpXpXpXuXpXpXiXgXmXaXaXxXmXMXMXmXdX=Xb.+.G P z.0XvXmXZXIXZXBXNXmXMXMXVXZXZXZXZXVXVXVXZXZXZXVXZXZXZXZXVXVXVXVXZXZX",
". .       o @ @ o       o O o o O = 4 8 f K <.c.8X9X,XwXwXwXwX>X0X2X!.Q.y.W h 9 , & # .                                                                 o o                                                   . O     @     # : f ;.W.8XuXmXMXhXMXBXBXmXmXmXmXMXMXBXmXMXZXMXMXMXMXNXvXsX9X<XM.l.;.l.<X$X,XHXSXpXbXBXMXZXMXmXzXzXBXMXZXMXnXnXbXBXMXZXmXdX9Xl.v = O                                                           . $ B y.4X3.c & % # f h >.w.B T  .8 $ 9 7.7X*XpXpXpXpXpXpXdXxXmXvXxXzXxXxXxXzXxXxXxXxXpXpXpXxXvXxXpXsXsXzXzXzXzXcXrX#X%.M B Q.8XdXmXNXxXaXxXmXxXaXmXgXgXgXmXmXmXmXmXmXBXBXBXmXmXaXaXvXNXpXaXaXpXvXvXiXmXNXvXaXmXMXmXCXmXsX8Xz.H G w.1XGXNXxXZXIXBXBXNXMXMXMXVXZXZXZXZXVXVXVXZXZXZXZXZXZXZXZXVXVXVXVXZXZX",
"O %   @ X   @   @ O % O .     . . # % % & , a h K #.V.G.2X8X-X&X9X0X1X3X3X<Xc.<.W B 0 % .   . . . . . . O .       o o       o o                                                                                               # > V q.[.uXhXMXMXMXBXBXBXMXMXVXVXMXZXZXMXMXMXMXMXmXmXmXxXdXsXsX,X,X,X:XsXxXmXmXBXMXMXMXMXMXBXbXmXZXZXZXBXvXvXBXMXZXZXBXvXkXW.E 5 % . O O     o             X           X X     .   .         . , Q Q.!.@.q & O 4 m 8.>.Q B S ) q , d j.8XuXaXpXpXpXpXpXiXpXaXxXxXxXpXpXpXuXpXaXpXaXpXaXaXxXxXxXxX:X:XaXpX:X*X=X7XF.#.G K 4X,XpXBXaXaXaXaXaXaXaXaXmXaXxXxXiXaXmXaXmXDXmXNXmXaXNXxXaXaXxXaXpXpXaXxXxXxXxXxXpXpXmXMXNXuXsX#XQ K 4..XsXmXmXBXMXMXMXMXMXVXVXVXVXVXZXZXZXZXVXVXVXZXZXZXVXVXVXZXZXZXVXVXZXZX",
"$ $ # - ; o + o o . . . . . + + O % % O O # $ > < a j K +.d.2X0X7X8X>X,XsXcXcX>X5Xr.J 8 & % # . O . . . . . . o   o                                                                                                           o * 6 Y D.kXgXgXZXBXmXmXmXBXMXMXMXVXVXVXMXMXMXMXMXBXBXBXBXBXmXmXmXxXxXxXmXBXBXMXMXMXMXMXMXMXBXBXBXZXZXMXBXvXvXMXMXZXZXMXvXcX<X! , & # * * .   o             X           X       . . .         . 1 @.4X(.@.9 # . 6 M :.#.I m N ) f , d j.0XpXaXzXzXxXxXaXaXxXxXvXNXvXaXxXxXpXaXxXaXxXxXmXmXmXmXNXvX:XsXmXgXsX,X,X0XD.+.j Q 5XsXaXNXmXNXNXxXxXmXmXxXxXaXmXNXxXxXNXmXmXNXaXmXmXaXNXxXvXxXxXxXxXxXxXvXxXbXbXzXpXaXmXmXmXvX9Xk.P Q b.9XvXBXBXBXBXMXMXZXVXZXZXZXVXVXVXVXZXZXZXVXVXZXZXZXVXVXVXZXZXVXVXVXZXZX",
"9 1 8 5 4 & # % = & % # O O     . # # # # O     % & 5 8 a m J W F.1X9XrXFXcXsXpXFX8XD.~ f > .   + . . .                                                                                                                       o % & f ,.2X,XaXDXBXBXmXBXBXBXMXMXMXMXMXMXBXBXBXBXmXBXBXBXBXBXBXNXmXmXmXmXBXMXMXMXZXMXMXMXMXMXBXBXZXZXMXBXvXvXMXMXVXZXMXNXvX<X! 8 > & - - .   o                   o     X       . . .         . 1 ,.4X!.Q 9 # . 4 } Q 5.q.f S X.d , a d.0XsXxXvXzXzXxXaXaXxXxXbXbXvXaXxXxXpXaXmXxXmXmXmXmXmXmXmXvXpXsXmXmXsX,X,X8XZ.I j 2.1XcXxXBXmXNXNXxXxXxXxXaXaXaXmXNXxXxXNXxXmXNXiXxXNXxXNXaXvXxXpXaXxXvXxXaXxXxXvXvXxXxXmXgXmXGX<X;.Q 1.1XkXvXBXBXMXMXMXZXZXVXVXZXZXVXVXVXVXZXZXVXVXVXVXZXZXVXVXZXZXZXZXVXVXZXZX",
"Q P ( M m N d c q 8 5 > & & % % % # $ & & O o @   o % & > > 4 8 K #.4.z.R.3XrXFX*XvXFX[.#.m 5 % % O . O o o                                                                                                                   o O & 8 M 3.<XcXaXBXMXBXBXNXBXMXVXMXMXMXMXMXBXBXMXBXBXBXBXBXBXBXBXmXmXBXBXBXMXMXZXZXMXMXMXMXMXBXMXZXZXMXBXvXNXMXMXMXZXMXNXvX3X{ q > & 7 7 %   . o                 o o   X       . . .         . 1 y.4XZ.W 8 % . > B 9.,.W T S v d , a 6.0XsXxXzXzXzXxXaXaXxXxXxXxXvXaXxXxXaXxXNXxXmXmXmXmXmXmXmXxXaXaXmXaX:X*X-X1XS.K G Z.1XvXxXmXxXmXxXaXaXxXaXaXxXaXmXNXaXaXxXaXxXmXiXxXmXxXNXxXxXxXaXaXxXxXxXaXxXbXvXvXmXmXmXgXaX9Xr.~ <.N.9XdXmXBXBXBXMXMXVXVXVXVXZXZXZXZXVXVXZXZXVXVXVXVXZXZXVXVXZXZXZXZXVXVXVXVX",
"F.H.H.&.<.A.y.u.@.~ Y M d 1 , , > & & % % . o @         O O % 4 8 a f m Y ,.E.KXrXvXhXiX|.g.@.J 8 > & & % O o X             . .       . . . . . .           o                                                                   . & 4 5 B y.3XsXmXmXBXmXbXmXmXmXMXMXMXBXMXMXMXMXMXMXBXBXBXBXmXmXBXBXmXBXBXMXMXVXZXVXVXMXZXMXMXMXZXZXMXBXvXvXMXVXVXZXMXBXNX7X-.d > > w 7 % . .           o o                 . .             # 9 V.4XC.K 8 % % 6 B ,.,.W T S v 9 > a 6.8XpXaXpXpXxXvXmXmXmXxXxXxXBXxXNXNXxXNXSXNXNXNXNXmXNXmXmXmXmXmXmXiX*X*X*X1Xu.B H Q.=XvXxXxXxXvXNXxXxXvXxXxXNXxXNXNXaXaXvXxXaXmXaXmXxXaXNXmXvXvXNXxXxXaXxXvXbXbXvXbXBXmXmXmXcXn.! ! k.9XdXiXmXMXMXMXMXMXVXVXVXVXVXVXZXZXZXZXZXZXVXVXVXVXVXZXVXZXZXZXZXZXVXVXVXVX",
"7XqX{.s.m.0X3X5X5X2XD.6.@.K G m 9 5 > = % O O * + @ @ @ o   o O 4 4 > 5 0 c S { Z.1XdXNXNXsX#XC./ T v q 6 & # .             . .             . . .           o                                                                   O # O & q Y Z.tXvXMXMXBXBXmXmXmXBXBXBXBXBXBXMXMXMXMXMXMXBXMXMXmXBXBXBXBXMXMXVXVXZXVXVXVXZXZXZXZXZXZXMXBXNXNXMXVXZXZXMXBXmX=X;.d , > w 7 % . .           o o .   .           . .           . $ f V.JXA.J , # % y } Q u.9.f ) ..q > a 6.8XpXaXpX:XxXxXgXgXaXxXxXxXmXxXmXNXxXxXNXxXmXmXmXmXxXxXmXmXgXgXaXpX*X&XfX3X/ f K D.8XsXvXxXxXvXNXxXvXNXvXxXvXaXxXxXpXaXvXxXaXNXxXNXxXaXNXNXxXxXNXxXaXaXxXvXvXvXmXmXmXmXmXdXtX3.K -.@XdXhXhXMXMXMXMXMXMXVXVXVXVXZXVXZXZXZXZXZXZXVXVXVXVXZXZXVXVXZXZXZXZXVXVXVXVX",
"-X9X`.h.&X:X:XuXuXsX9X7X<XM.z.V.W U N n 0 > > 7 % # O ; ; O # # . . O % = = 6 0 N { Z.1X=X,X9X0X<XD.r.>.E v 8 > $ # . .                                   o                                                                     O     O = q { W.FXmXVXVXMXBXmXbXNXBXBXBXBXBXBXBXMXMXMXMXMXMXVXVXVXMXMXMXMXVXVXZXZXVXVXVXZXZXZXZXZXMXMXBXNXNXMXVXZXZXMXmXmX,X3.m , & 7 7 % . .             o . . .           . .         o . > m V.4Xy.M > # & b ^ q.u.W B | ) d > a 6.8XpXaXpX:XxXaXiXiXaXaXxXxXmXaXxXmXaXaXxXaXxXaXxXxXxXaXaXaXiXiXaXpX*X;X*X1XB d Q D.9XuXxXxXaXxXvXxXxXxXxXaXaXpXaXxXpXpXxXaXxXNXaXmXmXaXNXmXxXxXxXaXaXaXaXaXvXbXmXmXmXmXgX:X^.~ ~ x.>XdXMXCXVXMXZXVXVXVXZXZXZXZXZXZXZXZXVXVXVXVXVXVXVXVXVXVXZXZXZXZXZXZXZXZXVXVX",
"9X9Xh.}.vXaXmXNXNXSXNXvXsX=X`.g.(.U.P.0.T d 9 9 8 > & = = % & & O o o o o o . % = q B { l.W.5X0X9X,X9X5XD.,.K f 8 , > # O .                             o                                                                             @ O 4 B 6.8XdXgXMXMXmXxXzXvXmXmXmXmXBXBXBXMXMXMXVXZXVXVXZXZXVXZXVXVXVXZXZXZXVXVXVXZXZXZXZXZXMXMXBXNXNXMXMXZXZXMXBXDXFXl.J , & 7 7 % .               o . . .           . .         . # , B Q.!.-.f > & & q ( q.U.! B ..D 9 > a 6.0XsXxXzXpXxXvXgXgXaXxXmXmXmXxXmXNXaXxXmXaXmXmXmXmXmXmXmXmXmXmXNXvX,X>X-X<XN d @.M.9X*XzXzXxXvXNXvXxXxXaXpXxXaXvXNXaXaXaXpXNXNXaXxXNXxXNXxXNXxXaXaXxXxXaXaXxXxXmXmXmXdXpX=X3.W <.0XGXgXCXVXVXZXZXVXVXVXZXZXZXZXZXZXZXZXZXVXVXVXVXVXVXVXVXVXZXZXZXZXZXZXZXZXVXVX",
"0X@Xv.`.cXNXuXgXmXmXxXxXsX:X&X'.v.<X<XF.G.,.M a 9 q 9 5 5 5 4 # . . . . . . . % % & 4 0 d B :.~.,XxXvXvX9X1XN.C.,.Y d , % O o         X X X                                                                                             . & q B D.=XgXMXMXBXvXzXvXNXNXmXmXBXBXBXMXMXVXVXVXVXVXVXVXVXVXVXVXVXMXVXZXVXVXMXMXVXVXZXMXMXMXMXmXmXMXMXVXZXMXMXBXcX~.Y , % 7 = % O   o X @ @ X     .   .           . .     X     $ 1 L G.JXW a 4 & > A 8.Q ;.Y h ) | v , 9 <.#XuXxXzX:XpXiXiXiXaXaXxXaXmXmXmXmXmXmXmXmXNXxXaXmXNXNXmXNXmXiXaXsXwX+X,XF.v 9 +.g.=XFX&XzXxX*XaXNXpXpXxXpXpXpXxXvXpXpXvXxXpXaXxXaXiXpXaXmXxXmXmXmXNXNXmXmXaXxXNXmXpXsX,X<XW 3.#XdXgXgXmXMXMXZXZXZXZXZXZXZXZXZXZXZXZXZXVXVXVXZXVXVXVXVXVXVXZXZXZXZXZXZXVXZXVXVX",
"6Xm.%X+XcXNXaXmXMXBXmXvXxXsX:X*X&X`.|.9X[.D.2.j B m h f a 9 8 w > # . . . $ % & . . O % = 6 v ! R.;X:XsXsXsX,X8X6XZ.,.Y v 6 = % O .       X X                                                                                             % 5 d >.B.fXgXgXmXzX:XxXxXbXxXmXmXBXBXMXMXVXVXVXVXVXVXVXVXVXVXVXVXMXVXZXVXVXMXMXVXVXZXMXMXMXMXmXgXMXMXMXMXMXZXmXcXW.Y , O * & # # . o   @ @ X                     . .     X   . $ 2 R Z.(.K 9 > & 5 ) i.>.,.K f ) } V , a 7.=XuXaXzXpXxXaXgXgXmXmXmXmXmXmXmXmXgXmXmXmXmXaXaXmXmXmXmXmXaXpXpX:XwX+X9Xz.v q >.v.+XcX*XzX:XNXpXpXSXxX*XvXpXpXpXxXpXpXxXaXaXaXxXxXxXxXxXmXaXaXaXxXxXxXxXxXxXvXvXpXaXcX@Xx.-.l.,XMXMXMXNXBXMXZXZXZXZXZXVXVXZXVXZXZXZXZXVXVXZXZXZXZXVXVXVXVXZXZXZXZXVXVXVXVXZXVX",
"%Xv.>XsXxXNXmXMXZXMXNXNXvXcXsX:X:X|.`.`.1X4XC.>.H G Y } 0.) v 9 9 < # . # % $ $ # .   . % & 5 d Y 3.Z.<XtXkXdXvXsX,X1X~.y.! v 8 > & O . X X X                                                                                             . & 5 M 2.1XsXaXxXzX:XzXxXxXxXmXmXBXBXMXMXVXVXVXVXVXVXVXVXVXVXZXVXMXMXMXMXMXMXMXMXVXVXMXMXMXMXmXgXMXMXMXBXBXDXmXsXW.Y > . # # # & . O o X X X     o                       X   . $ a *.G.(.K 8 & & , L :.>.y.~ J } | d 5 d 6.=XuXaXxXzXvXxXgXgXmXBXBXBXBXmXmXmXmXmXmXmXmXmXxXmXmXaXxXmXpXpXpX:XcX>X8X3.v f 6.{.|.,X:XzXpXpXaXvXxXxXxXaXxXpXpXaXpXaXxXpXxXxXxXxXmXmXmXaXxXxXmXmXmXmXmXmXaXNXpX:XSXFXk.@.l.@XvXVXVXVXBXBXMXZXZXZXVXVXVXVXVXVXVXVXZXVXVXVXZXZXZXZXZXZXVXVXZXZXVXVXVXVXVXVXZXZX",
"v.v.,XvXaXMXVXVXZXMXmXbXvXvXdXsXzXsX`.h.[.<XF.(.7.+.P ~ i.P.0./ ( M 9 : $ $ $ $ & # . . O % > 5 6 c E 9.Z.<X9XkXsXsX,X8X5X^.3.Y f 8 , & % O             o                                                                                   O & 8 K z.8XkXsXsXzXxXxXbXmXmXmXBXMXMXMXVXVXVXVXVXVXVXVXVXVXZXMXMXMXMXMXMXMXMXMXVXMXBXBXMXMXmXgXMXMXMXBXBXMXmXcXW.Y > . O # > 7 & # . o X X X                           X   # : a 0.JX(.J 8 & & 8 T q.y.y.W M } } N 5 d 6.8XpXmXxXzXvXxXgXgXmXmXBXBXmXmXmXmXmXmXmXmXmXmXmXmXxXaXaXvX*XpXsX:XcX,X3X;.f m f.=X|.:X:XzXxX*XxXSXpXaXSXpXxXpXaXxXaXxXvXaXxXxXxXxXxXxXxXaXmXmXmXmXBXmXmXmXiXxX:X;XvX{.#.@.W.,XmXMXVXZXBXBXMXZXZXZXVXVXVXVXVXVXVXVXZXVXVXVXZXZXZXZXZXZXZXVXZXVXVXVXVXVXVXVXZXZX",
"v.h.:XvXgXVXZXVXVXMXmXmXmXmXmXaXHX*X$X%Xa.k.5X6X4Xz.+.P @.S.(.(.D.d.~ M 9 > & - % # O . . # % & O = 6 y B ~ l.<XtXrX,XsXFX,X>XR.;.Y m 9 > #             o                                                                         o o         # > a W Z.3X>X:XpXxXxXmXmXmXmXBXMXMXMXMXVXVXVXVXVXVXVXVXVXVXVXMXBXMXBXMXMXMXMXMXMXBXBXMXmXmXmXMXMXBXmXmXBXmXcXW.Y >   # & w u 5 & % .       o                         X   # < f e.!.G.M 5 # & d _ q.V.S.~ J 0.0.B , d 6.0XsXmXxXzXxXaXgXgXmXBXBXBXmXmXmXmXmXmXmXNXBXmXNXNXmXaXaXvX:XsXxXpXvX:X<X+.j P B.-X|.*XpXzXuXNXpXpXNXxXuXvXpXpXxXvXpXaXvXvXxXxXmXxXxXaXaXxXmXmXmXmXmXmXgXaXpXpX:X,X9Xs.+.<.1XsXgXhXMXZXDXBXZXVXVXVXVXZXZXZXZXZXVXVXVXVXVXVXZXZXZXZXZXZXZXZXVXVXVXVXVXVXVXVXZXZX",
"c.v.:XuXiXMXMXVXVXMXBXmXMXMXMXmXvXcXwX$Xv.g.v.@X<XW.l.#.+.1.Z.W.8X3XD.-.m 1 > 7 . # * & # # O . + @ O % > q B ~ 6.M.3XrXcXsXvXFX5XZ.-.J q $ . .     .                                                                           o o o         . % > v :.D.3X:XaXxXxXmXmXmXmXBXBXMXMXMXMXVXVXVXVXVXVXVXVXZXMXMXMXMXBXBXBXMXMXMXMXBXBXMXMXmXmXMXMXBXBXbXBXmXcXW.Y 4 . # > y F e , & % o   o o . .                     X   # 1 M u.2XA.m 5 # & d _ >.6.S.;./ i.{ m , a 6.7XsXmXxXpXvXmXgXgXmXNXBXBXmXmXmXmXmXmXBXBXNXmXmXNXmXaXxXvXpXsXxXiXmXpX<X#.K ;.oX X*X*XpXxXpXxXaXpXxXxXaXaXpXpXvXvXpXpXvXvXvXNXNXmXxXaXxXNXmXmXmXmXmXmXmXxXpXpXsX,X@X1.%.M.-XaXgXMXMXZXZXMXZXVXVXVXVXVXZXZXZXZXVXVXVXVXVXVXZXZXZXVXZXZXZXZXVXVXVXVXZXVXVXVXZXZX",
"a.n.8X>XsXvXaXNXBXBXmXmXBXMXMXMXaXDXaXpXvX&Xh.'.N.<X!.k.#.+.<.z.$XtX3Xl.Y 9 > - O * - & # # O . # # # # # & > 8 v Y 5.~.3XwXcXvXGX8XD.q.T q > & # . . .                                                                         . o             O & 5 N ,.<XsXaXmXmXmXmXmXmXBXBXMXMXMXMXVXVXVXVXVXVXZXZXZXMXMXBXBXBXBXBXBXBXMXMXBXBXMXMXmXmXMXBXmXBXbXBXmXcXW.Y 4 . # > b D b 8 5 & O o . o . .                     X   $ 9 K U.2XZ.m 5 O & d ( w.d.<.P K 8.8.T 8 a <.#XpXNXvXzXvXmXgXMXMXMXMXMXBXmXmXmXmXmXmXmXNXmXaXmXmXxXaXxXpXsXvXaXMXpX<X<.+.D.{. XdXsXpXbXvXuXvXNX*XpXSXpXaXpXxXxXpXpXxXaXNXmXxXaXxXxXmXmXmXmXmXmXBXBXBXNXpXsXsX>Xk.<.s.7XfXgXmXmXmXMXZXZXZXZXVXVXZXZXZXZXZXZXZXZXVXVXVXVXZXZXVXVXVXVXVXVXZXZXZXZXZXZXVXVXZXZX",
"p.N.tX>XcXvXpXSXvXmXmXNXmXMXMXgXIXaXgXMXmXsX*Xh.g.n.5X5Xk.#.@.<.R.yXtXM.~ f 5 4 & & # # . # % % # # # . . O % & 6 q N { Z.3X,XsXsX,X0X4Xy.Y f 9 , > $ # . . @ @                                                                 o o               % & 8 Y Z.9X*XNXBXBXNXNXNXBXBXBXBXMXMXVXVXVXVXVXVXZXZXMXMXBXBXBXBXmXmXmXMXMXMXmXmXMXMXMXmXBXmXmXBXmXBXmXcXW.W 5 . # $ g D n q 6 & . o . . O .             . .     X   & d Q Y.H.w.d > O & m *.w.6.;.K W 9.,.^ 9 a #.[.*XNXNXbXxXxXmXmXmXNXBXmXNXBXmXmXmXmXxXxXmXaXaXaXmXxXaXaXpXpXvXaXMXpX3Xp.a.0XfXuXNXvXiXmXpXSXxXpXvXxXpXxXvXzXxXxXaXxXxXpXNXaXpXpXaXmXmXaXaXxXxXxXmXmXmXmXsX,X,X'.4.4.%XsXiXMXMXBXmXMXZXZXZXZXVXVXZXZXZXZXZXZXZXZXZXVXZXZXZXZXVXVXVXVXVXVXZXZXZXZXZXZXVXVXZXZX",
"'.;XwXsXsXxXvXaXNXNXNXNXmXmXmXmXBXMXMXBXmXaXuX:Xg.h.[.5X4Xz.#.Q 3.Q.tX6X,.m 0 0 1 < > * . O = O . . O # # # $ & 7 4 4 8 N :.F.tXFXcXcX,X9X3XD.y.Y v 8 & # . o         o o o . . . . . .                                                           O & 5 v @.z.[.vXmXxXpXxXbXBXSXBXNXNXmXMXhXMXMXMXMXMXMXMXBXBXmXmXmXMXMXgXgXhXmXsXsXgXMXMXmXxXxXvXNXZXMXmXcXR.! < $ . # 7 Z A n 4 %     . O # . .           . # O o   + # 9 w.G.(.W 1 # O 5 R q.2.q.{ J ,.A.<.5.f a K C.,XgXgXxXzXzXmXxXxXmXmXgXvXvXvXvXaXpXaXxXvXxXaXaXpXaXxXxXuXiXxXvXxXpX&X].-XsXdXaXmXiXaXBXaXvXvXpXvXxX&XzXxXpXxXvXpXaXNXxXpXsXaXmXNXmXbXxXzXzXzXzXxXmXgXiX*X=X8Xc.&.c.rXpXmXMXMXMXBXMXVXVXZXZXZXZXZXZXZXVXVXVXZXZXZXZXZXZXZXZXZXZXVXVXZXZXZXZXZXZXZXZXZXVXVXVX",
"&XpXvXxXxXNXNXmXaXmXmXmXmXgXmXmXBXMXMXBXmXmXaXuX|.h.g.@X5X!.p.+.I 6.6X6Xy.! v c 8 < , r - % 7 7 % O . O & & > , 7 * O % 5 m Q 1.<XtXrXwX:X:X>X1XW.5.J q 5 & O   . . o       o . . . . . .                                                       @ O % > 9 J ,.!.,XxXNXBXmXxXbXBXNXNXmXmXhXhXhXhXMXBXBXMXBXBXBXmXmXmXMXMXmXgXmXmXdXdXgXMXMXBXzXzXzXxXVXVXmX,Xx.Y 1 # . . > w q 8 % O     O # . . . .         . # #     + & v V.G.U.L , # O 4 J >.w.q.U ! -.4.W.#.h a J S.9XhXMXBXzXzXvXxXaXaXgXiXdXxXxXxXpXpXpXxXsXpXpXpXpXpXpXaXxXxXxXsXpX:X*X*XiXgXgXmXNXmXaXNXNX*XNXNX*XpXvX:X*XnXpX*XNXxX*XvX*X*XpXiXaXaXpXpXcXcXwXcXvXmXmXgX*X0XN.p.a.@XFXNXMXVXVXMXMXMXVXVXZXZXZXZXZXZXZXZXVXVXZXZXZXZXZXZXZXZXZXZXVXVXZXVXZXZXZXZXZXZXZXVXVXVX",
"pXxXvXvXxXNXNXBXmXmXmXmXmXmXBXMXBXMXMXBXmXmXaXsXsX].h.g.<X4XF.4.Q <.b.6X!.,.m y 5 , g D u > > w & # # % $ $ : 8 5 & O . # > 9 m { y.!.KXrXcXcXsXFX0XD.$.v 5 % % # # O O                                                                         @   . & , a R S.9XvXNXDXDXMXMXZXMXMXBXmXMXMXMXMXVXVXMXMXMXmXmXmXmXBXMXBXBXBXBXBXBXBXVXVXBXbXzXeXvXmXVXMXdX#X3.f > .   . & 5 5 > .   O O % # . . . .         . # O     O 4 C A.G.>.h > # % w ( 2.2.,.Y B ,.Z.s.6.B f J S.9XgXmXmXzXzXvXxXaXaXaXaXaXaXaXaXpXpXaXxXxXxXaXpXpXpXaXxXzXzXpXsXzXvXvXmXgXgXgXmXBXxXzXvXaXaXxXpXpXpX*XzXpX:XpXsXpXpXpXpX*X*XpXiXaXaXpX:X:X:X:X:XpXaXiXpX=X1Xs.&.m.rXcXNXMXVXVXMXMXMXVXVXVXVXZXZXZXZXZXVXVXVXVXVXVXVXZXVXZXZXVXVXVXVXVXVXVXVXZXZXZXZXZXZXVXVX",
"pXvXNXmXmXmXmXmXmXMXMXMXMXBXMXMXBXBXMXBXmXmXvXdXpXsX+Xg.c.6X5XF.p.&.&.M.KXl.m 0 6 5 f ) ) v 8 5 > & & $ & : < < , > % o . % & , 0 v ! y.!.8XsXuXuXdX9XF.;.B q > $ # # # O                                                                       o     % & , v :.5XsXdXmXVXZXZXZXZXZXMXMXBXMXVXVXVXMXMXMXMXMXMXBXBXBXBXmXmXmXbXmXBXBXZXMXBXmXzXzXSXMXhXhX,XF.{ 8 %     O & > & % o   O * 4 > #   .           . . O o   % 6 T G.G.K 9 $ % % y ^ w.#.;.^ B u.Q.1.S.J s B w.7XiXaXiXzXzXvXxXaXdXaXaXaXaXpXpXpXpXaXaXvXxXxXxXaXxXxXxX:X:XsXzXcXvXvXvXgXhXgXgXNXxXzXcXpXvXxX*XvXxX&XvXzX*XsXvX*XpXvX&X:X-XpXiXaXaXpXeXeX:XpXpXaXdXsX,X8Xm.p.s.$XFXxXNXMXMXVXVXVXVXVXVXVXVXVXZXZXZXZXVXVXVXVXVXVXVXVXVXZXZXZXVXVXVXVXVXVXVXVXVXZXZXZXVXVXVX",
"iXxXNXNXBXmXMXmXmXmXMXmXmXmXmXmXmXmXMXmXmXmXmXvXpXcX,X}.h.v.1X5X[.s.+.1.4XQ.! 9 w > 2 G 0.0.C 8 w 7 & # 4 u e : : $ # O O O % % = 4 8 m -.Z.0XvXjXjXiX-X<XV.! f 8 > # # . .                                                             .             O % & 6 m V.3XrXdXmXZXZXVXZXZXZXBXBXBXZXZXVXMXMXMXMXMXMXBXBXmXmXbXbXbXbXbXbXIXBXZXZXZXBXBXVXhXhXjXqXU.) 4 O o o % & & # . @ o O & 7 4 %   . .         . . . O o % 8 ^ Y.S.j , # O % 0 W #.7.q.Y } 5.4.Q.<.J a h ,.#XfXaXaXzXzXvXxXpXsXaXiXaXaXaXaXaXaXaXaXxXaXaXaXaXaXaXaXzXzX:X:X:XsXuXpXaXNXaXiXvXxXzXvXvX*XNXNXuXpXxX:X:XvXpX*XvXsX&XpX*X*X*XpXpXpX:X:XeXpXaXaXaXdX,X8X3Xs.s.=XcXvXNXNXBXMXVXVXVXVXVXVXVXVXZXZXZXZXVXVXVXVXVXVXVXVXVXVXVXVXVXVXZXZXVXVXVXVXZXZXZXZXVXVXVXVX",
"aXmXNXMXNXmXMXmXmXmXMXmXmXmXmXmXmXmXmXmXmXmXmXvXvXpX-X,X].v.v.8X7X[.1.#.a.(.9.d w w 9 h $.w.:.T c u w & & w u u , > & % * * % O * % & 5 v ! V.1XlXdXdXfX,X3XM.5.T v 8 $ # . .             o o o                             .           . . o   X o X   o O = 8 J r.5XrXaXMXZXZXZXZXBXmXmXmXBXBXVXMXMXMXMXVXVXMXMXBXmXmXBXbXbXbXnXbXBXZXZXZXMXMXMXgXhXdX.Xe.V & . o O # & & % . o   . & 4 4 #   . .         . . o O O & d 8.Y.q.f > % O % q W %.6.,.U U ;.3.d.r.( h m >.<X,XaXaXzXzXvXpXpXsXiXiXxXaXaXaXaXaXaXaXvXvXxXaXaXaXxXxXSXvXpX:X:X,X,XsX*XdXvXaXxXxXzXvXxXpXNXvXpXsXpXpXsXzXpXpXxXsXpX:X*X*X*XpXpXpX:X:XpXpXaXgXiXuX#X@XM.1.v.GXvXxXNXmXBXMXZXZXVXVXVXVXVXVXZXZXZXZXVXVXVXVXVXVXVXVXZXZXVXVXVXVXZXVXVXVXVXVXZXZXZXZXVXVXVXVX",
"aXxXBXBXmXmXmXmXmXmXBXBXmXmXBXNXmXmXmXmXmXmXmXvXvXpX*XsX-X}.v.].-X{.F.4.;.S.S.K 9 y d h +.d.6.9.B V b 6 $ # 7 u 7 > $ $ - - % O . . . $ > 8 m W l.<X9XsX:XuXsX8XS.0.R v , $ # .         o o O o                                         . . o   X X X     o % & 8 U y.4XkXaXMXZXZXMXmXbXbXBXBXBXMXMXVXVXVXVXVXVXZXZXMXMXMXZXMXmXnXbXMXZXVXVXmXaXdXsXqX[.2.J q & & % & $ > w 7 O o o O # & & O . # .               o O 4 B u.(.@.9 & % % = v >.d.7.@.J f ,.S.+.V.0.J B 9.W.=XpXpXzXzXzXpX:XpXiXiXvXxXaXaXaXxXaXaXNXvXvXvXvXxXvXmXBXmXpXsX,X>X#X%X`.;XsXsXxXaXaXmXpXNXxX*XvXpX|.zXvX*XpXvX*XpXvX&X*X*XpXaXvXxXcXzXvXNXMXMXmXsX$XW.<.a.+XdXgXMXmXmXBXBXZXZXVXVXMXVXVXVXZXZXZXVXVXVXVXVXZXVXZXZXZXZXVXVXZXZXZXZXVXVXVXZXZXZXVXVXVXVXVXZX",
"aXaXxXxXaXaXgXmXiXaXaXmXxXxXmXmXmXmXmXmXmXmXmXxXuXdXvX:X*X&X].h.|.}.5X~.;.,.S.q.f d 8 f q.H.z.l.i.Y f d 0 > > 5 6 > $ $ & - % . # . . . % & 5 9 R q.Q.3X9XvXmXpXtX4XS.{ m , $ # .       . . O .                                           . o o     o o o   o O & 0 R S.0XsXgXDXZXZXBXBXbXBXIXBXmXmXBXMXMXZXZXVXZXVXMXMXVXVXMXmXvXvXmXMXmXaX,X=X<XF.D.<.H s d q q q 8 > 6 u r % . . O # # # # % % % O               O 8 E U./.K , # O # > v ,.d.d.@.m U ,.3.6.+.9.B m { D.#X*XpXpXzXzXpX:X:XpXpXvXvXaXaXxXxXaXaXxXvXaXaXaXaXaXxXmXmXxXsX;X'.s.1.s.'.,XuXxXaXaXaXNXuXvXaX*XpXpX*XpXvXpX*XvXzX*XpX*X*XaXaXvXxXzXsXxXmXhXhXiX-X[.b.+.R.,XuXMXZXMXDXBXBXZXZXVXVXMXMXVXVXZXZXVXVXVXVXVXVXZXZXZXZXZXZXZXZXZXZXZXZXVXVXVXVXZXZXVXVXVXVXZXZX",
"aXvXxXaXmXmXaXpXpXaXmXNXvXxXxXxXNXmXBXmXmXmXgXaXmXNXvXxXsXsX:X|. X-X0X5Xl.-.3.P.B d q v P d.W.k.k.S.@.h m V n ' e , , > $ % + o + # . . O % % & 6 c E y.4XrXsXuXNXzX>X~.q.B 8 > . . O . . . . .         X X X                                             . O O % & 8 W D.8XvXNXBXBXmXmXmXBXBXBXBXNXnXbXbXbXbXxXaXmXmXmXmXhXjXiXdXfXfXlXlX5XS.u.K J G j j G ^ i.L.0.S 9 8 u u & . % . . . O = & # . .             O # q $.U./.J > % . # w T 2.f.4.-.U Y ,.4.4.V.@.G f Y Z.[.&XvXsXzXpX:X:X:XsXdXvXaXxXvXaXaXxXpXaXvXvXvXaXaXaXmXaXgXaXsX;Xv.p.&.%X+X;XsXxXaXxXaXpXpXaXpXpXaXpXpXxXpXzXsXpXzXzX:XsXaXiXiXaXaXzXpXaXgXgXMXuXFXN.&.a.R.,XmXMXVXZXDXBXMXVXVXVXVXVXVXZXZXVXVXZXZXZXZXZXZXVXVXVXVXVXVXVXVXVXZXZXZXVXVXZXZXZXZXVXVXVXVXZXZX",
"xXvXxXpXvXNXaXaXaXaXxXvXvXxXxXxXmXmXmXmXmXmXgXgXaXxXxXxXaXvXaXuX X|.=X3XW.t.3.>.^ v c C ! 6.M.n.M.p.4.2.K h T .. .) v 1 : & * ; + # . . . O O * % 4 y U ;.z.3XcXBXmXpXwX!.y.Y m 8 : $ # # % # . o o                                             o o       . O o @ O > v #.F.9XvXxXxXbXmXmXBXBXBXbXnXnXbXbXSXSXNXvXdXdXsXkXkXlXqXqXXX.XH.j.$.C v d d f J ;.V.E.Z.Q.S.@.m q y w 4 # & . . . % 7 6 % O .             O # d 2.(.u.v $ + # # 8 J <.H.<.W m J ,.4.<.<.y.W f B S.1X&X*XpXpXpX:X*X:XpXpXvXaXaXxXaXaXvXaXpXaXxXxXaXaXaXaXmXxXpX:X&X+Xv.v.>X>X,XsXzXpXpXpXuXpXaXaXaXxXvXxXxXsXxXzXpXpXzXpXaXaXaXaXvXvXxXxXuXmXiXaXfX=Xs.&.N.$XcXNXVXVXZXVXMXMXVXVXVXVXVXVXZXZXVXVXVXZXZXZXZXZXVXZXVXVXVXVXVXVXVXVXZXZXVXVXZXZXZXZXVXVXVXVXZXZX",
"zXvXpX:XzXxXaXxXaXaXaXxXxXvXxXxXmXmXBXmXmXmXmXmXaXxXaXaXmXvXvXdX*X|.].;X8X@X3.Y J f f M Y :.x.c.W.k.D.G.#.H K _ 0.8.( M f , & % O . . # # # % % % % & 6 d Y q.!.GXBXxXcXrX3XD.j.e.( f , $ .                                                       .   . . . O O   . & 1 M <.F.8X,XsXsXxXvXvXvXmXZXDXDXBXNXvXdXsX-X=X7X6X2XH.H.C.I H G m g 8 , 5 q B -.l.<XtXtXtX>X<Xl.P d q w 7 $ & O O o % y u % O . .     . .   # > f w.(./ q # . . > V _ 1.f.l.-.U ! y.l.4.1.7.$.m M y.6X=XvXsXxXxXpX:X:XsXaXvXpXaXaXpXaXvXaXpXpXaXaXaXpXpXpXxXzXpX:X;X*X:X:X:XuXsXsXzXsXzXpXpXxXvXxXaXaXaXpXaXpXxXzXpXpXzXpXiXiXaXaXxXvXxXaXpXNXuX*X=Xv.&.s.8XFXSXMXZXZXZXMXZXZXVXVXVXVXVXVXZXZXVXVXVXVXZXZXZXZXZXZXZXZXVXVXVXVXVXZXZXZXZXZXZXZXZXZXVXVXZXZXZXZX",
"sXzX:X:XzXxXaXxXxXxXaXaXvXvXxXxXmXmXmXmXmXmXmXmXBXmXxXxXxXmXxXaXsX&X|.&XcX9Xd.W J T T B U 9.Q.M.M.JXF.s.z.<.I I +.,.q.>.( m 9 5 & # # & > > $ # % % % % & 8 N { R.wXFXwXwX9X9X7X6XD.>.B 8 $ O +   . . .     o X                                     . . . . O O   O # : 2 J 7.D.1X8X9X9X9X9X9X,XuXsXzXcXFXFXrX0XKX2XA.w.@.K j k s 2 < > > > 5 q J u.KXtX,XpXvXvXzX,X@X;.m 8 > > $ 7 * O . % y Z * O # .     . . . # 5 m C.(.J 6 # . # 5 ) i.d.a.r.-.Y { 3.1.1.1.&.>.B m ,.2X,XGXxXvXvXzX:XzXsXaXvXpXpXpXpXpXvXsXpXpXaXpXaXpXpXpXpXzXcXcXsX:XuXsXpXiXaXaXzXzXeX:XzXvXvXxXaXaXaXpXpXpXsXsX*X:XzXxXiXiXaXaXxXaXaXiXvXvX:X=X'.s.s.[.,XvXNXmXVXZXZXVXZXZXVXVXVXVXVXVXZXZXVXVXVXVXZXZXZXZXZXZXZXZXZXZXVXVXVXZXZXZXZXZXVXVXZXVXVXVXZXZXZXZX",
"pXzXpXpXvXvXxXmXmXxXaXaXxXmXvXxXmXmXmXmXmXmXmXmXNXmXmXmXmXmXgXaXvXsXpX*XpXwXN.<.W / ^ B B } V.^.x.!.M.a.F.Z.#.Q 2.6.C.C.6.>.! T q 5 > > , > & # % % % % % & 4 0 J 3.E.4X0XFXdXuXuX-X6XV.( d & # # # # . . .                                         . . . . . . O O # $ > 9 B / ).(.JXJXJXJX(.!.KXJX!.D.l.<.#.~ K B f a 8 8 8 8 8 , > 5 q v J Q l.1XkXdXgXBXBXaXaXvX,Xk.K 8 & % $ > & % O & b F * O # #     . # . # 8 J H.G.m 4 O O $ 8 B :.d.F.3.! U Y #.1.p.f.f.6.B f >.4X=X&XpXxXxXpX:X:XpXpXxXpXpXpXpXpXxXpXpXpXpXpXpXsXpXpXpXzXcXzXsXpXpXiXaXaXaXaXpX:X;X*X:XpXsXpXaXxXvXvXaXpXpXsX*X*XsXpXgXgXxXzXzXzXaXiXvX&X3X<Xp.1.N.7XvXBXmXmXBXDXZXZXZXZXZXZXVXVXVXVXZXZXZXVXVXVXVXZXZXZXZXZXZXZXZXZXZXZXZXZXVXVXZXZXVXVXVXVXZXZXZXZXZXVX",
"pXzXpXpXNXvXaXNXmXmXmXmXmXmXmXmXmXmXmXmXmXmXmXmXNXmXmXmXBXmXmXmXmXvXaXpXpXsX>XW.#.W M v m B ;.~.M.n.m.[.c.k.d.#.#.#.d.b.z.z.S.9.) V 9 < > > & & # # O O O # % & > d B :.z.8XcXiXCXNXGX8XZ.$.m 9 , $ # # . . .                                           .       O . . # % # 5 v M G K K K H B M G G H K H H G G h h h f f d 9 9 v v v U { i.Z.N.8XsXaXiXgXZXZXBXmXmXvX@X@.d & . . * # # # > V F * . # # O   . # O # q ^ G.C.v = O . $ 9 T >.f.b.V.! U ! <.f.s.f.f.w.E N ~ M.=X&XpXxXxXpX:X:XpXpXxXpXpXpXpXpXxXpXpXpXpXpXpXpXpXpXzXxXzXpXpXpXsXdXiXiXaXaXpXpX:X:X:XpXsXpXpXaXxXaXvXpXaXzX*X*X:XpXgXgXsXwX:XsXiXpXuX`.4XE.+.%.6X-XNXVXMXmXbXBXZXZXZXZXZXZXVXVXVXVXZXZXVXVXVXVXVXZXZXZXZXZXZXZXVXZXZXZXZXZXVXVXZXZXVXVXVXVXZXZXZXZXZXVX",
"xXpXpXpXvXxXaXNXmXmXmXmXmXmXmXmXmXmXmXmXmXmXmXmXBXmXmXBXNXBXBXmXmXmXmXaXpX:XsX9Xk.@.f q N B @.W.[.}.&X-X`.g.l.5.~ I ;.z.s.M.!.6.w.$.J a , & % + . . . . # # # # O # > q Y 4.#XcXNXmXaXpX,X1XF.u.C w > $ # # # O                                                 . .     X   O & > 8 9 9 9 8 , , < 3 2 s h j z H +.#.d.C.D.F.M.k.z.Z.F.<X3X,XdXdXaXNXNXvXxXbXBXZXMXmXvX7X5.v %     % # $ $ , n F % . # $ + . # # O & b K.XX1.v % . . $ d _ w.a.a.r.! U { 4.f.s.p.p.6.} U K 4.>XsXaXaXxXpX:XeXxXxXxXpXpXsX:XpXsX:XsXpX:XpXpXzXzXzXxXxXaXpXsXsXuXuXpXpXiXaXaXxXzXzXzXvXxXpXpXpXpXpXNXpXaXxXpX:X:XpXgXaX:X;X:X:XpXpX*X%XQ.-.K +.2X,XMXVXMXmXvXbXZXZXZXZXZXZXMXMXVXVXVXVXVXVXVXVXVXVXZXZXVXVXVXVXVXVXZXZXVXVXVXVXZXZXZXZXVXVXVXZXVXVXVXVX",
"NXvXpXaXNXNXmXDXgXmXMXMXmXgXmXmXmXmXmXmXmXmXmXmXNXmXmXNXBXmXmXBXMXBXmXxXpX:XpXsX8Xd.B 9 c m Y 4.g.=X|.`.=X[.k.E.y.Q -.6.<.b.2Xs.H.d.$.B 9 > # O   . O . . . # .     # > 9 J 4.1XcXvXmXmXvXdX,X1XU._ f 1 > $ # . . . . .                                                   @ @ o % & , 8 8 9 9 2 a k M ( $.w.C.F.2X1X8X8X9XsXvXvXFXrXcXvXaXgXgXMXgXaXxXvXbXbXmXBXBXmXgX,X6.N & o   % # $ $ , b b % . # & + . # # O 4 M U.(.$.b . . # , f ( >.a.D.-.Y ! 9.a.s.b.g.g.a.{ B M <.$X|.pXaXaXpX:X:XpXpXxXpXpXsX:XpXsX:XvXzXsXsXxXvXvXvXaXaXxXvXvXsX:X&XcXxXdXxXaXaXaXpXpXxXxXaXpXaXaXpXvXpXpXvXsXpXsXpXmXxX:X>X,X,XiXuX#X4X/.B f K F.kXgXMXBXbXbXBXZXZXZXZXZXVXVXVXVXVXVXVXVXVXVXVXVXZXZXZXVXVXVXVXVXVXZXVXVXVXVXVXZXZXZXZXZXVXVXVXVXVXVXVX",
"pXvXxXaXmXmXmXmXmXmXmXmXmXBXmXgXmXNXBXBXBXBXmXmXmXmXmXmXmXmXBXBXBXxXxXxXzX*XuXsX].F./ f v v C 8.z.c.c.v.v.v.m.c.4.;.! ~ w.z.h.{.h.s.Z.q.m 1 5 # %     . O . . . . . . # & 8 m I D.#XkXvXsXsXsXsX-X6XZ./ d > # # # # # . . O o     X     . . .                             . . O . & b | 0.3.a.R.W.N.M.N.#X>XsXdXdXsXwXwXcXxXmXmXaXaXaXmXmXmXgXgXMXMXBXBXBXBXBXBXmXNXNX,XZ.Y 5 # # & > $ # 4 y Z % . . . . . . O O 8 >.C./.J 5 O   # > v ( 5.V.7.W K W 2.a.c.M.M.s.f.0.R f W N.,XwXzXaXxXpXpX:X*X:XpXzXzXpXpXsXcX:X:XpXzXxXxXpXpXaXaXaXaXpXpXpXpX*XaXaXpXaXaXpXaXaXxXmXxXaXpXpXpXpXzXxXzXpX:X:XpXpXBXsX&XFX|.fX].2X5.Y d 4 d 2.7XNXmXvXNXmXMXZXZXZXMXMXVXVXVXZXZXVXVXZXZXZXZXVXVXVXVXVXVXVXZXVXVXVXVXVXVXVXVXVXZXZXZXVXVXVXVXVXVXZXZX",
"aXNXmXaXmXNXmXBXmXmXmXmXmXNXmXgXmXNXBXBXmXBXmXmXmXBXBXBXBXBXBXBXDXNXvXNXvXaXxXNX:X1X6.K v 9 9 B r.k.k.c.m.'.'.[.k.3.! ! ,.j.g.h.`.[.b.4.:.B 9 5 & % % % # . . . # # .   . & 8 a P #.z..X=XkXdXdXmXNX9XD.>.U 9 : $ $ $ # # .             . . .                         . . . . O O & q | u.~.wXcXzX:X:X:XsXvXmXMXmXvXvXcXvXmXVXVXmXmXmXBXBXmXmXMXMXMXMXMXBXBXBXBXbXmXmXsXM.W 1 # $ 7 7 & # 4 y u % . . . . .   . % q <.F.P.n > # + # $ 9 / S.V.+.K Y @.d.c.m.M.M.m.f.q.R f H f.#X$X:XaXxXxXzX:X:XpXpXpXsXpXpXpXzXpX:XpXpXaXxXxXaXNXNXNXNXNXNXNXNXpXvXxXaXvXxXpXaXmXmXmXmXaXaXpXpXpXsXzXzXpXpXpXpXxXzX:X,XGX].{.[.<.I K N 6 , I XXkXvXvXbXBXZXZXZXMXNXMXMXVXZXZXZXZXZXZXZXZXVXVXVXVXVXVXVXZXZXZXZXVXVXVXVXVXVXVXVXZXZXVXVXVXVXVXVXZXZX",
"aXNXmXaXmXNXBXMXmXBXmXmXmXNXmXgXmXmXmXmXmXBXBXBXBXBXBXBXBXBXBXBXmXaXpXxXpXpXiXaX:X$XD.,.B 9 1 f >.a.a.s.N.[.v.N.a.4.;.~ ~ 2.C.b.@X@Xc.a.u.8.B d 5 4 > & # . # # # .     X O & , 1 f J / l.1XdXNXvXvXvXsX8XF.>.B 9 > # . . . . .       . . .                           . . . O O * % 5 S u.(.tX,XcXzXcXcXvXvXBXmXMXNXNXNXNXBXMXMXMXBXBXBXBXMXMXMXMXMXMXMXBXBXBXBXBXNXmXdXW.Q 8 $ $ r i & O = y w # . . . . . . O & c 7.(.8.d & # # # 5 ) 0.+.7.(.W Q 2.C.m.v.n.k.c.p.2./ M G <.<X$X:XxXmXxXpX*X*XsXpXpXpXpXpXpXpXzXpXpXpXaXxXvXvXaXaXaXaXaXaXaXaXpXvXxXaXaXaXpXaXxXaXaXaXaXpXpXpXsXsXzXsXpXpXpXpXpXpXpXsXkX].[.f.+.Q 5.9.N < j j.0XvXvXvXZXIXZXZXMXMXMXMXVXZXZXMXZXZXZXZXVXVXVXVXVXVXZXZXZXZXZXZXZXZXVXVXVXVXVXZXZXZXZXZXZXZXVXZXZXZX",
"xXNXxXaXmXBXmXMXmXBXmXmXmXNXmXaXmXmXmXmXmXmXBXBXBXBXBXBXBXBXBXBXBXmXxXxXxXaXaXaXpX&X6XZ.Q f 9 f ;.z.a.p.n.n.s.c.s.a.r.;.P Q w.S.5Xc.c.D.6.y.i.J v d 5 > $ & & # # .   X @ @ & 4 > 5 5 q Y <.[.kXcXcXxXgXmXdX1XZ.0.V > # . . # # . . . .                               . . . . . O % & q ^ S.!.#XzXxXzXzXvXvXNXBXMXVXMXMXBXBXmXmXBXBXBXBXBXMXMXZXMXMXMXMXBXBXBXBXBXmXmXvX2X@.9 : $ r r & O & 6 7 # . . . .   . O & v w.(.K 8 $ . . $ 8 C @.<.l.4.W Q 7.z.h.v.n.n.s.1.2.e.^ J +.D.3X,XxXxXaXpX*X*XvXpXpXpXpXpXpX:XzXpXpXpXaXxXvXvXaXaXaXaXxXxXxXxXpXvXxXpXaXaXpXpXaXaXpXpXaXpXpX:XsXsXsXsXsXpXpXpXpXzXvXpX&X7XF.+.Q d.2X(./ f s W <XsXvXmXZXIXZXZXMXMXVXVXVXZXZXMXZXZXZXZXVXVXVXVXVXVXZXZXZXZXZXZXZXZXZXVXVXVXVXZXZXZXZXZXZXZXZXZXZXVX",
"aXvXxXiXmXBXmXNXmXmXBXmXmXNXmXaXmXmXmXmXmXmXBXBXBXBXBXmXmXmXBXmXDXBXBXNXmXxXxXvXdXsX9X2X2.B d d 9.Z.z.s.N.n.c.c.N.k.z.6.I H ! >.!.c.N.F.a.V.S.>./ B d 9 8 5 > # > $ O @ @ @ = w 5 4 & 5 c M Q z.tXFXGXxXaXgXgXsX0Xj.Y d 5 & $ # # . .                                 . . . .     . % , v { A.5X,XxXxXxXxXxXNXMXMXVXVXVXMXBXvXxXNXBXmXmXBXBXVXZXZXMXMXMXBXBXBXBXmXxXaXsX1X;.f : > 7 7 & % % 4 = O .         . % > N u./.M , # . . $ , m >.V.z.#.I Q 7.z.h.v.[.n.c.a.d.S.>.K K 5.<X:XpXaXaXaXsXcXvXzXpXpXzXzXpXpXpXpXpXpXxXxXxXxXxXxXxXxXmXvXvXvXaXNXvXaXvXxXaXaXvXaXpXpXxXzXsXpXsXsXpXsXpXpXaXpXzXxXmXiX XqXy.H #.b.qXqXV.K a h l.8XvXmXZXIXZXZXMXMXVXVXVXZXZXMXZXVXVXVXZXZXZXZXZXZXZXZXVXZXZXZXZXZXVXVXVXVXZXZXZXZXZXZXZXZXZXZXVXVX",
"aXvXxXaXxXmXmXBXmXmXmXmXmXBXmXaXmXmXmXmXmXmXmXBXBXBXBXBXmXmXBXmXmXmXmXxXaXxXaXiXvXdXdX=Xz.Q v d { y.l.k.M.n.c.c.@Xc.k.x.<.Q J G x.<XR.c.c.z.z.A.S.@.G h v c b Z , > & % % % 7 y 0 y 6 y b q a K r.R.0XFXvXgXhXgXNXqXG.e.R d < $ $ # .                                   . .         % & 1 m 8.Q.rXvXvXmXmXmXBXMXVXVXVXVXVXBXxXzXmXmXmXmXBXBXMXMXZXZXMXMXMXBXmXmXmXmXaXsX3X6.m , > > & * % % & % .           . & 5 T P.P.v > % . % # 8 } u.<.4.Z.Q #.d.M.v.v.v.g.M.k.p.6.>.G m ! W.>XpXaXgXaXxXcXxXxXpXpXxXxXpXpXpXpXpXxXxXxXxXaXiXiXaXaXaXaXaXaXaXNXvXpXaXaXpXaXaXpXpXpXpXpXpXpXzXpXpXpXpXxXxXzXnXpXiXmXfX1X/ J l.'. XkX5X@.9 q @.<XvXmXZXIXBXBXMXVXVXVXVXZXMXMXZXVXVXVXZXZXZXZXZXZXZXZXVXZXZXZXZXZXVXVXVXVXZXZXZXZXZXZXZXZXVXVXVXVX",
"aXvXxXaXmXBXmXBXmXmXBXmXmXBXmXaXmXmXmXmXmXmXBXBXBXBXBXBXMXMXMXBXBXmXmXmXBXNXNXvXgXmXiX*X1X6.J v B / 5.a.c.v.m.v.m.v.c.c.C.5.Y B <.M.N.c.m.m.m.N.2Xa.+.Q Y B ) X.V g q 9 8 , 5 0 q Z y e b 0 > 5 c U 5.N.,XaXMXMXmXNXGX8XD.>.B 9 & # .           . . . . .                             # : 1 m @.6XwXxXmXBXMXMXMXZXZXZXZXVXMXvXxXmXmXmXBXBXBXMXMXZXZXMXMXMXBXmXmXmXBXmXpX0XZ.Y 9 > 7 7 * # % & % .           . & 8 } /.{ d > % . . & 9 J ,.l.l.#.#.<.C.F.v.v.v.c.k.k.a.p.%.K d B D.$XzXxXmXgXpXpXxXxXxXxXvXxXpXpXzXzXxXxXvXxXxXaXxXmXmXmXmXNXvXvXpXxXaXpXpXpXpXpXpXpXpXpXpX:X:X:XzXsXpXpXsXxXvXxXnXzXaXmXfX[.K Y !.8XuXdXFXl.v q K D.sXgXZXZXbXSXBXVXVXVXVXZXMXMXZXZXVXVXVXVXZXZXVXZXVXVXVXVXZXZXZXZXVXVXVXZXZXZXZXZXVXZXVXVXVXVXVXVX",
"aXNXmXaXNXNXmXBXmXmXBXmXmXBXmXaXxXmXmXmXBXmXBXBXBXBXBXBXMXMXMXMXmXgXmXmXmXBXNXNXmXDXhXiXrXD.Y v d U 5.C.m.[.1X#Xv.#X`.v.M.l.~ Y -.<.M.W.g.`.=Xv.}.c.b.Z.,.K Y } L...R K M s 2 1 q F e > 0 w % % % 5 N -.z.8XvXNXMXMXgXsX9X2X6.K 1 > # O o       . . # . .                             . $ : 9 B Z.$X,XmXMXVXZXMXMXZXZXZXZXMXvXvXmXBXBXMXMXMXMXMXZXZXZXMXMXBXmXmXxXBXmXpX,XF.Q 9 , t i * # % * O             . > d 0._.T 0 $ %     & 9 J >.4.4.#.#.<.f.b.v.[.#X@XM.M.c.f.6.W q c y.N.,XvXBXmXxXxXxXxXvXvXvXxXzXpXvXxXxXxXxXxXxXxXmXxXmXmXmXNXNXNXaXvXxXpXaXaXpXpXpXsXzXsXpX:XsXsXzXpXpXpXaXvXvXxX:XnXSXaX XN.K Y N.GXgXiXGX2XY q m S.9XiXVXZXbXSXBXVXVXVXVXVXMXMXZXZXVXVXVXZXZXZXVXVXVXVXVXVXZXZXZXZXVXVXZXZXZXZXZXZXVXVXVXVXVXVXVXVX",
"xXpXpXxXmXaXmXNXgXiXmXaXaXmXiXaXBXBXmXBXBXBXMXMXBXBXMXMXMXMXMXMXMXMXMXMXBXxXxXmXVXVXhXgXsX<X;.m 9 N @.1.[.#Xv.=X}.'.8X8X[.W.E.5.;.;.a.R.1X'.`.,X].].'.b.l.7.@.K 8.P.U.V.&.+.G a 8 6 y w & 4 7 # . # = 0 v W k.rXNXMXBXxXsX,X>XW.8.C 8 & % * O   O % % .                         X X     . $ : 2 Y ^.tXpXVXZXVXZXZXZXZXZXZXZXMXSXBXBXMXMXMXVXVXVXZXZXZXMXMXBXBXmXmXmXmXvXsX6X>.a , 4 7 = & % # .   o .       . 5 s } _.V , # # .   # q } y.;.<.<.+.V.d.p.M.<Xv.c.W.M.g.s.2.M > 0 { M.>XpXiXgXaXpXaXpXaXxXpXpXpXaXpXpXpXpXaXaXaXaXmXxXaXiXiXaXaXaXpXpXpXpXpXpXpXpXpX:X:X:XpXpXpXsXpXpXpXpXpXpXaXpX:XzXaXuXfXg.H >.m.*XiXNXGX<X,.f f >.7XaXmXMXBXSXMXVXVXVXVXVXMXMXZXZXZXZXZXZXVXVXVXVXVXVXVXVXVXZXVXVXZXZXVXVXVXVXVXVXZXZXZXZXZXZXVXVX",
"vXxXaXxXmXmXBXMXmXgXNXmXmXNXaXmXBXBXmXBXBXBXMXMXBXBXMXMXMXMXMXMXMXMXMXMXBXxXbXNXMXMXhXgXdX#X4.K c q { S.g.`.].`.v.>X{.`.#X[.a.x.t.Q 4.^.c.'.=X}.].].].v.c.f.4.#.H #.l.H.F.C.Q k v , 6 y 7 & % % . . . % 4 d Y 3.3XcXcXzXzXvXvX,X!.q.Y f 5 & % % . O O .                                   # $ , v { M.,XgXMXVXMXBXBXBXMXZXZXMXMXMXBXMXMXVXVXVXZXZXZXZXMXMXBXBXmXMXmXmXxXsX1X<.j 8 4 = & & # .     @ o       # 8 J L.L.n > # O   O % q } y.3.r.3.<.C.d.1.b.F.N.@Xn.n.c.b.q.M & 4 M <.@XsXxXmXvXpXmXaXxXNXaXpXxXxXxXxXxXxXxXxXxXxXNXmXxXxXxXxXxXaXvXsXpXsXsXpXpXzXpXpXpXpXpXsXpXpXpXpXpXaXaXaXaXpX*XcXvX|.].s.I #.$XvXdXsXsX8XZ.J s ( F.dXNXMXSXvXMXVXVXVXVXVXMXMXZXZXZXZXZXZXVXVXVXVXVXVXVXVXZXZXVXVXZXZXZXVXVXVXVXVXZXVXZXZXZXZXVXVX",
"xXvXxXaXaXxXmXmXmXaXNXmXxXNXaXmXmXBXBXBXBXBXMXMXMXMXMXMXMXMXMXMXMXMXMXMXmXxXmXMXMXMXhXhXaX,Xn.;.d 9 ( w.b.B.`.{.=X=X>X=X].#X#XN.Q.;.<.b.<X#X}.;X&X-X=X=X#X[.N.M.p.#.#.1.Z.C.w.e.B v c q 4 % % O # . . . O % 4 c Y r.yXGXNXvXzXcXkX6Xz.#.B q 4 % . o o o o                                 . # & 0 f ;.5XuXgXDXMXBXBXBXBXMXVXVXVXmXmXMXMXMXMXVXZXVXVXVXMXMXmXmXmXMXBXmXaXsX=Xa.J q 7 7 7 4 & O     o         # 9 *./.) 0 & . .   O % 9 W 5.3.r.3.3.C.d.p.k.k.c.R.n.n.c.z.>.m & & d ~ F.rXvXmXaXpXxXiXaXmXaXpXvXxXxXxXxXaXaXaXxXxXxXaXaXxXxXxXaXpXxXsXpXpX:X:XpXpXpXpXpXpXpXpXpXpXpXpXpXxXvXxXaXpXpX:XsX:X1X1.+.z.+XvXdXsXcXGX<XI a M d.9XvXMXDXBXMXVXVXVXVXVXZXZXVXVXVXVXZXZXZXZXZXZXVXZXVXVXVXVXVXVXZXZXZXZXVXVXVXVXVXVXVXVXZXZXZXZX",
"pXvXxXpXaXmXmXaXmXaXmXaXaXmXaXxXmXmXmXBXBXBXMXMXMXMXMXMXMXMXMXMXVXMXMXNXbXxXmXMXMXVXMXMXvXsX=Xz.m 9 B $.z.B.v.=X+X].=X=X`.].>Xm.M.l.4.1.n.@Xv.].].&X=X#X'.}.[.[.M.p.&.<.w.w.y.S.Q ~ E N 8 > % O # # # . .   . % 4 N ,.~.8XwX,XsXpXsX9X<Xr.! v 5 4 O   . o                                   . # = 5 J V.8XvXDXmXBXBXBXBXBXVXVXVXMXmXmXMXMXMXVXZXMXVXMXMXBXmXmXBXMXBXBXmXaX,Xb.W d 6 w u u 7 #   o o         $ a 9./.N 4 %   .   . & d ! 3.4.t.;.4.d.a.f.z.a.s.c.R.n.k.4.W a & & 0 Y Z.9XdXaXaXaXaXiXgXmXaXaXxXaXxXxXxXaXaXaXaXaXaXaXaXaXaXaXpXpXsXpXpX*X*X:X:X:XpXpXpXpXpXpXpXpXpXpXaXaXxXaXaXaXvX:XpXkX5X#.#.6X|.pXpXzXvXFX>X#.s a #.6XsXBXIXZXMXZXVXVXVXVXVXZXVXVXVXVXZXZXZXZXZXZXZXZXVXVXVXVXVXVXZXZXZXZXVXVXVXVXVXVXVXVXVXVXZXZX",
"pXvXNXxXxXNXmXaXmXaXNXmXmXNXaXmXmXmXBXBXBXBXMXMXMXMXMXMXMXMXMXMXVXMXNXNXbXaXmXMXMXVXMXBXvXvXsX1X/ 2 M >.>.z.6X`.h.&X].`.=X].v.'.n.k.F.s.&.N.1Xg.v.'.#X#X'.`.`.`.g.M.C.,.~ :.,.;.V.7.%.>.R q & % # # # # . . . O = & 5 N ,.D.3X,XaXmXvXsX3XD.;.J v 5 # # O                                   . O . & q Y D.rXvXmXMXBXSXSXBXMXVXVXMXmXmXBXMXMXVXZXMXVXMXMXMXMXBXBXMXBXBXBXmXsXN.@.d 5 6 u u 5 #   o o   .     $ d w.U.d & O     . . 4 B ,.r.4.r.<.1.p.f.f.z.k.c.m.%Xn.k.>.B 8 & & & N 5.1XcXxXxXNXBXmXBXNXxXvXNXxXxXvXvXvXvXxXxXaXvXaXaXaXaXsXsXpXpXzXsX:X:XsXcXsXaXaXaXaXaXaXpXpXaXaXaXaXaXxXmXxXpXxXvX&Xz.I #.c.FXdXpXxXvXvXFXb.s 3 P G.sXNXZXZXZXMXVXVXVXVXVXVXVXVXZXZXZXZXVXZXZXZXVXVXVXVXZXZXVXVXVXZXZXZXZXVXVXVXVXVXVXVXVXVXZXZX",
"pXxXxXxXxXmXxXaXmXaXBXxXxXNXaXmXmXmXBXBXBXBXBXBXMXMXMXMXMXMXMXMXDXMXmXvXbXxXmXBXBXBXNXvXvXvXmX,X2.s j ^ 0.S.D.m.`.].+X+X#X%X'.'.1Xc.<XF.c.c.c.N.n.N.@X@X[.v.v.`.#XN.z.6.~ K Y :.V.l.s.f.S.{ c 4 # # # . . # . . O . O > d Y 6.<XcXBXvXsXcXrX6XV./ M 8 : # .                                   O   * > d q.5XsXDXMXMXBXSXBXMXVXVXMXmXBXBXMXMXVXZXMXVXVXVXMXMXBXBXMXBXMXNXmXvX#X>.f 5 > w e , # . o O . .     $ m S.S.d % O     . . 5 T y.l.4.x.d.a.p.s.f.a.k.c.'.%Xn.x.>.m , > & # q -.@XFXvXxXxXmXmXBXBXxXNXNXpXpXaXvXvXvXxXaXaXaXaXpXpXpXpXpXpXpXzXsX*X*X,XcXsXvXmXmXvXxXxXxXxXvXvXvXvXxXxXmXmXbXxXvX=XA.K <.m.FXaXiXBXNXxXvX<Xh 3 G C.rXSXZXVXZXMXMXMXVXVXZXZXVXVXZXZXVXVXVXVXZXZXVXVXZXVXZXZXVXVXZXZXZXZXZXVXVXVXVXVXVXVXZXVXZXZX",
"pXpXpXaXaXaXaXmXmXaXmXaXaXNXaXxXmXBXBXBXBXBXBXmXMXMXMXMXMXMXmXMXDXMXaXvXvXmXBXMXBXmXvXvXvXmXMXsX1.K s h 0.u.a.6X].`.].#Xc.m.@Xv.{.h.h.N.<Xp.#.M.k.k.c.n.c.c.c.v.#Xv.v.<XV.W m B W y.b.h.N.G.,.B 6 & % . . # + .   . & > : 1 m / R.wXzXzXaXNXvXqXD.q.L 9 : # .                                     @ % 5 Y V.9XSXMXVXBXBXBXMXVXVXMXBXMXMXVXVXVXZXVXVXZXZXMXMXMXMXZXMXMXmXmXNX1X7.m 5 > w e , # O o O O O     4 T A.<.d O +     # # 6 U y.x.4.x.z.c.g.s.s.a.s.v.v.%Xn.x.:.f , 5 & % 6 W M.wXvXaXiXmXgXmXmXaXxXxXuXpXpXaXxXaXaXaXaXpXpXpXpXpXpXpX:X:XsX:X].].;X:X:XvXmXmXxXxXvXvXvXvXvXvXvXxXxXxXgXMXiXmXrX).K 4.3X,XaXmXDXMXvXvX[.M 2 j 2.8XSXVXVXZXMXBXMXVXVXZXZXVXZXZXZXVXVXVXVXZXVXVXVXZXZXZXZXZXZXZXZXZXZXZXZXVXVXZXZXZXZXZXZXZXZX",
"vXpXpXaXxXaXmXSXNXmXMXmXmXBXxXNXBXBXBXBXBXmXmXmXMXMXBXBXBXmXmXmXDXmXaXxXBXBXMXMXBXmXbXvXNXNXMXaX<XI f a m { j.M.%X>X%Xm.m.n.v.'.}.h.{.[.s.M.k.&.M.z.n.n.m.v.`.].v.}.}.h.k.y.{ v B :.z.m.[.B.z./.N y 5 & % * + . % # # # $ : > 8 -.^.yXrXsXgXhXdXlX1X6.J 9 > $ O .                                   . 4 9 Q <X,XmXMXBXBXBXMXZXZXVXMXVXVXVXVXVXVXZXZXZXZXZXMXMXBXZXZXMXmXmXNX9Xl.m 8 > w y , . . . . O . X . q _ G.+.q . @   . # 4 q K l.k.p.z.F.k.c.c.c.k.M.[.v.%Xn.l.{ d 5 w 7 % 4 M 4.;XxXzXxXNXmXBXmXxXNXvXpXpXaXaXxXxXxXxXxXpXpXaXxXxXvXsXpXpXzX*Xv.v.+X,X:XaXaXaXaXaXaXxXxXaXaXxXvXxXaXiXiXgXmXSX#Xu.J d.`.sXSXMXmXaXxXHX8X! f s Q {.vXVXIXZXZXBXMXVXVXZXZXZXZXZXZXVXVXVXVXZXVXVXVXZXZXZXZXZXZXZXZXZXZXZXVXVXVXZXZXZXZXZXZXZXZX",
"pXaXxXxXxXxXNXNXmXBXBXmXmXmXmXNXmXmXmXmXmXmXmXxXBXmXBXBXmXmXBXmXBXBXmXxXmXmXBXBXmXBXNXmXmXBXmXaX,Xz.S , 9 K.7.F.v.%XR.k.R.n.v.=X`.v.v.N.c.N.M.p.p.N.3X@Xv.;XwX*X&X*X}.'.R.Z.u.{ B B ! y.Q.M.g.b.3.i.U c 6 % .   % # $ $ # . . & , h / Z.qXvXgXiXiXcXtXZ.! v 6 & # .         . . . . .             . o % > d #.6XdXmXMXMXMXZXZXMXVXMXVXMXVXVXVXVXVXVXVXVXZXMXBXBXMXMXZXZXDXNX:XF.K 8 & r w 4 O   . % O     % v 8.).H > .   O O # , T 9.1.p.c.b.s.M.p.p.k.k.s.c.<Xk.Z.5.K 9 q y w & > f +.}.vXwX;XpXiXxXmXxXxXxXxXuXaXvXNXxXxXxXNXxXvXNXmXxXxXxXvXxXvXwXn.p.3X;XsXvXmXmXNXNXNXxXaXaXxXxXxXxXaXaXaXmXmXdX1Xu.K k.-XmXmXmXxXxXmXmXrXV.j 2 j 5XfXMXMXIXIXMXVXVXVXVXZXVXVXVXVXZXZXZXZXZXZXZXZXVXVXVXVXZXVXVXVXVXVXVXVXVXVXZXZXVXVXVXVXVXZX",
"aXxXxXxXxXmXBXNXBXBXmXmXBXmXmXmXBXmXmXBXBXBXmXmXBXmXBXNXmXBXBXmXBXBXmXmXmXmXBXBXmXBXMXBXBXBXBXxXpX6Xm q 3 K.w.B.m.c.R.R.x.R.=X}.h.#Xv.g.@XN.s.M.1.s.%X8X>X;X;X|.sXsX].'.R.M.E.q.Y B J ~ y.D.B.v.5Xp.;.8.v > 4 % % # # # # . . O # > d L 2.B.-XvXMXmXsX8X!.u.U 1 > & % % @       . . . .     X   . . o O # , B 2.1XsXmXMXMXZXIXZXVXMXVXMXVXVXVXVXVXVXVXVXZXMXBXBXMXMXZXZXZXBXsX<XW 9 & 7 5 & O   . # .   o = B e.T.M > o   O % & D R ;.f.N.B.g.f.1.l.z.s.s.c.n.c.C.A.q.J d n D F > > 9 W m.;X;X;XpXxXvXvXxXaXxXvXaXaXxXxXxXxXmXmXpXaXmXmXaXpXxXxXmXxXwXn.<.W.=XsXpXaXaXxXxXxXaXpXpXaXxXaXaXaXiXaXaXaXpX1Xi.J c.sXmXMXmXbXbXmXmXcXD.J 9 h XXfXNXBXIXIXZXVXMXMXVXZXVXVXVXVXZXZXZXVXZXZXZXZXVXVXVXVXZXVXVXVXVXVXVXVXZXVXZXZXVXVXVXVXVXVX",
"aXxXxXxXxXmXmXNXBXBXmXmXBXBXmXmXmXmXmXBXBXBXBXBXBXmXBXMXmXBXMXBXBXBXmXmXmXmXBXBXmXBXBXBXBXMXBXmXxX0XK N 3 ) j.b.c.%XR.R.@X%X].].`.`.'.m.v.n.N.N.c.s.v.$X>X=X;X;X:X:X].}.`.n.M.l.r.-.K H +.d.F.<Xm.0XM.6.q.Y q 5 & .   X o o   . . . $ , d E r.<XrXvXNXvXFX8Xn.7.h 5 & % @ X       . . . .   X X       o . # 8 B V.<XcXNXMXZXZXZXZXVXVXVXMXMXZXZXZXVXVXVXZXMXMXMXMXMXZXZXZXBXvX8XQ d 5 7 8 , = * # # O @ o = J P.P.h & O   O % > S ^ ;.p.v.[.c.a.1.a.M.M.m.v.m.n.s.C.9.B m S | ) 8 > 8 E b.+X;X:XxXvXvXaXaXaXxXNXSXNXmXmXmXBXBXNXxXaXmXmXxXxXxXxXxXpXwXR.1.m.=XsXpXaXxXxXxXxXaXaXxXxXmXxXxXaXaXaXaXaXuX<X:.J c.sXgXMXmXvXmXNXmXcX!.W 9 s H.fXSXZXIXIXZXVXMXMXVXZXVXVXVXVXZXZXVXVXZXZXZXZXVXVXZXZXVXVXVXVXVXVXZXZXZXZXZXZXZXZXVXVXVXVX",
"aXvXxXxXxXxXmXBXBXBXmXmXBXmXmXxXmXmXmXBXBXBXBXBXBXmXBXNXmXBXMXBXBXBXBXmXmXBXBXBXmXBXBXBXMXMXBXmXvX>X4.J 2 j e.f.v.>XR.R.tX>X`.].=X`.'.%Xc.v.1X[.%Xc.c.%X$X#X>X>X,XcX:X,X;X].%Xn.!.Z.3.Q I #.l.!.n.3X3X.Xf.6.8.d 5 %       o O O . . . O & 0 N / !.1X*XsXaXdXsX$X2.B 8 & % o X       . . .             o . O > 9 ! 6.1XvXMXVXZXZXZXMXMXMXMXMXMXMXZXZXVXVXZXZXMXMXMXMXVXZXZXBXvX8X#.h , 5 8 , & # # # . o o = Y /.} a & .   . # , B :.6.a.s.h.c.s.4.a.z.N.[.m.m.[.s.d.} N v E 8._ e > , B d.%X>X:XxXaXaXaXaXaXxXmXSXNXmXmXmXBXBXmXvXmXBXNXNXvXmXmXmXpXwX@Xa.c.=XsXpXaXxXxXxXxXxXxXxXmXNXNXxXxXaXaXaXvXsX1X{ B k.sXmXMXmXvXmXmXBXcX5X@.9 s p.9XSXZXIXIXBXMXMXMXVXZXZXVXZXZXZXZXVXVXVXVXZXVXVXVXZXZXZXVXVXVXZXZXZXZXZXZXZXZXZXVXVXVXVXVX",
"aXaXmXmXmXmXmXBXmXBXBXNXmXbXbXmXmXmXmXmXBXBXmXmXBXmXBXBXmXmXNXmXBXMXBXBXmXBXMXMXBXBXBXMXMXMXBXBXNX:X5X+.l a ( j.<X%X$X$X+X:X-X}.&X>X'.v.#X%X`.>X#Xv.v.[.'.%X%X`.+X,X:XsX:X|.&X].%XN.F.z.<.+.+.4.N.v.`.{.v.s.j.8.f 6 % o   O % % # # O O o O 4 9 W 6.<XkXvXNXiX*X5Xy.W v 5 % o @                       . . O % > c E z.9XNXVXVXZXZXMXMXMXZXMXZXMXMXZXZXZXZXZXZXMXBXBXZXZXZXBXxX>XC.K 9 e g q 5 # $ # . O O 6 $.).J , & O . . # 8 } 5.l.F.B.s.s.F.1.z.M.c.m.#X#Xc.B.7.S 0 f W q.0.8 & $ q @.N.>X:XpXaXaXaXaXxXxXmXaXmXmXmXxXaXmXaXaXaXgXgXxXxXxXaXmXpXwX$Xn.c.;XsXpXpXxXxXaXaXxXxXaXxXxXxXxXaXaXaXaXvXsX0X! G c.-XmXMXmXbXxXmXBXvXyX5.a l #.7XNXZXIXIXBXNXMXMXZXZXZXZXZXZXVXVXVXVXVXVXVXVXZXZXZXZXZXZXVXVXVXVXZXZXZXZXVXVXZXZXZXZXVXVX",
"aXaXxXmXmXmXmXmXmXBXBXBXbXxXbXmXmXmXmXmXmXmXmXmXBXmXBXBXmXmXBXmXMXMXBXBXBXBXMXMXBXBXBXMXMXBXMXBXmXcX9Xz.k f j q.M.#X%X%X*X:X-X|.=X;X+X].&X&X+X;X>X+X'.v.c.v.[.m.`.+X].&X&X|. X|.&X{.@XW.z.<.+.#.4.R.c.v.#Xv.s.j.^ T b 6 & & % # # # . .     O & < G w.F.7X-XdXdX9X3XD.;.M 8 & O               .     . . . . . O 4 v -.F.cXNXVXVXMXBXMXMXZXZXZXZXZXMXMXZXZXZXZXMXBXBXZXZXZXBXmX:X2X~ f b A Z y 5 , $ O O O 0 ;.A.m > & # O O # q 0.6.k.n.`.v.c.M.a.k.k.c.v.%X[.c.b.#.v 0 M ~ 2.*.8 & # , J l.1X:XpXpXaXxXvXNXNXmXmXmXBXmXmXmXmXmXaXiXgXgXxXxXxXaXxXxXwX>X#Xh.|.sXpXaXxXxXxXxXxXvXaXxXmXmXxXxXxXxXaXvXsX0X! J M.sXMXVXmXbXxXmXMXvXtXV.f a I 6XvXMXIXIXBXNXNXMXZXZXZXZXZXZXVXVXVXVXVXVXVXVXZXZXZXZXZXZXVXVXVXVXZXZXZXZXZXVXZXZXZXZXVXVX",
"iXaXmXmXmXmXmXmXBXBXBXBXmXmXbXbXxXmXmXmXmXBXmXmXBXmXBXBXmXBXBXBXMXMXMXMXMXMXMXMXMXBXBXMXMXBXMXMXmXNXdX{.Q j s / 1.6X%X`.:X:X}.-X,X}.;XwX].&X,X&XkX=X#Xv.s.s.c.N.%X#X+X,X*X XuX*X-X&X%XN.c.k.4.4.<.4.k.N.s.B.2X1.d.q.{ T v q 5 $ $ # # # . . . # & , 9 H 2.!.5X>X:XcX9X[.4.W f , % @ X       . . . . # # # # .   % 6 B ,.@XsXvXNXBXMXMXMXZXZXZXZXZXZXMXMXMXZXVXVXBXMXZXZXMXBXmXsX<XQ a 8 e e w 7 u 4 * O % c 2.6.d & % # # # & n -.k.c.g.v.%XR.k.M.a.s.[.%Xv.c.N.d.W c v { q.%.P 8 & # > f / M.>XsXpXaXxXvXvXmXxXNXBXmXmXBXBXBXmXmXgXmXmXmXmXmXxXaXNX:X,XrXh.].sXzXxXxXxXvXNXNXNXxXmXNXNXNXNXNXNXxXvXpX0XY J M.sXmXMXmXbXmXmXNXNXrXQ.M s z 2XcXZXIXZXBXvXmXNXVXZXVXVXZXZXZXZXZXZXZXZXVXVXVXZXVXVXZXZXZXZXVXVXVXZXZXZXVXVXVXVXZXZXVXVX",
"aXaXmXmXmXmXmXBXBXBXBXBXBXmXbXxXaXaXaXmXBXBXBXBXBXmXBXMXmXBXMXBXMXMXMXMXMXMXMXMXMXmXBXMXMXBXMXMXmXNXdX=XS.k v J ,.k.'.+X].|.=X].].;X;X;XsX*X&XsX&X].=X#Xh.p.p.s.@X#X%X>X-X|.|.|.}.&X=X[.c.c.b.x.l.t.;.4.z.p.b.6Xp.f.d.>.W J v 0 > & $ $ # # . . . # > , f W y.4X9XcXsX,X8XW.@.f 8 & O       . # . # # # # # .   % % 8 U l.6X,XvXmXBXMXMXMXZXZXMXZXZXZXMXMXMXVXVXMXVXZXZXMXBXBXvXtX#.a , , , 5 4 t > * % = N 6.w.q % % . # # > S 5.k.m.[.`.v.n.N.k.c.m.v.`.v.m.z.S.W c S u.S.q._ 8 % # # 5 M 4.3X,XsXpXpXaXxXxXaXMXmXiXiXmXBXmXgXmXgXmXmXBXBXmXxXaXSXpX:XGXh.`.,XsXpXpXpXxXvXxXaXaXxXmXmXxXxXxXmXSXNX*X5XY J M.-XmXMXmXBXNXNXBXvXFX4XH k z (.cXZXZXZXBXvXNXNXVXZXVXVXZXZXZXZXZXZXZXZXZXVXVXVXVXVXZXZXZXZXVXVXZXZXZXZXVXVXVXVXVXVXZXZX",
"NXNXNXxXgXmXmXmXBXBXBXmXmXBXmXmXBXBXBXBXBXBXBXBXBXmXBXMXmXBXBXBXMXMXMXMXMXMXMXmXmXmXmXBXBXmXmXmXaXmXaX,XD.K 9 v 0.r.c.].=X%X].,X;X;X,X:X&X*X:X|.*X&X&X#Xm.s.p.s.c.v.%X#X'.].].`.*X].}.=X'.v.$Xc.x.x.3.;.;.<.l.2X2Xc.g.s.6.y.9.B 8 & $ > > # . .     . & 5 d B ! ~.8X9X,XsX-X{.C.Q f , & % . . . # . . . . . . . O % 4 q J 7.<XrXvXBXBXZXVXMXVXIXZXZXZXBXBXMXMXMXVXVXZXZXZXBXBXvX7X7.f > > > = 7 & & . = 5 B (.2.0 O . . . # 8 J E.n.v.'.#Xv.n.R.p.n.%Xv.h.v.c.3.i.m f Y 5.w.! v 7 . # % $ d ,.M.>XsXsXpXpXpXxXmXmXmXmXBXBXBXBXBXNXmXmXmXmXmXmXNXxXxXvXcX:X&X].&X:XvXxXpXxXvXxXNXNXaXNXmXxXNXaXxXxXpXsX5XY M N.-XNXVXBXBXNXNXMXmX,XKXP j K Y.,XZXZXZXNXvXgXmXVXZXVXVXZXZXZXZXZXZXVXVXVXZXZXZXVXVXZXZXZXZXVXVXVXVXZXZXVXVXVXZXZXZXZXZX",
"xXvXxXaXaXmXmXmXBXMXMXBXBXBXBXmXmXmXmXmXmXmXmXmXmXmXBXBXmXmXBXmXZXVXMXMXMXMXMXMXmXBXBXBXBXmXmXmXmXmXiXsX<X#.d 8 S P.F.'.0X#Xv.rX>X;X;X:X*X:X:X|.&X&X;X=X%Xc.s.s.c.c.n.c.c.[.#X`.+X].+X,X>X+X>X'.c.M.x.;.@.Q #.l.F.N.[.B.b.D.Z.,.m q , , > # # + X   o O & 4 8 v Y 3.W.3X9XsX-X7X2X6.K f 8 > # # .           . O O O O & q Y w.2XwXxXmXMXZXZXZXZXZXZXZXBXBXBXMXMXVXVXZXZXZXBXBXvX9Xl.m > & % % % # # . 4 8 Y (.#.5 O O # % > d ^ l.m.[.v.c.m.N.k.R.m.v.'.v.s.k.S.B v U ~ <.S.R 1 & . # % # 8 ^ C.#X:XpX:X*XpXaXaXmXmXmXmXmXmXmXmXmXmXmXmXmXmXmXbXvXxXvXvXsX&X].+X:XcXzXpXxXxXaXxXmXaXNXxXxXNXaXxXNXvXGX0XY B F.-XmXMXBXNXmXmXMXmXcXtX#.z H U.,XDXZXZXNXmXmXmXVXZXZXVXZXZXZXZXVXVXVXVXZXZXZXZXVXVXZXZXZXZXVXVXVXVXZXZXVXVXZXZXZXZXZXZX",
"xXvXmXxXmXNXMXmXMXMXMXBXBXBXDXBXBXBXBXBXBXBXBXBXBXmXBXMXmXBXMXBXMXMXMXMXMXMXMXBXmXmXmXBXBXmXmXmXmXmXiXsX8Xd.m 8 q B d.M.p.c.#Xv.>X+X&X:X:X:X*X&X*X*X;X;X#X[.m.c.c.c.c.s.a.n.R.m.'.].].*X:X&X*X].`.#X@XM.4.@.Q I <.x.W.N.N.N.N.F.u.0.) m q > # .     o O O % % 4 8 N ! y.!.qXkXfXfX-X.X6.K a > # . X X X X     O o     . & 9 Y V.3X,XsXxXVXZXZXZXZXZXZXBXBXBXMXMXVXVXZXZXZXBXMXNX,Xz.B > % * O % # # O 4 d { (.Q 5 o O # % > v ~ D.[.[.'.m.c.c.F.n.[.}.}.[.M.r.:.f d ! 6.V.5.N > # . . # # > N u.$X:X:X:XpXpXaXpXmXmXmXmXBXBXBXBXmXgXxXmXmXmXxXxXxXxXvXmXaX*X].].;XcXzXpXxXxXaXxXaXiXmXaXaXmXpXxXxXxXvX1XJ M W.-XgXgXmXbXmXmXMXmXvXrXC.x H /.9XNXMXZXBXmXmXmXZXZXZXVXVXZXVXVXVXVXVXVXVXVXZXZXZXVXVXVXZXZXVXVXVXVXVXVXVXVXVXZXZXZXZXZX",
"xXvXNXmXmXNXNXmXMXMXMXMXMXZXZXBXBXBXBXBXBXBXBXBXNXmXBXMXBXMXDXMXBXMXBXBXBXBXmXmXmXmXmXmXmXmXmXmXmXNXNXdX-Xk.Y q q S ,.d.D.6X3X>X>X+X+X,X:X*X*X&X:X,X*X].+X$X#X%Xc.c.n.b.a.a.n.m.%X>X+X*XsX*XpXsX*X:X#X%XW.x.+.H P <.l.M.<X%X}.%XM.S.q.( C b 6 # # . . . O O O % = 5 q N / C.1XlXOXiXlX1XV./ m 8 & .   o o X   o       O % > f W Z.1X9XsXxXZXZXZXZXZXZXBXBXBXMXVXVXVXZXZXBXBXMXBXsXb.B > % - * * # % # 5 B u./.W 5 O . O % 5 m -.!.m.v.%X[.c.k.W.c.[.#X`.m.D.5.J v v ;.C.C.>.c 4 . O   . & $ d 0.6XwXwX:XsXsXaXpXmXmXmXmXBXBXBXBXgXaXaXxXmXmXxXaXpXzXxXmXgXuX].`.&XcXcXzXxXxXaXxXaXiXmXaXaXmXpXxXpXpXsX<XB M <XsXgXMXmXbXmXmXmXmXNXwX6XI G /.tXvXMXZXVXMXhXMXZXZXZXVXZXZXVXVXVXVXVXVXVXVXZXZXZXVXVXVXZXZXZXVXZXZXVXVXVXVXVXZXZXZXZXZX",
"pXxXvXxXxXmXmXgXMXMXMXMXMXZXZXMXmXmXmXmXmXmXmXmXBXmXmXBXmXBXMXBXBXBXmXmXBXBXmXmXmXmXmXmXmXbXbXxXmXBXMXmXuXN.~ d , q J #.z.n.'.+X+X`.+X>X&X+X&X&X:X:X&X].+X+X$X'.[.c.c.n.k.k.n.R.%X>X&X:XzX*X:XpXvXsX|.`.[.M.4.#.I ;.4.x.6X#X].&X}.m.k.4.>.^ N 8 5 & # O o o     o % & 4 9 B 5.5X9XsXuX-X7X4XV.^ v 8 & % % % O O o     O % $ , f / V.4X8XsXmXZXZXZXZXMXMXMXMXVXVXMXVXZXZXBXBXMXMXvX[.Y , % - - - % % % 8 Y U.U.J > O . O % 0 E y.z.m.v.g.s.c.k.s.N.B.v.v.c.d.:.R v R w.a.6.9.N > . .   # 7 , 8 ^ W.,X,X:X:XpXpXpXaXaXmXmXmXxXxXxXgXaXxXxXmXmXxXzXsXsXxXgXgXuX'.m.+XzXcXzXxXxXaXmXmXaXmXaXaXNXaXxXpXpXsX<XJ M <XsXgXMXBXmXBXmXmXmXSX,XqX+.z U.0XzXBXZXMXhXhXMXMXMXZXVXVXVXVXZXZXZXZXZXZXZXVXVXVXZXVXVXVXVXZXZXZXZXVXVXZXZXVXVXVXVXZXZX",
"pXaXvXxXxXmXmXmXMXMXZXMXMXZXZXMXmXmXmXmXmXmXmXmXBXmXBXBXmXBXMXBXBXMXBXBXBXBXBXmXmXmXmXmXmXbXbXxXBXmXMXBXvX7X<.f 8 : N i.a.c.%X%X'.v.'.%X'.].+X&X&X&X&X&X&X&X+X`.8Xv.s.c.M.M.R.%X'.&X*XsXpX*X:X&X:XsX:X&X].'.n.z.4.3.4.k.R.+X+X;X=X#X'.n.M.V.,.Y d 5 $ % O           O O & 5 m ~ D.1XkXsX9X9X8X!.w.( M a 8 > & O +     . O # # , f W V.2XrXvXBXZXZXZXMXMXMXVXVXVXMXMXZXZXBXBXMXMXNX#X! 8 4 r w 7 % O % 8 / U.u.M > # . . % 0 ( V.M.c.c.c.c.c.k.s.h.B.}.v.b.y.{ B m ! 6.f.l.9.v > .     $ e 8 , m M.;XeX:X:XpXzXxXaXxXmXxXxXbXxXxXxXaXxXxXxXgXxXzX:XzXaXgXmXdX#Xm.'.:XzXsXxXaXaXxXmXaXNXxXxXvXpXxXvXpXsX6XJ m F.-XmXVXBXBXBXmXmXmXvX:XqX=.z q.3XzXBXMXMXhXhXMXMXMXZXVXVXVXVXVXZXZXZXZXZXZXVXVXVXZXVXVXVXVXZXZXZXZXVXVXZXZXVXVXVXVXZXVX",
"*XpXvXvXxXmXBXBXMXMXZXMXMXZXZXMXBXBXBXBXBXBXBXBXBXmXBXBXmXBXMXBXBXBXBXBXBXBXBXmXxXxXbXbXbXvXvXxXMXmXMXVXvX9XC.W , 0 9 J G.v.s.3X'.v.`.}.`.].;X+X&X&X;X:X:X;X+X+X#Xv.c.g.c.[.#X'.,X:XpXnXzX:XcX;X].sXcX,X,X=X%X[.@Xc.k.n.n.m.%X$Xm.v.v.}.].[.F.V.Y v 6 & & # # # $ .     O % & 5 B 3.W.tXsXuXaXvXqXF.f.%.P f , # % O . . . . . # , f W l.3XcXNXMXZXZXMXMXVXVXVXMXMXMXZXZXBXBXZXVXmX=X@.9 4 7 w 7 O . & q :./.0.f > # O . % 8 W d.F.c.c.@XW.k.k.M.s.`.{.[.z.q.Y f J ~ d.z.V.:.f 1 .     $ g a , d x.+XwXwXwXzXxXvXxXxXmXmXmXmXNXmXmXaXxXxXaXaXxXxX:XsXaXgXhXaX#Xm.`.:XzXsXxXxXaXmXBXaXNXxXxXxXpXxXvXpX:X3XY m M.*XmXVXBXBXBXBXMXmXvXsX-XB.z @.<XcXbXMXVXMXhXMXMXMXZXZXVXVXZXZXZXZXZXZXVXVXVXVXZXZXZXZXVXZXZXZXVXVXVXVXZXZXZXZXVXVXVXVX",
"|.*XpXxXxXxXBXBXMXMXZXMXMXZXMXMXmXmXmXmXmXmXmXmXBXaXmXBXaXmXBXmXBXBXmXmXmXmXmXmXxXmXbXmXvXxXxXxXBXmXVXZXiXsX5XU.v 5 > v w.N.m.%X%X[.'.`.'.=X>X+X,X;X;X:X:X;X;X>Xv.].$Xv.g.m.%Xv.rX*X:XcX&X+XGX:X*X,X-X&X;X,X+X].9X'.m.%Xc.c.%X@XR.@X+X&X|.].}.M.y./ N q 5 > $ # $ # . . o   O = 6 v / Z.8XGXhXgXdXsXkX7Xb.+.m q & % % # # O . . 4 , d Q D.8XvXNXMXMXMXMXMXMXMXMXMXMXZXZXBXBXZXVXNX9X>.d 4 7 > # O . & v w.(.8.d $ # % % & q ~ l.a.c.M.c.k.c.c.c.[.h.h..Xd.P f m W y.H.1.2.{ f > # .   # 9 a 5 d 3.v.>X,X:X:XpXpXaXgXxXxXmXxXxXxXmXaXxXaXaXaXxXxX:X:XiXiXgXdX#Xv.v.;XzXzXvXxXxXNXmXxXBXxXaXvXpXpXSXpXuX0X! J F.sXgXMXBXBXBXMXMXMXmXvXfX1Xz P N.FXvXMXVXMXMXVXMXMXZXZXVXVXZXZXZXZXZXZXZXVXVXVXZXZXZXZXZXZXZXVXVXVXVXVXZXZXZXZXZXVXVXVX",
"cX:X&X*XxXNXNXmXmXMXMXMXMXMXMXMXmXmXmXmXBXBXBXBXBXmXBXBXmXmXBXmXBXMXBXBXMXBXBXBXmXmXmXmXmXmXmXmXNXmXMXMXMXdX=XF.U 5 6 6 B y.M.'.v.#X'.'.#X+X].*X:X:X:X:X&X+X;X+X,X+X].#X'.g.c.#Xg.%X%X}.;X&X].].&X:X:X*X].}.'.'.v.[.v.v.@X@Xv.c.m.@X$X+X|.&X].`.N.F.5.W B d 6 y > $ & % o     o . & 8 J ;.z.{.9XcXvXvXsX,X3Xl.! 9 > O . O O # #   % , f ~ D.9XsXmXmXmXBXBXmXNXSXVXZXZXMXMXMXZXVXvX1X;.f 0 4 # % . # > B S.(./ d 4 . % 4 5 S u.d.a.F.W.s.1.s.n.[.v.[.N.D.w.W h B y.k.c.F.q.B 8 & # . # $ 9 ) e 8 K a.-XfX:XwX*X:XaXmXmXmXBXmXvXmXaXgXaXiXxXNXaX*XvXpXxXdX|.`.[.1Xc.#XsXvXMXMXMXxXxXpXxXaXxXzX:X:XpXxXsX1XY B 6XdXgXMXBXBXMXMXMXmXmXDXaX7XK H b.sXdXBXZXZXBXBXVXVXZXZXZXZXZXVXVXZXZXZXZXZXZXZXZXZXVXVXZXZXZXZXZXZXVXVXVXVXVXVXZXZXZXZX",
"cXsX*X*XpXvXNXBXmXmXMXMXMXMXMXMXmXmXmXmXBXBXBXBXmXaXmXBXmXmXBXmXMXBXBXBXMXMXBXBXmXmXmXBXBXBXBXmXmXmXmXMXMXgXdX1X-.c 4 4 y } z.`.}.#X#X#X$X+X&X:X:X*X:X:X&X;X=X=X&X].].=X#Xv.c.m.3Xs.v.9X].].-X&X*X:X*X&X+X+X+X'.%X$X%Xm.m.'.v.m.s.c.[.'.].].|.|.].h.F.Q.-.Y U d c c 0 $ . .     X . & 8 m W >.z.9XcXpXpXvXGX8Xx.W m 6 & # . # . @ . # , h ~ z.1XkXvXmXmXmXNXSXDXZXZXMXMXMXZXVXMXvX3X<.m 0 4 % O O & 8 Y G.(./ 9 % o = w 0 B ,.<.b.z.z.M.k.s.v.#Xv.c.k.V.5.W J / Z.k.g.D.i.N > # # . # > 9 [ A q B <.=XfX,XwX;XzXxXBXBXBXmXmXaXaXgXgXgXaXxXvXxXpXvXxXvXvX>Xv.v.<Xs.'.,XNXMXgXmXmXzXxXbXxXaXpX:X:XsXsXuX#XW M b.|.gXMXmXMXMXMXmXBXBXZXmX8XQ G p.-XdXNXZXZXBXNXMXMXVXZXZXZXVXVXVXVXZXZXZXZXZXZXZXZXVXVXZXVXZXZXZXZXZXZXVXVXVXVXZXZXZXZX",
"cXzXpXpXpXpXmXNXmXmXmXMXBXMXMXBXBXBXBXmXBXmXmXmXBXmXmXBXmXmXBXmXMXMXBXBXMXMXBXBXmXmXBXBXBXBXBXBXBXmXmXmXNXmXdX9X4.U 4 = 0 B 7.h.=X|.=X#X[.'.+X].:X:X:X:X&X&X;X|.].].].#X>X%Xm.c.m.[.v.v.`.#X=X,X-X*X&X&X;X>X+X'.v.#X$X#X#X#X'.m.k.p.p.c.%X$X#X].`.[.<X2X!.V.3.:.J ) ) n 5 & # O     . # : 1 v Y r.W.tXrX,XsXkX8XW.6.! f , $ # # O   . # > 9 Y w.W.9XvXBXMXZXZXZXZXZXBXBXMXVXVXMXvX8X7.B q 4 % O O & 9 ^ (.(.( 8 % . 4 8 9 J 5.l.s.k.k.a.s.c.v.v.[.c.x.V.@.K ! q.<.W.5Xl.Y c 6 # # . % & 9 .. .v m @.#XdX,XcX:XzXBXBXBXBXBXmXaXaXgXiXaXaXxXaXaXxXiXxXdXvX,Xv.g.@Xp.v.=XvXmXiXgXNXpXxXbXxXpXpXpXsXpXpXuX$X~ J b.|.gXMXBXBXVXMXmXBXmXMXNXqX6.H &.1XsXmXZXZXMXMXVXMXVXZXVXVXVXVXVXVXVXVXZXZXZXZXVXVXVXVXVXVXVXVXZXZXZXZXZXZXVXZXZXZXVXVX",
"sXcXzXpXpXpXaXNXmXmXmXmXBXBXBXBXBXBXBXBXBXmXmXmXBXmXBXBXmXBXNXmXMXMXBXBXBXMXBXBXBXBXBXBXBXBXBXBXBXBXmXvXNXmXhXsXN.-.0 4 6 d @.s.=X|.+X%Xm.m.+X].:X:X*X;X+X&X&X].].].+X].%X#X%X'.g.1Xm.s.v.'.'.=X=X;X+X+X+X>X+X'.`.+X#X%X$X>X%X'.N.a.4.k.@X<X[.m.v.[.v.v.1X[.c.D.,./ ^ T d > # #     . . O # > 8 B ;.E.JX3X=XsXdXkXqXF.>.J q 4 & # # . # # $ 8 B ,.M.rXNXMXZXZXVXZXZXMXBXMXMXVXMXvX8X6.J q > # O O & f :.JXG.E 8 % O 4 8 d E y.D.s.n.M.k.c.N.'.v.N.k.Z.w.P H ~ q.!.k.a.y.} q & # O   . & 1 ..K.m f P N.,X,XsX:XzXmXmXvXvXmXmXmXgXgXiXaXmXvXaXaXNXpXxXpXuX,Xv.g.@Xs.g.=XsXvXaXiXNXxXxXxXxXpXpXpXpXpXpXsX1X~ K z.,XdXmXBXBXVXVXmXMXmXMXSX9XF.I +.W.,XmXBXBXMXZXVXMXVXZXVXVXVXVXVXVXVXVXZXZXZXZXZXVXVXVXVXVXVXVXVXVXZXZXZXZXVXVXZXZXVXVX",
":XzXvXzXpXuXpXxXmXmXmXmXmXmXmXmXBXBXBXBXBXmXmXmXBXmXBXBXmXBXBXmXMXMXBXBXmXmXBXBXBXBXBXBXBXBXBXMXVXMXvXxXvXmXhXgX9XZ.N 0 6 9 / C.|.|.{.#Xm.%XrX,X&X+X&X&X].&X-X*X;X;X+X].'.%X#X%X#Xg.c.@Xc.c.N.n.%X#X#X%X%X+X%X].rX>X}.v.'.=X+X%XN.R.W.<XN.c.c.R.[.v.[.=X].&X&Xh.2X3.W J m a , & .   o o o O O & 8 f J :.A.5XkXdXiXjXdX8XC.{ c > : $ # O . O & 1 M #.N.wXvXZXZXMXZXMXBXBXBXMXZXBXvX9Xz.W d , & # # > m 5.JXG.U 5 O % 6 d B { r.a.c.g.k.n.n.c.v.[.s.a.y.~ j H 2.d.<Xc.4.9.S 5 # % o   o & 1 ..P.J f J z.8X-XsXpXaXaXaXpXpXaXaXaXaXNXgXmXNXNXxXmXDXxXNXpXuX,X}.h.3Xv.g.#X>XcXvXiXNXmXxXpXpXsXaXaXaXsXuXdX#X~ M 1.7XdXmXmXBXMXVXmXMXVXMXnX,X0X%.I V.9XvXmXmXMXZXVXVXVXVXVXVXZXZXVXVXVXVXZXZXZXZXVXVXVXVXVXVXVXVXVXVXVXVXVXZXZXZXZXZXVXVX",
"pXsXxXxXpXpXpXaXmXmXmXmXmXbXbXmXmXBXBXBXBXmXmXmXBXmXBXBXmXmXBXmXMXMXBXBXmXmXBXBXBXBXBXBXBXBXBXMXVXMXvXvXxXmXhXhXHX<X! d 6 8 J q.[.|.=X#X%X#X>X,X&X+X&X&X].].&X+X&X;X&X].].].'.'.$Xv.s.c.n.N.b.a.m.[.%X%X'.].+X].,X=X}.v.+X,X;X].[.@X3X1Xn.k.k.c.N.[.#X=X=X-X-X].@XF.x.@.K m q > & # .   o O O O & > , v W 5.[.kXjXgXgXsXtX~.-.m 9 < $ . . * - 5 9 G <.m.wXnXBXBXZXZXMXBXMXMXZXMXNXwXW.:.v 8 > # # 5 K V.JXV.B 5 O % 5 a U ,.r.k.c.v.c.m.c.c.v.'.k.l.,.K j Q d.M.=.W.A.Y , % % .   o   * 9 0.U.@.v m d.8X,XsXaXaXmXbXxXzXaXaXaXgXmXaXaXxXxXxXxXNXxXvXpX*X:X|.}.$X@Xc.[.[.=XGXpXmXBXxXpXpXzXxXxXaXpX:XsX#X~ M #.3XsXmXmXBXMXMXmXMXZXMXvX,X,Xs.K @.0XGXSXmXVXVXVXVXVXVXVXVXZXVXVXVXVXVXZXZXZXZXVXVXVXVXVXVXVXVXZXVXVXVXZXZXZXZXZXZXVXVX",
"zXzXzXxXxXxXxXaXmXmXxXxXbXbXxXxXmXmXmXBXBXBXBXBXBXmXBXBXmXmXBXmXMXBXBXBXmXmXBXBXBXBXBXBXBXBXBXMXVXZXBXvXbXmXMXVXNX=X5.B q 9 d Y z.[.#X=X=X;X&X*X;X;X,X;X].`.}.}.;X+X+X;X;X+X}.`.v.3Xc.1.k.M.a.a.k.c.n.m.`.'.].].}.&X&X&X,X,X;X+X&X&X+X].%X[.v.k.s.N.c.g.[.].v.%Xc.@X4XZ.-.J d 1 5 4 & # . O O O % # & > 8 f Q b.9XdXiXiXcXtX6Xr.W f 1 $ & - r u e d G <.R.tXwXnXBXZXZXMXZXZXZXMXBXcX4X5.M 9 5 & & q ~ H.JX6.v 4 % * , a K 5.V.M.[.=X3X[.[.$X=X#XM.V.:.J W 2.z.v.N.p.W m 6 % O .   @   % 8 } Y.w.m v 7.2X=XdXmXaXmXbXcXcXxXxXmXmXgXaXaXiXaXxXxXaXxXxXaXuX*X-X{.}.#Xc.n.s.v.rXuXmXmXaXzXpXzXxXmXmXpX:XsX<X@.G @.4X,XdXmXBXMXMXmXmXZXMXvXsXdX].W K W.9XGXNXMXVXVXVXVXVXZXZXZXZXVXVXVXVXVXZXZXVXVXVXVXVXZXZXZXZXZXZXVXVXVXVXZXZXVXZXVXVX",
"vXxXpXaXvXvXvXxXmXxXxXvXbXxXxXxXmXmXmXBXBXBXBXBXBXmXBXMXmXBXMXBXMXBXBXBXmXmXBXBXBXBXBXBXBXBXBXBXMXMXBXBXmXMXVXZXgX,X!.-.B c 1 f >.z.[.=XdXsX&X:X&X;X,X:X].`.'.[.>X+X].;X>X;X].`.'.v.m.M.1.&.l.Z.p.a.k.c.m.'.%X].].,X,X;X*X*X&X-X|.*XuX*X&X#X#X%Xc.c.N.<Xn.N.N.c.8X%XR.!.E.:.G f f v b 8 > & & # . . . % & , f P z.1XFXcXsXcXwXyXQ.@.M d 8 4 r p ] q d Y y.W.1XwXNXMXMXZXZXZXZXMXNXcX3Xl.J 9 5 & & c >.2XJX2.d & % 7 q h Q 6.l.k.#X}.`.#X#X`.'.3Xk.5.W Y 9.V.g.h.B.1.K q > % % o   ;   O 8 _ H.C.M d :.!.=XdXmXgXaXzXzXzXzXxXmXBXmXmXmXaXxXSXNXaXmXmXNXdXsXcX-Xv.#Xc.n.p.k.9X*XvXmXxXxXzXpXpXmXBXvX:XsX<X;.G W D.>XsXxXmXmXmXmXmXMXMXvXvXmXFX@.J d.@XcXmXMXVXZXVXZXZXZXZXZXZXVXVXVXVXZXZXZXVXVXVXVXVXZXZXZXZXZXZXVXVXVXVXZXZXVXVXVXVX",
"pXvXvXpXaXxXaXaXaXpXpXpXxXbXxXpXNXmXmXBXBXmXmXmXaXmXmXmXBXBXmXmXMXMXBXBXBXBXBXBXmXBXmXmXBXmXmXBXBXBXBXmXBXMXMXMXCX*X8X1.W ) 9 q B @.2X=X XiXsX`.+X>X&X+X;X+Xm.R.'.v.+X}.}.>X].}.#X3Xm.4XW.<.l.l.x.k.1.a.5X@Xv.>X+X].;X:X&X&X;X*XpXpXuX*X&X&X;X9X#Xs.p.p.a.z.Q.k.3X$X@XR.^.(.A.,.Q K ^ | V , $ # . + +   . = 5 q M ;.W.8XwXcXvXcXtXW.l.-.B q 4 = r 7 6 a J <.F.9XpXmXBXMXMXZXZXZXDXxX9Xz.K a 6 & > v 6.5XF.@.d & # w 9 M 9.V.z.R.+X}.'.%X'.'.`.c.D.E.K J >.4.N.h.b.A.R 8 7 - . % o   X O 5 ( H.H.J d J G.#XdXiXaXxXxXzX:XpXpXaXgXmXaXiXiXxXxXbXxXaXaXaXpXpXsX&X`.$X5Xp.M.1.'.cXvXaXaXcXcXzXvXMXgXpXpX&X1Xw.G H V.1XuXaXgXmXMXBXBXZXMXMXmXiXGXQ.Y @.4X,XiXCXMXZXMXVXVXVXZXZXZXVXVXVXVXZXZXVXVXVXVXVXZXZXZXZXZXZXZXZXVXVXVXVXVXVXVXZXZX",
"pXvXvXaXxXvXxXNXxXaXaXaXbXvXNXvXxXaXxXmXBXmXmXBXmXmXmXmXBXBXBXmXMXMXBXMXBXBXBXBXBXMXBXmXMXBXmXNXBXBXBXMXMXMXVXVXMXpXsXc.<.8.v q c Y d.}.dXiX}.,X;X`.&X,X+X$XyXm.%X%Xv.rX>Xh.=X%Xh.c.@Xk.s.M.1.<.4.4.k.k.p.c.#X#X}.9X].}.FXsX].sX*X*X*X:X&X|.&X;X`.#Xc.1.k.4.;.x.m.'.%X@XR.R.M.p.!.7.$.0.| n 8 & #   + ; o o % 6 8 N { V.3XrXcX:X:XwX8XN.,.J 9 > = = & , a G %.F.9XsXdXaXmXZXZXZXMXxX,XN.Q d 5 & 5 B C.KXG.~ q & & t 9 M 2.z.^.@X;X&X;X>X#X#X@XM.Z.5.H W 5.d..XN.C.e.N 5 4 % . O +     O 5 Y H.G.^ h G S.1XsXiXgXxXxXzXzXpXpXaXgXMXNXmXvXNXSXSXBXmXBXNXmXvXvX:X].'.<Xa.k.1.c.&X*XdXaXzXcXpXvXBXmXmXxX,X8XV.K J y.@X-XaXaXmXmXmXmXMXgXMXBXgXvX~.@.W Z.,XjXMXVXZXMXZXVXVXZXVXVXVXVXVXZXZXZXVXVXVXVXZXZXZXZXZXZXZXZXZXVXVXVXVXVXVXVXZXVX",
"pXaXpXaXxXaXaXNXSXvXaXpXpXpXpXpXxXaXmXBXBXBXBXBXBXmXmXmXmXBXBXBXMXMXMXMXMXMXBXBXmXBXmXmXBXBXmXBXBXBXMXVXVXMXMXMXBXmXdX&Xb.2.U d 0 v 5.N.|.uX*X&X>X>X*X&X&X%Xc.k.v.v.#X%X`.'.'.].#X#Xc.n.N.M.W.z.1.D.M.s.s.k.n.8X8X=X+X&X:X:X*X&X&X&X:X,X:X*X&X*X].'.[.n.p.<.<.1.c.v.$X8X>X=X=X}.{.[.C.>.J v 0 & % & . . - O o - = 4 9 J ,.D.3XFXvXvXvX,X3XM.@.f , > & & : 1 h Q H.1X9XsXxXBXZXZXVXmXvX1X;.f > & 8 U H.KXV.Y 0 & & 0 2 j #.a.c.m.;X&X;X;X{.'.N.z.r.W H @.r.z.n.M.w.R q > & & # # % . o O > B C.JXe.J M q.F.,XpXgXxXzXzXzXpXzXaXmXaXiXiXpXxXxXxXaXmXBXBXmXmXvXuX].'.<XN.M.k.c.=X,XsXsXvXxXpXvXBXxXmXxXsX8XC.P M :.<X,XxXBXMXBXmXNXBXgXMXVXmXcX3Xr.J #.7XdXgXCXMXZXZXVXZXVXZXZXZXZXVXVXZXZXZXZXVXVXVXZXZXZXZXZXVXVXVXVXVXVXVXVXZXZXZXZX",
"pXpXpXaXxXiXiXNXNXmXxXpXpXuX:XpXNXmXmXBXMXBXBXBXBXBXmXmXBXBXBXBXMXMXMXMXMXMXBXBXmXBXmXxXBXmXmXmXNXNXMXVXVXMXBXBXmXDXaX:X'.1.~ B q q :.z.h.=X,X`.}.;X].].;X+Xc.R.v.v.3Xv.v.>X`.`.#X3Xs.N.[.s.6XM.p.f.1.1.b.a.p.@X1X'.#X>X&X*X:X|.;X+X>X,X:X*X*X*X>X`.'.@Xc.k.b.1.s.g.v.#X].].|.|.].{.1Xl.W m c y w > 5 4 # = r O - % & 8 f K <.<XrXvXdXpXvXFXN.;.K d , > > : , a Q d.2X0X,XsXmXMXZXmXvX9X6.M , > 8 Y !.JX5.m 5 % > e d Y w.k.m.v.+X+X*X&X}.v.b.4.;.P +.d.z.M.k.4./ f 5 4 $ $ $ # # . O O > m 6.JXT.K f ~ F.=X*XiXxXxXxXxXzXxXxXmXgXaXaXxXbXvXbXxXaXmXmXgXxXaXuX|.v.n.R.c.c.s.[.>X,XuXvXxXpXxXSXxXxXaXuX$XC.Q h W 2X,XxXmXMXMXNXNXNXgXVXZXBXvXtXW.K P B.lXiXDXBXZXZXZXZXVXZXZXZXZXVXVXZXZXZXZXVXVXVXZXZXZXZXVXVXVXZXVXVXVXZXZXZXZXZXZX",
"aXaXaXxXNXaXaXMXaXxXmXmXxXxXxXxXBXmXmXBXBXBXmXBXBXBXBXBXBXBXmXmXMXMXMXMXMXMXBXBXBXMXBXmXMXBXmXNXmXmXMXMXMXBXBXBXmXDXaXsX].p.a.:.m d M -.Q.F.c.#X;X].:X:X}.+XtX$X8X$Xc.3X3Xv.1X`.v.'.3Xv.v.1Xv.s.F.&.1.a.1.a.M.k.a.@X%X'.rX:X|.FX;X+X+X+X+X&X&X*X].>X'.`.8X1Xc.m.v.g.c.v.c.v.`.`.-X`.v.W.V.{ R S d ) D q 8 > # r - - = > < 2 h I z.1XFXsXpXsXsX=XW.3.J f 8 > $ , 9 J 2.D.1XwXvXNXMXMXmX,Xz.J 5 5 q ! 2X4X:.d 4 & > 8 d ^ y.M.'.}.+X%X;X;X].N.x.5.@.+.d.M.M.N.z.<.J 8 & 4 $ $ : $ # # % % > c >.(.Y.P s K D.$X*XpXaXxXmXmXxXxXvXmXmXmXmXvXNXSXBXmXmXBXmXmXmXvXdX*Xh.c.@Xc.n.p.c.#X+X;XdXvXpXxXvXzXmXaXsX=XD.@.h J 2X,XpXaXBXBXbXxXSXmXVXZXBXvXwX5X@.z p.-XiXDXBXBXZXZXZXVXVXVXVXVXVXVXVXVXZXZXZXVXVXVXZXZXZXZXVXVXZXZXVXVXVXVXZXZXZXZX",
"aXvXaXaXmXaXaXBXmXmXBXNXBXNXbXxXmXaXaXmXBXBXmXBXBXBXBXNXMXBXmXxXMXMXMXMXMXMXBXBXmXMXBXmXBXBXmXNXgXgXMXBXBXBXBXBXBXDXxXvX-Xv.N.Z.Y f f B 8.S.z.@X,X:X,X:X+X+X;X>X$Xm.c.m.[.%X#Xm.[.1X$X$X#X{.{.v..XM.b.p.&.k.~.z.p.n.@X#X>X;X*XcX>X>X;X+X+X;X;X;X].+X+X;X=X#X%X#X1X[.n.c.k.k.N.c.v.v.v.m.M.Z.y.~ :.W } } v < > & * O O # & : < 2 K 2.D.3X,XvXNXvXFX3XD.q.R v 8 , , 8 j Q x.3XGXvXBXVXmXsXF.Q q 6 d { 2X2X! q 4 & > 1 9 R w.k.+X&X%X+X;X*X%X@XZ.5.W ;.z.m.c.c.x.:.v > & & : < < : & & & & 4 q ~ U.Y.Q s M S.1X:XpXxXxXmXmXxXxXvXmXaXaXaXaXxXxXxXbXmXBXmXmXmXmXdXuXv.m.3Xm.@Xs.s.3Xv.].sXvXaXxXcXpXmXiXzX#XF.2.f B 2X=XpXaXBXBXbXxXNXmXVXZXBXbXzX8Xr.H %.{.dXMXmXBXZXZXZXZXVXVXVXVXVXVXZXZXZXZXZXZXVXVXZXZXZXZXVXVXZXZXVXVXVXVXZXZXZXZX",
"pXvXxXiXaXmXaXmXBXmXmXmXNXNXxXaXmXmXmXBXBXBXBXBXBXBXBXBXBXBXmXmXMXMXMXMXMXBXBXBXmXBXmXmXBXmXxXmXhXhXmXNXmXmXBXMXMXBXxXvXcX].].[.6.B v c c L./.k.].uX|.].,X>X&XwXv.c.@Xs.p.@Xm.m.%X$Xg.>X=Xg.=X#Xs.F.b.1.1.1.1.a.b.s.m.#X+X;XsX&X:X:X:X;X;X>X>X+X].v.;X9X}.].,X].{.N.b.a.3.5.t.3.4.n.1X[.v.$X3Xc.z.6.#.~ _ v : $ # .     # & > , 1 d J ,.D.8XcXvXaXvXFX8X!.w.W s , > 1 h @.M.8XcXgXVXMXdX6X,.c 8 f { !.!.Y 8 > > e 9 d | u.M.:X:X'.'.&X&X'.N.y.-.W y.k.v.v.c.x.{ q & O & 1 9 q 9 5 7 4 > 4 8 Y U.Y.$.h f y.<X,XpXxXmXMXmXxXxXvXvXNXNXNXvXbXvXBXBXmXmXmXmXmXgXaXuXv.m.#Xv.[.s.p.<Xg.`.uXmXaXxXzX:XmXiXzX{.F.w.f j F.=XxXBXBXBXvXSXvXNXVXVXMXbXsX8XA.Q +..XHXgXBXBXMXZXZXZXVXVXZXVXZXZXZXZXZXZXZXZXVXVXVXZXZXZXVXVXZXZXZXZXVXVXVXZXVXZX",
"pXNXNXaXmXNXNXNXBXmXgXmXBXDXMXNXMXBXBXBXBXBXmXmXBXNXmXxXmXmXmXmXNXNXBXBXBXBXBXBXmXMXBXmXBXBXmXBXhXMXNXNXNXmXBXMXZXmXxXvXvX*X|.`.4X,.m 8 c ) :.z.9X|.*X:X&X;X:X}.%X@Xm.m.s.&.c.n.v.v.%X].+X=X].].v.p.N.2Xa.1.a.%.k.M.k.c.9XrX&X:X&X:X:X:X,X>X+X'.`.+X'.].=X;X|.>Xv.v.c.a.;.3.t.<.a.1.s.#X%Xv.`.8X`.c.a.#.W J d : # # # . # $ $ $ # $ 8 m W 3.N.,XvXvXaXuXrX0Xb.Q d 0 9 f B -.M.8XpXmXgXdXqXy.m 9 f { !.Z.U 5 & & y d m 8.V.c.&X&X%X'.+X+X'.M.5.! ~ A.c.[.1Xz.y.} 0 % . & 9 n C A b b 8 , 4 6 B u.Y.#.f a ,.F.>XuXxXmXMXMXxXxXvXxXmXmXmXxXxXmXBXBXBXBXmXBXmXmXmXvX`.[.#X`.[.c.1.4Xp.h.*XvXaXxXeX:XmXaXvX;X1XC.j j d.[.sXNXmXxXbXSXmXMXVXVXDXBXxX9XQ.+.I F.HXgXBXIXZXZXZXZXVXVXZXZXZXZXZXZXZXZXZXZXVXVXVXVXZXZXVXVXZXZXZXZXVXVXZXZXVXZX",
"xXxXaXaXaXgXmXmXBXMXMXMXmXmXmXmXBXBXmXxXaXaXxXvXSXpXpXxXxXpXaXpXpXpXpXpXaXaXxXmXmXmXmXmXmXBXBXBXMXBXNXBXBXBXMXMXBXBXBXBXvXxXpX:XrXM.! 9 8 q j >.D.#X;X;X;X;X%X`.9X#Xm.n.k.a.k.n.@X`.+X}.].>X'.'.3X[.#X9X#Xv.s.p.<.W.N.s.'.8X#X>X&X*X&X&X;X;X;XrX=X}.+X;X].].`.].}.v.c.N.R.n.k.s.a.c.c.s.n.5X4Xm.-X|.}.F.7.K B c 8 6 4 & & 5 w w # # $ , d B $.l.1X9XsXsXsXcXcX3X;.K m f a f Y r.8XdXiXfXqXz.K M Y 5.!.2.f > O * r c Y 1.z.m.}.}.`.#X].'.R.<.J J ! r.b.h.g.j.E q & # . & d N B J G J C d > 5 m e.G.7.d 9 K Q.{.&XpXiXgXgXaXaXgXmXNXBXmXmXmXmXmXaXBXmXaXaXaXxXmXxX}.v.8X`.s.F.#.!.F.s.,XuXuXxXnX:XaXUXxX&XrX6X~ G I D.-XuXSXmXmXBXMXMXMXMXBXNXmX,X!.P K (.kXNXmXZXZXZXZXZXZXZXZXZXZXZXZXZXZXZXZXZXVXVXVXVXZXZXZXZXZXZXZXZXVXVXVXVXVXVX",
"xXxXxXaXaXmXmXBXMXMXMXMXMXmXmXmXBXmXmXbXxXxXpXpX*XzXnXzX*XxXvXpXzXcXcXxXaXaXxXmXmXmXmXmXBXBXBXBXBXBXBXBXBXBXBXBXmXmXBXBXmXxXaXpX:X$Xr.M 9 9 a K 6.n.+X;X;X&X%Xv.v.'.m.k.a.k.a.1.s.@Xv.9X>Xv.,X>Xc.tX=X].FX>Xc.c.k.%.M.5Xp.g.8X`.}.+X+X+X;X&X+X&X].+X,X].`.;X+X}.'.`.`.[.'.v.v.v.m.c.c.c.k.a.k.N.9X&X`.<XD.r.9.! m v q 8 , > 5 w % # # # $ , a B >.D.0XFXcXvXvXwXLXC.@.G d q v Y l.1XfXfXkX.X@.K ~ V.(.>.a & . + - y Q p.c.m.v.`.`.}.].1XW.3.Y Y q.V.b.g.l.$.v > # % & 5 m _ L./.U.U.L.) w 5 f $.(.V.V q B V.[.-XvXmXMXmXxXaXgXgXBXBXmXmXBXBXmXxXmXmXxXxXxXxXmXxX,Xh.>X$Xp.D.4.d.z.c.=X|.vXaX*XzXBX*XzXGX:XtXQ.K P V.qXfXmXDXBXZXZXMXMXMXBXNXhXdX2XI K /.9XSXMXZXZXZXZXZXZXZXZXZXZXZXZXZXZXZXZXZXVXVXVXVXZXZXZXZXVXZXZXZXVXVXVXVXVXVX",
"vXxXxXxXxXmXBXMXMXMXMXMXMXMXMXmXBXmXmXmXNXvXpX*X*X*XsXvXsXpXzXzXxXvXvXvXaXaXmXBXBXBXmXBXBXBXBXBXBXBXBXBXMXMXMXMXMXBXBXBXNXxXxXpXzXwX4X-.h 9 9 J 5.M.;XpX:X*X%X'.>X+X'.%XR.M.x.z.1.k.<X@X%X>X;X:X>X+X].+X;X+X{.=X'.<Xk.k.4XR.h.=X`.%X'.+X>X;X|.|.&X].:X>X;X>X+X#X'.'.'.'.'.%X%X[.8Xn.k.c.M.k.p.p.1.z.<XKX1XN.6X!.2.W M V Z y 6 4 > & & & # # > 8 v J -.l.6XtXFXsXGXqX.X6.U d 8 d Y z.qXsXlX6X3.W 3.S.(.>.9 & . O % y @.s.b.c.v.v.].`.`.@XM.3.;.5.x.f.s.s.6.K 8 & # $ > q m K W ~ Q W J 9 # # 9 _ (.y.c 8 M u..X=XdXaXmXmXxXxXmXNXBXBXBXBXmXmXmXmXmXmXbXxXxXxXbXxX;X'.v.v.m.M.1.1.!.k.#X&X&X*XzXzXNXpXpXxXpXrXE.K H +.7XfXiXDXBXBXBXMXMXMXBXNXmXdX6X+.K S.9XNXMXZXZXZXZXZXZXZXZXZXZXZXZXZXZXZXZXZXZXZXVXVXZXZXZXZXVXVXZXZXVXVXVXVXVXVX",
"vXvXxXxXxXmXmXBXBXMXMXBXBXBXBXNXBXmXmXmXNXvXpX:XpX].|.:XsX:XsXsXxXxXxXaXgXmXBXBXMXMXBXBXBXBXBXBXBXBXMXMXMXMXMXMXMXMXMXMXBXNXmXxXSX:X8XA.W a a ) 9.z.;XpXuX*X%X%XrX].}.#X@Xc.k.D.l.<.x.a.n.tX].&XFX].'.=X].].*XsX].'.k.p.n.N.v.v.c.m.m.%X9X,X&X&X&X}.*XFXwX>X+X#X`.].+X].'.#X$X#X%Xv.c.n.R.N.s.&.<.3.k.n.[.=X9X{.F.6.@.^ ) V q 5 > & & & & & & & 4 5 9 M -.Z.5X9X|.fXkX2X5.B q 0 f ~ B.=X9X1Xl.@.;.V.Q.$.9 & O - = n ,.z.b.c.m.v.].v.c.n.a.4.x.D.s.g.g.a.:.v > % $ > e D } 0.:.Q 2.>.} m 4 & 1 L A.y.d , m u.2X-XsXaXaXxXzXzXmXNXBXBXBXBXmXmXmXmXxXmXmXNXxXxXxXxX+X+Xg.g.@XM.p.p.2Xs.m.$X+X:XvXpXcXvXaXpXaX,Xl.~ j H .X-XiXZXBXmXBXMXZXMXBXmXmXdX7X<.J ,.9XmXMXZXZXZXZXZXZXZXZXZXZXZXZXZXZXZXZXZXZXZXVXVXVXZXVXVXVXVXZXZXZXZXVXZXVXVX",
"xXxXxXxXxXmXmXmXBXBXBXBXmXmXmXmXmXmXmXmXxXxXzXzX:X:X*X|.|.sXvX:XNXxXaXaXmXBXmXmXMXMXBXBXBXMXBXBXBXBXBXBXMXBXMXMXmXBXBXBXBXmXmXxXmX*X,X<X2.M a N ^ r.+XpXuX X'.v.`.+X;X].`.v.c.a.l.7.Q 3.z.s.$X{.h.9X+Xv.,XsX XfX|.`.#XR.&.a.#Xv.s.k.c.v.#X=X&X&X].|.:X*X+XwX;X`.}.].+X].].+X#X%Xv.[.#X%Xm.c.s.s.b.b.a.p.p.c.$X}.[..Xb.#.K m v b 6 7 4 4 4 4 & % % = 5 8 d J 9.Q.qXfX-X7XF.w.Y f d M @.k.6X5Xz.<.@.5.A.Q 9 & O = 6 S 6.M.c.c.n.m.h.c.M.d.4.l.M.v.v.[.D.q.T 0 % O 5 9 v ) >.y.S.6.a.d.P.} F 8 3 j C.A.N 0 d / F.kXNXNXmXxXzXsXaXgXmXBXmXmXmXmXmXmXxXmXNXNXxXxXxXxXwX`.v.'.v.m.<Xs.k.M.a.c.tXwX&XzXcX:XxXNXiX,X<X5.B j D.qXiXDXmXbXBXMXZXZXBXmXmXdX=Xf.J ~ ,XgXMXMXZXZXZXZXZXZXZXZXZXZXZXZXZXZXZXZXZXZXZXZXVXVXVXVXVXVXVXVXZXZXZXZXVXVX",
"xXxXxXxXxXmXmXmXBXNXBXBXmXmXmXmXmXmXmXbXxXxXvXvXzXsXsX:X|.*XzXcXNXmXaXgXmXNXBXmXMXMXBXBXBXBXBXBXBXBXMXMXMXMXMXMXMXMXMXBXBXBXmXmXaXaXNX=Xz.$.f 8 B ;.[.sXiX*X'.v.@X>X>X;X].`.v.n.a.V.3.+.#.a.F.n.v.#X%X}.&X&X XuX*XsX#X[.@Xc.s.6Xa.s.s.c.[.+X+X&X*X|.:X*X&X>X;X+X+X+X&X+X].+X].}.=X#X#X$X%Xc.c.m.c.R.R.n.a.a.m.v.v.1X<Xz.<.Q Y B n y q 0 w w 4 % O O % & , 9 m W C..X7XqX0X2X6.~ ! M G @.Z.(.D.<.Q ,.S.! 9 & # & 6 R r.n.c.n.m.m.c.M.l.;.#.a.n.v.h..XS.^ b 4 O O > 1 m T K +.<.1.%.#.>.R b 1 3 M C.(.N 8 9 Y D.-XaXmXxXzX:XsXaXgXmXmXmXmXgXgXxXmXmXNXNXNXxXxXxXzX,X+X].'.#Xv.}.h.n.M.#.<.c.%X:XzX:XcXxXmXNXsX@XE.! M 5.1XiXMXxXvXBXMXZXZXBXmXgXdXsXN.G K =XgXMXBXZXZXZXZXZXZXZXZXZXZXZXZXZXZXZXZXZXZXZXZXVXVXVXVXVXVXVXVXZXZXZXZXZXVX",
"xXxXxXxXmXmXBXmXNXNXBXmXmXxXaXaXmXmXmXbXvXvXvXvXvX:XsXvX:X&X*XcXxXxXvXvXxXxXmXBXNXmXBXBXMXMXMXBXBXMXMXMXMXMXVXVXMXMXMXMXMXBXBXBXaXNXNXfX6XV.M 9 f Y l.#X-X*X].`.$X@X'.].}.`.`.{.c.b.(.#.Q 5.;.6.!.k.m.=X}.].*X-X,X|.}.].%X%Xc.a.k.k.c.c.N.[.'.+X,X].*X,X,X;X&X:X=X+X].+X&X+X+X+XrX#X].%X$X%X'.v.%X'.v.#X$X$X@Xa.k.k.M.W.!.D.a.#.Y J B f 9 8 > O O     . > 1 2 l M ~ w.D.<X6X<XM.D.;.I K ~ y.S.5.K :.P.R 1 $ # & q ! x.n.m.v.m.c.M.Q.,.W ~ 4.v.].h.b.8.V 6 = % & # > Z ) Y ~ y.y.(.S.e.R v 8 , h C.G.m 8 1 J H.{.iXiXpXpX:XsXgXmXmXmXmXxXaXaXxXNXNXNXmXmXmXmXxXaX:X,X>X}.9X].h.`.1XM.#.#.#.c.cXsX;XcXaXiXSXsX'.W.9.M K C.dXgXaXxXBXVXZXZXBXmXvXvXdX1XJ G 8XgXDXmXMXZXZXZXZXZXZXZXZXZXZXZXZXZXZXZXVXVXZXVXVXVXZXZXZXZXZXZXZXZXVXVXZXZX",
"xXxXmXNXNXNXBXBXNXNXBXmXxXaXaXaXNXmXxXmXNXSXvXxXzXzXcXsX:XcX:X].*XpXvXvXpXpXvXSXNXmXmXmXBXMXMXMXBXBXBXBXBXBXMXMXmXmXBXBXBXBXmXmXmXmXiXuXFXF.K m d B :.z.[.=X&X].c.@X#X`.`.&X|.h.8XB.p.G.w.G K >.;.E.N.v.=X,X&X-X|.-X*X|.;XrX1Xa.c.n.b.c.n.n.m.[.v.`.>X;X;XcX*X].,X].}.].&X&X&X;X`.;X=X'.`.#X#X`.;X;X+X>X+X%X$XN.1.<.4.M.W.@X[.N.6.q.:.Y v 9 5 & O . . # # $ : < 1 d m Y 7.!.qX7XLXW.6.W G ! u.i.J _ K.C , $ # > d ~ M.[.v.'.v.g.k.S.:.W ;.a.h.].m.l.^ y 4 & & 5 5 4 b S M K >.#.#.Q W B v q : a 6.(.R q < h C.qXgXMXxXzX:XsXgXgXmXxXxXaXaXaXxXNXNXNXxXxXmXNXxXxXvX&XFX,X,X|.|.}.v.KX<.#.4.m.].sXcX}.pXSXuXsXGXn.S.J h 5.9XaXvXNXmXMXZXZXBXmXvXmXhX9XK B 8XdXHXmXMXZXZXZXZXZXZXZXZXZXZXZXZXZXZXZXVXVXVXVXVXZXZXZXZXZXZXZXZXZXVXVXZXZX",
"xXvXxXpXaXmXBXBXaXgXmXmXxXxXxXaXxXmXxXxXaXxXxXvXxXpXzXzX:X:XsX:X].].].&X:XcXvXvXvXmXmXmXMXMXMXmXBXMXBXBXMXBXmXMXMXMXBXBXBXBXmXmXMXuXaXmX*X8XZ.K N N ) 0.S.<X=X9X$X@X@X#X=X+X].].`.}..XD.6.:.Y M / 3.a.k.N.#X#X'.`.-X*X|.|.>X3X3X[.v.g.s.k.k.k.a.<X3X[.'.wX:X|.&X].}.].+X*X*X&X].,X].].;X=X].+X>X+X&X&X&X+X'.'.m.n.k.a.p.k.n.[.@X!.l.+.K B v q , > > $ $ # # & > 5 6 0 q B ~ d..X7X1XM.%.K H W } m T ) A 6 # % 4 m 3.N.%X'.`.v.n.4.3.W Q <.z.{.v.c.5.f 0 5 6 ) C q b ) } P.U.S.S.(.S.u.0.M 9 : d %.(.0.d < a (.7XgXMXNXvXsXaXgXhXNXmXmXmXxXxXxXaXxXSXSXmXmXxXaXNXpXzXsXsXsX*X X*Xv.c.Q.r.W.c.,X*XcX*XvXpX*XvXvX8Xl.K f K <XsXvXaXMXVXMXMXBXNXNXmXhX-XW J 1XsXSXNXMXMXMXZXZXZXZXZXZXZXZXZXZXZXZXZXVXVXZXZXZXVXVXVXZXZXZXZXZXZXVXVXZXZX",
"xXvXvXaXxXNXNXBXaXgXmXmXxXxXxXvXNXmXbXxXxXxXxXxXvXpXsXzXsXsXsX:X,X;X].].&X:XsXzXxXxXxXmXmXBXVXDXmXBXmXmXBXBXmXMXMXBXMXBXBXmXmXmXNXpXaXxXpX,XF.@.M d c C { C.1X{.$Xv.'.3X3Xv.`.=Xh.`.v.p.4.u.8.G J ~ r.Q.!.F.@X3X}.].|.&X-X+X%X8X#X}.v.g.s.k.k.x.a.R.<X#X>X&X|.*X,X>X;X&X*X*X&X&XFX:X;X,X,X+X].+X;X:X:X;X;X+X+X#X%Xm.n.n.c.c.k.s.a.l.y.,.Y m f v g 1 < : > * O   7 4 = 4 0 v W <.b.2XJXG.2.Q Y J C ) [ g & * = > ! l.n.`.%X%X`.c.x.;.Q t.~.c.].1X1.,.m 8 0 D K.G j B Y ~ ;.<.1.&.%.+.Q W j f < 9 #.G.K.m 8 d S..XaXMXBXbXxXaXmXgXgXaXaXaXaXaXaXaXxXNXmXaXmXxXaXxXaXxXpXsXdXuX X X=X@X~.4.z.s.=X*X*XcXuX|.cXvX*XFX<X-.f j <.1XsXNXmXMXmXmXmXmXmXmXhXfX@.J M.,XvXNXBXMXMXZXZXZXZXZXZXZXZXZXZXZXZXZXVXVXZXZXZXZXVXVXVXVXZXZXZXZXVXVXZXZX",
"pXaXxXaXxXxXxXaXaXaXmXxXxXxXxXNXNXNXmXmXmXxXxXxXvXaXaXxXpXpXsX:XcX>X+X+X+X&X*X*XsXxXvXmXgXgXmXBXmXBXmXmXBXBXmXDXmXBXBXBXBXBXmXmXNXpXaXxXpXsX$X4.G 9 , 8 v $.M.`.h.#X8Xv.k.R.@Xc.#X#X[.c.a.6.w.u.K G K -.y.V.k.m.].|.+X&X=X].].;X&X&X].v.c.k.k.x.4.a.n.N.%X&X|.|.&X+X].].+X&X&X+X].`.`.].;X>X;X*X:X:X;X&X;X$X#X#X+X+X%X#X[.c.p.%.#.<.r.u.i.{ K M J M f 8 > # @ ; - 4 = & & 4 q N J :.S.U.U.y.@.M f q q 8 > % = q :.b.n.v.%X%X'.c.x.<.%.z.6X[.{.N.d.Q m v S _ $.I #.2.d.f.b.b.v.c.F.!.(.S.Q H 1 9 $.A.P.h < 9 8.2XdXgXmXxXxXmXmXgXaXaXaXaXxXxXvXvXmXmXaXaXmXmXaXaXNXNXaXaXvXuX X|.9X1X!.a.k.p.}.=XsX*XsX:X:XcXxXsX0XZ.M f H D.9XaXhXMXmXmXBXmXBXMXhXdXy.J 4.3XcXNXBXMXMXMXMXMXZXZXZXZXZXZXZXZXZXZXVXZXZXZXVXVXVXVXVXVXVXVXZXVXVXVXZXZX",
"pXpXpXpXaXxXxXaXaXaXaXaXxXxXxXNXbXmXmXmXxXxXaXaXNXaXxXvXaXpXzX:X,X,X;X;X*X&X&X].*XpXxXvXNXmXmXmXxXBXmXxXBXBXmXMXmXmXBXBXBXBXmXaXxXaXxXxXpXzX,Xn.Q a 5 4 5 m 7.n.}.'.[.m.c.k.c.n.@X[.'.[.s.&.<.V.w.Q G K -.y.z.N.v.=X$X`.'.;X&X&X].&X&X%Xn.k.a.a.x.a.a.c.m.[.#X].}.+X+X;X;X,X,X*X;X&X].].+X+X;X;X:X*X&X+X%X+X%X%X'.'.%X$X#Xm.c.a.%.#.#.5.u.u.:.K G K R C q 4 * - 4 4 4 7 & % = 5 5 d B / u.U.w.I m 9 , w 7 & & y -.M.@X[.[.m.n.M.4.a.a.c.[.[.[.a.A.K M T _ _ P I #.7.f.b.b.N.[.[.M.~.G.j.#.Q a 9 >.S.P.h : , Y G.sXgXaXmXmXmXxXaXxXaXaXvXxXvXvXvXmXNXaXaXmXmXaXmXNXNXxXxXNXaX|.].].m.6Xk.s.1.c.{.,X|.cXcX;XcXNXpX,XW./ m M S.qXuXgXmXvXvXBXBXMXCXMXdXQ.K @.<XFXNXBXMXMXMXMXMXZXZXZXZXZXZXZXZXZXZXVXZXZXZXVXVXVXVXVXVXVXVXZXZXVXVXZXZX",
"pXzXxXpXxXvXvXxXiXiXaXxXxXxXxXxXxXxXxXmXmXmXmXmXNXaXxXvXaXaXxXpXuXuXuXuX:X:X*X&X&X&X*XpXxXNXNXxXxXvXxXxXmXmXaXBXmXmXBXBXBXBXmXaXmXxXxXxXzXxXzX#Xd.J 9 w 6 q W r.<X'.m.@XN.c.n.@Xm.v.v.m.n.N.k.&.C.w.:.Y J Q l.4Xc.@X@Xv.%X>X,X:X].].+X#X#Xm.c.a.k.s.k.k.s.c.N.<X'.+X>X>X;X;X&X].FXwX,X;X+X+X+X;X;X*X&X&X&X*X+X+Xm.m.N.@X#X#X+X].[.m.k.a.6.w.u.P.} ( J M m N v c 0 8 6 7 4 % % % * & 4 q R e.S.q.m d 8 > & 4 4 8 -.c.R.R.N.M.a.4.<.4.p.F.<Xc.z.y.,.G J R _ _ h k z P +.#.#.%.&.&.4.;.Q +.%.u.V 8 R e.T.M 5 , m y.9XaXaXmXBXmXxXpXaXaXaXaXaXpXaXpXaXNXmXaXxXaXaXNXaXxXaXaXvXsX].v.v.c.1Xc.p.&.1.F.].-X;X&XcXzX|.pX,X<Xw.m v :.5X*XgXgXaXzXbXmXBXMXMXdX4XW W Z.FXaXBXBXMXMXMXMXZXZXZXZXZXZXZXZXZXZXZXVXVXVXZXZXZXZXZXZXZXVXVXVXVXVXVXVX",
"zXzXzXpXpXxXvXxXiXaXxXmXmXxXaXaXmXmXmXmXmXmXmXmXNXmXmXmXaXxXvXpXvXaXaXpXpXsXsXvXzX:X&X&X:XpXpXpXzXvXvXbXNXmXmXBXmXmXBXBXNXNXmXmXmXmXxXbXbXxXpX,XJX$.d 0 w 0 v ! a.M.N.c.m.#X$X%X$X#X@X%X@X[.m.c.1.6.w.~ H H @.3.M.N.[.%X#X].].,X+X+X+X+X>X$X%Xm.s.a.1.1.4.d.d.k.m.+X+X+X+X+X+X].].].+X;X;X+X+X>X;X*X&X&X*X*X&X+X'.%X%X%X#X#X;X;X}.`.c.p.&.#.+.@.u.8.! K Y ! / } m d 8 > & % O O O O % & 9 J >.u.J f , $ $ & 4 d ;.c.M.M.F.z.;.Q Q <.p.z.M.x.y.8.J f Y } _ B 1 9 _ K.P.U././.(.Q.E.y.;.4.z.(.) q B 0.T.m 5 > c i.3XsXaXmXmXxXzXsXxXaXaXaXaXpXpXpXiXmXvXaXaXiXiXNXpXxXaXaXvXcX+Xv.v.c.1Xc.1.%.#.C.#X|.-X*XpXzX*XpXdX{.C.G a B !.kXiXgXsXzXbXmXMXMXNXdX5X@.J 3.rXiXBXBXMXMXMXMXZXZXZXZXZXZXZXZXZXZXZXVXVXVXZXZXZXZXZXZXVXVXVXVXVXVXVXVX",
":X:XpX:XpXpXxXaXaXaXmXmXxXxXxXxXNXvXmXmXmXmXmXBXMXmXmXNXaXxXmXaXMXmXgXgXaXdXvXvXnXcXpX:X:X:X*X*XpXbXvXvXSXNXmXBXmXmXmXmXBXNXmXmXmXNXbXbXbXbXpX*XKXj.j 1 e 0 0 N -.<.a.<X$X}.].,X;X+X+X@Xm.s.c.<Xf.d.d.7.>.@.~ ~ r.z.m.%X;X].}.+X+X+X%X+X;X>X=X=Xv.g.&.#.<.2.#.<.n.#X>X+X>X>X>X;X;X&X;X,X>X+X].+X&X&X&X&X&X&X&X&X&X&X&X&X&X+X+X%X#X#X#X#X#X'.s.&.#.#.q.q.5.,.;.@.P j 1 & # O # # . O O O & 8 M _ K.) b w , $ & d <.c.M.b.z.4.Q H W 5.4.4.4.5.} N v f ^ 0.) 9 # & 1 f B K Y ! ~ @.3.3.3.z.v.F.W v m K.L.f > # q } 2XsXxXmXmXaXzX,XzXxXxXaXaXaXaXaXaXmXxXaXxXaXaXmXpXvXxXaXvXcX$X@XN.c.1Xv.p.&.Q 6.0X`.sXvX*XzXcX:XdX|.F.$.9 f d.9XdXgXcXcXvXBXMXMXgXdX5X<.B ! 9XaXBXBXBXBXMXMXMXZXZXZXZXZXZXZXZXZXZXZXVXVXVXVXZXZXZXZXZXZXVXVXZXVXVXVX",
":XpXsXpXpXxXxXaXmXmXmXmXmXmXmXNXNXNXxXxXaXgXmXmXMXmXmXBXmXxXmXaXMXMXMXmXmXaXaXaXxXvXvXvXvXzXpX:X&X:X:XpXxXxXaXxXmXmXmXBXBXBXBXBXmXNXmXbXbXxXpXpX7XF.I 2 0 6 4 c J 5.E.M.m.>X:X&X`.+X$X%Xm.%X[.g..Xc.k.D.Z.3.~ ~ Q 4.c.v.{.,X>X=X+X%X+X+X&X*X&X&X}.#Xs.%.%.+.@.l.s.`.#X#X#X#X'.v.>X'.}.+X+X'.'.+X;X,X,X,X;X&X&X*X|.&X*X*X&X%X%X'.`.].].;X-X=X#X[.a.%.Q Q #.<.<.#.Q M 9 , 4 & & $ > # . O % $ 1 d ) ) n 5 & 4 6 d ;.M.W.z.3.@.K J i.,.;.V.u.W m q q ) L._ f 9 4 & d B R W ! ! @.@.@.#.1.c.{.5X@.M a ..L.j 5 # 5 B !.,XvXmXmXaXsXcXpXpXpXpXaXaXaXaXxXNXaXaXNXmXaXmXpXvXaXpXzXcX>X>X#Xv.#X'.s.p.Q <.3X-X*X*XxXzX&XcXuX&X6X(.m f Q F.fXaXsX:XbXmXBXmXgXdX0Xr.B J 0XdXmXBXmXmXBXMXZXZXZXMXZXZXZXZXZXZXZXZXVXVXVXZXZXZXZXZXZXZXVXVXZXZXVXVX",
"pXxXxXxXxXaXaXBXMXBXBXMXNXmXmXmXSXNXxXxXNXNXmXaXMXmXBXNXmXmXNXmXNXmXmXgXxXxXxXvXvXxXxXxXxXpXpXcX>X[.}.`.;X:XvXNXxXmXMXZXMXMXZXZXMXNXMXxXpX:XaXNXdX=X&.j q 6 5 8 q R i.S.M.}.|.|.&X*X].#X#X[.@X'.}.-X].v.M.Z.5.-.~ P #.z.g.v.=X|.&X+X].|.&X&X&X&X`.'.n.M.k.a.a.k.c.s.s.[.[.v.v.'.`.%X].`.].;X;X].,X-X*X,X-X|.&X,X*X*X&X;X=X#X#X%X`.].].].&X].`.N.W.l.;.P H I 2.P.$.K s 8 8 0 8 8 , , 4 7 7 w 8 1 < 8 t r 7 4 q B @.z.W.a.+.W Y U :.>.-.9.0.T a 9 D | ) M s M _ P.U././.(.E.Q.!.!.4X3X$X].$X5XV.J f ) T.j 5 # 4 T W.-XvXmXgXmXvXpXxXxXNXvXaXxXNXaXiXmXmXxXNXmXaXmXpXxXaXpXvXvXxXvXsX,X,X}.g.a.k.N.8X:XsXpXpXzXcX:X:XsX&Xn.2.j m P.=XsX:XzXDXZXBXBXmXpX8X(.J M 1.7XdXmXvXbXmXZXIXZXMXNXNXMXVXZXZXZXZXZXZXVXVXZXVXVXVXVXVXVXVXVXZXZXVXVX",
"pXxXxXaXxXaXaXBXMXmXmXMXmXgXgXmXmXxXaXaXxXxXaXaXBXaXmXmXgXmXmXaXmXxXaXaXaXxXxXxXaXpXpXxXvXxXvXvX,X#X+X].;X&XsXpXSXxXiXaXMXDXVXgXmXmXMXgXpXpXpXvXgXsXb.W d w 5 , 8 q J ,.Z.[.+X-X&X*X].=X$X[.@X[.;X-X].v.v.n.z.A.5.Q Q #.%.p..X1X`.].=X;X|.}.}.].v.v.m.n.c.c.N.N.p.&.s.N.N.m.v.c.[.#X%X'.+X>X,X>X].,X,X|.].;X;X].+X&X=X=X+X%X+X%X}.+X+X&X:X;X+X#XR.M.l.<.+.+.2.5.P.0.^ T B v d q , , 5 5 5 > $ $ $ $ * - = > q m u.Z.p.1.6.@.Y } ~ ,.:.( B a 1 c  .) m s j W :.5.<.4.p.1.1.1.1.p.g.'.,X-X=X6Xl.W f T T.j 5 # > S F.;XaXgXaXaXdXpXaXaXNXmXaXxXNXaXaXmXaXaXNXmXaXmXxXvXxXaXmXxXiXaXdXdX:X].v.g.c.%X,XfXsXpX:X:XzX:XsXcX-X{.d.H d } 6XsX:XpXmXmXxXxXBXaX9X!.W j +.XXsXaXxXbXBXZXZXZXMXNXNXMXVXZXZXZXZXZXZXZXVXVXVXVXVXZXVXVXVXVXZXZXVXZX",
"aXNXvXxXNXmXmXMXVXMXMXMXMXmXmXNXxXmXmXmXmXmXmXNXmXaXmXBXmXmXNXmXNXNXxXxXxXxXxXxXxXaXaXaXaXaXaXxXdXiXvX*XsX&X:X*XsXcXvXxXxXBXVXMXmXmXmXmXaXpXpXaXgXvX3X7.m q q 8 5 5 d Y y.!.#X].].|.}.].}.v.m.n.m.N.m.%X%X[.m.6XW.D.l.@.H G ~ y.N.}.`.[.[.[.[.v.'.'.'.}.`.v.[.@Xc.s.s.c.s.s.g.s.N.[.%X%X%X%X+X$X&X&X;X,X-X&X&X&X].&X:X:X&X].].+X}.].}.].:X,X&X;X'.@X<Xn.s.p.p.1.@.:.9.e.L.} V 8 Z u 8 < : : * - # # O O % = 0 f 0.@.V.A.+.K { 0.9.u.i.E f 9 c D A b d f B J Y W #.1.p.p.a.s.k.c.v.&XdXsX=X1Xx.Q f C P.j 5 # & m !.=XaXmXmXxXdXdXaXaXvXvXaXxXmXaXaXmXaXaXmXmXaXmXaXxXpXaXNXNXaXaXpXsX:X|.`.v.v.%X,XfXsXpX*X:XpX*XsXsX*X=Xb.I a B <XsXsXpXbXbXxXbXBXmXFX6X>.j H V.8XsXvXBXZXZXZXZXMXNXMXMXVXZXZXZXZXZXZXZXZXZXVXVXZXZXZXZXVXZXZXZXVXVX",
"vXSXNXxXNXNXBXDXDXMXMXMXMXBXNXNXBXmXmXmXNXNXNXNXmXaXmXNXmXNXNXmXNXNXxXxXxXNXvXvXxXxXxXxXaXpXpXpXmXgXMXiXvXpXsX:X&XcXnXvXpXmXMXSXvXmXmXBXmXxXpXpXaXsX9XD.Y f v n > 5 9 m { A.W.h.].&X].&X+X`.%X@Xa.n.m.%X>X].}.}.v.N.D.5.~ J U 0.Z.M.c.M.<X<X@Xv.'.].].].}.}.].'.@Xn.c.k.s.s.s.s.c.c.m.@X%Xm.m.%X>X+X+X,X,X+X].:X].&X*X*X&X|.|.&X`.'.'.].;X:X*X;X+X+X#X}.v.v.h.g.#.+.+.,.i.K.) n q 0 8 8 , $ O . % O . O % & 6 d } ~ ,.>.P / i.Y 8.8.R f 9 8 q Z 0 q v ) ..L.P.U.(.2X2X6X1X1X1X$X,XsXdXdX,X8XM.@.v m L.j 5 # $ d G.=XsXmXNXmXaXvXaXaXvXvXaXaXmXaXaXmXaXaXmXxXaXmXpXaXaXaXSXSXaXaXpXsX:X;X].'.'.#X,XuXsXsX:X:XpX*XsXsX*X=XF.+.f h z.>XsXsXvXvXzXvXmXmXvX=XC.j h $.1XsXvXBXZXZXZXZXMXMXVXVXVXZXZXZXZXZXZXZXZXVXVXVXZXZXZXZXVXZXZXZXVXVX",
"aXvXaXaXmXmXgXNXmXmXmXmXmXmXmXmXBXaXaXaXxXmXxXaXxXaXaXxXaXxXNXaXvXxXaXaXaXaXxXxXpXaXaXxXmXmXxXaXmXgXBXiXNXmXNXaXaXpX*X&X:XcXvXpXvXvXBXMXMXmXxXpXSXuX9X6X#.j M D > & > 8 m 8.V.z.[.+X].&X;X'.#X@Xn.R.m.v.].&X|.}.>X1XW.Z.y.-.K G ~ 5.Z.!.W.N.v.`.v.`.}.].].].|.{.v.n.N.R.N.N.n.s.s.a.s.n.m.n.n.@X%X$X#X'.}.;X;X].|.|.|.&X&X&X&X&X`.%X%X].;X*X*X:X*X&X].}.].{.{.].{.g.#.K U ) } } m d 8 6 4 % % # O   o . O % 5 q S I.0.z H W ^ L.B m a < : > 4 & 5 , 8 m ^ 8.0.y.l.c.m.'.[.#X$X>XwXpXiXiXsX,X[.<.m f K.h , # # 9 6.#XuXiXmXaXpXaXaXpXvXvXaXaXxXaXxXvXaXaXxXaXaXxXaXvXaXaXvXxXuXuXsXsXsX,X=X=X>X>X:X*XsXpX:XpXsX:XpXsXuX,X<X7.J j #.n.,XpXzXcXeXzXaXmXNX-X2XH 9 B D.9XvXMXIXZXMXDXMXMXVXVXVXZXZXZXZXZXVXVXZXZXZXZXVXVXZXZXZXZXZXZXVXVX",
"aXxXaXaXmXmXaXmXNXmXmXmXBXmXmXmXmXaXpXiXxXmXaXpXNXaXxXxXaXxXvXaXvXxXaXaXaXxXxXxXpXaXmXNXNXBXNXxXxXaXaXuXmXmXDXmXSXmXpX&X&X&X:XcXcXvXMXZXMXBXbXzXDXpXsX0Xd.P G ` y & $ , 9 m / S.D.N.v.].].`.'.`.@X3X+X`.].:X&X].h.g.c.F.Q.Z.l.<.Q @.3.r.l.k.n.[.v.}.{.|.&X|.|.].`.m.@X@X@X@X%Xc.c.k.s.k.k.k.k.n.@X@X%X'.'.%X+X+X&X&X|.|.&X*X*X*X`.%X%X].&X&X&X:X*X*X+X].+X+X+X].=X#Xz.@.Y U ! / } R v q 7 7 = - .   . O O % 4 w [ [ d a ` _ J L a 8 5 > % & = % & 8 v J Y W Q #.p.s.c.`.].+X>XFX:XpXgXgXiX*X#Xl.m d ..f > # # 1 @.[.,XpXmXxXpXdXvXpXxXvXaXaXvXxXaXvXxXaXxXaXiXaXuXaXpXpXaXpX*X*X:X:X:X-X;X;X=X>X;X*XpXpX:X:XsX:X:XpXpX-X[.l.Q M K d.=X*X:X:X;X:XiXgXgXdX0X+.9 d 5.8XNXhXZXZXmXBXMXZXVXVXVXZXZXZXZXZXZXVXZXZXZXZXVXVXZXZXZXZXZXZXVXVX",
"aXxXxXxXNXmXmXBXNXmXmXNXBXmXmXmXmXxXaXxXmXNXxXxXSXxXvXvXxXvXvXaXNXxXxXaXxXxXxXxXxXmXNXBXmXNXmXaXzXzXvX*XaXaXNXmXNXmXSXdX*X].&XcXcXvXMXZXZXBXbXbXBXvXsX9X.X#.K C A 7 $ > 5 , v } U.D.c.#X=X&X;X].+X>X;X&X;X>X].`.m.c.N.N.c.v.'.v.p.<.@.~ @.3.l.D.[.].|.|.|.].].'.$X%X%X%X%X%X%X'.m.m.m.c.s.a.a.s.@Xv.v.%X#X'.'.#X+X+X&X&X&X&X*X;X`.[.}.].|.|.|.*X+X+X+X%X%X%X%X[.h.[.<XM.a.;.W B T B B ) D y & . O O % % % % = 7 i > 6 b 9 9 f 2 > # % *   o * % 5 A L.P.U.S.!.JX4X5X8X8X=X;X>XFXsXaXMXNXiX*X&Xz.m q ..g > . # 5 K F.rXpXvXNXaXxXvXpXxXvXaXpXvXvXaXvXxXaXvXaXpXaX*XpXpXpXsX:X*X,X&X&X&X&X&X&X;X;X*X*XpXpX:XpXsX:X:X*XuX&X{.D.;.M B 5.1X*X:X:X:X:XpXaXiXdX9X6.d 8 W <XvXhXZXIXmXBXBXZXVXVXVXVXMXMXZXZXVXVXVXVXZXZXVXVXVXVXZXZXZXZXZXVX",
"aXxXaXaXNXmXaXmXmXmXmXmXmXaXaXaXaXaXxXxXxXxXvXvXNXxXxXvXaXaXxXpXxXxXaXpXaXaXaXaXxXmXmXaXaXmXmXxXvXnXnX*XpXpXNXmXgXiXiXHXvX&X].|.zXvXBXZXMXBXmXbXzXNXdXsX8Xd.P m n 8 > > > > 8 m L.y.a.N.$X&X;X].&X&X&X+X;X%X`.@X@Xk.k.c.h.'.9X].v.M.x.;.K K ~ r.z.n.].].].+X#X#X'.v.'.>X#X+X'.v.v.[.#X@Xn.c.c.c.c.c.m.v.m.@X%Xv.%X#X>X>X+X+X+X+X'.%X}.].;X-X&X;X}.%X#X%Xm.R.R.R.N.[.`.v.c.z.;.K M f M ) | D y 7 = % % & # # # % - % % & & > 1 , > . . O   o * # 6 v ( $.7.f.s.s.a.s.c.`.`.`.].:XzXpXiXgXiXsX,XD.m q ..d & . # 5 j Z.9X*XsXvXpXpXNXpXxXvXpXpXvXvXaXvXvXaXvXaXpXpXuXxXvXsX:X*X&X,X&X&X&X&X;X;X;X;X:X:XsXsXpXpXzX:XcXpXpXuX=X5Xr.J f :.<X-X*X:XwXeXpXpX XaX,XD.N q B D.GXgXZXIXmXbXZXZXVXVXZXVXMXMXZXZXVXVXVXVXVXVXVXVXVXVXVXZXVXVXZXVX",
"mXNXmXxXmXmXmXmXaXNXmXaXmXmXmXNXNXxXNXxXxXNXaXxXxXxXvXvXxXxXxXaXvXvXxXxXxXmXNXNXmXmXmXmXmXmXBXMXbXbXbXvXvXzXsX:X].:XsX:XsXsXsX&X*XuXaXmXMXBXmXbXzXxXxXsX9XM.@.M s 3 8 Z u 4 4 8 C } u.C.c.`.].].'.$X%X%X}.`.#Xv.k.<XR.a.c.N.m.v.].}.N.x.;.W W J r.4.a.c.[.'.'.#Xv.'.'.'.].+X+X%X>X'.v.[.v.g.v.1Xv.v.v.g.s.c.n.c.n.c.m.m.c.v.[.v.v.[.].].|.|.&X&X}.%X%X%Xm.R.%X@X1Xv.g.c.[..XF.S.:.J a d S | | ) 6 4 & $ $ $ # . o o @ o % & > > : & # . @ o   # > C / +.&.s.h.v.M.c.v.}.].&X;XcXvXxXaXiXiXdX,XW.B c ' b > . # > h w.1XGXpXaXuXNXpX*XsXvXpXpXpX&XpXxXpXxXvXpXvXpXuX*X:X*X,X,X}.'.>X'.`.+X&X].].*X&X*XpXpXpX:X:X:X:XpXuXpX,X8XW.~ d m D.].*X*X:XzX].*XxXdXGX6XY 9 m 2.=XgXVXZXBXSXZXZXVXVXZXZXZXZXZXZXZXZXZXZXZXZXZXVXVXVXVXVXVXVXZXZX",
"mXmXmXxXmXmXmXmXaXNXxXaXmXmXmXNXNXaXvXxXxXNXxXxXaXxXxXvXvXvXvXvXNXmXxXxXxXxXmXNXmXmXmXmXmXmXmXMXMXBXBXBXvXvXcX,X].`.`.;XFX,X-X,X|.uXpXxXmXmXbXbXpXpXpXsX,X[.<.K M h f e 8 > 4 8 q S 0.u.z.c.[.>Xm.v.v.%X=X%X#Xv.m.a.n.~.k.a.c.a.v.1Xm.b.!.<.I ;.K ;.y.V.z.W.@X`.'.%X'.`.`.}.'.`.].=X#X`.`.%X#X[.8X[.v.[.c.p.p.s.a.W.M.k.N.n.c.5Xg.v.'.].=X|.}.`.`.`.v.v.v.'.;X$X%Xv.g.g.c.c.b.D.S.:.B f d m B m b w 5 > $ $ # O     X o O % > , : 8 w & O   O 4 D } 9.S.JX5X1X1X6XW.%X;X,X,XcXcXpXaXaXaXaXvXFX4XJ q b w $ . . $ f q.<X,XsXzXpXvXpXpXvXvXpXpXpX*XpXxXpXaXpXuXaXpXpX:XcX:X,X,X+X>X>X+X+X;X;X+X+X*X;X:XpXpXpXpXpXzXpXvXaXvXsX9X3X5.9 d 7.{.|.uX:XcX*X:XsXpXdX8X,.m f @.1XvXMXZXBXmXZXZXZXVXZXZXZXZXZXZXVXZXZXZXZXZXVXVXVXVXVXVXVXVXZXZX",
"mXxXxXxXxXmXxXxXaXNXxXaXmXmXmXNXxXpXxXaXxXNXxXNXiXaXaXaXxXxXxXxXNXmXmXaXaXmXmXmXmXmXmXmXmXmXmXMXZXZXMXBXBXmXxXsX*X].v.g.c.#X0XrX&X*X*X:XzXSXSXbXpXpXpXpXsX$Xa.+.Q _ L a 1 1 5 5 8 8 v ^ q.V.b.N.m.v.h.].,X&X&X'.v.m.m.k.b.x.4.%.4.z.N.'.}.].c.1.@.W Y { 5.Z.F.<X[.@X@X[.[.'.%X].].].+X#X#X#X'.`.`.`.v.v.n.N.N.M.M.a.p.a.k.M.M.k.[.@X'.v.`.}.}.{.].#X=X;X&X*X*X&X=X'.c.s.1.1.z.G.A.S.9.W j a a d q w e w 5 & # O O o o . # & 4 8 f ` D e & # $ 8 A R W #.z.b.c.c.k.a.g.`.&X:X:X:XsXxXNXgXaXpX,XW.U 8 5 > # % . # 9 { W.>XcXsXpXpXpX:XcXvX:X:XzXsXpXxXpXxXpX&XpXpX:X,XsX*X&X&X].,X,X;X;X;X;X;X*X*X:X:XpXaXpXpXsXzXpXvXmXvXpX,X8XV.v d Q F.}.uX&XcX;XwX*XsXsX9XQ.G a K D.FXxXBXDXmXZXZXZXZXZXZXZXZXZXVXZXZXZXZXVXVXZXVXVXVXVXVXZXZXZXZX",
"xXmXxXxXxXxXxXvXaXNXvXaXmXmXmXNXxXpXxXaXxXNXxXNXaXaXaXaXaXaXaXaXmXmXmXgXmXmXmXmXgXmXmXmXmXmXmXMXZXZXMXMXMXmXmXaXsXcX&Xs.&.s.W.<X9X,X#X+X;XcXSXbXzXpXpXpXvX,XN.4.;.P.0.G j m a < 0 , , d R :.2.a.<X[.v.].&X].&X].v.3XR.k.M.^.a.<.@.;.z.B.}.-X=Xg.Z.-.J Y ! -.4.Z.k.z.M.M.n.m.v.v.}.`.`.#X#X'.v.v.'.#X[.c.c.R.<XM.W.4.1.a.p.k.k.&.c.n.n.m.[.[.m.m.h.v.[.'.+X&X*X&X;X#XN.k.<.;.3.r.C.C.S.q.! m d q 5 5 w w 7 & # . % # # & > 0 b N W *._ n 8 > > 8 v R @.+.1.a.s.p.p.p.g.].*XpXzXcXpXxXxXaXpXpX;XN.E q > > # %   . 5 ^ !.#XwX:XpX*XpX:XpXsX*X:XzXpXpXvXpXsXpX*XpXuX&X-X,X].].|.].:X*X:X:X:X:X:X:X*X*X:XpXaXaXpXpX:X:XxXaXxXpX*X>Xz.R f G d.[.>X*XsX&XwX*XvXdXsX5XH s j w.0XpXmXIXZXZXZXZXZXZXZXZXZXZXZXZXZXZXZXVXVXZXVXVXVXVXZXZXZXZXZX",
"mXmXaXaXxXxXxXvXaXNXvXxXmXNXmXNXxXpXxXaXxXNXaXxXxXmXmXmXBXBXBXBXmXmXmXmXmXmXmXmXgXmXmXmXmXmXmXBXMXZXVXVXVXVXVXMXmXaXsX>Xm.a.4.k.1X1X<XW.[.+X:XxXvXzXzXaXvXcX#Xk.;.u.S.>.@.:.J a 8 8 8 8 9 v T $.l.N.N.'.}.}.+X].0Xv.v.<Xn.c.N.s.;.;.#.s.0X[.h.9Xg.M.V.+.K K K K ,.7.V.Z.D.b.s.s.c.@X[.h.h.[.'.s.8X[.v.[.N.c.c.F.k.F.k.a.b.s.1.k.a.a.p.p.s.b.b.F.D.D.b.s.g.v.].].`.'.@XD.r.;.~ Q j.d.d.7./ L b w 6 > $ $ # # # & $ $ : 9 N ) | { +.$.! M d 8 5 q C i.U.C.D.W.M.k.n.n.+X*XpXpXpXzXpXpXaXaXxXvX,XR.! q > > # #   . > U Q.#X>X+X:X*XvX:X:X:X*X:X:X*XsXcX:XpXpXpXxXuX*X-X,X&X&X*X&X:X&X:XpX:X:XpXpX:X*X:XpXxXxXxXpX:XpXzXaXmXaX:XeXM.8.h s Q D.#X,XsX*XzX*XvXdXsXrX+.s a :.4X,XmXIXZXZXMXMXZXZXZXZXZXZXVXZXZXZXZXVXVXZXZXVXVXVXVXZXZXZXZX",
"mXmXmXxXxXxXvXvXaXNXvXaXNXNXmXNXvXpXvXaXaXvXaXxXaXmXmXmXMXMXVXVXmXmXmXmXmXmXmXBXmXmXmXmXmXmXBXNXBXMXMXMXVXVXMXMXgXaXvXcX9X@Xc.p.=.s.Z.E.M.v.*XvXxXxXxXxXxXvX;Xm.#.3.Z.G.C.C.q.K a 8 4 & & 5 q v W 5.l.M.c.B.#X`.$X`.v.m.B.'.'.c.4.;.#.4.D.k.s.<Xg.B.F.l.;.W J M K W ~ 5.V.Z.Z.z.M.N.n.c.g.v.v.c.v.v.v.m.N.n.M.M.s.k.c.c.n.n.c.n.M.k.&.+.#.<.6.S.S.S.V.6.a.k.c.v.'.[.N.z.6.,.@.Q +.+.+.$.0.) Z y 7 & # # . . # > 1 9 f J { i.9.5.%.2.$.T v 8 8 d | 0.5.d.M.c.k.k.N.[.;XuXpXpXpXzXzXxXxXxXxXvX,XR./ q 4 & # .   . & m V.1X#X+X:X:XsX*X*X*X:XpXzX:XzXzX*X:XpXpXxXpX*X*XsX&X*XsX*XpXuXpXaXaXpXsXsXpX:XpXxXmXBXxXpX:XzXpXiXBXxXpXwXm.S.G a j 7.c.rX*XpXxXiXaXiXsXFXa.s 9 Y A.rXSXZXZXZXBXBXMXZXZXZXZXZXVXZXZXZXZXVXVXZXZXVXVXVXVXZXZXVXZX",
"mXmXmXmXxXxXvXvXpXvXxXaXmXmXmXNXvXpXvXaXxXNXaXxXaXgXmXmXMXMXMXMXMXMXMXMXMXMXmXmXmXmXmXmXmXmXmXNXmXmXmXmXMXMXmXgXaXNXvX*XuXGX,Xv.=.+.@.u.Z.n.+XaXxXvXbXbXxXxXsX#X;.@.x.4XB.g.G.q.L q $ # % % & > q S E 9.y.z.N.m.h.1X`.s.'.@Xc.c.c.p.4.<.@.,.r.<.D.f.s.M.D.4.;.-.J M j G Q ;.7.6.D.f.s.N.n.s.k.R.[.#X[.g.s.n.c.a.n.p.k.N.c.[.8Xv.c.M.k.4.4.>.Q Y M J Y ! :.y.r.l.M.M.k.a.p.p.4.<.Q H B T  .) n 0 & # O % # # & 0 A L ! $.2.6.4.4.l.6.:.^ V 0 8 v | :.#.1.s.g.s.c.@X%X;XsXvXxXxXvXvXvXbXxXxXxX:XR.i.q 4 # # #   . & d ;.6X#X&X:X:X:X&X*X:X:XzXvXzXcXcX:XpXpX*XzXsX&X*XsX XuXvXpXiXaXaXxXmXxXaXaXxXzXzXxXmXmXmXxXpXsXpXiXBXaXpXzX#XY.*.a a K p.9X*XsXvXgXgXiXdXdX<Xj 9 m 5.0XSXZXZXZXBXBXBXZXZXZXZXZXVXVXZXZXVXVXVXZXZXZXVXVXVXZXZXVXVX",
"NXmXmXxXvXvXvXvXpXvXxXpXxXxXxXmXvXpXxXaXxXNXaXmXNXNXMXMXMXMXMXMXMXMXMXMXMXMXmXmXmXmXmXmXmXmXNXNXBXBXBXNXNXNXmXaXmXaXvXvXvXaXaXsX`.%.H { u.Z.v.`.:XcXvXNXmXmXvX>X4.Q a.2Xs.s.<X!.q.J 8 > % . O = = 6 q ) i.w.Z.b.N.g.v.[.B.c.c.c.[.N.p.<.5.~ W -.y.A.!.M.b.M.D.C.U.8.J G H K W ~ ,.5.V.V.z.b.b.n.3Xn.s.s.k.k.c.F.a.n.c.c.n.m.n.6Xb.M.z.l.l.2.Q K j m m m B E { { @.,.6.6.6.6.2.@.} B q q b y 8 , 4 & % $ $ > e D } 8.>.<.1.p.s.k.D.4./ } ) c 8 v K 5.D.c.m.#X'.v.#X+X&XpXxXxXxXaXpXxXxXxXaXxXzX3X/.m 5 # # . +   & 9 Q 2X@X>X:X:XzXsXzXcXpXpXzXpXvXnXzXzXpX*XxXzX*XuXvXuXiXNXaXmXmXgXmXmXmXiXiXxXSXvXxXaXmXmXvXxXxXaXaXNXxXpXvXrXXXw.s 9 h 7.tXsXpXaXNXaXvXvXfXqXK a a ~ <XvXVXIXZXBXBXBXMXZXZXZXVXVXVXZXZXZXVXVXZXZXZXZXVXVXZXZXVXVX",
"pXpXvXvXzXpXpXpXvXpXpXpXaXaXaXxXuXdXsXpXxXaXpXvXaXiXaXmXgXmXmXaXMXmXmXmXmXMXmXgXmXmXmXmXxXaXxXmXxXxXaXaXaXxXxXxXaXNXxXaXvXaXaXvXfXh.#.K Y 0.w.F.g.-XuXgXmXpXcXwXg.#.7.U.3.<.m.%X3XZ.W d & . % * # & 0 b B Y #.6.M.c.c.m.v.c.s.c.h.[.n.4.A./.~ W ~ ~ 6.Q.M.n.m.s.a.Q.S.,.~ K h m a B _ Q 2.H.p.&.p.a.F.s.p.b.k.M.a.a.p.a.k.z.z.a.D.b.k.s.s.k.z.C.#.:.E N c d q q 9 f L R _ ^ ) ) D y > & & & > 8 , 9 v V m C E ! -.r.4.4.a.k.n.k.s.z.S.9.J v 9 B E.R.m.$XwX'.+XwX*XpXxXpXpXNXmXpXxXNXNXmXmXmXxX,X!.K 8 # . +   # > 9 ( 4.N.&XcX*XxXxXpXxXpX:XxXpX:XpXpXpXpXpXpXpXpXpXpXpXpXpXaXNXiXmXmXmXmXmXmXaXNXmXMXmXaXmXpXaXvXpXaXaXpXpXaX:XqXD./ f l ~ 6X-XvXzX;XzXSXaXuXqXe.s a j H.-XDXhXZXZXDXBXSXBXZXVXZXZXZXZXVXVXVXVXZXVXVXVXZXZXZXZXVXVX",
"sXsXsXsXpX:XpXxXvXsXpXaXxXxXxXvXpXdXdXsXvXdXaXvXxXaXmXNXmXNXMXmXMXmXmXmXMXMXmXmXmXmXmXmXxXxXxXxXvXvXxXxXxXxXvXvXxXNXNXxXNXmXxXNXdX&XM.#.K K / y.p.{. XiXvXpXcXwX7X&.@.P.u.3.c.rX,X8Xx.{ c > 4 7 % & 7 w q f B W q.V.Z.M.M.n.n.m.h.s.n.z.4.V.5.~ K -.@.;.Z.l.p.M.c.g.M.Z.3.q.0.M f 9 f B K Q #.S.#.;.r.3.3.a.4.4.l.d.p.p.z.z.l.l.d.a.a.f.s.s.a.4.@.:.} | D y 4 # 4 5 8 8 8 9 9 e w 4 & % = > 5 , v B _ } ~ @.;.;.r.l.a.a.k.a.n.n.c.p.4.w./ M d Y z.>X+X+X;X*X:X*XpXvXNXxXxXNXNXxXxXmXmXmXmXmXmXsX6XQ q #   o   * & , B 2.N.;XcX:XxXxXpXxXpXpXvXpXpXzXpXpXvXxXxXSXpXaXxXvXxXaXmXSXaXmXmXmXmXBXmXgXMXmXMXmXaXmXpXaXvXpXaXaXpXpXxXpXFX[.y.M f G D.=XzXvXeXzXNXmXuX7X(.M f f 7.7XdXhXVXZXBXBXbXBXVXVXVXZXZXZXVXVXVXVXZXVXVXVXZXZXZXZXVXVX",
"pX:XpX:X:XpXpXsXpXpXpXaXaXaXaXvXpXdXpXpXvXdXiXaXxXaXmXNXmXBXMXmXMXMXBXBXMXMXmXmXmXmXgXmXmXmXmXaXxXxXxXxXxXxXxXxXaXvXxXxXmXxXaXxXcX9X9Xh.+.H G ! 2.M.`.&XcXzXzXeX=Xp.W { V.x.k.<X>XrX6XZ./ f 9 , $ * 7 7 & & , q v E 8.2.4.z.b.m.m.[..Xc.M.b.4.l.V.3.@.~ W ! i.S.z.v.m.M.M.z.4.w./ Y T B h f h Y { { { :.,.>.y.y.6.l.a.a.z.z.p.d.5.q.y.S.S.y.q.:.} | V y 5 4 = %     O % $ > > > & & & $ 5 q n B ^ / 8.9.,.2.7.<.l.k.4.k.k.p.k.c.@Xk.z.S.i.Y v ! b.9X;X&X;X:XsX*XpXpXpXpXaXaXaXaXxXxXmXmXmXmXmXsX6X+.d $     . * & : f >.N.,XsX:XzXxXpXxXpXpXvXzXzXvXxXpXxXaXpXvXpXpXxXvXvXxXxXvXxXNXmXmXmXBXBXmXNXgXNXmXaXmXpXaXvXpXaXaXpXpXvXpXcX#XD.@.h s #.<X:XSXbXbXxXmXdX=XJXH f 9 Q 2XfXDXMXMXBXBXBXBXVXVXVXVXZXZXVXVXVXVXZXZXVXVXZXVXZXZXVXVX",
"*X:XpXpXsXzXpX:XpXpXpXaXpXpXaXvXpXsXpXuXdXdXiXaXxXaXmXNXmXmXNXmXMXMXBXBXMXBXmXmXNXmXgXgXmXmXmXaXaXaXxXxXxXxXxXaXaXvXxXaXxXxXaXxX,X>XdX&Xh.%.H B ~ 2.s.}.,XzXzXpX|.b.K M a.W.4.1.>XsX=X<XC.@.J 1 : $ & > * # # % $ 8 N Y ~ >.6.f.1.z.k.s.F.B.p.F.b.&.<.,.W Y E J ;.k.k.s.b.k.1.z.3.>.0.^ U J m B E ! J J K B W ! ! :.$.@.w.>.+.Q K J R ^ ^ E U N v q 6 & & # # . o o % = > , , , 8 q q q v T } 8.q.5.5.7.<.4.l.a.p.a.a.z.z.p.a.a.c.m.D.6.:.K m W N.,X;X:XcX:XpXsXvXxXxXvXvXxXxXvXaXxXxXxXmXmXmXsX7X2.d #     . * & > d q.[.FX:X:XzXaXpXxXaXpXvXpXxXvXxXpXaXpXpXxXpXpXaXvXvXaXaXxXNXNXmXmXmXBXBXmXmXaXNXaXaXvXpXaXxXpXpXxXpXaXvXsXzXrXn.A.j h H C.$XvXNXxXmXNXaX-X6XQ d 1 B C.-XNXBXBXmXmXBXMXVXVXVXVXZXZXZXZXVXZXZXZXVXVXVXVXZXZXVXVX",
"*X:XpXpXpXxXpXpXpXpXxXaXaXaXvXvXvXxXpXpXvXvXxXmXNXaXBXNXmXNXMXmXMXBXBXBXmXmXmXmXNXmXgXaXmXmXxXaXxXxXmXNXNXNXmXxXaXNXmXxXNXmXxXvX,X:XvXaXsX[.#.K B Y @.p.%XcXpXzXdX[.W J z.M.#.+.1X-X*XfX>XN.6.Y a 1 < > > & # # & & 5 g V L ^ 8.q.#.V.D.b.v.h.g.s.g.p.1.S.>.J K W Q ,.<.<.Q.Q.#.V.<.<.5.y.5.>.w.7.6.-.:.^ m N v 8 q q q v f a 9 , , 5 5 6 5 4 > & & & & 4 & $ # O % & 4 8 d N U E E / 8.,.2.1.a.C.a.a.a.f.z.M.b.a.k.s.k.k.k.x.a.s.v.M.6.2.Q J -.@XsX:XzXvXpXpXsXxXaXaXxXxXaXxXvXaXxXxXxXmXmXmXdX=Xd.v # O O . % O > a 0.<XkX*X:XpXxXpXvXxXpXvXpXpXxXaXpXvXvXvXSXxXaXxXvXvXxXxXNXNXvXmXmXmXmXmXmXmXiXmXaXaXxXpXpXxXpXsXzXpXpXxXzXvXcX'.4XQ M f 8.W.,XaXgXBXmXxXsXqXd.f 8 a Q 7XdXBXBXmXBXZXZXMXMXVXVXVXVXZXZXZXZXZXZXZXZXVXVXVXVXZXZX",
":XpXpX:XpXzXxXsXpXaXaXaXpXaXvXvXaXvXaXpXaXaXaXmXNXaXmXNXmXmXNXmXBXBXBXBXmXmXmXmXBXmXaXmXxXmXxXaXxXxXxXxXxXxXxXxXaXmXxXaXmXxXaXvXpXpXmXgXdX-Xc.5.m m U ~ c.,XpXvXuX=X;.K <.D.6.+.k.=XiXgXaX,X3XZ./ M a 2 9 8 6 4 7 & $ , 8 9 f C } :.q.w.A.G.b.c.B.b.s.l.C.y.5.>.:.~ ~ ,.4.6.d.a.z.d.l.l.z.~.x.f.f.z.6.2.~ J J V q 8 6 6 5 8 8 6 > $ # # % % O O * O O # % & & 5 5 0 d N Y / >.q.u.y.y.V.z.s.h.B.c.s.k.c.c.m.n.c.c.n.s.a.a.k.D.k.[.v.c.C.S.$.J 5.'.vXsXpXaXaXvXpXpXpXpXpXpXpXpXpXxXxXmXmXmXmXmXdX-Xz.v % O . . #   # 8 ( F.9X*X:XzXxXpXvXvXaXvXuXpXxXxXpXxXxXpXvXxXpXpXxXxXaXxXvXxXxXxXmXmXxXgXmXmXiXvXaXpXxXpXpXvXpXsXsXpXpXxXpXbXpX:X@XC.H f J V.[.iXgXBXmXmXNXkXF.J 8 8 m 5XdXmXBXBXBXZXZXBXSXMXVXVXVXZXZXZXZXZXZXVXZXVXVXVXVXZXZX",
"pXxXxXpXpXxXvXxXaXaXaXpXpXxXxXaXpXaXaXpXaXaXiXaXmXaXmXmXaXmXBXmXMXMXMXBXmXmXmXNXmXmXmXmXaXxXxXxXaXaXaXaXaXxXxXxXiXxXaXaXxXaXaXmXmXaXxXpXuXsX|.W.W N m B 4.3X*XiXuX,XM.Q P w.A.<.1.[.iXhXgXaXnX3XD.2.Q P K J m v d q q 8 8 8 1 9 2 m m j 8.u.>.U.<.#.d.G.d.d.j.#.q.q.<.7.V.#.+.G.&.a.D.a.k.2XM.g.F.H.F.f.f.j.j.y.9.( ^ ) m n Z e : $ # . . o         o % * % & 5 ) { >.w.6.d.p.1.D.b.k.s.h.v.].].v.g.c.v.v.v.v.v.[.N.s.s.s.f.z.z.v.v.s.1.w.I j >.#XvXpXpXxXaXvXaXpXxXvXxXxXNXNXxXxXmXmXmXmXmXmXaXfXW.B & *   . .   . > M b.8X,X:XzXpXpXvXvXxXNXpXxXvXxXaXxXpX*XpXxXpXpXpXxXaXaXvXvXxXxXNXNXxXaXxXvXaXvXaXpXxXpXpXcXpXpXsX:XpXzXpXbXzXzX].6X+.m f ( D.dXgXmXBXBXNXdX6X9.d 5 d Q.FXmXMXBXMXZXZXBXNXMXZXZXZXZXZXVXVXVXVXVXVXVXVXZXZXZXZX",
"*XxXvXxXsXxXvXaXNXNXvXaXxXNXSXmXpXvXvXaXmXxXaXmXNXmXBXNXmXBXMXBXMXMXMXMXMXmXBXNXmXmXNXmXaXaXxXmXmXmXxXxXxXmXmXNXaXmXxXaXvXxXxXBXZXmXxXpXaXNXsX>Xa.W m v ,.!.&XuXNX:X@X4.H W C.D.<.F.iXMXMXBXBX:X0XN.f.1.<.+.W J B ) | ) C m f 9 d 9 d 9 a B B J ^ 8.8.:.q.>.q.U.$.>.y.w.2.j.7.I w.2.w.w.7.<.7.A.6.7.Z.d.j.G.d.7.e.*.8.} v d e $ $ $ # . .       @ o O # & > w V 9.6.a.a.s.c.m.m.c.n.n.g.c.`.`.g.'.v.v.v.v.h.v.v.[.m.s.c.c.a.f.f.p.m.b.<.#.P G 5.8XdXpXNXSXuXaXSX*XzXxXpXpXvXvXpXvXNXmXmXmXmXmXaXuX5XU 4 *   . # o . & a l.1X,X*XzXpXpXxXxXxXSXaXaXNXNXvXvXxXpXpXvXxXxXvXvXvXvXvXvXxXxXNXNXxXaXxXNXxXNXxXsXzX:XpXcXpXsXsX:XpXsXpXbXbXpX:X8Xf.M a M y.9XiXiXBXZXMXgX-X(.B 6 0 w.#XaXMXMXMXZXVXNXNXMXZXZXZXZXZXVXVXVXVXVXVXVXVXVXZXZXZX",
"sXsXpXpXaXaXxXxXpXxXaXaXmXxXaXaXmXvXxXmXmXmXmXmXmXmXBXBXBXBXmXmXmXBXBXmXgXmXmXmXNXmXaXaXxXmXxXaXaXmXNXmXmXaXxXmXaXxXxXxXxXxXxXmXBXMXmXxXxXsXaXsX>XW.9.B m ;.1X&XaXNX;XM.j J J.B.V.p.*XhXZXmXIXbX:X,X7X[.k.1.;.~ -./ { :.~ W Q W m d c q 5 6 6 > 4 5 0 q c n V C T J L _ 0.8.$.*.K.0._ N v m S ) M G H K Q 8.$.W ( R C d 5 > & & $ # # # O . o O & & > < 1 f ) K.2.s.F.M.n.[.c.c.N.k.k.c.n.s.s.n.m.c.c.c.v.[.v.v.v.v.c.s.s.c.s.&.s.c.a.7.w.P J y.}.*XpXpXpXaXxXdXpXpXpXpXxXvXaXxXpXaXaXaXaXaXxXxXaX1X^ 6 =   * # @ . # d >.N.&X*XvXxXxXvXvXxXxXxXSXxXaXxXxXpXpXvX&XxXxX:XpXvXpXuXvXpXxXxXxXxXaXNX&XzXxXpXvXpX*XsXcX*X:XpX*XpXvXpXbXbXvXsXfX1X:.l d R F.-XuXmXZXZXMX*X5XP q 0 Y JXdXMXVXZXVXVXNXSXZXZXZXZXVXVXVXVXVXVXVXVXVXVXZXZXZXZX",
"pXpXpXpXaXxXvXvXaXNXmXaXmXaXiXaXaXaXaXaXmXmXxXaXgXmXmXBXmXmXmXaXmXmXBXmXmXmXmXmXmXxXaXaXaXaXaXaXxXmXmXmXmXmXmXmXxXxXxXaXxXxXxXmXBXMXmXbXvXxXaXaXdX=Xx.{ B W z.>XsXaXuXN.Y M f.B.d.p.].NXBXBXIXmXpXsXsX;X#X@XM.x.Q.l.r.r.7.3.7.5.i.....) V y 0 4 5 4 4 4 5 0 q q 9 2 2 a f s a a d d c q 0 6 8 q 9 9 a d f f f a a a 9 1 1 8 8 8 9 1 , > $ # & 5 5 8 a a l s C 8.<.a.M.c.c.m.s.k.N.c.k.M.M.M.b.M.R.m.n.m.m.[.'.'.v.v.[.N.m.M.b.p.s.k.4.2.q.K G y.7XsXvXxXaXaXxXsXpXxXzXpXxXxXxXNXvXxXxXxXmXmXmXaXiX$X{ 0 = . & #   O % 1 W !.8X:XcXpXpXxXxXxXaXxXSXxXxXvXvXpXpXvXxXpXpXzXvXpXpXvXvXpXxXxXaXxXpXxXxX&XsXxX|.&XcX*X:XvX*X&XvXzX*XvXbXbXvXsXiX,XV.J a m 6.[.:XDXMXMXMXdX8X<.d 8 M G.sXhXMXVXVXMXMXMXZXZXZXZXVXVXZXVXVXZXVXVXVXVXZXZXZXZX",
"pXpXpXpXaXaXxXvXaXxXaXaXmXmXaXmXaXaXaXaXmXmXmXmXmXmXmXBXBXmXmXmXBXBXBXBXmXmXmXBXxXxXaXaXaXaXaXxXBXmXmXmXmXmXmXmXmXxXaXaXaXxXxXmXBXBXmXmXvXmXmXmXgXsX1Xz.@.K #.4XwXpXvX1Xi.G 1.XXf.p.g.rXaXBXbXmXvXvXxXcXcXcX>X#Xs.&.%.<.%.<.3.3.6.w.5.,.9.:.W U m m m N N N f 9 , > : : > , , , : : > , 5 , 9 c d q d c q 8 8 q q f B Y / e.u.u.*._ ^ R m d a f U R ^ Y h a f R 7.a.b.b.k.c.s.k.c.k.k.k.k.n.n.n.n.n.n.n.c.v.v.v.v.c.m.N.c.c.c.s.s.k.<.#.@.G M 5.7XsXxXaXpXpXpXpXpXxXxXpXxXpXpXvXvXxXaXaXxXvXxXpXuX%X{ 0 = . # . . - - , B (.#X*XzXpXaXxXxXxXaXxXNXxXxXNXvXaXpXxXpXvXzX:XpXxXxXvXxXpXvXaXaXxXpXxXvXvXvXsXsXpXsXcXcX:X:X:X:XsXxXpXxXpXzXxXmXdX<X,.a a Q D.9XvXmXMXmXSXsXM.G 9 f ,.7XjXMXVXMXMXMXVXZXVXVXZXZXZXVXVXZXZXZXZXVXZXZXZXZXVX",
"pXpXpXaXaXaXxXxXiXaXaXaXmXmXmXNXmXmXmXmXNXNXBXmXBXBXBXBXBXBXBXmXmXBXBXBXmXmXmXBXaXxXmXxXaXaXvXNXNXmXmXmXmXBXmXmXaXaXxXxXxXxXxXxXBXBXmXmXBXBXMXMXmXvX,X#Xk.Q W V.8XsXdX-XS.Q #.G.b.s.p.@X:XbXbXbXBXBXNXbXbXvXpX:X+Xv.m.R.^.Q.E.E.z.l.1.1.Z.S.2.@.@./ :.8.0.8./ Y S V g 9 9 9 8 , q 8 8 d v m U } } ^ _ ) T S S ) C T ! @.2.7.a.p.C.S.y.q.:.W K P y.S.U.e.K h v R r.a.M.b.c.k.s.c.R.R.n.k.c.n.R.m.M.M.n.n.n.m.m.'.%Xv.'.[.m.c.N.N.M.z.6.5.>.K K u.#XuXpXpXpXpXpX:XpXxXaXpXxXpXpXxXvXxXpXaXxXvXaXpXuX#X,.q = . . # & 7 7 6 v S.v.sXzXzXaXxXvXxXxXmXNXxXaXxXxXpXpXzX*XzXpX&X:XvXvXxXpXpXxXpXaXvXaXvX*XvXsXpXvXsX*XcXvX*X:XzX*XpXnXpXvXpXxXvXaXsX3XZ.M a J w.6X,XaXMXmXSXdX8X@.f a Y F.fXmXVXBXBXVXVXZXZXVXZXZXVXVXVXZXZXZXZXVXZXZXZXVXVX",
"vXvXxXvXvXxXxXxXxXNXmXaXmXmXaXmXmXmXmXBXBXNXBXBXBXBXBXBXBXBXBXBXBXBXBXBXmXmXBXNXaXxXmXmXaXaXvXNXNXmXgXgXmXNXmXmXaXxXxXNXvXvXxXxXmXmXvXNXMXZXZXMXmXNXaXuX=Xs.Q @.F.8XuXfXN.7.Q 7.2Xg.p.a.;XsXvXxXxXbXmXmXaXmXmXaXxX:X>X3XM.x.t.3.3.6.<.#.r.y.<.>.,.@.~ Q -.;.,.,.S.S.w.w.u.P.i.{ E Y ! $.>.#.<.d.6.6.3.#.@.;.,.;.,.2.2.2.<.<.%.&.z.a.1.<.1.4.a.k.<X<X2XZ.@.H B W l.s.c.c.c.c.s.v.[.%X'.v.v.'.%Xv.n.c.c.c.m.v.v.v.#Xv.'.@Xv.c.n.N.b.x.6.5.:.H K y.=XsXaXaXaXxXxXpXxXvXxXaXvXvXaXxXxXxXxXxXxXxXvXxXvX8Xy.v 4 . # # # 7 - 7 9 i.c.sXzXpXpXvXxXxXxXmXBXxXaXaXpXpXpXzXpX:X*XsXvX:X*XvXpX:XxXpXaXvXaXvXaX*XzXvX:XpXvX:XpXvX*X&XxXsX*XvXvXpXxXvXbXzX>XW.-.h h ^ A.0XsXmXxXxXdX,XZ.G d f y.<XvXMXNXBXZXVXZXZXVXVXZXZXZXZXVXVXZXZXZXZXZXZXVXVX",
"xXxXaXaXpXaXaXaXaXmXxXaXmXmXgXNXmXmXmXmXmXmXBXmXBXBXBXBXBXBXBXBXBXBXBXBXmXmXBXNXaXxXxXxXaXaXaXmXNXmXmXmXmXmXmXmXaXxXmXNXvXvXxXxXxXmXmXBXMXZXMXMXBXBXgXiXsX@X;.W 3.<XdXdX{.M.I I 2XN.k.1.+X:XvXvXaXmXBXmXgXgXmXmXNXsXcX>X[.c.n.k.#.<.<.#.;.<.<.6.3.<.;.%.<.4.a.f.g.g.h.B..X2XF.D.!.(.(.(.!.!.<X<XW.!.F.b.F.2X4X!.f.a.a.4.<.%.<.1.c.s.s.c.m.#X>X,X,X=X#XN.<.K M K a.c.N.c.c.m.c.v.v.`.'.}.'.].`.v.v.c.c.c.v.v.v.c.v.v.v.[.c.s.s.s.a.4.<.,.Q z J 6.>XdXxXaXxXxXzXpXxXxXaXaXNXvXpXpXpXaXxXxXpXpXxXvXvX9XE.N 4 O O # $ u r & 5 } N.-XsXpXpXxXxXxXaXmXNXmXxXaXaXpXzXzXzXzXpXzXzXpX*XpXpXpXvXpXaXvXpXaXNXxXxXxXpXsXcXzXzXsX*X*XpXpXpXaXiXiXmXNXzXwXwX$XD.H a m w.KXFXpXxXpXxX-X2X+.f 9 / z.sXNXNXBXZXVXZXZXVXVXZXZXZXZXVXVXZXZXZXZXZXZXVXVX",
"xXaXpXpXpXpXaXaXiXxXgXgXNXNXmXMXmXmXmXmXmXmXBXmXBXBXBXBXBXBXBXBXBXBXBXBXmXmXmXNXaXxXxXxXaXaXaXaXmXmXBXBXmXmXmXmXxXmXxXxXxXxXvXvXxXxXMXVXZXMXBXmXMXMXMXmXsX8Xz.@.@.z.vXhXfX{.Q K D.<Xb.p.`.,XvXvXmXMXBXaXaXaXsXsXsX*XuXsXuXfXdXsXv.b.M.z.<.<.4.4.Z.Z.D.W.W.<X<X@X1X#X#X=X&X].].].`.}.m.s.s.k.s.s.c.c.c.c.N.[.@XN.5X2XW.b.p.&.1.k.#X&X;XwXFXvXvXaXaXsX-X<X6.Y m J 4.v.@Xn.n.@Xv.v.].].+X=X=X#X%X[.[.'.'.[.%X%X%X'.`.v.[.@Xn.n.c.k.M.d.6.5.@.H W S.>XdXaXaXaXxXaXuXaXxXaXaXxXaXpXpXpXpXpXpXpXpXpXpX:X>X(.B 6 % . # : ] r % > U F.*XsXpXpXaXxXxXaXmXmXmXmXxXxXzXpXpX:XGXcX:XpXzXpX:XpXpXvXaXaXvXaXaXuXvX*X|.zX:X|.sXnX*XpXzX&XpXSXpXiXiXmXbXeXeXwX;X5X+.f a W Q.8XuXzX:XcX-X7X6.f 9 m ,.>XNXBXBXMXZXZXZXVXVXVXVXZXZXVXVXVXVXZXZXZXZXVXVX",
"vXxXaXpXaXaXvXNXaXNXmXmXNXmXgXmXNXmXBXNXNXNXBXBXMXMXMXBXBXBXBXBXBXBXBXBXmXmXmXNXxXxXmXmXxXaXaXaXgXMXMXMXBXmXmXmXBXmXxXaXaXxXNXNXxXxXMXVXMXBXvXvXBXmXVXMXsX>X@X4.W ;.9XuXiX{.;.W a.1Xc.s.h.9X,XdXgXgXaXiXpXvXcXsXcXpXaXNXhXgXhXiX`.s.k.k.1.4.a.<.z.k.c.c.v.v.}.].'.`.].&X|.].|.dX].=X=X[.N.<XN.c.m.v.v.%X'.v.h.v.v.h.c.g.p.p.v.8XFXcXzXvXpXpXiXaXaXpXuX8Xz.~ B U <.k.<Xv.v.#Xm.c.$X+X+X].'.'.'.[.h.v.v.v.v.v.v.`.v.v.v.v.k.c.c.a.k.4.<.>.W M W Z.-XaXaXaXxXvXvXaXaXNXNXxXxXaXpXxXvXpXpXpXzXzXpX:X:X>X(.U 0 % . # > u # # > d C.qX,XpXpXxXmXxXxXmXaXaXmXxXvXxXpX:XzX:X:XzXvX:X:XvXpXpXvXpXzXnXxXxXpX*XpXvXpXzXzX*XzXvX:X&XzXxXpXNXiXiXmXxX;XwXwX&X>Xp.J 9 f >.F.,XcX:XvXFX=XF.j d 9 ! <XdXaXmXMXZXZXZXZXVXVXVXVXVXVXVXVXVXVXZXVXVXVXVX",
"*X*X*X:XpXpXpXpXxXaXiXxXmXaXxXNXaXaXaXxXmXmXmXmXgXgXgXgXmXmXmXmXmXmXmXmXmXmXmXxXNXxXpXpXaXxXxXxXmXmXmXBXBXBXBXBXmXBXBXmXMXBXmXMXmXmXMXMXMXBXmXmXBXBXmXxXxXzX,X1X! K a.=XfX9Xz.+.s.m.6XN.s.}.|.sXaXaXaXvXvXvXaXaXaXxXmXmXmXmXmXdXv.s.s.M.W.2XW.M.<X<X@Xv.`.+X&X].v.c.v.c.h.h.v.v.%X`.v.v.v.v.c.g.$X;X;X>XeXwX,X;X:X*X:X*X:X:XsXsXdXdXaXaXaXaXzXxXpXuXaX*Xv.x.i.J ~ 7.c.`.`.v.k.n.c.c.%X%X'.'.`.].[.v.v.m.c.h.c.h.c.v.v.m.c.s.s.k.4.<.<.:.v a @.B. XaXvXzXpXzXxXmXiXxXaXaXxXpXpXpXxXzXsX:X*X*X:XzXpX;X(.} 5 O . # $ 5 # % # b >.H.8X,XaXiXmXmXcXsXvXvXaXaXpXxXxXvXsX:X:XcXcX:X:X:X&XzXsX:XcXsX:XvXxXpXpXvX:XpXvX:XHX:XcXHXpXpXvXpXiXgXmXzXeXwXeX;X,XN.{ f 9 m q.6X=XcXpXcXcX[.:.f 9 k J.=XuXIXmXIXZXZXMXMXMXMXVXVXVXVXVXVXZXZXZXZXZXZX",
"zXsXsXpXpXsXvXvXvXxXxXmXmXmXBXBXaXaXxXxXmXmXmXmXMXBXMXBXBXNXNXNXmXmXMXBXNXmXmXmXxXaXiXpXpXaXxXxXBXBXmXBXBXMXMXMXmXMXBXmXMXMXmXMXBXBXBXBXBXBXBXBXBXmXxXbXvXvXxX>X@.Y <.<X9X=Xn.p.&.<X6Xn.p.`.=X|.vXvXaXpXpXaXmXMXmXmXmXmXmXmXmXxX].v.h.g.g.g.s.s.s.c.v.`.].+X;X+Xv.n.N.@X<X1X3X3X[.[.[.%X#X#X[.`.;X;X;X:X:XcXzXsXpXpXpXpXaXaXxXxXaXaXaXgXxXxXzXzXvXaXaX*Xh.b.S./ / ,.M.{.`.v.k.n.R.m.#X'.[.#X].}.}.v.v.'.v.c.m.v.c.[.@Xm.c.m.m.k.z.4.<.$.c d 5.1XfXaXxXzXzXzXBXMXxXvXvXaXvXaXpXxX*XpXsXzXzXpX:X:XxX:X4X{ 6 % # # > w & % # 5 L w.W.;XiXiXiXaXsX:XzXxXxXaXxXxXxXxX*XcXcX*X*X:X:X].:X|.:XcX&X:XvX*XuXNXpX*XvXsX&XcXsX&X*XpX*X*XpXuXiXgXaXsX,XwXsX:X:X@X5.B 8 a W j.}.cX:X*XsX9XS.J a s +.B.sXSXBXIXIXZXZXMXMXMXMXVXVXVXVXVXZXZXZXZXZXVX",
"cXzXzXsXpXxXvXNXxXxXmXxXmXBXNXBXxXxXxXmXmXBXBXBXBXBXmXmXBXBXBXBXBXBXMXNXMXNXmXmXmXNXNXxXxXxXvXSXBXmXmXBXBXMXMXMXmXMXBXmXMXMXmXMXBXBXMXMXMXMXMXBXBXmXmXmXNXvXvXwXr.W I p.7X9X{.c.&.k.c.8Xv.h.+X;XuXaXxXxXaXaXmXBXmXmXmXmXmXmXBXmXNXdXsX*X&X&X=X$X[.v.v.'.[.v.v.c.c.v.m.[.m.m.v.c.v.v.`.'.#X#X%X].:X:X*X*X:XsXzXzXvXxXxXaXaXaXxXmXaXmXmXmXNXxXxXaXNXvXvX&Xv.n.Q.5.K I f.[.v.v.m.n.R.m.%Xv.`.#X`.v.v.c.v.m.v.v.B.m.g.m.N.c.c.N.N.k.a.4.<.:.N m w.1XuXaXpX:X:XzXBXBXaXvXxXpXaXpXpXxXpXpXpXpXpXpXsXpXbX:XW.{ 8 $ # # > u & % # > j q.W.>XxXgXiXaXzXcXpXaXaXxXxXxXaXpX:X:X:X:XsX:X:X:XpXpX:X:XsXsX:X:XxXaXxXxXsXsXsX:XcXpXpXsXzXxXvXNXiXiXaXsXsXzXpXpX:X$XS.! d 1 M $.`.sX:X*XwXGX5X7.m s j V.8XxXZXZXIXZXZXZXZXMXVXVXVXVXZXZXZXZXZXZXZXVX",
"pXpXxXvXvXxXaXaXaXmXmXaXaXBXBXmXmXxXmXmXBXBXBXBXmXmXmXmXmXmXmXmXBXBXBXBXNXmXmXmXaXxXxXxXaXaXxXxXBXmXmXBXBXMXMXMXmXMXBXmXMXMXBXMXBXBXMXMXMXMXMXBXBXmXmXmXNXNXvXwX4X<.H Q n.9X=X'.%.<.c.tX%Xv.}.,X&XpXvXNXvXaXmXmXBXmXmXmXmXmXBXmXMXMXNXNXvXsX,X=X8X@X@X<X6X6X5XKX3X3X8X3X1X%X`.v.'.}.`.}.].%X+X+X:X:X*X*X*XpXpXpXvXvXvXaXaXxXxXmXmXmXmXmXBXmXxXxXvXxXcX&X`.[.W.l.G z #.b.h.v.@Xm.R.m.'.`.}.'.v.v.v.v.v.'.v.c.v.v.c.g.g.c.m.c.c.c.a.4.4.:.N N V.#XfXiXpX:X:XzXmXmXaXvXaXpXaXpXpXxXxXpXpXpXpXsXsXaXxX:XW./ 9 : . $ 8 Z & % & > f 0.W.>XvXmXgXxXzXcXpXaXaXaXsXpXpXaXpX*X*XcXvX:X:XcX:XvX:X*XvXsX&XsXvXuXvXSXpXpXvX*X:XpX:X:XzXzXpXvXaXaXdXsXzXxXaXiXaX=XD.,.M 1 a W B.-X&X,XcX,XrXW.! f d 8.<X:XMXZXZXZXZXZXZXZXVXCXVXVXZXZXZXZXZXZXZXVX",
"aXaXvXvXvXvXaXaXxXNXmXaXxXBXBXmXmXmXmXmXmXBXBXBXNXNXBXBXmXmXmXmXBXmXmXmXmXmXmXxXxXxXaXxXvXvXvXxXBXBXmXmXMXMXMXMXmXMXBXmXMXMXmXMXBXBXMXMXMXMXMXBXmXmXmXmXNXNXmXzX9XF.-.Q 1.1X,X=X<.;.<X9X}.>Xv.+X:XpXxXxXaXaXmXMXBXmXmXmXmXmXBXBXMXgXgXiXpX&X`.h.v.s.a.s.k.k.x.W.@X#X#X#X$X>X>X>XrXrX,X,X9XrXFXcXpXpXpXpXpXaXaXaXvXvXxXaXxXmXmXNXMXMXmXmXmXmXmXmXaXsX;X}.v.#X1Xb.Q H @.l.g.v.%Xm.%Xm.%X].].}.c.[.[.`.'.%X'.v.m.B.N.v.c.m.n.c.c.c.M.Z.6.~ f m z.7XuXaXxXzXwXcXmXmXxXvXxXpXxXsXpXvXpXpXpXxXvXxXpXuXbXcX4X:.f < # > A D & O % > 1 ( Q.>XaXgXgXmXpX:XpXaXaXiXuXuXaXpXpXcXzX:X:XzXsX*XpX&XsXvX*X:XvX:XuXNXpX*XvXpX&XpX:XpXpXpXzXsXpXpXvXaXxXsXxXaXgXgXaX&Xm.Z./ a 1 v 6.[.=X,X:X*XsX8Xr.h 8 N r.8XaXVXZXZXZXZXZXZXVXVXVXVXZXZXZXZXZXZXZXVX",
"mXmXxXaXaXaXmXmXxXmXmXaXmXmXBXmXmXmXmXmXBXmXmXmXmXmXmXmXxXxXxXxXmXmXmXxXaXaXxXxXxXxXxXxXvXvXvXxXBXMXmXmXMXMXMXMXBXMXBXmXMXMXmXMXBXBXMXMXMXMXMXMXMXmXmXmXmXmXmXpX-X[.3.~ ;.W.kX=Xl.#.@X=X].,Xs.'.*XpXxXvXvXxXmXmXmXmXmXmXmXBXBXBXDXBXmXaXcX,X;X'.m.c.s.a.p.1.<.1.g.v.v.v.`.`.`.}.`.`.].].].|.].|.xXxXxXxXxXxXxXxXmXmXxXxXmXmXNXNXVXMXmXmXmXmXmXmXxX,X`.s.c.#X,X[.@.J W 6.z.v.'.`.'.m.%X+X].}.c.N.[.v.'.[.'.'.'.m.m.@X[.c.g.c.c.s.k.z.6.Q f J D.9X*XaXxXzXeXcXxXaXpXxXsXpXxXpXpXxXsXpXaXaXdXaXaXpXxXcXW.-.M 1 # 4 ) D & . # & , m E.$XxXmXmXmXxXpXaXaXiXpXpXuXpXiXpXsXsXpXsXzXzXpX*X:XzXzX:X:XsXzXpXxXxXsXxXsXpXpXsXzXvXvXvXvXvXpXvXdXsXzXaXaXgXgXaX&X#X4XS.Y 8 8 W C.1X-X*X:XNX:X4XY 8 q { JXdXhXVXZXZXZXZXZXVXMXMXMXMXZXZXZXZXZXVXVX",
"mXmXaXaXaXaXmXBXmXaXaXxXxXxXxXNXmXmXmXmXmXmXmXmXmXmXmXaXaXaXaXaXmXmXxXaXaXxXxXxXpXpXpXpXpXpXpXiXBXMXmXmXMXMXMXMXBXMXBXmXMXBXmXMXBXBXMXMXMXMXMXmXMXMXBXBXBXBXmXxXuX}.4.@.@.z.qX=X~.#.k.8X-X-Xs.'.*XpXxXNXNXNXmXaXmXMXmXmXBXBXBXBXxXaXzXzXcXcX,X8X$X3X3X3X6X6X<X[.'.+X+X;X;X&X+X].*X*X*X:X:X:X:XuXxXmXmXBXmXmXmXmXmXmXmXBXBXBXNXBXMXMXBXmXmXmXgXaXsX;Xs.1.c.8XsX}.Q B K >.z.c.`.%Xv.'.=X].].].c.k.m.v.v.'.'.v.m.c.v.[.N.c.s.c.c.k.a.f.4.@.J ~ <X-X&XpXxXzX:X:XpXpX*XpX:X:XsXpXpXzXvXxXaXpXpXaXvXNXaX:XM.+.H a # > ` D & O O & > a S.$XcXmXMXBXvXxXpXaXaXpXuXuXpXpXxX*X*XvXvXsXpXnX&XvXpX*XvXxX*XvXNXuXvXSXuXsXSXpXpX*XsXsX:XsXcX*XaXpX:XsXaXiXgXgXdXuX,X8X2Xu.N 8 d { M.-XuXxXSX:XtXt.v q B y.qXdXMXVXVXVXVXVXVXMXMXMXMXMXZXZXZXZXVXVX",
"mXmXmXNXNXNXBXmXNXmXxXNXBXmXNXDXmXmXmXmXmXmXmXmXNXmXmXmXxXvXxXxXmXmXxXxXaXxXxXxXxXNXNXNXxXaXvXSXBXMXmXmXBXMXMXBXBXMXBXmXMXBXmXMXBXBXMXMXMXBXMXMXZXMXMXBXBXBXmXxXNX,X<X3.K +.[.0XM.a.a.N.&XFX'.v.cXsXpXpXaXxXBXBXmXmXMXMXBXBXBXmXxXvXbXvXsX*X&X+X}.].'.`.`.}.`.v.`.].*X,XFXcX:X*XvXcXsXsXpXdXvXNXmXmXmXmXmXmXmXNXBXBXNXNXNXBXmXmXmXmXmXNXmXmXaXiX:X'.p.<.n.rXdX].Q J U 8.S.k.v.#X'.$X9X}.].9XN.a.[.v.v.'.'.'.m.c.v.c.c.n.c.c.n.<XW.D.6.~ J @.1X-X:XxXvXzX;X:XpXaX*XpXpXpXzXsXpXxXpXpXxXxXxXaXxXmXxX:Xc.+.I h $ > ) ) 7 O O % & < i.R.,XxXgXgXvXvXpXpXaXsXsX:XuXuXpXxXxXpXpXxXpX*XpX&XpXsX*XpXzX*XuXdXpX*XdXpX*XsXsX*XsXcX*XsXvX*XpX*X:X:XpXiXaXxX:XcXsX|.#XQ.} q > v %.#XsXpXxXsX;X!.U c q J JX-XgXMXVXVXVXMXMXVXMXBXMXMXZXZXZXZXVXZX",
"mXmXmXmXmXgXmXmXmXmXmXmXxXxXxXNXaXaXmXmXmXmXmXmXBXmXxXxXxXvXvXNXNXxXaXaXxXmXxXaXmXxXxXxXaXaXaXxXBXBXmXMXMXBXMXMXmXMXMXBXMXBXmXMXMXBXMXMXMXMXMXMXmXMXBXBXBXBXmXmXiXvX>XM.Q K z.5XqXn.#.M.=X|.tXv.].cXvXpXNXSXmXmXMXMXMXMXBXBXNXNXBXBXBXmXmXaXaXiXpXpXpXuXuXOXOX*X&X*X:X:XuXsXsXsX&XpXaXpXuXaXNXmXaXMXMXMXmXmXMXmXmXgXaXiXiXaXmXmXmXmXxXxXxXaXaXpX>X1X<.<.4X=X*X|.4.W j K y.~.m.`.v.v.`.`.`.`.M.M.g.v.v.v.v.[.[.v.n.c.N.n.s.N.6Xs.s.z.5.W K #.`.-XpXpXpXpX;X;XpXuXsXcXpXpXsXpXpXxXpXpXaXaXxXxXmXaXSX&Xc.6.P.s > > ) A 7 O % # . 5 Y ^.9XaXmXaXpXzXxXSX*XvXcX&XvXuXpXpXpXpXpXpXpXvXpXsXxXpXxXvXpXsXdXvXvXsX:X*XuXcX&XsXsX*XpX:X&XGXxX|.sXGX&XpXHX&XFXcXpXaXsX1Xu.T 4 6 J D.7XvXpXxXcX%XE.S 0 d &.7XfXgXgXDXVXMXZXZXMXBXBXMXMXZXZXZXZXZX",
"mXmXmXgXgXgXmXmXmXmXmXmXxXxXmXNXmXmXmXmXBXNXNXNXaXmXxXxXxXxXxXxXNXmXaXaXmXmXxXaXxXxXxXxXxXxXxXxXBXmXmXMXMXmXBXMXmXMXMXBXMXBXmXMXMXBXBXMXMXMXMXMXMXBXMXBXBXBXmXmXmXdXsX$X;.W 3.!.7X[.<.a.}.|.rX+X].sXvXxXNXSXNXMXMXMXMXMXMXBXBXBXZXZXVXVXMXMXmXgXgXgXgXgXgXiXiXiXdXsXsXsXdXsXsXiXuXaXvXiXiXaXmXmXgXVXVXMXmXMXmXmXBXmXmXgXgXmXmXNXmXmXvXvXvXvXdXsX#XR.#.4.6X8XuX|.k.>.K J ~ 6.n.1X[.%X=X=X=X'.k.a.m.'.'.v.`.m.v.c.s.m.c.s.n.n.s.s.N.1.,./ H 6.FX&XsXzXxXzXeX,XpXaXpXzXpX:XpXpXpXaXaXaXaXaXxXxXmXmXxX&Xc.j.U.s 5 > D C 4 . % % . 4 R V.#X&XuXaXpXxXxX*XsX*X*XsX|.uXuXpXaXxXpXpXpXpXpXpXxXpXsXxX*X:XvX&XsXvX|.|.sX|.sXpXpX&XsXcX&XuX:XsX:X:X:X:X;X,X,XGXvXgXiX9X!.{ 6 4 v / b.=XsXpXvX>XQ.{ 8 8 P J.sXNXmXDXVXMXZXVXMXMXMXMXMXZXZXZXZXZX",
"mXmXmXmXmXmXNXNXmXmXmXmXxXxXmXNXmXmXmXxXmXmXBXNXmXmXmXNXNXvXxXaXNXNXxXmXmXNXmXxXmXxXxXxXmXxXmXmXBXmXBXMXMXBXBXMXmXMXMXBXMXMXmXMXBXBXBXBXBXBXBXMXMXMXBXBXBXmXmXxXNXaXNXrXb.~ W V.7X#X4.<.c.,XwX;X].&XsXvXvXNXMXMXMXMXMXmXBXBXBXBXZXZXVXVXVXMXMXMXgXmXmXmXmXgXaXaXvXvXvXvXvXaXaXaXaXmXNXaXaXmXmXmXMXVXVXMXmXMXmXgXBXmXmXmXmXxXaXxXxXxXxXxXxXxXsX,X@Xc.<.a.<X8XuX].s.6.~ J ! 5.z.s.c.v.}.].%X%XR.M.v.v.c.v.m.m.v.v.[.c.m.@X[.N.[.c.k.V.i.! W 7.=XvX:X:XzXzXwXwXaXaXpXzXsXsXxXxXaXvXxXxXaXaXaXxXmXvXpX=Xc.C./.h 5 & A v & . % % O 4 v 5.<X-XdXNXzXpXxXxX*XsXsX&XsXuXpXaXvXvXvXaXpX*XpXpXvXpXzXcX:XsX:XsX*X*XuXuX&XuXGX|.sXcX&XsXsX].&XsX*X&XsX,X;XrX+XwXpXiXuXuX$X;.v > 6 c >.n.vXuXxXcXyXy.q 1 s &.7XvXdXNXVXMXZXVXZXMXMXMXMXZXZXZXZXZX",
"mXmXmXmXmXmXBXBXmXmXmXmXxXxXmXNXmXmXxXxXxXmXmXmXmXmXNXNXNXvXxXaXNXNXmXmXmXmXmXmXmXxXmXxXmXmXmXmXMXBXBXMXMXBXBXMXmXDXMXBXMXMXmXMXBXmXmXBXBXBXBXMXMXBXBXBXBXmXmXxXSXmXMXvX6X3.J @.<X1Xl.#.c.rXwX:X*X].:XvXvXmXMXMXMXMXMXMXMXBXBXBXVXVXVXMXMXmXmXmXgXmXmXvXxXaXdXdXxXxXxXxXxXxXaXaXaXNXNXmXgXmXNXmXMXMXMXMXmXmXmXmXmXmXmXxXxXxXxXaXxXxXaXaXaXpX:X>X3Xk.p.n.@X9XsX}.s.C.5.W ! ,.3.1.n.'.v.v.v.v.n.c.v.g.g.v.N.m.v.m.m.s.v.@Xc.m.1Xc.p.V.{ B W 1.].vX:X:XxXxXwXwXaXiXpXxXsXsXvXxXaXvXxXaXaXaXaXaXaXaX:X,Xs.C./.h 5 & A q & O % O . & q { W.9XsXvXsX*XpXHX&XcXcX|.vXuXaXaXxXxXvXzXpXpX*XpXvXpXsXcX:XcX&XGX*X|.GXvX|.vXsX&XcXsX&X-X;X&X;X&X:X:X*X;XwX;XwX:XpXmXgXuXwXR.@.d 4 5 U 6.9XuXpXcXtXE.J 9 3 I M.9XsXaXMXMXZXVXZXZXMXMXMXZXZXZXZXZX",
"aXaXaXaXaXxXxXmXxXmXNXmXxXxXmXmXvXvXNXNXNXNXmXmXmXmXxXmXxXxXaXaXBXmXmXmXmXmXmXmXmXmXmXmXmXmXmXmXMXMXMXMXMXBXBXMXmXMXMXBXMXMXmXMXNXmXmXBXBXBXBXMXBXBXBXBXBXmXmXxXBXmXCXaX8Xx.K H l.2XF.1.k.8X,X:X:X|.:XvXvXaXMXmXVXVXVXMXMXBXBXBXBXmXmXmXmXmXmXNXxXxXxXxXzXsXsXsXxXmXBXNXNXNXBXBXmXBXNXmXmXNXMXMXmXmXmXmXBXBXBXmXmXmXBXmXNXNXNXNXbXbXxXaXxXsX,X>X1Xs.c.[.#X,X,X].h.2X(.~ M K ,.Z.c.v.[.[.R.m.m.v.@Xm.v.N.[.n.c.v.g.[.v.g.m.N.v.c.a.Q B m P z.kX X:XzXbXbXwXwXiXiXuXpXpXpXxXxXpXxXaXaXxXxXxXaXaXpXsX>Xs.z.P.m 5 $ F 0 & # O . . # 0 E Z.#X&XpXzXpXxX*XpX:X*X:X XuXpXpXpXpXaXpXpXpX*X:XpX*X:XsX:XcX:X&X-X:X*X*X*X|.&XsX:X|.,X:X`.,X,X&XsXzX*X*X;X].wX:XpXNXxX*XzX>X!.~ 8 5 9 ! b.-XpX:XrXM.,.j 3 j d.8X,XdXMXVXZXVXZXZXMXMXMXZXZXZXZXZX",
"aXaXaXaXxXxXmXmXxXmXNXmXxXxXbXmXxXxXvXvXvXmXxXgXmXmXmXxXxXxXxXmXmXmXmXmXmXmXmXmXmXmXmXmXmXmXmXmXDXMXMXMXMXBXmXMXmXMXMXBXMXBXmXMXNXmXmXNXBXBXBXBXBXBXBXBXmXmXxXxXmXMXMXiX,XW.~ M ~ D.4Xn.a.n.:XxXsX*X:XvXvXmXMXMXVXVXVXMXMXBXBXBXmXmXmXmXmXmXNXNXxXvXvXvXxXzXzXxXmXmXBXBXmXmXmXmXmXmXmXmXBXBXNXBXmXmXgXmXBXmXmXmXmXxXxXxXmXmXmXmXbXbXmXmXaXsX,X=Xv.s.v.+X;XsX,X].`.0XD.@.M M { V.k.c.v.m.M.R.%X%X[.n.n.m.m.v.c.c.[.@X#X'.m.[.[.c.p.@.B f W D.,XuX:X:XbXxXeX:XuXiXuXpXpXpXxXxXaXvXaXxXvXvXmXxXxXpXcX].h.C.0.v > $ F 0 & % O . . . 5 B V.6X-XuXcXzXzXzX:XzX:X:XpXiX*XpXpXxXxXdXpX:X:XsXzX*X:XsX*X:X*X*X*X-X-X-X*X&XsX].;X:X&X,X>X}.+XwX:X*XvXpX&X:X*XpX:X:X*X:XvX*X9Xd.f 8 : v #.1X,X:XFX[.Q.W 1 9 @.3X9XsXNXVXZXVXZXZXZXMXZXZXZXZXZXZX",
"aXaXaXaXxXxXxXvXxXmXNXmXxXxXmXmXaXpXaXaXxXxXaXaXmXmXmXmXmXNXNXNXBXBXmXmXmXmXmXmXBXmXmXmXmXmXmXmXMXBXmXMXBXmXmXBXmXMXBXmXMXBXmXBXmXxXxXmXmXmXmXBXBXBXBXBXmXmXmXxXmXMXmXxX,X<Xy.J J y.[.#Xa.p.sXvXpX:X:XpXvXNXmXMXVXVXVXMXMXBXmXmXxXaXxXmXmXmXBXBXBXBXMXMXMXMXMXMXmXmXMXMXmXmXmXgXmXmXmXBXmXmXmXmXNXmXaXmXmXmXmXmXaXaXaXaXaXaXaXxXbXbXmXmXgXpX;X#Xc.g.].-XuXcX&X].|.=Xb.#.U B Y ;.W.[.m.c.k.k.v.`.c.c.c.c.c.c.m.v.[.g.[.1Xh.v.%Xs.<.u.S d :.z.}.dX;X:XzXpX:X:XuXiXaXvXaXaXvXvXxXNXvXvXvXvXvXxXxXdX,Xv.B.D.^ v > & ] 5 & & .   . . $ d 2.6X9XsXvXsXzXUX*XGXGX*XHXaXpXpXxXvXxXxXzXzXsXzXcX:XsXcX*X*X].,X;X&X,X,X&XcXcX`.:X,X`.>XrX}.%X;X:XpXaXdXsXvXvXvXpXcXeXeXnXsX-X<X+.f , 5 G V.>XsXsX-X5Xq.8 , K F.8X,XNXVXVXZXZXZXZXZXZXZXVXVXVXVX",
"pXpXpXpXpXaXaXaXxXmXmXmXmXmXmXmXxXxXaXaXxXxXmXNXgXgXmXmXmXmXmXmXBXMXMXMXmXmXMXMXMXmXmXmXmXmXmXmXBXmXmXBXmXgXgXmXmXBXBXmXBXmXmXBXmXxXxXmXmXmXgXmXmXBXBXBXmXmXmXmXmXMXmXMXiX=XQ.~ J :.s.[.d.4.FXaX*XsX&X&XsXvXgXMXMXMXMXMXMXmXmXxXaXaXaXmXmXmXmXmXmXMXVXVXVXVXVXZXVXMXMXMXMXMXMXMXBXmXmXBXmXmXgXaXSXxXaXxXmXaXaXxXmXmXxXxXxXxXxXxXNXBXMXMXBXdX,X=Xh.h.*XsXvXvX].].fX,X[.4.Y m U 9.l.c.n.N.R.N.v.v.g.m.N.v.c.n.m.m.c.c.v.%X#Xv.h.c.7.~ N v @.F.,X*X:XzXxXxXpXsXaXiXaXvXaXpXxXxXxXvXxXxXaXaXaXaXxXcX+Xs.1XG.W f & & ] 4 & &     . . # , K z.=XuXcXcXzX:XzXzXzXxXaXmXaXaXsXpXpXpXzXvX:X:XsX:XsXcX&X&X,X].,XFX].|.sX&X].GX,X`.FX;Xh.GXtX'.zXSX XpXHX*XSXpX*XcXwX;XzXcX&XFX!.K c > 9 Y <XkXuXdX9XA.d 8 s y.<X,XNXMXZXZXZXZXVXMXZXZXZXZXVXVX",
"NXxXaXaXbXmXmXxXmXmXmXmXBXBXmXaXmXmXmXmXmXmXBXBXmXmXBXMXMXMXMXMXZXZXZXZXVXVXVXMXMXMXMXMXBXBXBXBXmXmXmXxXxXaXxXxXBXBXBXBXmXBXBXMXBXBXBXMXMXBXBXBXMXBXBXBXBXBXBXBXNXBXVXVXgXdX3XZ.J J z.4X<.#.'.kXaXdXv.v.>XzXBXZXMXMXmXgXgXiXaXaXMXMXMXMXMXMXMXMXMXZXVXMXZXVXMXVXmXmXmXmXmXmXmXmXBXmXBXNXBXmXmXxXxXxXxXxXxXmXmXmXmXmXmXmXmXxXxXxXpXvXmXmXmXvXsX;Xv.].uXaXvXpX*X:XiX*Xv.4./ U B J @.d.F.n.n.N.R.n.[.'.v.v.v.v.v.'.m.R.c.c.N.N.v.b.w._ m j %.<X8X&XcXpXpXiXxXvXsXpXxXxXxXxXxXvXvXvXmXmXxXmXvXsXpX;X0X[.[.2XP d & % r 4 $ & o   O . . > f S.{.uXcXcXcXzXmXmXxXaXmXNX XaXdX*XuXNXvX&XvX&X*X:X|.].:X,X}.,XrX].;X,X&XcX:X].cX,X].-X*X].&XcXpX*XxXpX*XvX*X*XzXcXeXeXzX:X:X>X[.S.T > > q $..XOXiX-XW.9.9 1 j 6X-XnXbXZXZXZXZXMXNXVXZXMXMXZXVX",
"NXxXxXxXxXmXmXmXBXmXmXmXBXBXmXmXBXBXBXBXMXMXMXMXmXMXMXMXVXMXMXVXMXVXVXMXMXMXMXMXmXmXmXmXBXBXBXmXmXNXmXbXxXxXxXxXBXBXBXmXmXmXBXBXBXMXMXMXMXMXBXBXMXMXMXMXMXMXMXBXmXmXVXVXhXgX,XN.W J <.(.V.%.g.9XuXpX`.m.>X:XBXMXMXMXBXmXgXgXaXvXmXMXBXBXMXMXMXMXMXZXMXMXDXMXmXMXBXBXBXBXBXBXBXBXmXmXBXBXmXmXxXxXvXxXxXxXxXmXmXmXmXmXmXmXmXxXxXxXpXpXiXiXaXaXsX;Xh.].uXaXvXpX&X*XiX*Xv.4.! B m m i.2.p.n.[.v.c.n.g.[.'.v.v.#X$X%X$Xc.R.<Xk.c.[.p.9.R f j p.7X8X>X:XpXaXaXaXaXpX:XpXpXpXpXzXzXbXxXxXxXaXaXpXpX*X&X<Xc.[.B.P d & * r 5 & & O   # . . $ 9 9.{.*XcXwXcXzXmXmXaXpXiXgXNXxXdXvXvXsXpXpX:X&X*X:X*X&X*X;X].>X,X+X;X,X&X,X*X].,X,X&X,X:X&X:XzXpXpXvXzXpXvXzX:X:XzXzXzXzX;X,X;X%XW.{ q > 5 M j. XOXsX8X^.B , a f.sXcXbXZXIXZXZXNXNXVXZXZXZXZXVX",
"mXxXxXxXxXxXmXmXBXmXmXmXBXBXBXBXBXBXBXBXBXBXBXBXBXMXMXMXMXMXMXMXZXZXVXVXVXVXVXMXBXmXmXmXmXmXmXmXmXNXmXmXxXxXmXmXmXmXBXmXmXmXBXBXBXBXBXBXBXBXBXBXBXBXBXBXBXBXBXBXmXmXMXVXMXmXsX@X;.K Q U.Q.p.1.[.&X*X+X#X;X:XBXmXBXBXmXmXgXaXaXvXmXBXBXBXBXBXMXMXmXMXBXBXDXMXmXMXmXmXBXBXBXBXBXBXmXmXmXBXmXmXxXxXbXxXxXxXxXmXBXBXBXmXmXmXmXxXxXxXsXpXuXuXiXsX:X+Xv.+XuXxXvXuX&X&XuX,Xn.<.Y B N v J >.Z.b.g.h.'.3Xn.k.c.m.[.v.'.@Xn.M.M.b.M.c.c.b.8.N 2 j f.#X#X;X:XxXvXvXaXpXsXcXsXaXxXzXzXxXbXbXxXxXaXaXpXpX*X+Xn.s.6Xb.~ m 6 7 w 5 5 & O   O . . $ 9 Q <X-XsX:XeX:XaXxXpXpXiXaXvXpXpXxXsX*X*XsX&X:X:X:X,X:X*X:X*X&X-X&X;X,X&X-X*X&X,X*X*XsX*X:X:X:X:XpXzXpXpX:XvX:X*X*X:X:X:X&X+X'.v.W.y.B 0 5 a $.B.-XsXFX6X-.2 2 +.LXzXIXIXIXZXZXMXNXMXZXZXZXZXVX",
"xXmXmXxXxXxXmXBXBXBXmXmXBXBXMXMXBXBXmXBXBXBXBXBXBXMXMXMXMXBXMXBXZXZXZXZXZXMXMXMXMXBXBXBXmXmXmXmXmXmXNXmXmXmXmXNXBXBXBXBXBXBXBXBXBXBXBXmXBXBXBXBXBXBXBXBXBXBXBXBXBXmXBXMXMXmXcX$Xz.~ J 9.(.f.#.p.#X=X>X>X+X&XNXxXxXxXxXxXaXaXaXmXMXMXMXBXBXBXBXBXmXBXBXmXMXBXmXBXmXmXBXBXBXBXmXmXmXmXmXmXmXmXxXxXmXbXxXxXmXmXBXBXBXmXmXxXxXxXxXxXzX:X*XpXsXsX;X+X`.;XsXcXvX:X+X+XsX>XM.<.! T V c a K ,.d.b.#X+Xv.W.k.s.N.N.c.c.@Xc.N.k.a.M.z.p.V.R f 1 M f.#X+X&X:XzXvXvXaXpXsXvXxXxXxXxXzXzXbXbXbXmXxXaXpXsX:X&Xs.p.6Xp.@.v 5 7 w 5 w > # . O . . # 1 M F.=X,X*X:X:XpXpX:X:XpXdX*XpXsX*X*X*XpX:X&XsX:X*X,X,X:XcX:X|.-X-X&X*X&X*X:X*X:X&X*X:X|.:X:X*X:XsX:X:X:X&XvX:X*X*X*X;X:X;X'.v.v.[.D.>.m , 8 S 6.{.sXdX>XZ.j l z KXcXDXIXZXZXZXMXMXNXMXZXZXZXZX",
"mXmXmXxXmXmXmXNXBXBXBXBXBXBXBXMXBXmXBXBXBXBXBXBXBXBXBXBXBXBXmXmXBXBXMXMXmXmXmXmXMXBXBXBXmXmXmXmXbXbXmXmXmXmXmXBXBXBXBXBXBXBXBXNXBXmXmXmXmXmXBXBXBXBXBXBXBXBXBXBXNXmXmXMXmXxXsX;X3X4.J Y A.D.#.+.W.1X>X:X|.|.vXxXvXvXvXvXvXvXmXNXNXBXBXBXBXmXBXmXmXBXBXmXBXBXmXMXBXMXBXBXBXBXBXBXmXmXmXmXmXmXmXmXNXmXmXmXmXBXBXBXBXBXmXxXxXxXxXzX,X;X:XsXcX:X+Xv.'.>X,X:XuX*X].+XFX>Xn.<.-.} S c 9 a J q.G.c.g.h.c.c.k.s.k.M.N.m.'.g.v.M.4.2.>.Y f 9 9 B k.9X,X,X:X:X:XpXpXpXpXsXpXpXaXpXpXpXzXxXxXxXaXpXpX:X-X].g.g.1X&.>.m , & 7 > u > # . O   . # , f V.1X-X*XvXzXpX:X>X+X&X&XpXcXcX:X*X*X:X*X&XsX:X*XsXsX:XcX*X|.uX:X&X&X|.*XsXuXsX*X:XsX|.*XsX*X:XsXsXuX:X*XcX:X:X:X*X;X,X;X%X$X+X+X#Xb.! 1 4 q ^ G.kXdXuX3XQ k h A.FXmXIXMXMXMXVXMXBXBXZXZXZXZX",
"mXmXxXxXmXmXBXBXBXBXBXBXBXBXBXMXBXNXNXBXBXBXBXBXBXBXBXBXBXBXmXmXBXMXMXMXBXBXBXBXmXmXmXmXmXmXmXmXmXmXmXmXmXmXmXNXmXBXBXBXmXmXmXBXmXmXmXmXmXBXBXBXBXBXBXBXBXBXBXBXBXaXmXNXmXaXsX:X9XM.Y B 6.G.2.I l.<X9XuX X XzXcXvXvXxXxXsXxXmXNXmXmXmXBXmXmXBXBXmXBXmXmXBXBXmXBXBXBXBXBXBXBXBXBXBXBXBXBXBXmXmXmXBXBXmXmXBXBXBXBXBXmXbXxXxXxXxXzX&X+X*XsXsX*X}.v.+X,X,X:X:X*X+X;XcX;Xv.p.<.8.T v 9 d N ^ :.<.a.c.c.c.k.k.k.b.n.'.`.h.h.M.j./ C d 9 9 q J b.,X,X,X:X:X:X:XpXpXpXpXpXpXaXpXpXpXpXxXaXxXxXpXpX:X-X].v.[.6Xa.P.M 8 4 & & Z > $ # O   . . > 9 $.W.=XuXaXpX:X;X#X%X&X*XsX*X*XsX:X*X*XsX|.*X:X:XsX:X*X:X:X*XsX*X&X&X|.*XcX*XsX,X,XsX*X:X,X:X:X:XsX:X:X:X:X*X:X,X&X&X&X+X%XyX;X&X&X{.6.M 4 > N u.0XdXuX9XV.H m :.tXvXZXMXMXMXVXVXBXBXZXZXZXZX",
"BXmXmXmXBXBXBXBXBXBXNXBXBXmXBXBXNXNXNXmXBXmXmXmXmXmXBXBXBXBXmXmXMXMXMXBXBXBXBXBXmXmXmXmXmXmXmXmXBXBXBXBXBXBXBXBXmXBXBXBXBXmXmXBXmXxXmXmXmXmXNXNXmXmXmXmXNXNXNXBXBXaXmXNXxXxXxXsXsX@X-.J -.S.w.Q -.E.>XsXiXuXsXcXsXzXzXpXpXpXaXmXgXmXmXmXmXmXmXmXmXBXmXxXBXmXmXBXmXmXBXBXBXBXmXmXBXBXBXBXmXBXBXBXMXBXBXBXBXBXBXBXBXBXbXxXxXxXxXpX].+X&X:X:X&X`.v.;XwXcXcXcX:X;X,XzX*X].h.a.2.( C n q 8 8 C 0.e.<.b.s.s.M.M.s.g.`.h.}.h.p.e.T 8 0 8 8 q ^ N.*X&X*XzX:X:X:XsXpXpXpXpXaXxXxXzXzXbXbXaXbXvXaXsXsX=X].v.#Xs.7.P.m 8 > & & ] > & # o       # 5 J A.#XuXiXpX:X;X$X$X:XsX*X*X*X:X:X:X:X:X:X*X:XcXsX:X:XpXpXvXcX&X*XuX|.*XcX&X:X,X:X,X:X:X;X,X*X&X:X&X&XsX*X&X&X;X&X&X&X`.R.$X&X*XuX-XF.9.q 4 y E Z.9XfXsX2X+.m U W.FXNXZXMXZXZXZXBXBXZXZXZXZX",
"BXmXmXmXBXBXBXmXmXBXNXBXBXmXmXmXmXmXmXmXmXmXmXmXmXmXBXBXBXBXmXmXBXBXBXBXmXmXmXmXBXBXBXBXNXNXNXNXBXBXBXBXBXBXBXBXBXBXMXMXBXBXBXBXxXxXmXmXmXmXNXmXmXmXmXmXNXNXNXNXBXxXBXMXNXvXNXvXvX>X4.W ! i.q.~ Y V.7XdXmXuX:X:XcXcXzXzX:XsXmXmXBXBXBXBXBXmXmXmXmXmXmXxXmXmXmXMXMXMXMXMXMXMXMXMXBXBXBXBXBXBXBXMXMXMXBXBXMXMXMXBXBXBXmXxXxXxXzXpX].].&X:X:X&X}.`.&X:XcX:XcX:X;X:XsX*X|.`.h.1.@.R n 5 & > 0 v R 9.;.l.z.a.s.b.v.f.1Xg.f.w.Y v 0 4 0 8 q { 6XfX*XzXzXzX:X:X:XpXuXuXpXaXvXxXxXxXbXBXpXxXxXpX:X:X&X`.}.0Xp.7.).B q 6 & & ' , > # X       O 4 d u.#XfXmXaX:X>X>X>XuXdX&XcXcX&X*XcX:X].GX*X:XvX:X*XzXvXuXvXsX|.uXcX|.&XcX].:X,X&X,X:X+X*XsX&X|.:X&X|.cX,X&X*X,X:X,X;X}.$X>X:XxXgX*X1XQ.B 0 0 c -.4X,XkX1X%.m f r.tX:XDXMXZXZXZXMXBXZXZXZXZX",
"BXBXBXmXmXBXBXBXBXBXBXmXmXmXmXmXaXmXmXxXaXmXBXmXNXNXBXmXmXmXBXBXmXmXmXmXmXmXmXmXmXBXBXBXBXBXBXBXBXBXBXBXBXBXBXBXBXMXBXmXMXBXmXBXmXmXxXxXxXxXxXmXaXxXxXxXxXxXxXxXaXaXmXmXxXvXvXaXaX&Xc.<.m N u.y.J ~ <XvXaXaX&X:X*XzX:X:X:XpXMXMXmXmXBXNXBXBXmXmXxXxXxXaXxXmXmXBXMXMXMXMXMXMXBXBXBXBXBXBXBXBXBXBXMXMXMXMXMXMXMXMXBXBXmXxXvXvXzXpX*X:XcXcX:X*X:X:XzXzXcXcXsX:X:XpXzX*X&X&X].s.#.K v 0 4 & > 8 d B ^ ! ,.S.D.s.p.f.7.S.0.J m f v | D q v i.0XaXpXpXzXcX:X:XsXpXvXaXvXvXNXvXvXbXbXbXmXmXxXxXvXFX;Xv.v.0Xp.r.P.N 0 Z > $ ] > $ # X @     o % q 8.5XdXgXgXsX,X>X,XuXuX*X:X:X:XsXsXsXsX:XsXpXpXsXpXpXsXpXpXuXpX:X:X:X:X|.,X:X&X;X+X].,X,X|.-X:X|.|.uX*XuX&X-X,X*X|.&X=X%X+X*XpXiXuX;X@Xy.B q c m 3.0X9X9Xn.J f W (.rXaXZXZXVXVXZXMXVXVXZXZX",
"BXBXBXmXBXBXBXBXBXBXBXBXBXBXBXBXmXBXBXxXxXmXmXaXBXmXBXmXmXmXBXBXBXBXBXBXBXBXBXBXmXmXmXBXBXmXBXBXMXMXMXMXMXBXMXBXBXMXBXmXMXBXmXBXBXNXmXmXmXmXNXBXxXmXmXmXmXmXNXNXNXNXZXMXmXvXvXaXNXvX=Xz.B v 9.u.B J k.-XsXuX|.&X:XcX:X:XsXpXMXmXmXmXBXBXNXBXmXmXmXmXmXmXmXmXNXBXMXMXMXMXMXMXMXBXMXMXBXBXBXBXBXMXBXBXMXMXBXMXBXBXBXmXmXxXvXxXzXpXpXpXsXsXpX:XpXpXaXaXsXsX:X*XpXpX:X&X|.|.}.h.&.Q T d 6 6 0 0 d v v m U 8.y.w.y.u.i.| T f 2 J i.0.) v B u.9XdXiXpXpXzX:XzXdXpXaXiXaXaXxXxXbXxXbXmXBXBXmXxXcXcX;X`.`.1Xa.S.P.B y Z 6 5  .8 : #   X @ o @ % 0 ^ F.*XgXgXsX,X,XsXgXaXpX:X:X:XpXpXpXpXpXsXpXpXaXaXpXaXpXsXcXsXuX:X:XsXcX].*X,X&X,XFX].*XGX:X&XsX&X|.vX&XuXsX&X|.:X,X+X>X:XsXxXaXdXuX=XM.@.U v d U x.#XkX0Xy.B B y.tXNXVXVXVXVXZXZXMXBXZXVX",
"MXMXBXBXBXBXBXBXBXBXBXBXBXBXBXBXmXMXMXmXmXmXBXmXmXmXBXBXmXBXBXBXBXBXBXBXBXBXBXBXBXBXBXBXBXBXBXBXMXMXMXMXMXMXMXMXBXMXMXmXMXBXmXBXmXmXmXmXmXmXBXNXmXmXmXmXmXmXBXNXNXNXZXMXmXbXbXaXvXSXdX@X! m :.U.E J 4.8XkXdX:X:X:XcX:XsXcXxXMXgXmXmXBXBXBXmXmXmXmXmXmXmXmXBXNXMXMXVXZXZXZXMXMXMXMXMXBXBXBXBXMXMXMXMXMXMXMXMXMXMXMXBXBXNXvXxXpXpXxXvXxXzXzXxXxXaXaXaXpXpX:X*XpXzXGXwX>X=X{.v.1.+.R v q b V N m m c q d v B m m v V c d f M >.Z.7.! m J y.9XaXaXvXpXvXpXxXvXaXaXiXaXaXxXxXmXmXmXmXBXmXxXaXsX:X].v.v.m.s.Z.i.N b Z , q  .9 > % O X o . O % 6 ^ F.-XgXgXpX:XsXaXgXmXpXpXpXpXpXpXpXpXpXxXaXpXxXxXaXxX*XpXxXzX:X*X:XsXcX:X&X&X:X,X*X&XsXuXsXcXpXuXpXpXpX*X*XsX:X:X:X:X:X:XpXaXvXvXvXcX,X<Xy.Y v m <.5XsXFX(.Y m W 1XvXVXVXZXZXZXZXMXNXVXVX",
"MXMXMXMXBXBXBXBXBXBXBXmXmXBXBXBXmXBXBXmXmXBXBXBXmXmXmXBXmXBXBXBXBXBXBXBXBXBXBXBXBXBXMXBXMXMXMXMXMXMXMXMXMXMXMXMXBXMXMXmXMXBXmXMXmXmXmXmXmXmXBXmXmXmXmXmXmXmXmXmXmXmXMXMXmXmXBXmXxXvXaX=Xy.Y Q u.{ J +.N.=X*X*X&X:XcX:XsXzXxXMXgXmXmXBXBXBXmXmXmXmXmXmXmXmXBXBXBXMXVXZXZXZXZXMXMXMXMXMXBXBXMXMXMXMXMXMXMXZXZXMXMXMXBXBXNXbXxXpXpXBXNXxXzXzXxXmXmXmXmXxXsX:X:XpXxX>X$X+X+X'.g.&.Q Y m d V _ } ~ Y v c q 8 8 8 8 8 6 q d Y u.C.p.s.#.K W V.,XgXxXxXxXvXaXvXmXiXmXiXgXmXmXmXBXBXBXMXMXBXmXaXsX*X].v.v.v.c.D.9.N b q 8 m ..d , > % . O # % = 6 U D.kXaXgXpXpXaXmXmXmXxXxXxXxXxXxXxXxXxXvXxXaXNXmXxXNXpXpXaXpXpXpXpXsX:XvX:X&X:X:X|.sXsX&XsXNXpXpXNXiXNX*XuXvXxXpXpXsX:XpXiXiXaXxXvXvXsXFX^.-.M h Q W.sXcX5X;.M K M.sXMXVXZXZXZXZXMXBXVXVX",
"MXMXMXMXMXMXBXBXmXmXmXmXmXmXmXmXmXBXBXBXBXBXBXBXmXmXBXBXBXMXMXMXMXMXMXMXMXMXMXMXMXMXMXMXMXMXMXMXMXMXMXMXMXBXMXMXMXZXMXBXMXMXmXMXmXmXBXBXBXBXBXBXBXBXBXBXBXBXBXBXmXmXMXBXMXMXZXBXBXvXaX,XW.#.H W P.! Q l.@X=XsXuX*XsXpXzXaXaXMXmXmXBXBXBXBXBXBXmXBXBXBXBXBXBXMXMXVXVXZXZXZXVXMXMXMXMXMXMXMXMXMXMXMXBXBXMXMXMXBXBXBXBXmXmXxXpXpXpXaXmXxXpXpXpXgXMXMXmXxXsX:X*XpXxX+X%X'.`.m.b.7.@.J B B T 8.u.V.<.J B N q 6 6 0 q d B K ,.!.n.g.m.l.+.@.Z.sXmXaXpXmXBXaXmXmXiXmXaXmXmXmXmXBXMXMXMXZXMXmXvXsX*X].}.%Xv.'.2X>.B v q m _ K.m 8 7 & # & > 6 6 6 m a.9XNXmXxXzXmXBXMXBXmXxXxXxXxXxXxXxXgXmXmXgXNXmXgXmXxXaXaXvXvXvXvXaXvXpXvXvX*X*XvXpXuXvXaXiXSXxXuXNXxXmXvXpXpXvXvX*XvXmXmXmXxXaXaXaXaXGX=Xs.#.P P 4.,XcX8XD.W I p.kXmXVXMXMXZXZXVXVXVXVX",
"MXMXMXMXMXMXBXBXmXmXmXmXmXBXmXBXBXBXBXBXBXmXmXmXmXmXBXMXMXMXMXMXMXMXMXMXMXMXMXMXBXBXBXMXMXBXBXMXVXMXMXMXMXMXBXMXMXZXMXBXMXMXmXMXmXmXBXBXBXBXBXBXBXBXBXBXBXBXBXmXmXMXBXmXBXMXMXBXBXxXpX-X9Xc.H M P.0.! ,.F.>XvXaX*XsXpXzXaXaXCXMXMXMXMXBXBXBXMXMXMXMXMXMXMXMXMXMXVXVXZXZXZXVXMXMXMXMXMXMXMXMXMXMXMXMXMXMXMXMXMXMXBXMXBXBXmXxXxXxXgXmXvXpXpXpXgXVXVXmXxXpX:X*XpXxX:X;X+X`.m.z.5.:.B B B Y >.A.M.1.Q ! T N c q d m E @.V.D.c.[.8Xv.g.%.#.b.sXmXvXaXmXMXgXgXgXgXmXaXmXmXmXmXmXMXMXZXMXmXmXaXpX*X].].=X}.=X1X#.B v 9 J 8.e.G q w 4 > 5 8 c c 8 f <.=XvXmXzXzXmXmXmXmXmXmXmXmXmXmXmXmXgXmXgXgXBXmXgXmXmXmXgXmXmXNXmXaXNXxXaXxXaXxXNXaXmXmXmXBXNXmXaXmXmXmXmXxXaXxXxXpXNXNXBXmXBXBXmXxXvXHXvX=X[.1.Q +.+XcX9X5X<.Q &.9XaXMXBXBXBXMXVXVXVXVX",
"MXMXMXMXMXMXMXBXBXBXBXBXBXBXNXNXBXMXMXMXMXBXBXMXMXMXMXMXZXVXMXMXBXBXBXBXMXMXMXMXMXMXMXMXMXMXMXMXVXMXVXMXMXMXMXVXMXZXBXBXMXMXmXMXmXBXMXMXMXMXBXBXBXBXBXBXmXmXBXmXMXMXNXxXMXZXMXmXBXxXcX*XdX7X@.M W 8.K K k.#XdXiXpXvXzXxXmXmXDXMXMXMXMXMXMXMXMXMXMXMXZXZXZXMXMXMXMXVXZXZXZXVXMXMXZXMXMXMXMXMXMXMXMXMXMXMXMXMXMXMXMXMXMXBXmXmXNXBXMXMXvXxXpXaXMXVXVXmXzX:X;X*XpXNXxXpX&X`.c.4.@.K m N B Y 7.F.n.p.+.Q $.8.8./ / @.2.d.F..Xv.=XrX`.v.&.&.M.sXmXNXNXBXZXgXMXMXgXmXaXmXMXmXmXMXMXZXZXVXmXmXxXpX*X+X+X,X].-X{.#.J v a H 9.e.K d e 6 0 9 d V S v B 4.>XdXaXpXxXmXBXbXxXmXmXmXmXMXMXBXBXmXBXmXmXMXBXmXMXMXmXmXmXMXmXmXmXgXDXiXiXDXMXiXmXDXaXMXIXmXmXDXgXZXaXmXDXNXaXxXNXgXgXmXMXVXMXBXNXzXxXaXiXfX`.#.#.v.cX9XqXF.%.%.#XsXmXBXSXBXBXVXVXVXVX",
"MXMXZXMXMXMXMXMXMXMXBXBXMXMXMXMXMXMXMXMXMXMXMXDXMXVXVXZXZXZXVXMXZXMXZXMXZXMXVXVXZXZXZXZXZXZXZXZXZXMXVXMXMXMXMXVXMXZXBXBXMXMXmXMXZXZXDXDXDXDXZXMXZXMXZXMXMXMXMXZXVXVXBXNXZXZXZXMXMXvXHXuXgXGX4.K K q.W K k.>XNXmXmXBXxXNXMXMXZXBXMXMXVXMXVXMXVXMXMXMXVXMXZXMXMXVXVXVXZXZXZXVXMXMXZXMXMXMXMXZXMXMXMXMXMXMXMXMXMXMXBXBXBXmXmXxXmXBXZXMXmXxXxXxXMXVXVXMXxXpX:XpXxXMXgXxXsX-X%Xb.<.W K G J +.z.<X].h.&.%.1.z.z.p.&.=.c.#X}.`.,X:X&X,X=Xv.c.#XdXmXNXNXMXZXVXZXZXMXNXmXCXVXVXVXVXVXZXZXZXZXMXDXvXsX:XcXFX-XdX&X1.Q J G +.D.D.#.G m h M K K / ,.! ~ k.,XvXmXvXNXMXZXBXNXMXVXVXVXVXZXZXZXMXDXMXMXDXVXMXDXVXCXDXDXVXMXVXVXDXgXVXDXmXMXDXMXMXDXBXmXDXMXgXZXMXZXDXMXmXMXDXBXMXVXVXVXZXVXMXmXSXNXmXMXNXdX<XW.'.zXvX-XLXh.f.|.dXmXBXBXBXBXVXVXVXVX",
"ZXMXZXZXMXMXMXMXMXMXMXMXMXZXZXZXVXVXVXVXZXZXVXVXVXVXVXVXVXVXVXVXVXVXVXVXVXVXVXVXZXZXZXZXZXZXZXZXZXMXZXMXMXMXMXMXBXBXBXBXMXBXMXMXZXZXZXZXZXZXVXVXZXZXZXZXVXVXVXVXVXVXZXZXZXVXZXVXMXBXNXvXNXvX+Xc.+.Q #.1.s.].vXMXMXMXMXZXZXZXZXZXZXZXZXZXZXMXZXMXZXZXZXZXZXZXZXZXVXVXVXVXZXZXZXVXVXVXZXZXZXZXZXZXZXZXZXZXZXZXMXMXMXMXMXBXBXBXBXMXZXMXMXBXBXMXMXZXMXMXBXBXBXBXMXMXBXBXNXvXcX,X#X@Xc.k.c.v.;XeXzX:X*X*X:XsXcXcX,XsXsXxXxXvXvXvXxXxXvXvXvXvXBXMXMXZXZXZXZXZXVXVXMXMXVXVXZXZXZXZXZXZXZXVXVXMXBXmXBXNXNXvXvXxXwXwX8XtXrX,X,X>X8X3X0X8X9X9X9XwXwXwXcXvXBXBXBXMXMXVXZXZXZXZXVXVXVXVXVXVXVXVXZXZXZXZXVXVXVXVXVXVXZXVXZXVXZXVXVXVXZXVXZXZXZXZXZXZXVXVXZXZXZXZXZXZXVXVXZXZXVXVXVXVXZXZXZXMXMXMXVXVXMXmXxXvXNXBXNXNXvXdXvXmXMXMXMXBXBXMXZXZXZXZX",
"ZXZXZXZXZXZXZXZXMXMXMXZXZXZXZXZXVXVXVXVXZXZXZXVXVXVXVXVXZXVXVXVXVXVXVXVXVXVXVXVXZXZXZXZXZXZXZXZXZXMXMXMXMXMXMXMXMXMXBXBXMXMXMXMXZXZXZXZXVXZXVXVXZXZXZXZXVXVXVXVXVXVXZXZXVXVXVXVXMXBXBXNXBXSXxX*Xn.b.N.[.].uXNXmXMXVXZXZXZXZXZXZXZXZXZXZXZXZXZXZXZXZXZXZXZXZXZXZXVXVXZXZXZXZXVXVXVXVXZXZXZXZXVXZXZXZXZXZXZXZXZXZXMXZXMXMXMXMXMXMXZXMXZXMXMXVXVXZXMXMXMXMXMXMXVXVXMXMXBXBXNXvXcXzX:X:X:X:XcXNXNXbXmXBXBXBXMXBXBXBXBXBXBXBXBXBXBXBXBXBXBXBXMXVXZXZXZXZXZXZXVXVXVXZXVXVXVXVXZXZXZXZXZXZXVXVXVXMXMXBXBXNXNXmXbXbXmXvXNXvXbXbXvXvXvXvXNXNXNXNXmXBXBXBXMXMXVXVXVXVXZXZXZXZXVXVXVXVXVXVXVXVXZXZXZXZXVXVXVXVXVXVXZXZXZXZXZXVXVXVXZXZXZXZXZXZXZXVXVXVXZXZXZXZXZXZXVXVXVXVXVXVXZXZXZXZXZXVXVXVXZXVXMXMXMXMXMXMXVXMXMXMXMXMXVXVXMXMXMXMXZXZXZXZX",
"ZXZXZXZXZXZXZXZXMXMXZXZXZXZXZXZXVXVXZXZXZXZXVXVXVXZXVXVXZXVXVXVXVXVXVXVXVXVXVXVXZXZXZXZXZXZXZXZXZXMXMXMXMXMXMXMXMXMXMXMXMXMXMXZXZXZXVXVXVXVXVXVXVXVXZXZXZXVXZXZXZXZXZXZXZXVXVXVXMXMXBXBXBXSXSXcX9X3X9XkXsXdXNXMXVXVXZXZXZXZXZXZXZXZXZXZXZXZXZXZXZXZXZXZXZXZXZXZXZXZXZXZXZXZXZXZXVXVXVXZXVXVXVXVXZXZXZXZXZXZXZXZXZXZXMXMXMXMXMXMXZXMXZXMXMXVXMXZXMXMXMXMXMXMXMXMXZXMXMXBXNXSXSXnXvXvXvXvXNXNXBXmXNXBXBXBXBXBXBXBXBXBXBXMXMXMXMXBXBXBXBXBXMXVXZXZXZXZXZXZXVXVXZXZXVXVXVXVXVXVXZXZXZXZXZXVXVXMXMXMXBXBXBXBXmXmXmXmXmXmXmXmXNXNXNXNXNXNXNXNXBXBXBXBXMXMXVXVXVXVXZXZXZXZXZXVXZXZXZXZXVXVXVXVXZXZXZXVXZXZXVXVXZXZXZXZXZXZXVXVXVXVXZXZXZXZXVXVXVXVXZXZXZXVXVXZXVXZXZXZXZXZXZXZXZXZXZXZXVXVXVXVXMXVXMXMXMXVXZXVXMXMXMXVXMXMXMXMXMXMXZXZXZXZX",
"ZXZXZXZXZXZXZXZXZXZXZXZXZXZXZXZXVXVXZXZXZXZXVXVXZXZXVXZXZXVXVXVXVXVXVXVXZXVXVXVXZXZXZXZXZXZXZXZXZXMXMXMXMXMXMXMXMXMXMXMXMXMXZXZXVXVXVXVXVXVXVXVXVXZXZXZXZXZXZXZXZXZXZXZXZXVXVXVXMXMXMXBXBXmXNXvXsX,XcXvXdXgXMXMXVXVXZXZXZXMXZXMXZXZXZXZXZXZXZXZXZXZXZXZXZXZXZXZXZXZXZXZXZXZXZXZXVXVXVXZXVXVXVXVXZXZXZXZXZXZXZXZXZXZXZXMXMXMXMXMXZXZXZXMXMXVXVXZXVXMXVXVXVXVXVXMXZXZXMXMXBXNXNXmXxXvXvXNXmXmXmXBXBXBXBXBXBXBXmXmXMXMXMXBXBXMXMXMXBXBXBXBXMXVXVXZXVXVXZXVXVXVXZXZXVXVXVXVXVXVXVXZXZXZXZXVXVXMXMXMXMXMXMXMXBXBXBXBXBXBXBXBXBXBXNXmXNXNXNXNXBXBXBXBXMXMXMXVXMXMXZXZXZXZXZXVXZXZXZXZXVXVXVXVXZXZXVXVXZXZXVXVXVXVXZXVXZXZXVXVXVXVXZXZXZXZXVXVXVXVXZXZXVXZXZXVXVXVXVXZXZXZXZXZXZXZXZXVXVXVXVXVXVXMXMXMXMXVXZXVXMXMXMXVXMXMXMXMXMXMXZXZXZXZX",
"ZXZXZXZXZXZXZXZXZXZXZXZXZXZXZXZXVXZXZXZXVXVXVXVXZXZXZXZXZXVXVXVXVXVXVXVXZXZXZXZXZXZXZXZXZXZXZXZXZXZXZXZXZXZXMXMXZXZXMXMXZXZXZXZXVXVXVXVXZXZXZXZXVXVXVXVXVXVXZXZXVXVXZXZXZXZXZXZXVXVXZXMXMXmXmXmXNXvXmXmXgXgXMXMXVXVXVXZXZXMXMXMXZXZXZXZXZXZXZXZXZXZXZXZXZXZXZXZXZXZXVXVXVXVXVXVXZXZXZXZXVXVXZXZXZXZXZXZXZXZXZXZXZXZXMXMXMXMXMXMXZXMXMXMXMXMXMXZXVXVXMXVXMXMXMXMXZXZXVXMXMXMXmXmXmXMXMXMXBXBXBXMXMXMXBXBXMXMXMXMXMXMXMXMXmXMXMXMXBXBXMXMXMXMXVXVXVXVXVXVXZXZXZXZXZXZXZXZXVXVXVXVXVXVXZXVXVXMXMXMXMXMXMXVXMXMXVXMXMXMXMXMXMXMXMXBXBXBXBXBXBXBXBXMXBXBXMXMXMXMXZXZXVXVXVXVXZXZXZXVXZXZXZXVXZXZXZXVXZXZXZXVXVXVXVXVXZXZXVXVXVXVXVXZXZXVXVXVXVXZXZXZXVXVXVXVXZXZXZXZXZXZXVXVXVXVXVXVXVXVXVXVXVXVXMXVXMXMXZXZXMXMXMXZXMXMXVXVXVXZXVXMXZXZX",
"ZXZXZXZXZXZXZXZXZXZXZXZXZXZXZXVXZXZXZXZXZXZXVXVXZXZXZXZXZXVXVXVXVXVXVXVXZXZXZXZXZXZXZXZXZXZXZXZXZXZXZXZXZXZXZXZXZXZXMXVXMXZXZXZXVXZXVXVXZXZXZXZXVXVXVXVXZXZXZXZXVXVXVXZXZXZXZXZXVXVXZXDXZXBXBXNXDXmXMXMXgXhXVXVXVXVXVXZXZXMXMXMXZXZXZXZXZXZXZXZXZXZXZXZXZXZXZXZXVXZXVXVXVXVXVXVXZXZXZXZXVXVXZXZXZXZXZXZXZXZXZXZXZXZXZXZXMXMXMXMXZXVXVXMXMXMXMXZXMXMXZXZXZXZXVXMXZXMXVXVXVXVXVXMXVXVXZXVXMXMXMXMXBXBXMXMXMXMXDXMXMXMXMXMXMXMXMXMXBXBXMXMXMXMXVXVXVXVXVXVXZXZXZXZXZXZXZXVXVXVXVXVXVXVXZXVXVXMXMXMXVXVXVXZXVXVXVXVXZXMXMXMXMXMXMXMXBXBXBXBXBXBXBXBXMXMXMXMXMXMXMXZXVXVXVXVXZXZXVXVXZXZXZXZXZXZXZXVXZXZXVXZXVXVXVXVXZXZXVXVXVXVXVXVXZXVXVXVXVXVXZXZXVXVXVXVXZXZXVXVXZXZXVXVXVXVXVXVXVXVXVXVXVXVXVXVXMXMXZXZXMXMXZXZXMXMXVXZXZXZXVXVXZXZX"
};
